; generated by Slic3r 1.1.7 on 2014-12-16 at 06:57:11

; perimeters extrusion width = 0.42mm
; infill extrusion width = 0.74mm
; solid infill extrusion width = 0.71mm
; top infill extrusion width = 0.71mm
; support material extrusion width = 0.42mm

G21 ; set units to millimeters
M190 S60 ; wait for bed temperature to be reached
M104 S186 ; set temperature
G28 ; home all axes Start of G Code Slic3r
 
M109 S186 ; wait for temperature to be reached
G90 ; use absolute coordinates
G92 E0
M82 ; use absolute distances for extrusion
G1 F1860.000 E-3.00000
G92 E0
G1 Z0.200 F6000.000
G1 X26.376 Y51.405 F6000.000
G1 E3.10000 F1860.000
G1 X65.476 Y31.343 E3.91302 F1200.000
G1 X66.857 Y30.823 E3.94031
G1 X68.624 Y30.381 E3.97401
G1 X70.402 Y29.987 E4.00771
G1 X72.191 Y29.643 E4.04140
G1 X73.988 Y29.347 E4.07510
G1 X75.793 Y29.101 E4.10880
G1 X77.604 Y28.904 E4.14249
G1 X79.419 Y28.757 E4.17619
G1 X81.238 Y28.660 E4.20989
G1 X83.059 Y28.613 E4.24359
G1 X84.880 Y28.615 E4.27728
G1 X124.567 Y29.704 E5.01177 F1200.000
G1 X126.579 Y29.814 E5.04905
G1 X128.394 Y29.966 E5.08275
G1 X130.205 Y30.168 E5.11645
G1 X132.009 Y30.419 E5.15015
G1 X133.613 Y30.685 E5.18024
G1 X135.592 Y31.068 E5.21753
G1 X137.370 Y31.466 E5.25124
G1 X138.964 Y31.867 E5.28164
G1 X140.916 Y32.718 E5.32103
G1 X174.946 Y54.808 E6.07160
G1 X176.605 Y56.358 E6.11361
G1 X177.629 Y58.384 E6.15561
G1 X177.893 Y60.640 E6.19762
G1 X177.683 Y61.936 E6.22191
G1 X173.524 Y77.451 E6.51907
G1 X147.734 Y166.254 E8.22983
G1 X146.730 Y168.290 E8.27183
G1 X145.085 Y169.856 E8.31384
G1 X143.003 Y170.760 E8.35584
G1 X141.542 Y170.937 E8.38307
G1 X75.049 Y171.387 E9.61323
G1 X52.416 Y171.387 E10.03194
G1 X50.181 Y170.990 E10.07395
G1 X48.218 Y169.848 E10.11595
G1 X46.769 Y168.100 E10.15796
G1 X46.143 Y166.574 E10.18846
G1 X41.942 Y150.870 E10.48922
G1 X22.240 Y58.929 E12.22875
G1 X22.160 Y56.660 E12.27075
G1 X22.866 Y54.502 E12.31276
G1 X24.271 Y52.719 E12.35476
G1 X25.626 Y51.791 E12.38514
G1 X26.320 Y51.434 E12.39959
G1 X26.489 Y51.625 F6000.000
G1 X65.589 Y31.563 E13.21261 F1200.000
G1 X66.917 Y31.063 E13.23887
G1 X68.677 Y30.622 E13.27244
G1 X70.449 Y30.230 E13.30601
G1 X72.231 Y29.887 E13.33958
G1 X74.022 Y29.592 E13.37315
G1 X75.820 Y29.347 E13.40672
G1 X77.624 Y29.151 E13.44030
G1 X79.433 Y29.004 E13.47387
G1 X81.245 Y28.907 E13.50744
G1 X83.059 Y28.860 E13.54101
G1 X84.873 Y28.862 E13.57458
G1 X124.560 Y29.951 E14.30907 F1200.000
G1 X126.559 Y30.061 E14.34611
G1 X128.367 Y30.212 E14.37968
G1 X130.171 Y30.412 E14.41325
G1 X131.968 Y30.662 E14.44682
G1 X133.573 Y30.928 E14.47691
G1 X135.539 Y31.309 E14.51396
G1 X137.310 Y31.706 E14.54754
G1 X138.904 Y32.107 E14.57794
G1 X140.781 Y32.926 E14.61583
G1 X174.811 Y55.015 E15.36640
G1 X176.433 Y56.541 E15.40759
G1 X177.416 Y58.538 E15.44879
G1 X177.637 Y60.754 E15.48998
G1 X177.444 Y61.872 E15.51097
G1 X173.287 Y77.382 E15.80803
G1 X147.497 Y166.185 E17.51878
G1 X146.505 Y168.178 E17.55998
G1 X144.877 Y169.697 E17.60117
G1 X142.819 Y170.548 E17.64236
G1 X141.540 Y170.690 E17.66617
G1 X75.049 Y171.140 E18.89630
G1 X52.416 Y171.140 E19.31501
G1 X50.225 Y170.743 E19.35620
G1 X48.313 Y169.603 E19.39739
G1 X46.921 Y167.865 E19.43859
G1 X46.382 Y166.510 E19.46555
G1 X42.183 Y150.818 E19.76608
G1 X22.482 Y58.878 E21.50561
G1 X22.411 Y56.652 E21.54680
G1 X23.125 Y54.543 E21.58799
G1 X24.533 Y52.818 E21.62918
G1 X25.738 Y52.011 E21.65603
G1 X26.433 Y51.654 E21.67048
G1 F1860.000 E18.67048
G92 E0
G1 X91.639 Y119.248 F6000.000
G1 E3.10000 F1860.000
G1 X69.045 Y101.689 E3.62939 F1200.000
G1 X69.229 Y101.152 E3.63988
G1 X91.639 Y101.152 E4.05448
G1 X91.639 Y119.185 E4.38809
G1 X91.392 Y118.743 F6000.000
G1 X69.336 Y101.602 E4.90487 F1200.000
G1 X69.406 Y101.399 E4.90883
G1 X91.392 Y101.399 E5.31559
G1 X91.392 Y118.680 E5.63528
G1 X91.213 Y119.123 F6000.000
G1 F1860.000 E2.63528
G92 E0
G1 X107.764 Y119.248 F6000.000
G1 E3.10000 F1860.000
G1 X107.764 Y101.152 E3.43478 F1200.000
G1 X130.174 Y101.152 E3.84937
G1 X130.358 Y101.689 E3.85987
G1 X107.813 Y119.209 E4.38809
G1 X108.011 Y118.743 F6000.000
G1 X108.011 Y101.399 E4.70895 F1200.000
G1 X129.997 Y101.399 E5.11571
G1 X130.067 Y101.602 E5.11967
G1 X108.061 Y118.704 E5.63528
G1 X107.601 Y118.834 F6000.000
G1 F1860.000 E2.63528
G92 E0
G1 X104.624 Y151.308 F6000.000
G1 E3.10000 F1860.000
G1 X104.624 Y157.497 E3.21449 F1200.000
G1 X107.764 Y157.497 E3.27258
G1 X107.764 Y159.437 E3.30846
G1 X107.707 Y160.086 E3.32052
G1 X107.549 Y160.672 E3.33176
G1 X107.300 Y161.200 E3.34256
G1 X106.972 Y161.656 E3.35294
G1 X106.578 Y162.029 E3.36298
G1 X106.130 Y162.307 E3.37273
G1 X105.639 Y162.481 E3.38237
G1 X105.092 Y162.544 E3.39256
G1 X94.311 Y162.544 E3.59202
G1 X93.764 Y162.481 E3.60220
G1 X93.273 Y162.307 E3.61185
G1 X92.825 Y162.029 E3.62160
G1 X92.431 Y161.656 E3.63163
G1 X92.103 Y161.200 E3.64202
G1 X91.854 Y160.672 E3.65281
G1 X91.696 Y160.086 E3.66406
G1 X91.639 Y159.437 E3.67611
G1 X91.639 Y157.497 E3.71200
G1 X94.770 Y157.497 E3.76992
G1 X94.770 Y151.308 E3.88441
G1 X91.639 Y151.308 E3.94234
G1 X91.639 Y123.942 E4.44861
G1 X62.307 Y101.152 E5.13581
G1 X60.048 Y101.152 E5.17760
G1 X60.048 Y86.853 E5.44213
G1 X139.355 Y86.853 E6.90932
G1 X139.355 Y101.152 E7.17384
G1 X137.096 Y101.152 E7.21563
G1 X107.764 Y123.942 E7.90283
G1 X107.764 Y151.308 E8.40911
G1 X104.687 Y151.308 E8.46603
G1 X104.871 Y151.555 F6000.000
G1 X104.871 Y157.250 E8.57137 F1200.000
G1 X108.011 Y157.250 E8.62946
G1 X108.011 Y159.447 E8.67012
G1 X107.951 Y160.129 E8.68277
G1 X107.782 Y160.758 E8.69483
G1 X107.514 Y161.326 E8.70645
G1 X107.159 Y161.820 E8.71769
G1 X106.730 Y162.226 E8.72862
G1 X106.238 Y162.531 E8.73933
G1 X105.695 Y162.723 E8.74998
G1 X105.107 Y162.791 E8.76095
G1 X94.296 Y162.791 E8.96094
G1 X93.708 Y162.723 E8.97191
G1 X93.165 Y162.531 E8.98256
G1 X92.673 Y162.226 E8.99327
G1 X92.244 Y161.820 E9.00420
G1 X91.889 Y161.326 E9.01544
G1 X91.621 Y160.758 E9.02706
G1 X91.452 Y160.129 E9.03912
G1 X91.392 Y159.447 E9.05177
G1 X91.392 Y157.250 E9.09243
G1 X94.523 Y157.250 E9.15036
G1 X94.523 Y151.555 E9.25570
G1 X91.392 Y151.555 E9.31363
G1 X91.392 Y124.063 E9.82223
G1 X62.222 Y101.399 E10.50563
G1 X59.801 Y101.399 E10.55042
G1 X59.801 Y86.606 E10.82410
G1 X139.602 Y86.606 E12.30043
G1 X139.602 Y101.399 E12.57411
G1 X137.181 Y101.399 E12.61890
G1 X108.011 Y124.063 E13.30230
G1 X108.011 Y151.555 E13.81090
G1 X104.934 Y151.555 E13.86782
G1 X104.451 Y151.555 F6000.000
G1 F1860.000 E10.86782
G92 E0
G1 X104.465 Y157.334 F6000.000
G1 E3.10000 F1860.000
G1 X91.799 Y144.668 E3.43139 F1200.000
G1 X91.799 Y144.318 E3.43786
G1 X104.465 Y156.984 E3.76925
G1 X104.465 Y156.634 E3.77573
G1 X91.799 Y143.968 E4.10712
G1 X91.799 Y143.618 E4.11359
G1 X104.465 Y156.284 E4.44498
G1 X104.465 Y155.934 E4.45146
G1 X91.799 Y143.268 E4.78285
G1 X91.799 Y142.918 E4.78932
G1 X104.465 Y155.584 E5.12071
G1 X104.465 Y155.234 E5.12719
G1 X91.799 Y142.568 E5.45858
G1 X91.799 Y142.218 E5.46505
G1 X104.465 Y154.884 E5.79644
G1 X104.465 Y154.534 E5.80292
G1 X91.799 Y141.868 E6.13430
G1 X91.799 Y141.518 E6.14078
G1 X104.465 Y154.184 E6.47217
G1 X104.465 Y153.834 E6.47865
G1 X91.799 Y141.168 E6.81003
G1 X91.799 Y140.818 E6.81651
G1 X104.465 Y153.484 E7.14790
G1 X104.465 Y153.134 E7.15437
G1 X91.799 Y140.467 E7.48576
G1 X91.799 Y140.117 E7.49224
G1 X104.465 Y152.784 E7.82363
G1 X104.465 Y152.434 E7.83010
G1 X91.799 Y139.767 E8.16149
G1 X91.799 Y139.417 E8.16797
G1 X104.465 Y152.084 E8.49936
G1 X104.465 Y151.733 E8.50583
G1 X91.799 Y139.067 E8.83722
G1 X91.799 Y138.717 E8.84370
G1 X104.465 Y151.383 E9.17509
G1 X104.580 Y151.149 E9.17992
G1 X91.799 Y138.367 E9.51433
G1 X91.799 Y138.017 E9.52081
G1 X104.930 Y151.149 E9.86438
G1 X105.280 Y151.149 E9.87085
G1 X91.799 Y137.667 E10.22358
G1 X91.799 Y137.317 E10.23006
G1 X105.630 Y151.149 E10.59194
G1 X105.980 Y151.149 E10.59842
G1 X91.799 Y136.967 E10.96946
G1 X91.799 Y136.617 E10.97594
G1 X106.330 Y151.149 E11.35614
G1 X106.680 Y151.149 E11.36262
G1 X91.799 Y136.267 E11.75198
G1 X91.799 Y135.917 E11.75845
G1 X107.031 Y151.149 E12.15697
G1 X107.381 Y151.149 E12.16345
G1 X91.799 Y135.567 E12.57112
G1 X91.799 Y135.217 E12.57760
G1 X107.604 Y151.023 E12.99113
G1 X107.604 Y150.673 E12.99761
G1 X91.799 Y134.867 E13.41114
G1 X91.799 Y134.517 E13.41762
G1 X107.604 Y150.323 E13.83115
G1 X107.604 Y149.973 E13.83763
G1 X91.799 Y134.167 E14.25116
G1 X91.799 Y133.817 E14.25764
G1 X107.604 Y149.623 E14.67117
G1 X107.604 Y149.273 E14.67765
G1 X91.799 Y133.467 E15.09118
G1 X91.799 Y133.117 E15.09766
G1 X107.604 Y148.923 E15.51119
G1 X107.604 Y148.572 E15.51767
G1 X91.799 Y132.767 E15.93120
G1 X91.799 Y132.417 E15.93768
G1 X107.604 Y148.222 E16.35121
G1 X107.604 Y147.872 E16.35769
G1 X91.799 Y132.066 E16.77122
G1 X91.799 Y131.716 E16.77770
G1 X107.604 Y147.522 E17.19123
G1 X107.604 Y147.172 E17.19771
G1 X91.799 Y131.366 E17.61124
G1 X91.799 Y131.016 E17.61772
G1 X107.604 Y146.822 E18.03125
G1 X107.604 Y146.472 E18.03773
G1 X91.799 Y130.666 E18.45126
G1 X91.799 Y130.316 E18.45774
G1 X107.604 Y146.122 E18.87127
G1 X107.604 Y145.772 E18.87775
G1 X91.799 Y129.966 E19.29128
G1 X91.799 Y129.616 E19.29776
G1 X107.604 Y145.422 E19.71129
G1 X107.604 Y145.072 E19.71777
G1 X91.799 Y129.266 E20.13130
G1 X91.799 Y128.916 E20.13778
G1 X107.604 Y144.722 E20.55131
G1 X107.604 Y144.372 E20.55779
G1 X91.799 Y128.566 E20.97132
G1 X91.799 Y128.216 E20.97780
G1 X107.604 Y144.022 E21.39133
G1 X107.604 Y143.672 E21.39781
G1 X91.799 Y127.866 E21.81134
G1 X91.799 Y127.516 E21.81782
G1 X107.604 Y143.322 E22.23135
G1 X107.604 Y142.972 E22.23783
G1 X91.799 Y127.166 E22.65136
G1 X91.799 Y126.816 E22.65784
G1 X107.604 Y142.622 E23.07137
G1 X107.604 Y142.272 E23.07785
G1 X91.799 Y126.466 E23.49139
G1 X91.799 Y126.116 E23.49786
G1 X107.604 Y141.922 E23.91140
G1 X107.604 Y141.572 E23.91787
G1 X91.799 Y125.766 E24.33141
G1 X91.799 Y125.416 E24.33788
G1 X107.604 Y141.222 E24.75142
G1 X107.604 Y140.872 E24.75789
G1 X91.799 Y125.066 E25.17143
G1 X91.799 Y124.716 E25.17790
G1 X107.604 Y140.522 E25.59144
G1 X107.604 Y140.171 E25.59791
G1 X91.799 Y124.366 E26.01145
G1 X91.799 Y124.016 E26.01792
G1 X107.604 Y139.821 E26.43146
G1 X107.604 Y139.471 E26.43793
G1 X73.435 Y105.302 E27.33192
G1 X75.006 Y106.523 F6000.000
G1 X107.604 Y139.121 E28.18481 F1200.000
G1 F1860.000 E25.18481
G92 E0
G1 X107.604 Y135.271 F6000.000
G1 E3.10000 F1860.000
G1 X91.799 Y119.465 E3.51353 F1200.000
G1 X91.799 Y119.115 E3.52001
G1 X107.604 Y134.921 E3.93354
G1 X107.604 Y134.571 E3.94002
G1 X91.799 Y118.765 E4.35355
G1 X90.714 Y118.730 F6000.000
G1 X107.604 Y135.621 E4.79548 F1200.000
G1 X107.604 Y135.971 E4.80195
G1 X89.143 Y117.509 E5.28497
G1 X87.572 Y116.289 F6000.000
G1 X107.604 Y136.321 E5.80908 F1200.000
G1 X107.604 Y136.671 E5.81556
G1 X86.001 Y115.068 E6.38077
G1 X84.430 Y113.847 F6000.000
G1 X107.604 Y137.021 E6.98708 F1200.000
G1 X107.604 Y137.371 E6.99356
G1 X82.860 Y112.626 E7.64096
G1 X81.289 Y111.406 F6000.000
G1 X107.604 Y137.721 E8.32946 F1200.000
G1 X107.604 Y138.071 E8.33594
G1 X79.718 Y110.185 E9.06554
G1 X78.147 Y108.964 F6000.000
G1 X107.604 Y138.421 E9.83623 F1200.000
G1 X107.604 Y138.771 E9.84271
G1 X76.576 Y107.743 E10.65450
G1 F1860.000 E7.65450
G92 E0
G1 X73.856 Y109.924 F6000.000
G1 E3.10000 F1860.000
G1 X60.207 Y96.275 E3.45710 F1200.000
G1 X60.207 Y95.925 E3.46358
G1 X75.426 Y111.143 E3.86174
G1 X76.995 Y112.363 F6000.000
G1 X60.207 Y95.575 E4.30097 F1200.000
G1 X60.207 Y95.225 E4.30745
G1 X78.565 Y113.582 E4.78774
G1 X80.134 Y114.802 F6000.000
G1 X60.207 Y94.875 E5.30909 F1200.000
G1 X60.207 Y94.525 E5.31557
G1 X81.704 Y116.021 E5.87798
G1 X83.273 Y117.241 F6000.000
G1 X60.207 Y94.175 E6.48146 F1200.000
G1 X60.207 Y93.825 E6.48794
G1 X84.843 Y118.460 E7.13248
G1 X86.412 Y119.679 F6000.000
G1 X60.207 Y93.475 E7.81809 F1200.000
G1 X60.207 Y93.124 E7.82456
G1 X87.982 Y120.899 E8.55123
G1 X89.551 Y122.118 F6000.000
G1 X70.293 Y102.860 E9.05508 F1200.000
G1 X68.939 Y101.506 F6000.000
G1 X60.207 Y92.774 E9.28353 F1200.000
G1 X60.207 Y92.424 E9.29001
G1 X69.029 Y101.246 E9.52080
G1 X69.126 Y100.993 E9.52581
G1 X60.207 Y92.074 E9.75914
G1 X60.207 Y91.724 E9.76562
G1 X69.476 Y100.993 E10.00811
G1 X69.826 Y100.993 E10.01459
G1 X60.207 Y91.374 E10.26624
G1 X60.207 Y91.024 E10.27271
G1 X70.176 Y100.993 E10.53352
G1 X70.526 Y100.993 E10.54000
G1 X60.207 Y90.674 E10.80996
G1 X60.207 Y90.324 E10.81644
G1 X70.876 Y100.993 E11.09556
G1 X71.226 Y100.993 E11.10204
G1 X60.207 Y89.974 E11.39032
G1 X60.207 Y89.624 E11.39680
G1 X71.576 Y100.993 E11.69424
G1 X71.926 Y100.993 E11.70072
G1 X60.207 Y89.274 E12.00732
G1 X60.207 Y88.924 E12.01379
G1 X72.276 Y100.993 E12.32955
G1 X72.626 Y100.993 E12.33603
G1 X60.207 Y88.574 E12.66094
G1 X60.207 Y88.224 E12.66742
G1 X72.976 Y100.993 E13.00149
G1 X73.326 Y100.993 E13.00797
G1 X60.207 Y87.874 E13.35120
G1 X60.207 Y87.524 E13.35768
G1 X73.676 Y100.993 E13.71007
G1 X74.026 Y100.993 E13.71654
G1 X60.207 Y87.174 E14.07809
G1 X60.396 Y87.012 E14.08268
G1 X74.376 Y100.993 E14.44845
G1 X74.726 Y100.993 E14.45493
G1 X60.746 Y87.012 E14.82070
G1 X61.096 Y87.012 E14.82717
G1 X75.077 Y100.993 E15.19294
G1 X75.427 Y100.993 E15.19942
G1 X61.446 Y87.012 E15.56519
G1 X61.796 Y87.012 E15.57167
G1 X75.777 Y100.993 E15.93743
G1 X76.127 Y100.993 E15.94391
G1 X62.146 Y87.012 E16.30968
G1 X62.496 Y87.012 E16.31616
G1 X76.477 Y100.993 E16.68192
G1 X76.827 Y100.993 E16.68840
G1 X62.846 Y87.012 E17.05417
G1 X63.196 Y87.012 E17.06065
G1 X77.177 Y100.993 E17.42641
G1 X77.527 Y100.993 E17.43289
G1 X63.547 Y87.012 E17.79866
G1 X63.897 Y87.012 E17.80514
G1 X77.877 Y100.993 E18.17090
G1 X78.227 Y100.993 E18.17738
G1 X64.247 Y87.012 E18.54315
G1 X64.597 Y87.012 E18.54963
G1 X78.577 Y100.993 E18.91539
G1 X78.927 Y100.993 E18.92187
G1 X64.947 Y87.012 E19.28764
G1 X65.297 Y87.012 E19.29412
G1 X79.277 Y100.993 E19.65988
G1 X79.627 Y100.993 E19.66636
G1 X65.647 Y87.012 E20.03213
G1 X65.997 Y87.012 E20.03861
G1 X79.977 Y100.993 E20.40438
G1 X80.327 Y100.993 E20.41085
G1 X66.347 Y87.012 E20.77662
G1 X66.697 Y87.012 E20.78310
G1 X80.677 Y100.993 E21.14887
G1 X81.027 Y100.993 E21.15534
G1 X67.047 Y87.012 E21.52111
G1 X67.397 Y87.012 E21.52759
G1 X81.377 Y100.993 E21.89336
G1 X81.727 Y100.993 E21.89983
G1 X67.747 Y87.012 E22.26560
G1 X68.097 Y87.012 E22.27208
G1 X82.077 Y100.993 E22.63785
G1 X82.427 Y100.993 E22.64432
G1 X68.447 Y87.012 E23.01009
G1 X68.797 Y87.012 E23.01657
G1 X82.777 Y100.993 E23.38234
G1 X83.127 Y100.993 E23.38881
G1 X69.147 Y87.012 E23.75458
G1 X69.497 Y87.012 E23.76106
G1 X83.478 Y100.993 E24.12683
G1 X83.828 Y100.993 E24.13330
G1 X69.847 Y87.012 E24.49907
G1 X70.197 Y87.012 E24.50555
G1 X84.178 Y100.993 E24.87132
G1 X84.528 Y100.993 E24.87779
G1 X70.547 Y87.012 E25.24356
G1 X70.897 Y87.012 E25.25004
G1 X84.878 Y100.993 E25.61581
G1 X85.228 Y100.993 E25.62228
G1 X71.247 Y87.012 E25.98805
G1 X71.597 Y87.012 E25.99453
G1 X85.578 Y100.993 E26.36030
G1 X85.928 Y100.993 E26.36677
G1 X71.948 Y87.012 E26.73254
G1 X72.298 Y87.012 E26.73902
G1 X86.278 Y100.993 E27.10479
G1 X86.628 Y100.993 E27.11126
G1 X72.648 Y87.012 E27.47703
G1 X72.998 Y87.012 E27.48351
G1 X86.978 Y100.993 E27.84928
G1 X87.328 Y100.993 E27.85575
G1 X73.348 Y87.012 E28.22152
G1 X73.698 Y87.012 E28.22800
G1 X87.678 Y100.993 E28.59377
G1 X88.028 Y100.993 E28.60024
G1 X74.048 Y87.012 E28.96601
G1 X74.398 Y87.012 E28.97249
G1 X88.378 Y100.993 E29.33826
G1 X88.728 Y100.993 E29.34473
G1 X74.748 Y87.012 E29.71050
G1 X75.098 Y87.012 E29.71698
G1 X89.078 Y100.993 E30.08275
G1 X89.428 Y100.993 E30.08922
G1 X75.448 Y87.012 E30.45499
G1 X75.798 Y87.012 E30.46147
G1 X89.778 Y100.993 E30.82724
G1 X90.128 Y100.993 E30.83371
G1 X76.148 Y87.012 E31.19948
G1 X76.498 Y87.012 E31.20596
G1 X90.478 Y100.993 E31.57173
G1 X90.828 Y100.993 E31.57820
G1 X76.848 Y87.012 E31.94397
G1 X77.198 Y87.012 E31.95045
G1 X91.178 Y100.993 E32.31622
G1 X91.528 Y100.993 E32.32269
G1 X77.548 Y87.012 E32.68846
G1 X77.898 Y87.012 E32.69494
G1 X107.604 Y116.719 E33.47215
G1 X107.604 Y116.369 E33.47862
G1 X78.248 Y87.012 E34.24668
G1 X78.598 Y87.012 E34.25315
G1 X107.604 Y116.019 E35.01205
G1 X107.604 Y115.669 E35.01852
