; generated by Slic3r 1.1.7 on 2014-12-06 at 13:36:25

; perimeters extrusion width = 0.42mm
; infill extrusion width = 0.74mm
; solid infill extrusion width = 0.71mm
; top infill extrusion width = 0.71mm
; support material extrusion width = 0.42mm

G21 ; set units to millimeters
M190 S60 ; wait for bed temperature to be reached
M104 S186 ; set temperature
G28 ; home all axes
M109 S186 ; wait for temperature to be reached
G90 ; use absolute coordinates
G92 E0
M82 ; use absolute distances for extrusion
M106 S127
G1 F1860.000 E-3.00000
G92 E0
G1 Z0.200 F6000.000
G1 X60.736 Y67.869 F6000.000
G1 E3.10000 F1860.000
G1 X61.564 Y67.271 E3.11890 F1200.000
G1 X88.562 Y48.861 E3.72343
G1 X104.799 Y39.480 E4.07035
G1 X105.212 Y39.266 E4.07896
G1 X105.906 Y38.975 E4.09288
G1 X106.319 Y38.838 E4.10094
G1 X107.120 Y38.637 E4.11620
G1 X107.815 Y38.530 E4.12923
G1 X108.766 Y38.486 E4.14684
G1 X109.477 Y38.524 E4.16000 F1200.000
G1 X111.016 Y38.702 E4.18867
G1 X112.405 Y38.946 E4.21476
G1 X114.065 Y39.354 E4.24638
G1 X115.221 Y39.711 E4.26877
G1 X116.852 Y40.326 E4.30101
G1 X118.172 Y40.927 E4.32785
G1 X119.785 Y41.800 E4.36178
G1 X120.954 Y42.532 E4.38730
G1 X122.149 Y43.385 E4.41445
G1 X123.501 Y44.493 E4.44680
G1 X124.682 Y45.608 E4.47684
G1 X125.556 Y46.532 E4.50037
G1 X126.731 Y47.957 E4.53454
G1 X127.481 Y48.989 E4.55814
G1 X127.693 Y49.313 E4.56531
G1 X128.038 Y49.923 E4.57827
G1 X128.342 Y50.596 E4.59193
G1 X128.560 Y51.215 E4.60407
G1 X128.648 Y51.527 E4.61007
G1 X147.504 Y126.211 E6.03509
G1 X147.663 Y126.997 E6.04993
G1 X147.741 Y127.754 E6.06401
G1 X148.163 Y137.265 E6.24013
G1 X147.729 Y147.070 E6.42171
G1 X147.634 Y147.816 E6.43563
G1 X147.465 Y148.567 E6.44987
G1 X147.259 Y149.203 E6.46223
G1 X147.066 Y149.685 E6.47185
G1 X146.738 Y150.343 E6.48544
G1 X146.439 Y150.838 E6.49615
G1 X145.518 Y152.118 E6.52532
G1 X144.410 Y153.454 E6.55743
G1 X143.414 Y154.506 E6.58423
G1 X142.082 Y155.732 E6.61771
G1 X140.858 Y156.713 E6.64674
G1 X139.811 Y157.457 E6.67049
G1 X138.584 Y158.226 E6.69730
G1 X137.030 Y159.065 E6.72996
G1 X135.458 Y159.768 E6.76182
G1 X133.988 Y160.312 E6.79081
G1 X132.673 Y160.712 E6.81624
G1 X131.265 Y161.050 E6.84303
G1 X129.531 Y161.345 E6.87557
G1 X128.175 Y161.489 E6.90080
G1 X127.828 Y161.508 E6.90723
G1 X127.090 Y161.504 E6.92088
G1 X126.347 Y161.430 E6.93469
G1 X125.712 Y161.311 E6.94664
G1 X125.337 Y161.213 E6.95381
G1 X124.727 Y161.017 E6.96567
G1 X56.752 Y135.517 E8.30879
G1 X56.418 Y135.368 E8.31556
G1 X55.288 Y134.716 E8.33971
G1 X54.992 Y134.501 E8.34648
G1 X54.021 Y133.627 E8.37065
G1 X53.776 Y133.354 E8.37743
G1 X53.003 Y132.290 E8.40175
G1 X52.825 Y131.981 E8.40835
G1 X52.294 Y130.788 E8.43251
G1 X52.181 Y130.440 E8.43927
G1 X51.909 Y129.162 E8.46345
G1 X51.837 Y128.146 E8.48230
G1 X51.871 Y122.995 E8.57759
G1 X56.958 Y74.411 E9.48132
G1 X57.230 Y73.133 E9.50548
G1 X57.489 Y72.337 E9.52097
G1 X58.020 Y71.145 E9.54511
G1 X58.438 Y70.420 E9.56060
G1 X59.205 Y69.364 E9.58474
G1 X59.765 Y68.742 E9.60023
G1 X60.689 Y67.911 E9.62322
G1 F1860.000 E6.62322
G92 E0
G1 X133.032 Y115.776 F6000.000
G1 E3.10000 F1860.000
G1 X109.363 Y115.776 E3.53789 F1200.000
G1 X109.363 Y86.015 E4.08845
G1 X112.729 Y86.015 E4.15073
G1 X112.729 Y110.072 E4.59579
G1 X112.778 Y110.534 E4.60438
G1 X112.847 Y110.795 E4.60937
G1 X113.037 Y111.224 E4.61805
G1 X113.184 Y111.450 E4.62304
G1 X113.497 Y111.799 E4.63172
G1 X113.688 Y111.955 E4.63628
G1 X113.894 Y112.090 E4.64084
G1 X114.114 Y112.203 E4.64540
G1 X114.343 Y112.292 E4.64996
G1 X114.581 Y112.357 E4.65452
G1 X114.825 Y112.396 E4.65908
G1 X115.066 Y112.409 E4.66356
G1 X133.032 Y112.409 E4.99593
G1 X133.032 Y115.713 E5.05704
G1 X133.280 Y116.023 F6000.000
G1 X109.116 Y116.023 E5.50407 F1200.000
G1 X109.116 Y85.768 E6.06379
G1 X112.976 Y85.768 E6.13521
G1 X112.976 Y110.066 E6.58473
G1 X113.021 Y110.492 E6.59265
G1 X113.080 Y110.715 E6.59691
G1 X113.255 Y111.107 E6.60485
G1 X113.380 Y111.300 E6.60912
G1 X113.668 Y111.619 E6.61706
G1 X113.838 Y111.758 E6.62114
G1 X114.219 Y111.979 E6.62927
G1 X114.637 Y112.116 E6.63741
G1 X115.073 Y112.162 E6.64552
G1 X133.280 Y112.162 E6.98235
G1 X133.280 Y115.960 E7.05260
G1 X132.916 Y115.813 F6000.000
G1 F1860.000 E4.05260
G92 E0
G1 X132.583 Y112.569 F6000.000
G1 E3.10000 F1860.000
G1 X132.873 Y112.859 E3.10759 F1200.000
G1 X132.873 Y113.211 E3.11411
G1 X132.231 Y112.569 E3.13091
G1 X131.878 Y112.569 E3.13743
G1 X132.873 Y113.563 E3.16345
G1 X132.873 Y113.916 E3.16997
G1 X131.526 Y112.569 E3.20521
G1 X131.174 Y112.569 E3.21173
G1 X132.873 Y114.268 E3.25618
G1 X132.873 Y114.620 E3.26270
G1 X130.822 Y112.569 E3.31637
G1 X130.469 Y112.569 E3.32289
G1 X132.873 Y114.972 E3.38578
G1 X132.873 Y115.325 E3.39230
G1 X130.117 Y112.569 E3.46440
G1 X129.765 Y112.569 E3.47092
G1 X132.813 Y115.616 E3.55066
G1 X132.460 Y115.616 E3.55718
G1 X129.413 Y112.569 E3.63692
G1 X129.060 Y112.569 E3.64343
G1 X132.108 Y115.616 E3.72317
G1 X131.756 Y115.616 E3.72969
G1 X128.708 Y112.569 E3.80943
G1 X128.356 Y112.569 E3.81595
G1 X131.403 Y115.616 E3.89569
G1 X131.051 Y115.616 E3.90220
G1 X128.003 Y112.569 E3.98194
G1 X127.651 Y112.569 E3.98846
G1 X130.699 Y115.616 E4.06820
G1 X130.347 Y115.616 E4.07472
G1 X127.299 Y112.569 E4.15446
G1 X126.947 Y112.569 E4.16097
G1 X129.994 Y115.616 E4.24071
G1 X129.642 Y115.616 E4.24723
G1 X126.594 Y112.569 E4.32697
G1 X126.242 Y112.569 E4.33349
G1 X129.290 Y115.616 E4.41323
G1 X128.938 Y115.616 E4.41974
G1 X125.890 Y112.569 E4.49948
G1 X125.537 Y112.569 E4.50600
G1 X128.585 Y115.616 E4.58574
G1 X128.233 Y115.616 E4.59226
G1 X125.185 Y112.569 E4.67200
G1 X124.833 Y112.569 E4.67851
G1 X127.881 Y115.616 E4.75825
G1 X127.528 Y115.616 E4.76477
G1 X124.481 Y112.569 E4.84451
G1 X124.128 Y112.569 E4.85103
G1 X127.176 Y115.616 E4.93077
G1 X126.824 Y115.616 E4.93728
G1 X123.776 Y112.569 E5.01702
G1 X123.424 Y112.569 E5.02354
G1 X126.472 Y115.616 E5.10328
G1 X126.119 Y115.616 E5.10980
G1 X123.072 Y112.569 E5.18954
G1 X122.719 Y112.569 E5.19605
G1 X125.767 Y115.616 E5.27579
G1 X125.415 Y115.616 E5.28231
G1 X122.367 Y112.569 E5.36205
G1 X122.015 Y112.569 E5.36857
G1 X125.062 Y115.616 E5.44831
G1 X124.710 Y115.616 E5.45482
G1 X121.662 Y112.569 E5.53456
G1 X121.310 Y112.569 E5.54108
G1 X124.358 Y115.616 E5.62082
G1 X124.006 Y115.616 E5.62734
G1 X120.958 Y112.569 E5.70708
G1 X120.606 Y112.569 E5.71359
G1 X123.653 Y115.616 E5.79333
G1 X123.301 Y115.616 E5.79985
G1 X120.253 Y112.569 E5.87959
G1 X119.901 Y112.569 E5.88611
G1 X122.949 Y115.616 E5.96585
G1 X122.597 Y115.616 E5.97236
G1 X119.549 Y112.569 E6.05210
G1 X119.196 Y112.569 E6.05862
G1 X122.244 Y115.616 E6.13836
G1 X121.892 Y115.616 E6.14488
G1 X118.844 Y112.569 E6.22462
G1 X118.492 Y112.569 E6.23113
G1 X121.540 Y115.616 E6.31087
G1 X121.187 Y115.616 E6.31739
G1 X118.140 Y112.569 E6.39713
G1 X117.787 Y112.569 E6.40365
G1 X120.835 Y115.616 E6.48339
G1 X120.483 Y115.616 E6.48990
G1 X117.435 Y112.569 E6.56964
G1 X117.083 Y112.569 E6.57616
G1 X120.131 Y115.616 E6.65590
G1 X119.778 Y115.616 E6.66242
G1 X116.731 Y112.569 E6.74216
G1 X116.378 Y112.569 E6.74867
G1 X119.426 Y115.616 E6.82841
G1 X119.074 Y115.616 E6.83493
G1 X116.026 Y112.569 E6.91467
G1 X115.674 Y112.569 E6.92119
G1 X118.721 Y115.616 E7.00093
G1 X118.369 Y115.616 E7.00744
G1 X115.321 Y112.569 E7.08718
G1 X114.964 Y112.563 E7.09380
G1 X118.017 Y115.616 E7.17369
G1 X117.665 Y115.616 E7.18021
G1 X114.549 Y112.500 E7.26173
G1 X114.040 Y112.344 F6000.000
G1 X117.312 Y115.616 E7.34734 F1200.000
G1 X116.960 Y115.616 E7.35386
G1 X109.522 Y108.179 E7.54846
G1 X109.522 Y108.531 E7.55497
G1 X116.608 Y115.616 E7.74036
G1 X116.256 Y115.616 E7.74687
G1 X109.522 Y108.883 E7.92304
G1 X109.522 Y109.235 E7.92955
G1 X115.903 Y115.616 E8.09650
G1 X115.551 Y115.616 E8.10302
G1 X109.522 Y109.588 E8.26075
G1 X109.522 Y109.940 E8.26727
G1 X115.199 Y115.616 E8.41578
G1 X114.846 Y115.616 E8.42230
G1 X109.522 Y110.292 E8.56159
G1 X109.522 Y110.645 E8.56811
G1 X114.494 Y115.616 E8.69819
G1 X114.142 Y115.616 E8.70471
G1 X109.522 Y110.997 E8.82557
G1 X109.522 Y111.349 E8.83209
G1 X113.790 Y115.616 E8.94374
G1 X113.437 Y115.616 E8.95025
G1 X109.522 Y111.701 E9.05268
G1 X109.522 Y112.054 E9.05920
G1 X113.085 Y115.616 E9.15242
G1 X112.733 Y115.616 E9.15893
G1 X109.522 Y112.406 E9.24293
G1 X109.522 Y112.758 E9.24945
G1 X112.381 Y115.616 E9.32423
G1 X112.028 Y115.616 E9.33074
G1 X109.522 Y113.110 E9.39631
G1 X109.522 Y113.463 E9.40282
G1 X111.676 Y115.616 E9.45917
G1 X111.324 Y115.616 E9.46569
G1 X109.522 Y113.815 E9.51282
G1 X109.522 Y114.167 E9.51934
G1 X110.971 Y115.616 E9.55725
G1 X110.619 Y115.616 E9.56377
G1 X109.522 Y114.520 E9.59246
G1 X109.522 Y114.872 E9.59898
G1 X110.267 Y115.616 E9.61846
G1 X109.915 Y115.616 E9.62498
G1 X109.522 Y115.224 E9.63524
G1 X109.522 Y115.576 E9.64176
G1 X109.562 Y115.616 E9.64280
G1 F1860.000 E6.64280
G92 E0
G1 X112.798 Y111.102 F6000.000
G1 E3.10000 F1860.000
G1 X109.522 Y107.826 E3.18570 F1200.000
G1 X109.522 Y107.474 E3.19221
G1 X112.624 Y110.575 E3.27335
G1 X112.576 Y110.175 E3.28081
G1 X109.522 Y107.122 E3.36070
G1 X109.522 Y106.769 E3.36721
G1 X112.570 Y109.817 E3.44695
G1 X112.570 Y109.465 E3.45347
G1 X109.522 Y106.417 E3.53321
G1 X109.522 Y106.065 E3.53973
G1 X112.570 Y109.113 E3.61947
G1 X112.570 Y108.760 E3.62598
G1 X109.522 Y105.713 E3.70572
G1 X109.522 Y105.360 E3.71224
G1 X112.570 Y108.408 E3.79198
G1 X112.570 Y108.056 E3.79850
G1 X109.522 Y105.008 E3.87824
G1 X109.522 Y104.656 E3.88475
G1 X112.570 Y107.704 E3.96449
G1 X112.570 Y107.351 E3.97101
G1 X109.522 Y104.304 E4.05075
G1 X109.522 Y103.951 E4.05727
G1 X112.570 Y106.999 E4.13701
G1 X112.570 Y106.647 E4.14352
G1 X109.522 Y103.599 E4.22326
G1 X109.522 Y103.247 E4.22978
G1 X112.570 Y106.294 E4.30952
G1 X112.570 Y105.942 E4.31604
G1 X109.522 Y102.894 E4.39578
G1 X109.522 Y102.542 E4.40229
G1 X112.570 Y105.590 E4.48203
G1 X112.570 Y105.238 E4.48855
G1 X109.522 Y102.190 E4.56829
G1 X109.522 Y101.838 E4.57481
G1 X112.570 Y104.885 E4.65455
G1 X112.570 Y104.533 E4.66106
G1 X109.522 Y101.485 E4.74080
G1 X109.522 Y101.133 E4.74732
G1 X112.570 Y104.181 E4.82706
G1 X112.570 Y103.829 E4.83358
G1 X109.522 Y100.781 E4.91332
G1 X109.522 Y100.428 E4.91983
G1 X112.570 Y103.476 E4.99957
G1 X112.570 Y103.124 E5.00609
G1 X109.522 Y100.076 E5.08583
G1 X109.522 Y99.724 E5.09235
G1 X112.570 Y102.772 E5.17209
G1 X112.570 Y102.419 E5.17860
G1 X109.522 Y99.372 E5.25834
G1 X109.522 Y99.019 E5.26486
G1 X112.570 Y102.067 E5.34460
G1 X112.570 Y101.715 E5.35112
G1 X109.522 Y98.667 E5.43086
G1 X109.522 Y98.315 E5.43737
G1 X112.570 Y101.363 E5.51711
G1 X112.570 Y101.010 E5.52363
G1 X109.522 Y97.963 E5.60337
G1 X109.522 Y97.610 E5.60989
G1 X112.570 Y100.658 E5.68963
G1 X112.570 Y100.306 E5.69614
G1 X109.522 Y97.258 E5.77588
G1 X109.522 Y96.906 E5.78240
G1 X112.570 Y99.953 E5.86214
G1 X112.570 Y99.601 E5.86866
G1 X109.522 Y96.553 E5.94840
G1 X109.522 Y96.201 E5.95491
G1 X112.570 Y99.249 E6.03465
G1 X112.570 Y98.897 E6.04117
G1 X109.522 Y95.849 E6.12091
G1 X109.522 Y95.497 E6.12743
G1 X112.570 Y98.544 E6.20717
G1 X112.570 Y98.192 E6.21368
G1 X109.522 Y95.144 E6.29342
G1 X109.522 Y94.792 E6.29994
G1 X112.570 Y97.840 E6.37968
G1 X112.570 Y97.488 E6.38620
G1 X109.522 Y94.440 E6.46594
G1 X109.522 Y94.087 E6.47245
G1 X112.570 Y97.135 E6.55219
G1 X112.570 Y96.783 E6.55871
G1 X109.522 Y93.735 E6.63845
G1 X109.522 Y93.383 E6.64497
G1 X112.570 Y96.431 E6.72471
G1 X112.570 Y96.078 E6.73122
G1 X109.522 Y93.031 E6.81096
G1 X109.522 Y92.678 E6.81748
G1 X112.570 Y95.726 E6.89722
G1 X112.570 Y95.374 E6.90374
G1 X109.522 Y92.326 E6.98348
G1 X109.522 Y91.974 E6.98999
G1 X112.570 Y95.022 E7.06973
G1 X112.570 Y94.669 E7.07625
G1 X109.522 Y91.622 E7.15599
G1 X109.522 Y91.269 E7.16251
G1 X112.570 Y94.317 E7.24225
G1 X112.570 Y93.965 E7.24876
G1 X109.522 Y90.917 E7.32850
G1 X109.522 Y90.565 E7.33502
G1 X112.570 Y93.612 E7.41476
G1 X112.570 Y93.260 E7.42128
G1 X109.522 Y90.212 E7.50102
G1 X109.522 Y89.860 E7.50753
G1 X112.570 Y92.908 E7.58727
G1 X112.570 Y92.556 E7.59379
G1 X109.522 Y89.508 E7.67353
G1 X109.522 Y89.156 E7.68005
G1 X112.570 Y92.203 E7.75979
G1 X112.570 Y91.851 E7.76630
G1 X109.522 Y88.803 E7.84604
G1 X109.522 Y88.451 E7.85256
G1 X112.570 Y91.499 E7.93230
G1 X112.570 Y91.147 E7.93882
G1 X109.522 Y88.099 E8.01856
G1 X109.522 Y87.747 E8.02507
G1 X112.570 Y90.794 E8.10481
G1 X112.570 Y90.442 E8.11133
G1 X109.522 Y87.394 E8.19107
G1 X109.522 Y87.042 E8.19759
G1 X112.570 Y90.090 E8.27733
G1 X112.570 Y89.737 E8.28384
G1 X109.522 Y86.690 E8.36358
G1 X109.522 Y86.337 E8.37010
G1 X112.570 Y89.385 E8.44984
G1 X112.570 Y89.033 E8.45636
G1 X109.712 Y86.175 E8.53114
G1 X110.064 Y86.175 E8.53765
G1 X112.570 Y88.681 E8.60322
G1 X112.570 Y88.328 E8.60973
G1 X110.416 Y86.175 E8.66608
G1 X110.769 Y86.175 E8.67260
G1 X112.570 Y87.976 E8.71973
G1 X112.570 Y87.624 E8.72625
G1 X111.121 Y86.175 E8.76416
G1 X111.473 Y86.175 E8.77068
G1 X112.570 Y87.272 E8.79937
G1 X112.570 Y86.919 E8.80589
G1 X111.826 Y86.175 E8.82537
G1 X112.178 Y86.175 E8.83189
G1 X112.570 Y86.567 E8.84215
G1 X112.570 Y86.215 E8.84867
G1 X112.530 Y86.175 E8.84971
G1 F1860.000 E5.84971
G92 E0
G1 X113.920 Y84.148 F6000.000
G1 E3.10000 F1860.000
G1 X113.579 Y84.828 E3.12391 F1200.000
G1 X114.298 Y85.268 E3.15040
G1 X114.859 Y84.148 E3.18978
G1 X115.799 Y84.148 E3.21931
G1 X114.658 Y86.425 E3.29934
G1 X114.662 Y88.291 E3.35799
G1 X116.739 Y84.148 E3.50363
G1 X117.678 Y84.148 E3.53316
G1 X114.119 Y91.249 E3.78280
G1 X115.059 Y91.249 E3.81234
G1 X118.618 Y84.148 E4.06198
G1 X119.557 Y84.148 E4.09151
G1 X115.999 Y91.249 E4.34115
G1 X116.938 Y91.249 E4.37068
G1 X120.497 Y84.148 E4.62032
G1 X121.437 Y84.148 E4.64986
G1 X117.878 Y91.249 E4.89950
G1 X118.817 Y91.249 E4.92903
G1 X122.376 Y84.148 E5.17867
G1 X122.718 Y85.342 E5.21768
G1 X119.757 Y91.249 E5.42537
G1 X120.697 Y91.249 E5.45490
G1 X122.718 Y87.216 E5.59667
G1 X122.718 Y89.091 E5.65560
G1 X121.636 Y91.249 E5.73146
G1 X122.576 Y91.249 E5.76099
G1 X122.718 Y90.966 E5.77095
G1 F1860.000 E2.77095
G92 E0
G1 X107.055 Y88.471 F6000.000
G1 E3.10000 F1860.000
G1 X106.525 Y89.528 E3.13718 F1200.000
G1 X105.586 Y89.528 E3.16671
G1 X107.057 Y86.592 E3.26993
G1 X107.721 Y85.268 F6000.000
G1 X108.132 Y84.447 E3.29880 F1200.000
G1 X107.343 Y84.148 E3.32534
G1 X104.646 Y89.528 E3.51449
G1 X103.707 Y89.528 E3.54402
G1 X106.403 Y84.148 E3.73317
G1 X105.463 Y84.148 E3.76270
G1 X102.767 Y89.528 E3.95185
G1 X101.827 Y89.528 E3.98138
G1 X104.524 Y84.148 E4.17053
G1 X103.584 Y84.148 E4.20006
G1 X97.858 Y95.574 E4.60176
G1 X98.331 Y96.503 E4.63456
G1 X101.325 Y90.530 E4.84458
G1 X101.799 Y91.459 E4.87737
G1 X98.805 Y97.433 E5.08739
G1 X99.279 Y98.363 E5.12019
G1 X102.273 Y92.389 E5.33021
G1 X102.747 Y93.318 E5.36300
G1 X99.752 Y99.292 E5.57302
G1 X100.226 Y100.222 E5.60582
G1 X103.220 Y94.248 E5.81584
G1 X103.694 Y95.178 E5.84863
G1 X100.700 Y101.151 E6.05865
G1 X101.174 Y102.081 E6.09145
G1 X104.168 Y96.107 E6.30147
G1 X104.641 Y97.037 E6.33426
G1 X101.647 Y103.010 E6.54428
G1 X102.121 Y103.940 E6.57707
G1 X105.115 Y97.966 E6.78710
G1 X105.589 Y98.896 E6.81989
G1 X102.595 Y104.870 E7.02991
G1 X103.068 Y105.799 E7.06270
G1 X106.062 Y99.826 E7.27272
G1 X106.536 Y100.755 E7.30551
G1 X103.542 Y106.729 E7.51553
G1 X104.016 Y107.658 E7.54833
G1 X107.010 Y101.685 E7.75835
G1 X107.051 Y103.477 E7.81469
G1 X104.489 Y108.588 E7.99438
G1 X104.963 Y109.517 E8.02718
G1 X107.051 Y105.352 E8.17364
G1 X107.054 Y107.221 E8.23239
G1 X105.437 Y110.447 E8.34581
G1 X106.119 Y110.960 E8.37265
G1 X107.059 Y109.086 E8.43854
G1 F1860.000 E5.43854
G92 E0
G1 X102.645 Y84.148 F6000.000
G1 E3.10000 F1860.000
G1 X97.384 Y94.644 E3.46902 F1200.000
G1 X96.910 Y93.715 E3.50181
G1 X101.705 Y84.148 E3.83815
G1 X100.765 Y84.148 E3.86768
G1 X96.437 Y92.785 E4.17133
G1 X95.963 Y91.856 E4.20413
G1 X99.826 Y84.148 E4.47510
G1 X98.886 Y84.148 E4.50463
G1 X95.489 Y90.926 E4.74292
G1 X95.016 Y89.996 E4.77572
G1 X97.947 Y84.148 E4.98133
G1 X97.007 Y84.148 E5.01086
G1 X94.542 Y89.067 E5.18379
G1 X94.068 Y88.137 E5.21658
G1 X96.067 Y84.148 E5.35683
G1 X95.128 Y84.148 E5.38636
G1 X93.594 Y87.208 E5.49392
G1 X93.121 Y86.278 E5.52672
