; generated by Slic3r 1.1.7 on 2014-12-06 at 19:01:10

; perimeters extrusion width = 0.42mm
; infill extrusion width = 0.74mm
; solid infill extrusion width = 0.71mm
; top infill extrusion width = 0.71mm
; support material extrusion width = 0.42mm

G21 ; set units to millimeters
M190 S60 ; wait for bed temperature to be reached
M104 S186 ; set temperature
G28 ; home all axes
M109 S186 ; wait for temperature to be reached
G90 ; use absolute coordinates
G92 E0
M82 ; use absolute distances for extrusion
M106 S127
G1 F1860.000 E-3.00000
G92 E0
G1 Z0.200 F6000.000
G1 X60.060 Y68.287 F6000.000
G1 E3.10000 F1860.000
G1 X61.798 Y66.895 E3.14119 F1200.000
G1 X64.770 Y66.143 E3.19791
G1 X132.690 Y66.143 E4.45444
G1 X134.881 Y66.540 E4.49563
G1 X136.793 Y67.680 E4.53682 F1200.000
G1 X138.384 Y69.821 E4.58618
G1 X140.924 Y75.452 E4.70045
G1 X141.477 Y78.021 E4.74907
G1 X141.477 Y111.565 E5.36965
G1 X141.376 Y112.683 E5.39041
G1 X138.836 Y126.653 E5.65309
G1 X138.054 Y128.737 E5.69428
G1 X137.107 Y129.953 E5.72278
G1 X135.033 Y132.027 E5.77706
G1 X133.203 Y133.296 E5.81825
G1 X130.615 Y133.857 E5.86724
G1 X64.770 Y133.857 E7.08538
G1 X62.579 Y133.460 E7.12658
G1 X60.667 Y132.320 E7.16777
G1 X59.275 Y130.582 E7.20896
G1 X58.523 Y127.610 E7.26568
G1 X58.523 Y72.390 E8.28725
G1 X58.920 Y70.199 E8.32845
G1 X60.028 Y68.341 E8.36847
G1 F1860.000 E5.36847
G92 E0
G1 X133.019 Y110.502 F6000.000
G1 E3.10000 F1860.000
G1 X132.687 Y110.693 E3.10708 F1200.000
G1 X132.183 Y110.860 E3.11691
G1 X131.653 Y110.901 E3.12674
G1 X131.128 Y110.815 E3.13658
G1 X130.641 Y110.608 E3.14638
G1 X130.218 Y110.290 E3.15617
G1 X129.881 Y109.878 E3.16601
G1 X129.652 Y109.398 E3.17585
G1 X129.544 Y108.878 E3.18568
G1 X129.544 Y108.495 E3.19276
G1 X129.564 Y108.348 E3.19552
G1 X129.652 Y107.975 E3.20259
G1 X129.709 Y107.837 E3.20536
G1 X129.881 Y107.495 E3.21243
G1 X129.972 Y107.377 E3.21520
G1 X130.218 Y107.084 E3.22228
G1 X130.336 Y106.993 E3.22504
G1 X130.641 Y106.766 E3.23207
G1 X130.990 Y106.615 E3.23911
G1 X131.128 Y106.558 E3.24187
G1 X131.653 Y106.472 E3.25171
G1 X132.035 Y106.494 E3.25879
G1 X132.183 Y106.514 E3.26155 F1200.000
G1 X132.687 Y106.681 E3.27138
G1 X133.019 Y106.872 E3.27846
G1 X133.137 Y106.963 E3.28122
G1 X133.415 Y107.226 E3.28829
G1 X133.716 Y107.664 E3.29813
G1 X133.904 Y108.161 E3.30797
G1 X133.968 Y108.687 E3.31777
G1 X133.904 Y109.212 E3.32756
G1 X133.716 Y109.710 E3.33740
G1 X133.506 Y110.030 E3.34448
G1 X133.415 Y110.148 E3.34724
G1 X133.069 Y110.463 E3.35591
G1 X132.881 Y110.296 F6000.000
G1 X132.578 Y110.471 E3.36239 F1200.000
G1 X132.131 Y110.617 E3.37109
G1 X131.662 Y110.653 E3.37979
G1 X131.198 Y110.577 E3.38849
G1 X130.765 Y110.392 E3.39719
G1 X130.390 Y110.110 E3.40588
G1 X130.091 Y109.746 E3.41459
G1 X129.888 Y109.322 E3.42329
G1 X129.791 Y108.862 E3.43199
G1 X129.791 Y108.512 E3.43847
G1 X129.888 Y108.052 E3.44717
G1 X130.091 Y107.627 E3.45587
G1 X130.390 Y107.263 E3.46457
G1 X130.765 Y106.981 E3.47327
G1 X131.198 Y106.797 E3.48196
G1 X131.543 Y106.736 E3.48844
G1 X131.662 Y106.720 E3.49067 F1200.000
G1 X132.131 Y106.756 E3.49937
G1 X132.578 Y106.903 E3.50807
G1 X132.881 Y107.078 E3.51455
G1 X133.231 Y107.392 E3.52325
G1 X133.497 Y107.780 E3.53195
G1 X133.543 Y107.891 E3.53418
G1 X133.663 Y108.220 E3.54066
G1 X133.719 Y108.687 E3.54935
G1 X133.663 Y109.153 E3.55805
G1 X133.497 Y109.594 E3.56675
G1 X133.305 Y109.886 E3.57323
G1 X133.231 Y109.982 E3.57546
G1 X132.931 Y110.257 E3.58300
G1 F1860.000 E0.58300
G92 E0
G1 X131.513 Y106.619 F6000.000
G1 X131.450 Y83.165 F6000.000
G1 E3.10000 F1860.000
G1 X130.925 Y83.079 E3.10984 F1200.000
G1 X130.787 Y83.021 E3.11260
G1 X130.438 Y82.871 E3.11964
G1 X130.014 Y82.553 E3.12943
G1 X129.677 Y82.141 E3.13927
G1 X129.449 Y81.662 E3.14911
G1 X129.341 Y81.141 E3.15894
G1 X129.341 Y80.759 E3.16601
G1 X129.449 Y80.238 E3.17584
G1 X129.506 Y80.101 E3.17860
G1 X129.677 Y79.759 E3.18568
G1 X130.014 Y79.347 E3.19552
G1 X130.438 Y79.029 E3.20532
G1 X130.925 Y78.821 E3.21511
G1 X131.450 Y78.735 E3.22495
G1 X131.832 Y78.758 E3.23203
G1 X131.980 Y78.777 E3.23479 F1200.000
G1 X132.484 Y78.944 E3.24462
G1 X132.815 Y79.135 E3.25170
G1 X133.212 Y79.489 E3.26153
G1 X133.513 Y79.927 E3.27137
G1 X133.570 Y80.065 E3.27413
G1 X133.701 Y80.424 E3.28121
G1 X133.765 Y80.950 E3.29100
G1 X133.701 Y81.476 E3.30080
G1 X133.570 Y81.835 E3.30788
G1 X133.513 Y81.973 E3.31064
G1 X133.212 Y82.411 E3.32048
G1 X132.815 Y82.765 E3.33030
G1 X132.484 Y82.956 E3.33738
G1 X131.980 Y83.123 E3.34721
G1 X131.513 Y83.161 E3.35588
G1 X131.459 Y82.916 F6000.000
G1 X130.994 Y82.840 E3.36459 F1200.000
G1 X130.883 Y82.794 E3.36681
G1 X130.562 Y82.655 E3.37328
G1 X130.186 Y82.373 E3.38198
G1 X129.888 Y82.009 E3.39068
G1 X129.731 Y81.697 E3.39716
G1 X129.685 Y81.585 E3.39939
G1 X129.588 Y81.125 E3.40809
G1 X129.588 Y80.775 E3.41456
G1 X129.685 Y80.315 E3.42326
G1 X129.888 Y79.891 E3.43197
G1 X129.961 Y79.795 E3.43419
G1 X130.186 Y79.527 E3.44067
G1 X130.562 Y79.245 E3.44937
G1 X130.994 Y79.060 E3.45806
G1 X131.339 Y78.999 E3.46454
G1 X131.459 Y78.984 E3.46677 F1200.000
G1 X131.928 Y79.020 E3.47547
G1 X132.375 Y79.166 E3.48417
G1 X132.773 Y79.415 E3.49286
G1 X133.028 Y79.655 E3.49934
G1 X133.294 Y80.043 E3.50804
G1 X133.460 Y80.483 E3.51675
G1 X133.516 Y80.950 E3.52544
G1 X133.460 Y81.417 E3.53414
G1 X133.340 Y81.746 E3.54062
G1 X133.294 Y81.857 E3.54285
G1 X133.028 Y82.245 E3.55155
G1 X132.678 Y82.559 E3.56025
G1 X132.375 Y82.734 E3.56672
G1 X131.928 Y82.880 E3.57542
G1 X131.522 Y82.913 E3.58296
G1 F1860.000 E0.58296
G92 E0
G1 X131.323 Y78.880 F6000.000
G1 X77.469 Y75.719 F6000.000
G1 E3.10000 F1860.000
G1 X77.494 Y75.531 E3.10351 F1200.000
G1 X77.582 Y75.158 E3.11059
G1 X77.639 Y75.021 E3.11335
G1 X77.811 Y74.679 E3.12043
G1 X78.148 Y74.267 E3.13026
G1 X78.571 Y73.949 E3.14006
G1 X78.920 Y73.799 E3.14709
G1 X79.058 Y73.741 E3.14986
G1 X79.583 Y73.655 E3.15970
G1 X80.113 Y73.697 E3.16953
G1 X80.617 Y73.864 E3.17936
G1 X80.949 Y74.055 E3.18644
G1 X81.345 Y74.409 E3.19627
G1 X81.436 Y74.527 E3.19903
G1 X81.646 Y74.847 E3.20611
G1 X81.834 Y75.344 E3.21595
G1 X81.898 Y75.870 E3.22574
G1 X81.854 Y76.248 E3.23278
G1 X81.834 Y76.396 E3.23554
G1 X81.646 Y76.893 E3.24538
G1 X81.345 Y77.331 E3.25521
G1 X80.949 Y77.685 E3.26504
G1 X80.617 Y77.876 E3.27212
G1 X80.113 Y78.043 E3.28195
G1 X79.583 Y78.085 E3.29179
G1 X79.435 Y78.065 E3.29455
G1 X79.058 Y77.999 E3.30163
G1 X78.571 Y77.791 E3.31142
G1 X78.148 Y77.473 E3.32122
G1 X77.811 Y77.061 E3.33106
G1 X77.582 Y76.582 E3.34089
G1 X77.494 Y76.209 E3.34797
G1 X77.469 Y76.021 E3.35148
G1 X77.284 Y76.033 E3.35491
G1 X77.284 Y77.365 E3.37954
G1 X78.236 Y78.317 E3.40445
G1 X81.124 Y78.317 E3.45787
G1 X82.318 Y77.123 E3.48911
G1 X127.957 Y77.123 E4.33345
G1 X127.957 Y77.441 E4.33933
G1 X129.037 Y78.521 E4.36758
G1 X129.037 Y82.394 E4.43923
G1 X130.497 Y83.854 E4.47744
G1 X130.497 Y95.869 E4.69972
G1 X130.929 Y96.301 E4.71101
G1 X131.564 Y96.301 E4.72276
G1 X133.037 Y97.774 E4.76131
G1 X133.037 Y104.666 E4.88881
G1 X131.564 Y106.139 E4.92736
G1 X130.344 Y106.139 E4.94993
G1 X129.240 Y107.243 E4.97881
G1 X129.240 Y110.862 E5.04576
G1 X127.957 Y112.145 E5.07932
G1 X127.957 Y122.877 E5.27787
G1 X83.651 Y122.877 E6.09754
G1 X82.394 Y121.620 E6.13043
G1 X79.612 Y121.620 E6.18189
G1 X78.355 Y122.877 E6.21478
G1 X69.503 Y122.877 E6.37855
G1 X69.503 Y120.499 E6.42254
G1 X66.963 Y117.959 E6.48900
G1 X66.963 Y104.901 E6.73057
G1 X69.503 Y102.361 E6.79703
G1 X69.503 Y88.079 E7.06125
G1 X66.963 Y85.539 E7.12771
G1 X66.963 Y77.326 E7.27964
G1 X69.706 Y74.583 E7.35141
G1 X77.284 Y74.583 E7.49160
G1 X77.284 Y75.707 E7.51239
G1 X77.406 Y75.715 E7.51465
G1 X77.721 Y75.719 F6000.000
G1 X77.737 Y75.576 E7.51731 F1200.000
G1 X77.818 Y75.235 E7.52379
G1 X77.864 Y75.123 E7.52602
G1 X78.021 Y74.811 E7.53250
G1 X78.320 Y74.447 E7.54121
G1 X78.695 Y74.165 E7.54990
G1 X79.128 Y73.980 E7.55859
G1 X79.473 Y73.919 E7.56507
G1 X79.592 Y73.904 E7.56730 F1200.000
G1 X80.061 Y73.940 E7.57600
G1 X80.508 Y74.086 E7.58470
G1 X80.811 Y74.261 E7.59118
G1 X81.161 Y74.575 E7.59988
G1 X81.427 Y74.963 E7.60858
G1 X81.593 Y75.403 E7.61729
G1 X81.649 Y75.870 E7.62598
G1 X81.609 Y76.217 E7.63245
G1 X81.593 Y76.337 E7.63468
G1 X81.427 Y76.777 E7.64338
G1 X81.161 Y77.165 E7.65208
G1 X80.811 Y77.479 E7.66078
G1 X80.508 Y77.654 E7.66726
G1 X80.061 Y77.800 E7.67596
G1 X79.592 Y77.836 E7.68466
G1 X79.128 Y77.760 E7.69337
G1 X78.695 Y77.575 E7.70206
G1 X78.415 Y77.367 E7.70853
G1 X78.320 Y77.293 E7.71076
G1 X78.021 Y76.929 E7.71946
G1 X77.818 Y76.505 E7.72817
G1 X77.737 Y76.165 E7.73464
G1 X77.721 Y75.782 E7.74173
G1 F1860.000 E4.74173
G92 E0
G1 X79.568 Y73.993 F6000.000
G1 X77.037 Y74.830 F6000.000
G1 E3.10000 F1860.000
G1 X77.037 Y77.467 E3.14879 F1200.000
G1 X78.134 Y78.564 E3.17749
G1 X81.226 Y78.564 E3.23470
G1 X82.420 Y77.370 E3.26594
G1 X127.710 Y77.370 E4.10381
G1 X127.710 Y77.544 E4.10701
G1 X128.789 Y78.623 E4.13526
G1 X128.789 Y82.496 E4.20691
G1 X130.250 Y83.957 E4.24512
G1 X130.250 Y95.972 E4.46740
G1 X130.826 Y96.548 E4.48248
G1 X131.461 Y96.548 E4.49423
G1 X132.790 Y97.877 E4.52899
G1 X132.790 Y104.563 E4.65270
G1 X131.461 Y105.892 E4.68746
G1 X130.241 Y105.892 E4.71003
G1 X128.993 Y107.141 E4.74270
G1 X128.993 Y110.760 E4.80965
G1 X127.710 Y112.042 E4.84321
G1 X127.710 Y122.630 E5.03908
G1 X83.753 Y122.630 E5.85228
G1 X82.496 Y121.373 E5.88518
G1 X79.510 Y121.373 E5.94042
G1 X78.253 Y122.630 E5.97332
G1 X69.750 Y122.630 E6.13061
G1 X69.750 Y120.397 E6.17193
G1 X67.210 Y117.857 E6.23838
G1 X67.210 Y105.003 E6.47617
G1 X69.750 Y102.463 E6.54263
G1 X69.750 Y87.976 E6.81064
G1 X67.210 Y85.436 E6.87709
G1 X67.210 Y77.429 E7.02524
G1 X69.809 Y74.830 E7.09322
G1 X76.974 Y74.830 E7.22578
G1 X77.457 Y74.830 F6000.000
G1 F1860.000 E4.22578
G92 E0
G1 X80.853 Y121.915 F6000.000
G1 E3.10000 F1860.000
G1 X81.235 Y121.938 E3.10708 F1200.000
G1 X81.383 Y121.957 E3.10984 F1200.000
G1 X81.887 Y122.124 E3.11967
G1 X82.219 Y122.315 E3.12675
G1 X82.615 Y122.669 E3.13658
G1 X82.916 Y123.107 E3.14641
G1 X82.974 Y123.245 E3.14917
G1 X83.104 Y123.604 E3.15625
G1 X83.168 Y124.130 E3.16605
G1 X83.104 Y124.656 E3.17585
G1 X82.974 Y125.015 E3.18292
G1 X82.916 Y125.153 E3.18569
G1 X82.615 Y125.591 E3.19552
G1 X82.219 Y125.945 E3.20535
G1 X81.887 Y126.136 E3.21243
G1 X81.383 Y126.303 E3.22226
G1 X80.853 Y126.345 E3.23209
G1 X80.328 Y126.259 E3.24193
G1 X80.190 Y126.202 E3.24469
G1 X79.841 Y126.051 E3.25173
G1 X79.418 Y125.733 E3.26152
G1 X79.081 Y125.321 E3.27136
G1 X78.909 Y124.979 E3.27844
G1 X78.852 Y124.842 E3.28120
G1 X78.744 Y124.321 E3.29103
G1 X78.744 Y123.939 E3.29811
G1 X78.852 Y123.418 E3.30794
G1 X79.081 Y122.939 E3.31777
G1 X79.418 Y122.527 E3.32761
G1 X79.841 Y122.209 E3.33741
G1 X80.328 Y122.001 E3.34721
G1 X80.790 Y121.924 E3.35588
G1 X80.862 Y122.164 F6000.000
G1 X81.331 Y122.200 E3.36458 F1200.000
G1 X81.666 Y122.300 E3.37106
G1 X82.081 Y122.521 E3.37976
G1 X82.177 Y122.595 E3.38198
G1 X82.431 Y122.835 E3.38846
G1 X82.697 Y123.223 E3.39716
G1 X82.863 Y123.663 E3.40587
G1 X82.879 Y123.783 E3.40810
G1 X82.919 Y124.130 E3.41456
G1 X82.863 Y124.597 E3.42326
G1 X82.697 Y125.037 E3.43196
G1 X82.505 Y125.330 E3.43844
G1 X82.431 Y125.425 E3.44067
G1 X82.081 Y125.739 E3.44937
G1 X81.778 Y125.914 E3.45585
G1 X81.331 Y126.060 E3.46455
G1 X80.862 Y126.096 E3.47325
G1 X80.743 Y126.081 E3.47548
G1 X80.398 Y126.020 E3.48196
G1 X79.965 Y125.835 E3.49065
G1 X79.589 Y125.553 E3.49935
G1 X79.291 Y125.189 E3.50805
G1 X79.088 Y124.765 E3.51675
G1 X79.007 Y124.424 E3.52323
G1 X78.991 Y123.955 E3.53193
G1 X79.088 Y123.495 E3.54062
G1 X79.291 Y123.071 E3.54933
G1 X79.364 Y122.975 E3.55155
G1 X79.589 Y122.707 E3.55803
G1 X79.965 Y122.425 E3.56673
G1 X80.398 Y122.240 E3.57542
G1 X80.743 Y122.179 E3.58190
G1 X80.799 Y122.172 E3.58296 F1200.000
G1 X80.738 Y122.122 F6000.000
G1 F1860.000 E0.58296
G92 E0
G1 X65.117 Y127.263 F6000.000
G1 E3.10000 F1860.000
G1 X65.117 Y72.737 E4.10873 F1200.000
G1 X132.343 Y72.737 E5.35241
G1 X132.343 Y75.625 E5.40582
G1 X134.883 Y78.165 E5.47227
G1 X134.883 Y111.421 E6.08754
G1 X132.343 Y113.961 E6.15399
G1 X132.343 Y125.391 E6.36545
G1 X130.471 Y127.263 E6.41440
G1 X65.180 Y127.263 E7.62230
G1 X64.870 Y127.510 F6000.000
G1 X64.870 Y72.490 E8.64018 F1200.000
G1 X132.590 Y72.490 E9.89300
G1 X132.590 Y75.522 E9.94909
G1 X135.130 Y78.062 E10.01555
G1 X135.130 Y111.524 E10.63460
G1 X132.590 Y114.064 E10.70105
G1 X132.590 Y125.494 E10.91251
G1 X130.574 Y127.510 E10.96525
G1 X64.933 Y127.510 E12.17962
G1 X65.080 Y127.146 F6000.000
G1 X65.317 Y127.103 F6000.000
G1 X65.277 Y127.063 E12.18067 F1200.000
G1 X65.277 Y126.714 E12.18714
G1 X65.666 Y127.103 E12.19734
G1 X66.016 Y127.103 E12.20381
G1 X65.277 Y126.364 E12.22316
G1 X65.277 Y126.014 E12.22963
G1 X66.366 Y127.103 E12.25813
G1 X66.716 Y127.103 E12.26460
G1 X65.277 Y125.664 E12.30226
G1 X65.277 Y125.314 E12.30873
G1 X67.066 Y127.103 E12.35554
G1 X67.415 Y127.103 E12.36201
G1 X65.277 Y124.965 E12.41797
G1 X65.277 Y124.615 E12.42444
G1 X67.765 Y127.103 E12.48955
G1 X68.115 Y127.103 E12.49602
G1 X65.277 Y124.265 E12.57029
G1 X65.277 Y123.915 E12.57676
G1 X68.465 Y127.103 E12.66017
G1 X68.815 Y127.103 E12.66665
G1 X65.277 Y123.565 E12.75921
G1 X65.277 Y123.215 E12.76568
G1 X69.165 Y127.103 E12.86740
G1 X69.514 Y127.103 E12.87388
G1 X65.277 Y122.866 E12.98475
G1 X65.277 Y122.516 E12.99122
G1 X69.864 Y127.103 E13.11124
G1 X70.214 Y127.103 E13.11771
G1 X65.277 Y122.166 E13.24689
G1 X65.277 Y121.816 E13.25336
G1 X70.564 Y127.103 E13.39169
G1 X70.914 Y127.103 E13.39816
G1 X65.277 Y121.466 E13.54564
G1 X65.277 Y121.117 E13.55211
G1 X71.263 Y127.103 E13.70875
G1 X71.613 Y127.103 E13.71522
G1 X65.277 Y120.767 E13.88100
G1 X65.277 Y120.417 E13.88747
G1 X71.963 Y127.103 E14.06241
G1 X72.313 Y127.103 E14.06888
G1 X65.277 Y120.067 E14.25297
G1 X65.277 Y119.717 E14.25944
G1 X72.663 Y127.103 E14.45268
G1 X73.012 Y127.103 E14.45915
G1 X65.277 Y119.368 E14.66155
G1 X65.277 Y119.018 E14.66802
G1 X73.362 Y127.103 E14.87956
G1 X73.712 Y127.103 E14.88604
G1 X69.645 Y123.036 E14.99245
G1 X69.995 Y123.036 F6000.000
G1 X74.062 Y127.103 E15.09886 F1200.000
G1 X74.412 Y127.103 E15.10533
G1 X70.344 Y123.036 E15.21174
G1 X70.694 Y123.036 E15.21821
G1 X74.761 Y127.103 E15.32462
G1 X75.111 Y127.103 E15.33109
G1 X71.044 Y123.036 E15.43750
G1 X71.394 Y123.036 E15.44397
G1 X75.461 Y127.103 E15.55038
G1 X75.811 Y127.103 E15.55685
G1 X71.744 Y123.036 E15.66326
G1 X72.094 Y123.036 E15.66974
G1 X76.161 Y127.103 E15.77615
G1 X76.510 Y127.103 E15.78262
G1 X72.443 Y123.036 E15.88903
G1 X72.793 Y123.036 E15.89550
G1 X76.860 Y127.103 E16.00191
G1 X77.210 Y127.103 E16.00838
G1 X73.143 Y123.036 E16.11479
G1 X73.493 Y123.036 E16.12126
G1 X77.560 Y127.103 E16.22767
G1 X77.910 Y127.103 E16.23414
G1 X73.843 Y123.036 E16.34055
G1 X74.192 Y123.036 E16.34703
G1 X78.260 Y127.103 E16.45344
G1 X78.609 Y127.103 E16.45991
G1 X74.542 Y123.036 E16.56632
G1 X74.892 Y123.036 E16.57279
G1 X78.959 Y127.103 E16.67920
G1 X79.309 Y127.103 E16.68567
G1 X75.242 Y123.036 E16.79208
G1 X75.592 Y123.036 E16.79855
G1 X79.659 Y127.103 E16.90496
G1 X80.009 Y127.103 E16.91143
G1 X75.941 Y123.036 E17.01784
G1 X76.291 Y123.036 E17.02432
G1 X80.358 Y127.103 E17.13073
G1 X80.708 Y127.103 E17.13720
G1 X79.820 Y126.215 E17.16044
G1 X80.385 Y126.430 F6000.000
G1 X81.058 Y127.103 E17.17805 F1200.000
G1 X81.408 Y127.103 E17.18452
G1 X80.803 Y126.499 E17.20035
G1 X81.136 Y126.482 E17.20652
G1 X81.758 Y127.103 E17.22277
G1 X82.107 Y127.103 E17.22925
G1 X81.452 Y126.448 E17.24640
G1 X81.715 Y126.361 E17.25152
G1 X82.457 Y127.103 E17.27095
G1 X82.807 Y127.103 E17.27742
G1 X81.974 Y126.270 E17.29923
G1 X82.195 Y126.142 E17.30396
G1 X83.157 Y127.103 E17.32912
G1 X83.507 Y127.103 E17.33559
G1 X82.400 Y125.997 E17.36455
G1 X82.585 Y125.832 E17.36913
G1 X83.856 Y127.103 E17.40240
G1 X84.206 Y127.103 E17.40887
G1 X82.763 Y125.660 E17.44663
G1 X82.908 Y125.456 E17.45127
G1 X84.556 Y127.103 E17.49439
G1 X84.906 Y127.103 E17.50086
G1 X83.047 Y125.244 E17.54949
G1 X83.147 Y124.994 E17.55447
G1 X85.256 Y127.103 E17.60965
G1 X85.605 Y127.103 E17.61612
G1 X83.243 Y124.741 E17.67794
