; generated by Slic3r 1.1.7 on 2014-12-04 at 11:46:41

; perimeters extrusion width = 0.42mm
; infill extrusion width = 0.74mm
; solid infill extrusion width = 0.71mm
; top infill extrusion width = 0.71mm

G21 ; set units to millimeters
M190 S60 ; wait for bed temperature to be reached
M104 S186 ; set temperature
G28 ; home all axes
M109 S186 ; wait for temperature to be reached
G90 ; use absolute coordinates
G92 E0
M82 ; use absolute distances for extrusion
M106 S127
G1 F1860.000 E-3.00000
G92 E0
G1 Z0.200 F6000.000
G1 X76.750 Y56.429 F6000.000
G1 E3.10000 F1860.000
G1 X79.967 Y52.855 E3.18896 F1200.000
G1 X80.939 Y51.979 E3.21316
G1 X84.829 Y49.154 E3.30211
G1 X85.958 Y48.502 E3.32622
G1 X90.351 Y46.545 E3.41520
G1 X91.594 Y46.141 E3.43937
G1 X96.297 Y45.141 E3.52832
G1 X97.596 Y45.005 E3.55249
G1 X102.405 Y45.005 E3.64146
G1 X103.704 Y45.141 E3.66562
G1 X108.408 Y46.141 E3.75459 F1200.000
G1 X109.652 Y46.546 E3.77879
G1 X114.043 Y48.503 E3.86774
G1 X115.170 Y49.154 E3.89181
G1 X119.061 Y51.979 E3.98077
G1 X120.034 Y52.854 E4.00497
G1 X123.252 Y56.428 E4.09394
G1 X124.020 Y57.486 E4.11814
G1 X126.423 Y61.651 E4.20710
G1 X126.953 Y62.842 E4.23121
G1 X128.439 Y67.414 E4.32015
G1 X128.711 Y68.693 E4.34433
G1 X129.247 Y74.126 E4.44534
G1 X129.213 Y126.526 E5.41475
G1 X128.711 Y131.309 E5.50373
G1 X128.439 Y132.588 E5.52791
G1 X126.953 Y137.160 E5.61685
G1 X126.423 Y138.351 E5.64097
G1 X124.020 Y142.516 E5.72993
G1 X123.252 Y143.574 E5.75412
G1 X120.034 Y147.148 E5.84310
G1 X119.062 Y148.023 E5.86728
G1 X115.171 Y150.849 E5.95624
G1 X114.041 Y151.501 E5.98039
G1 X109.650 Y153.456 E6.06931
G1 X108.407 Y153.860 E6.09349
G1 X103.703 Y154.859 E6.18246
G1 X102.405 Y154.995 E6.20660
G1 X97.596 Y154.995 E6.29557
G1 X96.298 Y154.859 E6.31971
G1 X91.595 Y153.860 E6.40866
G1 X90.353 Y153.457 E6.43282
G1 X85.960 Y151.502 E6.52177
G1 X84.828 Y150.848 E6.54595
G1 X80.938 Y148.022 E6.63490
G1 X79.967 Y147.147 E6.65909
G1 X76.750 Y143.573 E6.74805
G1 X75.982 Y142.516 E6.77222
G1 X73.579 Y138.351 E6.86118
G1 X73.049 Y137.160 E6.88530
G1 X71.563 Y132.588 E6.97424
G1 X71.291 Y131.312 E6.99838
G1 X70.753 Y125.874 E7.09947
G1 X70.787 Y73.471 E8.06894
G1 X71.291 Y68.690 E8.15788
G1 X71.563 Y67.414 E8.18201
G1 X73.049 Y62.842 E8.27095
G1 X73.579 Y61.651 E8.29507
G1 X75.982 Y57.486 E8.38403
G1 X76.713 Y56.480 E8.40704
G1 F1860.000 E5.40704
G92 E0
G1 X102.967 Y77.845 F6000.000
G1 E3.10000 F1860.000
G1 X101.060 Y78.764 E3.13916 F1200.000
G1 X98.942 Y78.764 E3.17835
G1 X98.859 Y78.724 E3.18006
G1 X97.035 Y77.845 E3.21751
G1 X95.716 Y76.191 E3.25666
G1 X95.244 Y74.126 E3.29584
G1 X95.716 Y72.063 E3.33500
G1 X97.035 Y70.407 E3.37415
G1 X98.942 Y69.491 E3.41329
G1 X101.060 Y69.491 E3.45248
G1 X102.871 Y70.361 E3.48965
G1 X102.967 Y70.407 E3.49163 F1200.000
G1 X104.450 Y72.268 E3.53563
G1 X104.354 Y72.363 E3.53812
G1 X104.757 Y74.126 E3.57157
G1 X104.286 Y76.190 E3.61075
G1 X103.006 Y77.796 E3.64874
G1 X102.809 Y77.647 F6000.000
G1 X101.004 Y78.517 E3.68581 F1200.000
G1 X98.998 Y78.517 E3.72291
G1 X97.193 Y77.647 E3.75998
G1 X95.945 Y76.081 E3.79704
G1 X95.497 Y74.126 E3.83414
G1 X95.945 Y72.173 E3.87121
G1 X97.193 Y70.606 E3.90827
G1 X98.998 Y69.738 E3.94533
G1 X101.004 Y69.738 E3.98243 F1200.000
G1 X102.809 Y70.606 E4.01949
G1 X104.119 Y72.249 E4.05836
G1 X104.083 Y72.285 E4.05929
G1 X104.504 Y74.126 E4.09423
G1 X104.057 Y76.080 E4.13132
G1 X102.848 Y77.598 E4.16722
G1 F1860.000 E1.16722
G92 E0
G1 X98.905 Y69.329 F6000.000
G1 X113.404 Y92.234 F6000.000
G1 E3.10000 F1860.000
G1 X111.325 Y93.744 E3.14751 F1200.000
G1 X107.001 Y95.669 E3.23509
G1 X102.369 Y96.653 E3.32270
G1 X97.632 Y96.653 E3.41032
G1 X93.001 Y95.669 E3.49792
G1 X88.675 Y93.744 E3.58552
G1 X84.844 Y90.961 E3.67312
G1 X81.676 Y87.441 E3.76073
G1 X79.309 Y83.339 E3.84834
G1 X77.845 Y78.836 E3.93593
G1 X77.349 Y74.126 E4.02356
G1 X77.845 Y69.418 E4.11114
G1 X79.309 Y64.915 E4.19873
G1 X81.675 Y60.813 E4.28634
G1 X84.844 Y57.293 E4.37395
G1 X88.675 Y54.511 E4.46154
G1 X93.001 Y52.584 E4.54916
G1 X97.633 Y51.599 E4.63676
G1 X102.369 Y51.599 E4.72438 F1200.000
G1 X107.001 Y52.584 E4.81200
G1 X111.325 Y54.511 E4.89959
G1 X115.157 Y57.293 E4.98720
G1 X118.327 Y60.813 E5.07482
G1 X120.693 Y64.915 E5.16242
G1 X122.157 Y69.418 E5.25001
G1 X122.651 Y74.126 E5.33760
G1 X122.156 Y78.836 E5.42522
G1 X120.693 Y83.339 E5.51281
G1 X118.327 Y87.441 E5.60042
G1 X115.157 Y90.961 E5.68804
G1 X113.454 Y92.197 E5.72697
G1 X113.549 Y92.434 F6000.000
G1 X111.450 Y93.959 E5.77497 F1200.000
G1 X107.078 Y95.905 E5.86350
G1 X102.394 Y96.900 E5.95208
G1 X97.607 Y96.900 E6.04066
G1 X92.924 Y95.905 E6.12922
G1 X88.550 Y93.959 E6.21778
G1 X84.677 Y91.145 E6.30635
G1 X81.474 Y87.587 E6.39492
G1 X79.082 Y83.440 E6.48349
G1 X77.602 Y78.888 E6.57204
G1 X77.101 Y74.126 E6.66062
G1 X77.602 Y69.366 E6.74918
G1 X79.082 Y64.814 E6.83773
G1 X81.474 Y60.667 E6.92629
G1 X84.677 Y57.109 E7.01487
G1 X88.550 Y54.296 E7.10342
G1 X92.924 Y52.348 E7.19200
G1 X97.607 Y51.352 E7.28056
G1 X102.394 Y51.352 E7.36914
G1 X107.078 Y52.348 E7.45772
G1 X111.450 Y54.296 E7.54627 F1200.000
G1 X115.324 Y57.109 E7.63484
G1 X118.528 Y60.667 E7.72342
G1 X120.920 Y64.814 E7.81199
G1 X122.400 Y69.366 E7.90054
G1 X122.899 Y74.126 E7.98909
G1 X122.400 Y78.888 E8.07767
G1 X120.920 Y83.440 E8.16622
G1 X118.528 Y87.587 E8.25479
G1 X115.324 Y91.145 E8.34337
G1 X113.600 Y92.397 E8.38279
G1 F1860.000 E5.38279
G92 E0
G1 X107.390 Y52.629 F6000.000
G1 X107.381 Y52.928 F6000.000
G1 E3.10000 F1860.000
G1 X121.083 Y66.630 E3.45848 F1200.000
G1 X121.252 Y67.149 E3.46859
G1 X106.809 Y52.706 E3.84647
G1 X106.363 Y52.611 E3.85489
G1 X121.421 Y67.669 E4.24884
G1 X121.589 Y68.188 E4.25895
G1 X105.918 Y52.517 E4.66897
G1 X105.473 Y52.422 E4.67739
G1 X121.758 Y68.708 E5.10348
G1 X121.927 Y69.227 E5.11359
G1 X105.027 Y52.327 E5.55575
G1 X104.582 Y52.233 E5.56417
G1 X122.023 Y69.674 E6.02050
G1 X122.064 Y70.066 E6.02779
G1 X104.137 Y52.138 E6.49684
G1 X103.691 Y52.043 E6.50526
G1 X122.106 Y70.458 E6.98705
G1 X122.147 Y70.849 E6.99434
G1 X103.246 Y51.948 E7.48885
G1 X102.800 Y51.854 E7.49727
G1 X122.188 Y71.241 E8.00451
G1 X122.229 Y71.633 E8.01180
G1 X102.355 Y51.759 E8.53176
G1 X102.004 Y51.758 E8.53826
G1 X122.270 Y72.025 E9.06850
G1 X122.311 Y72.417 E9.07579
G1 X101.653 Y51.758 E9.61628
G1 X101.302 Y51.758 E9.62276
G1 X122.352 Y72.808 E10.17350
G1 X122.394 Y73.200 E10.18079
G1 X100.952 Y51.758 E10.74178
G1 X100.601 Y51.758 E10.74827
G1 X122.435 Y73.592 E11.31951
G1 X122.476 Y73.984 E11.32680
G1 X100.250 Y51.758 E11.90829
G1 X99.900 Y51.758 E11.91478
G1 X122.470 Y74.328 E12.50528
G1 X122.436 Y74.646 E12.51118
G1 X99.549 Y51.758 E13.10999
G1 X99.198 Y51.758 E13.11647
G1 X122.403 Y74.963 E13.72358
G1 X122.370 Y75.280 E13.72949
G1 X98.848 Y51.758 E14.34490
G1 X98.497 Y51.758 E14.35139
G1 X122.336 Y75.598 E14.97510
G1 X122.303 Y75.915 E14.98100
G1 X98.146 Y51.758 E15.61302
G1 X97.796 Y51.758 E15.61951
G1 X122.270 Y76.232 E16.25983
G1 X122.236 Y76.550 E16.26573
G1 X97.481 Y51.794 E16.91342
G1 X97.192 Y51.856 E16.91889
G1 X122.203 Y76.867 E17.57327
G1 X122.170 Y77.185 E17.57918
G1 X96.902 Y51.917 E18.24025
G1 X96.613 Y51.979 E18.24572
G1 X122.136 Y77.502 E18.91349
G1 X122.103 Y77.819 E18.91940
G1 X96.324 Y52.040 E19.59386
G1 X96.035 Y52.102 E19.59933
G1 X122.070 Y78.137 E20.28049
G1 X122.037 Y78.454 E20.28640
G1 X95.746 Y52.163 E20.97425
G1 X95.457 Y52.225 E20.97972
G1 X122.003 Y78.771 E21.67427
G1 X121.922 Y79.041 E21.67948
G1 X95.167 Y52.286 E22.37948
G1 X94.878 Y52.348 E22.38495
G1 X121.836 Y79.306 E23.09027
G1 X121.750 Y79.571 E23.09542
G1 X94.589 Y52.409 E23.80605
G1 X94.300 Y52.471 E23.81152
G1 X121.664 Y79.835 E24.52747
G1 X121.578 Y80.100 E24.53262
G1 X94.011 Y52.532 E25.25388
G1 X93.721 Y52.594 E25.25935
G1 X121.492 Y80.365 E25.98593
G1 X121.406 Y80.629 E25.99108
G1 X93.432 Y52.655 E26.72298
G1 X93.143 Y52.717 E26.72845
G1 X121.320 Y80.894 E27.46566
G1 X121.234 Y81.159 E27.47081
G1 X92.886 Y52.810 E28.21250
G1 X92.643 Y52.918 E28.21742
G1 X121.148 Y81.423 E28.96321
G1 X121.062 Y81.688 E28.96836
G1 X92.400 Y53.026 E29.71825
G1 X92.158 Y53.134 E29.72316
G1 X120.976 Y81.953 E30.47715
G1 X120.890 Y82.217 E30.48230
G1 X91.915 Y53.242 E31.24038
G1 X91.673 Y53.350 E31.24530
G1 X120.804 Y82.482 E32.00748
G1 X120.718 Y82.746 E32.01263
G1 X91.430 Y53.458 E32.77891
G1 X91.187 Y53.566 E32.78382
G1 X120.632 Y83.011 E33.55419
G1 X120.546 Y83.276 E33.55934
G1 X90.945 Y53.674 E34.33380
G1 X90.702 Y53.782 E34.33871
G1 X120.418 Y83.498 E35.11617
G1 X120.289 Y83.720 E35.12092
G1 X90.460 Y53.890 E35.90136
G1 X90.217 Y53.999 E35.90628
G1 X120.161 Y83.943 E36.68971
G1 X120.033 Y84.165 E36.69446
G1 X89.974 Y54.107 E37.48089
G1 X89.732 Y54.215 E37.48580
G1 X119.904 Y84.387 E38.27521
G1 X119.776 Y84.610 E38.27996
G1 X89.489 Y54.323 E39.07237
G1 X89.247 Y54.431 E39.07728
G1 X119.648 Y84.832 E39.87268
G1 X119.520 Y85.055 E39.87743
G1 X89.004 Y54.539 E40.67582
G1 X88.761 Y54.647 E40.68073
G1 X119.391 Y85.277 E41.48211
G1 X119.263 Y85.499 E41.48686
G1 X88.557 Y54.793 E42.29022
G1 X88.354 Y54.941 E42.29487
G1 X119.135 Y85.722 E43.10019
G1 X119.006 Y85.944 E43.10494
G1 X88.151 Y55.088 E43.91222
G1 X87.948 Y55.236 E43.91686
G1 X102.920 Y70.208 E44.30858
G1 X103.373 Y70.661 F6000.000
G1 X118.878 Y86.166 E44.71426 F1200.000
G1 X118.750 Y86.389 E44.71901
G1 X104.652 Y72.291 E45.08785
G1 X104.561 Y72.550 E45.09294
G1 X118.621 Y86.611 E45.46082
G1 X118.493 Y86.833 E45.46557
G1 X104.664 Y73.005 E45.82737
G1 X104.768 Y73.459 E45.83600
G1 X118.365 Y87.056 E46.19173
G1 X118.237 Y87.278 E46.19648
G1 X104.872 Y73.914 E46.54614
G1 X104.886 Y74.278 E46.55288
G1 X118.082 Y87.474 E46.89814
G1 X117.916 Y87.659 E46.90274
G1 X104.821 Y74.564 E47.24535
G1 X104.755 Y74.849 E47.25077
G1 X117.750 Y87.843 E47.59075
G1 X117.584 Y88.028 E47.59534
G1 X104.690 Y75.135 E47.93267
G1 X104.625 Y75.420 E47.93809
G1 X117.417 Y88.213 E48.27278
G1 X117.251 Y88.397 E48.27738
G1 X104.560 Y75.706 E48.60943
G1 X104.495 Y75.991 E48.61484
G1 X117.085 Y88.582 E48.94425
G1 X116.919 Y88.766 E48.94885
G1 X104.425 Y76.272 E49.27574
G1 X104.269 Y76.467 E49.28035
G1 X116.753 Y88.951 E49.60697
G1 X116.587 Y89.135 E49.61156
G1 X104.114 Y76.662 E49.93790
G1 X103.958 Y76.857 E49.94252
G1 X116.421 Y89.320 E50.26857
G1 X116.254 Y89.504 E50.27317
G1 X103.803 Y77.052 E50.59895
G1 X103.647 Y77.248 E50.60356
G1 X116.088 Y89.689 E50.92907
G1 X115.922 Y89.873 E50.93366
G1 X103.492 Y77.443 E51.25888
G1 X103.336 Y77.638 E51.26350
G1 X115.756 Y90.058 E51.58845
G1 X115.590 Y90.242 E51.59304
G1 X103.181 Y77.833 E51.91771
G1 X103.002 Y78.005 E51.92230
G1 X115.424 Y90.427 E52.24728
G1 X115.255 Y90.609 E52.25187
G1 X102.765 Y78.119 E52.57864
G1 X102.529 Y78.233 E52.58350
G1 X115.079 Y90.784 E52.91186
G1 X114.897 Y90.953 E52.91645
G1 X102.292 Y78.347 E53.24625
G1 X102.056 Y78.461 E53.25111
G1 X114.694 Y91.100 E53.58178
G1 X114.491 Y91.248 E53.58642
G1 X101.819 Y78.575 E53.91797
G1 X101.582 Y78.689 E53.92283
G1 X114.288 Y91.395 E54.25525
G1 X114.085 Y91.543 E54.25990
G1 X101.346 Y78.803 E54.59320
G1 X101.109 Y78.918 E54.59806
G1 X113.882 Y91.690 E54.93224
G1 X113.679 Y91.838 E54.93688
G1 X100.764 Y78.923 E55.27477
G1 X100.414 Y78.923 E55.28125
G1 X113.475 Y91.985 E55.62300
G1 X113.272 Y92.133 E55.62764
G1 X100.063 Y78.923 E55.97324
G1 X99.712 Y78.923 E55.97973
G1 X113.069 Y92.280 E56.32919
G1 X112.866 Y92.428 E56.33384
G1 X99.361 Y78.923 E56.68716
G1 X99.011 Y78.923 E56.69365
G1 X112.663 Y92.576 E57.05083
G1 X112.460 Y92.723 E57.05548
G1 X98.432 Y78.695 E57.42249
G1 X97.755 Y78.369 F6000.000
G1 X112.257 Y92.871 E57.80189 F1200.000
G1 X112.053 Y93.018 E57.80653
G1 X97.079 Y78.043 E58.19833
G1 X96.637 Y77.602 F6000.000
G1 X81.124 Y62.088 E58.60422 F1200.000
G1 X80.995 Y62.311 E58.60897
G1 X111.850 Y93.166 E59.41624
G1 X111.647 Y93.313 E59.42088
G1 X80.867 Y62.533 E60.22619
G1 X80.739 Y62.755 E60.23094
G1 X111.444 Y93.461 E61.03429
G1 X111.240 Y93.607 E61.03894
G1 X80.610 Y62.978 E61.84031
G1 X80.482 Y63.200 E61.84506
G1 X110.997 Y93.715 E62.64344
G1 X110.755 Y93.823 E62.64835
G1 X80.354 Y63.423 E63.44374
G1 X80.226 Y63.645 E63.44849
G1 X110.512 Y93.931 E64.24089
G1 X110.269 Y94.040 E64.24580
G1 X80.097 Y63.867 E65.03520
G1 X79.969 Y64.090 E65.03995
G1 X110.027 Y94.148 E65.82637
G1 X109.784 Y94.256 E65.83128
G1 X79.841 Y64.312 E66.61470
G1 X79.712 Y64.534 E66.61945
G1 X109.542 Y94.364 E67.39988
G1 X109.299 Y94.472 E67.40480
G1 X79.584 Y64.757 E68.18223
G1 X79.456 Y64.979 E68.18698
G1 X109.056 Y94.580 E68.96143
G1 X108.814 Y94.688 E68.96634
G1 X79.370 Y65.244 E69.73670
G1 X79.284 Y65.508 E69.74185
G1 X108.571 Y94.796 E70.50810
G1 X108.328 Y94.904 E70.51301
G1 X79.198 Y65.773 E71.27517
G1 X79.111 Y66.038 E71.28032
G1 X108.086 Y95.012 E72.03838
G1 X107.843 Y95.120 E72.04330
G1 X79.025 Y66.302 E72.79726
G1 X78.939 Y66.567 E72.80241
G1 X107.600 Y95.228 E73.55227
G1 X107.358 Y95.336 E73.55718
G1 X78.853 Y66.832 E74.30295
G1 X78.767 Y67.096 E74.30810
G1 X107.115 Y95.444 E75.04977
G1 X106.857 Y95.537 E75.05484
G1 X78.681 Y67.361 E75.79201
G1 X78.595 Y67.625 E75.79716
G1 X106.568 Y95.598 E76.52902
G1 X106.279 Y95.660 E76.53449
G1 X78.509 Y67.890 E77.26103
G1 X78.423 Y68.155 E77.26617
G1 X105.990 Y95.721 E77.98740
G1 X105.700 Y95.782 E77.99287
G1 X78.337 Y68.419 E78.70877
G1 X78.251 Y68.684 E78.71392
G1 X105.411 Y95.844 E79.42451
G1 X105.122 Y95.905 E79.42998
G1 X78.165 Y68.949 E80.13525
G1 X78.079 Y69.213 E80.14040
G1 X104.833 Y95.967 E80.84035
G1 X104.543 Y96.028 E80.84582
G1 X77.999 Y69.483 E81.54032
G1 X77.965 Y69.801 E81.54622
G1 X104.254 Y96.090 E82.23402
G1 X103.965 Y96.151 E82.23949
G1 X77.932 Y70.118 E82.92060
G1 X77.898 Y70.435 E82.92650
G1 X103.676 Y96.212 E83.60092
G1 X103.386 Y96.274 E83.60639
G1 X77.865 Y70.752 E84.27412
G1 X77.831 Y71.070 E84.28002
G1 X103.097 Y96.335 E84.94105
G1 X102.808 Y96.397 E84.94652
G1 X77.798 Y71.387 E85.60086
G1 X77.765 Y71.704 E85.60676
G1 X102.519 Y96.458 E86.25441
G1 X102.203 Y96.494 E86.26028
G1 X77.731 Y72.021 E86.90055
G1 X77.698 Y72.339 E86.90645
G1 X101.853 Y96.494 E87.53843
G1 X101.502 Y96.494 E87.54491
G1 X77.664 Y72.656 E88.16859
G1 X77.631 Y72.973 E88.17449
G1 X101.151 Y96.494 E88.78986
G1 X100.801 Y96.494 E88.79635
G1 X77.597 Y73.290 E89.40343
G1 X77.564 Y73.607 E89.40933
G1 X100.450 Y96.494 E90.00810
G1 X100.099 Y96.494 E90.01459
G1 X77.530 Y73.925 E90.60507
G1 X77.524 Y74.269 E90.61144
G1 X99.749 Y96.494 E91.19290
G1 X99.398 Y96.494 E91.19939
G1 X77.566 Y74.661 E91.77059
G1 X77.607 Y75.053 E91.77789
G1 X99.047 Y96.494 E92.33884
G1 X98.697 Y96.494 E92.34532
G1 X77.648 Y75.445 E92.89602
G1 X77.690 Y75.837 E92.90331
G1 X98.346 Y96.494 E93.44375
G1 X97.995 Y96.494 E93.45024
G1 X77.731 Y76.229 E93.98042
G1 X77.772 Y76.621 E93.98771
G1 X97.643 Y96.492 E94.50761
G1 X97.198 Y96.398 E94.51603
G1 X77.813 Y77.013 E95.02319
G1 X77.855 Y77.405 E95.03049
G1 X96.753 Y96.303 E95.52492
G1 X96.308 Y96.209 E95.53334
G1 X77.896 Y77.797 E96.01505
G1 X77.937 Y78.189 E96.02234
G1 X95.862 Y96.114 E96.49132
G1 X95.417 Y96.019 E96.49974
G1 X77.979 Y78.581 E96.95598
G1 X78.075 Y79.028 E96.96445
G1 X94.972 Y95.925 E97.40652
G1 X94.527 Y95.830 E97.41494
G1 X78.244 Y79.548 E97.84094
G1 X78.413 Y80.067 E97.85105
G1 X94.081 Y95.736 E98.26098
G1 X93.636 Y95.641 E98.26941
G1 X78.582 Y80.587 E98.66327
G1 X78.751 Y81.106 E98.67338
G1 X93.191 Y95.547 E99.05118
G1 X92.618 Y95.324 F6000.000
G1 X78.920 Y81.626 E99.40957 F1200.000
G1 X79.088 Y82.145 E99.41968
G1 X91.986 Y95.043 E99.75712
G1 X91.354 Y94.762 F6000.000
G1 X79.257 Y82.665 E100.07361 F1200.000
G1 X79.426 Y83.185 E100.08372
G1 X90.722 Y94.481 E100.37926
G1 X90.090 Y94.199 F6000.000
G1 X79.851 Y83.960 E100.64715 F1200.000
G1 X80.329 Y84.789 F6000.000
G1 X89.459 Y93.918 E100.88600 F1200.000
G1 X88.827 Y93.637 F6000.000
G1 X80.808 Y85.618 E101.09580 F1200.000
G1 X81.286 Y86.447 F6000.000
G1 X87.619 Y92.780 E101.26149 F1200.000
G1 X86.337 Y91.848 F6000.000
G1 X81.764 Y87.276 E101.38112 F1200.000
G1 F1860.000 E98.38112
G92 E0
G1 X84.695 Y90.557 F6000.000
G1 E3.10000 F1860.000
G1 X85.055 Y90.917 E3.10941 F1200.000
G1 F1860.000 E0.10941
G92 E0
G1 X95.546 Y76.160 F6000.000
