; generated by Slic3r 1.1.7 on 2014-12-04 at 11:49:36

; perimeters extrusion width = 0.50mm
; infill extrusion width = 0.52mm
; solid infill extrusion width = 0.52mm
; top infill extrusion width = 0.52mm

G21 ; set units to millimeters
M107
M104 S200 ; set temperature
G28 ; home all axes
G1 Z5 F5000 ; lift nozzle

M109 S200 ; wait for temperature to be reached
G90 ; use absolute coordinates
G92 E0
M82 ; use absolute distances for extrusion
G1 F1800.000 E-1.00000
G92 E0
G1 Z0.350 F7800.000
G1 X79.662 Y78.454 F7800.000
G1 E1.00000 F1800.000
G1 X80.698 Y77.521 E1.04536 F1080.000
G1 X84.588 Y74.696 E1.20178
G1 X85.791 Y74.002 E1.24696
G1 X90.184 Y72.045 E1.40343
G1 X91.508 Y71.614 E1.44874
G1 X96.211 Y70.614 E1.60518
G1 X97.596 Y70.469 E1.65047
G1 X102.405 Y70.469 E1.80693
G1 X103.789 Y70.614 E1.85222
G1 X108.493 Y71.614 E2.00868 F1080.000
G1 X109.819 Y72.045 E2.05404
G1 X114.210 Y74.003 E2.21045
G1 X115.411 Y74.696 E2.25557
G1 X119.302 Y77.521 E2.41201
G1 X120.338 Y78.454 E2.45737
G1 X123.556 Y82.028 E2.61384
G1 X124.375 Y83.155 E2.65918
G1 X126.778 Y87.320 E2.81563
G1 X127.343 Y88.589 E2.86082
G1 X128.829 Y93.161 E3.01723
G1 X129.119 Y94.524 E3.06255
G1 X129.621 Y99.305 E3.21896
G1 X129.621 Y100.695 E3.26418
G1 X129.119 Y105.478 E3.42066
G1 X128.829 Y106.841 E3.46599
G1 X127.343 Y111.413 E3.62240
G1 X126.778 Y112.682 E3.66759
G1 X124.375 Y116.847 E3.82404
G1 X123.556 Y117.974 E3.86938
G1 X120.338 Y121.548 E4.02585
G1 X119.303 Y122.480 E4.07117
G1 X115.412 Y125.306 E4.22763
G1 X114.208 Y126.002 E4.27287
G1 X109.817 Y127.957 E4.42925
G1 X108.492 Y128.387 E4.47457
G1 X103.788 Y129.386 E4.63103
G1 X102.405 Y129.531 E4.67627
G1 X97.596 Y129.531 E4.83273
G1 X96.213 Y129.386 E4.87799
G1 X91.510 Y128.387 E5.03441
G1 X90.186 Y127.957 E5.07968
G1 X85.793 Y126.002 E5.23613
G1 X84.587 Y125.306 E5.28143
G1 X80.697 Y122.480 E5.43787
G1 X79.662 Y121.548 E5.48319
G1 X76.445 Y117.974 E5.63964
G1 X75.627 Y116.847 E5.68495
G1 X73.224 Y112.682 E5.84139
G1 X72.659 Y111.413 E5.88659
G1 X71.173 Y106.841 E6.04300
G1 X70.884 Y105.481 E6.08824
G1 X70.380 Y100.698 E6.24472
G1 X70.380 Y99.302 E6.29012
G1 X70.884 Y94.521 E6.44654
G1 X71.173 Y93.161 E6.49177
G1 X72.659 Y88.589 E6.64818
G1 X73.224 Y87.320 E6.69337
G1 X75.627 Y83.155 E6.84982
G1 X76.445 Y82.028 E6.89513
G1 X79.612 Y78.510 E7.04914
G1 F1800.000 E6.04914
G92 E0
G1 X103.810 Y104.775 F7800.000
G1 E1.00000 F1800.000
G1 X101.361 Y105.955 E1.08843 F540.000
G1 X98.641 Y105.955 E1.17693
G1 X96.879 Y105.106 E1.24057
G1 X96.456 Y105.106 E1.25433
G1 X94.499 Y102.650 E1.35649
G1 X93.893 Y100.000 E1.44495
G1 X94.499 Y97.350 E1.53338
G1 X96.193 Y95.225 E1.62182
G1 X98.640 Y94.048 E1.71017
G1 X101.360 Y94.048 E1.79866
G1 X103.407 Y95.032 E1.87255
G1 X103.809 Y95.225 E1.88704 F540.000
G1 X105.504 Y97.352 E1.97553
G1 X106.108 Y99.999 E2.06388
G1 X105.503 Y102.650 E2.15235
G1 X103.856 Y104.717 E2.23832
G1 X103.389 Y104.248 F7800.000
G1 X101.211 Y105.298 E2.31699 F540.000
G1 X98.791 Y105.298 E2.39572
G1 X97.029 Y104.449 E2.45936
G1 X96.773 Y104.449 E2.46770
G1 X95.106 Y102.358 E2.55469
G1 X94.567 Y100.000 E2.63339
G1 X95.106 Y97.643 E2.71206
G1 X96.613 Y95.752 E2.79073
G1 X98.791 Y94.705 E2.86934
G1 X101.210 Y94.705 E2.94807 F540.000
G1 X103.389 Y95.752 E3.02670
G1 X104.896 Y97.644 E3.10539
G1 X105.434 Y99.999 E3.18402
G1 X104.896 Y102.358 E3.26272
G1 X103.436 Y104.190 E3.33893
G1 X102.969 Y103.722 F7800.000
G1 X101.061 Y104.641 E3.40784 F378.000
G1 X98.941 Y104.641 E3.47681
G1 X97.179 Y103.792 E3.54044
G1 X97.089 Y103.792 E3.54337
G1 X95.714 Y102.066 E3.61518
G1 X95.241 Y100.000 E3.68413
G1 X95.714 Y97.935 E3.75304
G1 X97.033 Y96.279 E3.82194
G1 X98.941 Y95.362 E3.89081
G1 X101.061 Y95.362 E3.95977
G1 X102.861 Y96.227 E4.02475
G1 X102.969 Y96.279 E4.02865 F378.000
G1 X104.289 Y97.935 E4.09756
G1 X104.760 Y100.000 E4.16645
G1 X104.288 Y102.066 E4.23539
G1 X103.016 Y103.663 E4.30184
G1 F1800.000 E3.30184
G92 E0
G1 X102.887 Y96.110 F7800.000
G1 X112.639 Y117.036 F7800.000
G1 E1.00000 F1800.000
G1 X110.663 Y118.471 E1.07944 F540.000
G1 X106.592 Y120.284 E1.22444
G1 X102.230 Y121.210 E1.36952
G1 X97.771 Y121.210 E1.51461
G1 X93.410 Y120.284 E1.65966
G1 X89.337 Y118.471 E1.80471
G1 X85.730 Y115.851 E1.94976
G1 X82.747 Y112.537 E2.09481
G1 X80.519 Y108.675 E2.23989
G1 X79.141 Y104.435 E2.38493
G1 X78.673 Y100.000 E2.53002
G1 X79.141 Y95.567 E2.67504
G1 X80.519 Y91.327 E2.82008
G1 X82.747 Y87.465 E2.96515
G1 X85.730 Y84.152 E3.11021
G1 X89.337 Y81.532 E3.25524
G1 X93.410 Y79.717 E3.40034
G1 X97.771 Y78.790 E3.54538
G1 X102.230 Y78.790 E3.69046
G1 X106.592 Y79.717 E3.83553
G1 X110.663 Y81.532 E3.98057 F540.000
G1 X114.272 Y84.152 E4.12564
G1 X117.255 Y87.465 E4.27071
G1 X119.483 Y91.327 E4.41578
G1 X120.861 Y95.567 E4.56082
G1 X121.327 Y100.000 E4.70584
G1 X120.861 Y104.435 E4.85093
G1 X119.483 Y108.675 E4.99596
G1 X117.255 Y112.537 E5.14103
G1 X114.271 Y115.850 E5.28611
G1 X112.700 Y116.992 E5.34931
G1 X113.025 Y117.568 F7800.000
G1 X110.994 Y119.043 E5.43099 F540.000
G1 X106.796 Y120.912 E5.58049
G1 X102.299 Y121.867 E5.73006
G1 X97.702 Y121.867 E5.87964
G1 X93.206 Y120.912 E6.02918
G1 X89.006 Y119.043 E6.17873
G1 X85.288 Y116.342 E6.32827
G1 X82.212 Y112.925 E6.47783
G1 X79.915 Y108.943 E6.62739
G1 X78.494 Y104.572 E6.77692
G1 X78.013 Y100.000 E6.92651
G1 X78.494 Y95.430 E7.07602
G1 X79.915 Y91.059 E7.22556
G1 X82.212 Y87.077 E7.37512
G1 X85.288 Y83.661 E7.52467
G1 X89.006 Y80.960 E7.67420
G1 X93.206 Y79.089 E7.82379
G1 X97.702 Y78.133 E7.97333
G1 X102.299 Y78.133 E8.12290 F540.000
G1 X106.796 Y79.089 E8.27247
G1 X110.994 Y80.960 E8.42200
G1 X114.714 Y83.661 E8.57156
G1 X117.790 Y87.077 E8.72113
G1 X120.087 Y91.059 E8.87069
G1 X121.507 Y95.430 E9.02022
G1 X121.987 Y100.000 E9.16974
G1 X121.507 Y104.572 E9.31932
G1 X120.087 Y108.943 E9.46885
G1 X117.790 Y112.925 E9.61841
G1 X114.713 Y116.341 E9.76798
G1 X113.086 Y117.524 E9.83343
G1 X113.411 Y118.099 F7800.000
G1 X111.324 Y119.615 E9.91736 F378.000
G1 X107.000 Y121.540 E10.07135
G1 X102.368 Y122.524 E10.22541
G1 X97.633 Y122.524 E10.37948
G1 X93.002 Y121.540 E10.53352
G1 X88.676 Y119.615 E10.68756
G1 X84.846 Y116.832 E10.84160
G1 X81.678 Y113.313 E10.99566
G1 X79.312 Y109.212 E11.14971
G1 X77.848 Y104.710 E11.30373
G1 X77.352 Y100.000 E11.45781
G1 X77.848 Y95.292 E11.61183
G1 X79.312 Y90.790 E11.76585
G1 X81.678 Y86.689 E11.91990
G1 X84.845 Y83.170 E12.07395
G1 X88.676 Y80.388 E12.22798
G1 X93.002 Y78.461 E12.38205
G1 X97.633 Y77.476 E12.53609
G1 X102.368 Y77.476 E12.69016
G1 X106.872 Y78.433 E12.83995
G1 X107.000 Y78.461 E12.84423 F378.000
G1 X111.324 Y80.388 E12.99824
G1 X115.156 Y83.170 E13.15230
G1 X118.324 Y86.689 E13.30637
G1 X120.690 Y90.790 E13.46042
G1 X122.154 Y95.292 E13.61444
G1 X122.648 Y100.000 E13.76845
G1 X122.154 Y104.710 E13.92253
G1 X120.690 Y109.212 E14.07655
G1 X118.324 Y113.313 E14.23060
G1 X115.156 Y116.832 E14.38467
G1 X113.472 Y118.055 E14.45237
G1 X106.981 Y78.507 F7800.000
G1 X107.069 Y80.430 F7800.000
G1 X119.503 Y92.864 E15.02448 F1080.000
G1 X119.953 Y94.248 E15.07185
G1 X105.698 Y79.994 E15.72772
G1 X104.511 Y79.742 E15.76720
G1 X120.403 Y95.633 E16.49840
G1 X120.520 Y96.685 E16.53282
G1 X103.324 Y79.489 E17.32401
G1 X102.147 Y79.247 E17.36313
G1 X120.629 Y97.729 E18.21355
G1 X120.739 Y98.774 E18.24771
G1 X101.212 Y79.247 E19.14619
G1 X100.277 Y79.247 E19.17660
G1 X120.849 Y99.818 E20.12312
G1 X120.795 Y100.698 E20.15182
G1 X99.343 Y79.247 E21.13887
G1 X98.408 Y79.247 E21.16928
G1 X120.706 Y101.544 E22.19524
G1 X120.617 Y102.390 E22.22291
G1 X97.534 Y79.307 E23.28501
G1 X96.763 Y79.471 E23.31065
G1 X120.528 Y103.236 E24.40413
G1 X120.439 Y104.082 E24.43180
G1 X95.992 Y79.635 E25.55666
G1 X95.221 Y79.799 E25.58230
G1 X120.253 Y104.830 E26.73405
G1 X120.024 Y105.536 E26.75818
G1 X94.450 Y79.963 E27.93485
G1 X93.680 Y80.127 E27.96049
G1 X119.794 Y106.241 E29.16207
G1 X119.565 Y106.947 E29.18620
G1 X93.012 Y80.394 E30.40793
G1 X92.366 Y80.682 E30.43096
G1 X119.336 Y107.652 E31.67189
G1 X119.106 Y108.358 E31.69603
G1 X91.719 Y80.970 E32.95616
G1 X91.073 Y81.258 E32.97920
G1 X118.785 Y108.971 E34.25431
G1 X118.443 Y109.564 E34.27657
G1 X105.523 Y96.644 E34.87105
G1 X106.172 Y98.227 F7800.000
G1 X118.101 Y110.157 E35.41995 F1080.000
G1 X117.759 Y110.749 E35.44222
G1 X106.448 Y99.438 E35.96267
G1 X106.483 Y100.408 E35.99424
G1 X117.417 Y111.342 E36.49735
G1 X117.075 Y111.935 E36.51962
G1 X106.309 Y101.169 E37.01499
G1 X106.136 Y101.930 E37.04039
G1 X116.689 Y112.483 E37.52597
G1 X116.246 Y112.975 E37.54751
G1 X105.962 Y102.691 E38.02071
G1 X105.599 Y103.262 E38.04274
G1 X115.803 Y113.467 E38.51227
G1 X115.360 Y113.959 E38.53380
G1 X105.184 Y103.783 E39.00203
G1 X104.770 Y104.303 E39.02367
G1 X114.918 Y114.451 E39.49059
G1 X114.475 Y114.943 E39.51213
G1 X104.355 Y104.823 E39.97774
G1 X103.857 Y105.259 E39.99930
G1 X114.021 Y115.424 E40.46699
G1 X113.505 Y115.843 E40.48861
G1 X103.226 Y105.563 E40.96159
G1 X102.595 Y105.867 E40.98437
G1 X112.964 Y116.236 E41.46146
G1 X112.422 Y116.629 E41.48324
G1 X101.964 Y106.171 E41.96444
G1 X101.270 Y106.412 E41.98834
G1 X111.881 Y117.022 E42.47657
G1 X111.340 Y117.416 E42.49834
G1 X100.335 Y106.412 E43.00467
G1 X99.401 Y106.412 E43.03508
G1 X110.798 Y117.809 E43.55949
G1 X110.222 Y118.168 E43.58157
G1 X98.400 Y106.346 E44.12553
G1 X96.682 Y105.562 F7800.000
G1 X109.575 Y118.456 E44.71877 F1080.000
G1 X108.929 Y118.744 E44.74181
G1 X81.216 Y91.031 E46.01689
G1 X81.558 Y90.439 E46.03916
G1 X94.486 Y103.367 E46.63400
G1 X93.831 Y101.777 F7800.000
G1 X81.900 Y89.846 E47.18296 F1080.000
G1 X82.242 Y89.253 E47.20523
G1 X93.554 Y100.565 E47.72569
G1 X93.518 Y99.594 E47.75731
G1 X82.584 Y88.660 E48.26037
G1 X82.926 Y88.068 E48.28263
G1 X93.692 Y98.833 E48.77797
G1 X93.866 Y98.072 E48.80336
G1 X83.312 Y87.519 E49.28893
G1 X83.755 Y87.027 E49.31046
G1 X94.040 Y97.312 E49.78367
G1 X94.402 Y96.740 E49.80571
G1 X84.198 Y86.535 E50.27522
G1 X84.641 Y86.043 E50.29675
G1 X94.817 Y96.219 E50.76497
G1 X95.231 Y95.699 E50.78661
G1 X85.084 Y85.551 E51.25353
G1 X85.526 Y85.060 E51.27506
G1 X95.646 Y95.179 E51.74068
G1 X96.144 Y94.742 E51.76223
G1 X85.980 Y84.578 E52.22990
G1 X86.496 Y84.159 E52.25152
G1 X96.775 Y94.439 E52.72450
G1 X97.406 Y94.135 E52.74728
G1 X87.037 Y83.766 E53.22438
G1 X87.579 Y83.373 E53.24615
G1 X98.037 Y93.832 E53.72737
G1 X98.732 Y93.591 E53.75129
G1 X88.120 Y82.980 E54.23956
G1 X88.662 Y82.586 E54.26133
G1 X99.667 Y93.591 E54.76769
G1 X100.601 Y93.591 E54.79811
G1 X89.203 Y82.193 E55.32256
G1 X89.779 Y81.835 E55.34464
G1 X101.603 Y93.658 E55.88866
G1 X103.403 Y94.523 F7800.000
G1 X90.426 Y81.546 E56.48576 F1080.000
G1 X80.895 Y91.645 F7800.000
G1 X108.282 Y119.032 E57.74586 F1080.000
G1 X107.635 Y119.320 E57.76889
G1 X80.666 Y92.351 E59.00978
G1 X80.437 Y93.056 E59.03392
G1 X106.988 Y119.608 E60.25560
G1 X106.321 Y119.875 E60.27900
G1 X80.207 Y93.761 E61.48051
G1 X79.978 Y94.467 E61.50464
G1 X105.550 Y120.038 E62.68123
G1 X104.779 Y120.202 E62.70687
G1 X79.749 Y95.172 E63.85854
G1 X79.562 Y95.920 E63.88362
G1 X104.008 Y120.366 E65.00840
G1 X103.237 Y120.530 E65.03404
G1 X79.473 Y96.766 E66.12744
G1 X79.384 Y97.612 E66.15510
G1 X102.466 Y120.693 E67.21713
G1 X101.591 Y120.753 E67.24565
G1 X79.295 Y98.457 E68.27154
G1 X79.206 Y99.303 E68.29920
G1 X100.656 Y120.753 E69.28618
G1 X99.722 Y120.753 E69.31660
G1 X79.152 Y100.183 E70.26306
G1 X79.262 Y101.228 E70.29724
G1 X98.787 Y120.753 E71.19564
G1 X97.852 Y120.753 E71.22605
G1 X79.372 Y102.273 E72.07637
G1 X79.482 Y103.318 E72.11055
G1 X96.674 Y120.510 E72.90161
G1 X95.488 Y120.258 E72.94108
G1 X79.600 Y104.370 E73.67212
G1 X80.050 Y105.755 E73.71950
G1 X94.301 Y120.006 E74.37522
G1 X92.931 Y119.571 E74.42199
G1 X80.500 Y107.140 E74.99396
G1 X80.972 Y108.547 F7800.000
G1 X91.246 Y118.821 E75.46671 F1080.000
G1 X89.558 Y118.068 F7800.000
G1 X82.246 Y110.756 E75.80312 F1080.000
G1 X85.781 Y115.225 F7800.000
G1 X86.141 Y115.585 E75.81968 F1080.000
G1 F1800.000 E74.81968
G92 E0
G1 X119.032 Y91.458 F7800.000
G1 E1.00000 F1800.000
G1 X108.755 Y81.181 E1.47284 F1080.000
G1 X110.449 Y81.940 F7800.000
G1 X117.757 Y89.248 E1.80909 F1080.000
G1 X114.221 Y84.778 F7800.000
G1 X113.861 Y84.418 E1.82567 F1080.000
G1 F1800.000 E0.82567
G92 E0
G1 Z0.750 F7800.000
G1 X103.545 Y104.443 F7800.000
G1 E1.00000 F1800.000
G1 X101.266 Y105.541 E1.07156 F1800.000
G1 X98.736 Y105.541 E1.14317
G1 X96.457 Y104.443 E1.21472
G1 X94.882 Y102.466 E1.28625
G1 X94.318 Y99.999 E1.35784
G1 X94.882 Y97.535 E1.42939
G1 X96.458 Y95.557 E1.50094
G1 X98.735 Y94.462 E1.57243
G1 X101.266 Y94.462 E1.64404
G1 X103.169 Y95.377 E1.70377
G1 X103.544 Y95.557 E1.71555 F1800.000
G1 X105.121 Y97.535 E1.78713
G1 X105.683 Y99.999 E1.85864
G1 X105.120 Y102.466 E1.93023
G1 X103.591 Y104.385 E1.99964
G1 X103.225 Y104.042 F7800.000
G1 X101.152 Y105.041 E2.06473 F1800.000
G1 X98.850 Y105.041 E2.12988
G1 X96.777 Y104.042 E2.19497
G1 X95.344 Y102.244 E2.26005
G1 X94.831 Y100.000 E2.32518
G1 X95.344 Y97.757 E2.39027
G1 X96.778 Y95.958 E2.45536
G1 X98.849 Y94.962 E2.52040
G1 X101.152 Y94.962 E2.58555 F1800.000
G1 X103.224 Y95.958 E2.65061
G1 X104.658 Y97.758 E2.71571
G1 X105.170 Y100.000 E2.78078
G1 X104.658 Y102.244 E2.84591
G1 X103.272 Y103.984 E2.90886
G1 X102.905 Y103.641 F7800.000
G1 X101.038 Y104.541 E2.96749 F1260.000
G1 X98.964 Y104.541 E3.02618
G1 X97.097 Y103.641 E3.08481
G1 X95.806 Y102.021 E3.14343
G1 X95.344 Y100.000 E3.20210
G1 X95.806 Y97.980 E3.26074
G1 X97.097 Y96.359 E3.31936
G1 X98.964 Y95.462 E3.37796
G1 X101.038 Y95.462 E3.43665
G1 X102.754 Y96.287 E3.49052
G1 X102.905 Y96.359 E3.49525 F1260.000
G1 X104.196 Y97.980 E3.55388
G1 X104.657 Y100.000 E3.61250
G1 X104.196 Y102.021 E3.67117
G1 X102.952 Y103.583 E3.72766
G1 F1800.000 E2.72766
G92 E0
G1 X102.790 Y96.124 F7800.000
G1 X112.879 Y117.374 F7800.000
G1 E1.00000 F1800.000
G1 X110.872 Y118.831 E1.07018 F1800.000
G1 X106.721 Y120.680 E1.19875
G1 X102.274 Y121.624 E1.32738
G1 X97.727 Y121.624 E1.45601
G1 X93.281 Y120.680 E1.58462
G1 X89.128 Y118.831 E1.71323
G1 X85.451 Y116.160 E1.84183
G1 X82.410 Y112.781 E1.97045
G1 X80.138 Y108.844 E2.09907
G1 X78.733 Y104.521 E2.22767
G1 X78.257 Y100.000 E2.35631
G1 X78.733 Y95.481 E2.48489
G1 X80.138 Y91.158 E2.61349
G1 X82.410 Y87.221 E2.74211
G1 X85.451 Y83.842 E2.87072
G1 X89.128 Y81.171 E2.99932
G1 X93.282 Y79.321 E3.12796
G1 X97.727 Y78.376 E3.25656
G1 X102.274 Y78.376 E3.38519
G1 X106.332 Y79.239 E3.50258
G1 X106.720 Y79.321 E3.51382 F1800.000
G1 X110.872 Y81.171 E3.64241
G1 X114.550 Y83.842 E3.77104
G1 X117.592 Y87.221 E3.89966
G1 X119.864 Y91.158 E4.02828
G1 X121.269 Y95.480 E4.15688
G1 X121.743 Y100.000 E4.28546
G1 X121.269 Y104.522 E4.41410
G1 X119.864 Y108.844 E4.54269
G1 X117.592 Y112.781 E4.67131
G1 X114.550 Y116.160 E4.79994
G1 X112.939 Y117.330 E4.85627
G1 X113.172 Y117.778 F7800.000
G1 X111.123 Y119.267 E4.92794 F1800.000
G1 X106.876 Y121.158 E5.05947
G1 X102.326 Y122.124 E5.19108
G1 X97.675 Y122.124 E5.32269
G1 X93.126 Y121.158 E5.45426
G1 X88.877 Y119.267 E5.58585
G1 X85.115 Y116.534 E5.71743
G1 X82.003 Y113.077 E5.84902
G1 X79.679 Y109.048 E5.98062
G1 X78.242 Y104.626 E6.11218
G1 X77.754 Y100.000 E6.24380
G1 X78.242 Y95.376 E6.37536
G1 X79.679 Y90.954 E6.50693
G1 X82.003 Y86.925 E6.63852
G1 X85.115 Y83.468 E6.77011
G1 X88.877 Y80.736 E6.90168
G1 X93.126 Y78.843 E7.03329
G1 X97.675 Y77.876 E7.16487
G1 X102.326 Y77.876 E7.29648 F1800.000
G1 X106.876 Y78.843 E7.42808
G1 X111.123 Y80.736 E7.55965
G1 X114.886 Y83.469 E7.69124
G1 X117.999 Y86.925 E7.82284
G1 X120.323 Y90.954 E7.95444
G1 X121.760 Y95.376 E8.08600
G1 X122.246 Y100.000 E8.21756
G1 X121.760 Y104.626 E8.34917
G1 X120.323 Y109.048 E8.48074
G1 X117.999 Y113.077 E8.61233
G1 X114.886 Y116.534 E8.74394
G1 X113.233 Y117.734 E8.80175
G1 X113.466 Y118.183 F7800.000
G1 X111.374 Y119.702 E8.87491 F1260.000
G1 X107.031 Y121.636 E9.00942
G1 X102.379 Y122.624 E9.14399
G1 X97.622 Y122.624 E9.27858
G1 X92.971 Y121.636 E9.41313
G1 X88.626 Y119.702 E9.54769
G1 X84.778 Y116.907 E9.68224
G1 X81.596 Y113.372 E9.81681
G1 X79.220 Y109.253 E9.95138
G1 X77.750 Y104.731 E10.08591
G1 X77.251 Y100.000 E10.22051
