; generated by Slic3r 1.1.7 on 2015-01-04 at 21:07:53

; perimeters extrusion width = 0.40mm
; infill extrusion width = 0.44mm
; solid infill extrusion width = 0.44mm
; top infill extrusion width = 0.44mm

G21 ; set units to millimeters
M190 S110 ; wait for bed temperature to be reached
M104 S220 ; set temperature
G28 ; home all axes Start of G Code Slic3r
 
M109 S220 ; wait for temperature to be reached
G90 ; use absolute coordinates
G92 E0
M82 ; use absolute distances for extrusion
M106 S127
G1 F1860.000 E-3.00000
G92 E0
G1 Z0.294 F7800.000
G1 X41.218 Y81.998 F7800.000
G1 E3.10000 F1860.000
G1 X43.410 Y81.086 E3.24777 F1800.000
G1 X45.000 Y80.906 E3.34736
G1 X155.000 Y80.906 E10.19476
G1 X157.340 Y81.303 E10.34253
G1 X159.419 Y82.450 E10.49031 F1800.000
G1 X161.002 Y84.218 E10.63808
G1 X161.914 Y86.410 E10.78586
G1 X162.094 Y88.000 E10.88545
G1 X162.094 Y112.000 E12.37942
G1 X161.697 Y114.340 E12.52720
G1 X160.550 Y116.419 E12.67497
G1 X158.782 Y118.002 E12.82275
G1 X156.590 Y118.914 E12.97052
G1 X155.000 Y119.094 E13.07011
G1 X45.000 Y119.094 E19.91751
G1 X42.660 Y118.697 E20.06528
G1 X40.581 Y117.550 E20.21305
G1 X38.998 Y115.782 E20.36083
G1 X38.086 Y113.590 E20.50860
G1 X37.906 Y112.000 E20.60819
G1 X37.906 Y88.000 E22.10217
G1 X38.303 Y85.660 E22.24994
G1 X39.450 Y83.581 E22.39772
G1 X41.174 Y82.038 E22.54176
G1 X41.593 Y82.446 F7800.000
G1 X41.742 Y82.321 E22.55389 F1800.000
G1 X45.000 Y81.453 E22.76375
G1 X155.000 Y81.453 E29.61115
G1 X157.245 Y81.850 E29.75307
G1 X159.218 Y82.992 E29.89499 F1800.000
G1 X160.679 Y84.742 E30.03691
G1 X161.547 Y88.000 E30.24677
G1 X161.547 Y112.000 E31.74074
G1 X161.150 Y114.245 E31.88266
G1 X160.008 Y116.218 E32.02458
G1 X158.258 Y117.679 E32.16650
G1 X155.000 Y118.547 E32.37636
G1 X45.000 Y118.547 E39.22375
G1 X42.755 Y118.150 E39.36567
G1 X40.782 Y117.008 E39.50759
G1 X39.321 Y115.258 E39.64951
G1 X38.453 Y112.000 E39.85937
G1 X38.453 Y88.000 E41.35335
G1 X38.850 Y85.755 E41.49527
G1 X39.992 Y83.782 E41.63719
G1 X41.547 Y82.484 E41.76323
G1 F1860.000 E38.76323
G92 E0
G1 X154.706 Y111.706 F7800.000
G1 E3.10000 F1860.000
G1 X45.294 Y111.706 E9.91083 F441.000
G1 X45.294 Y103.488 E10.42241
G1 X59.796 Y103.488 E11.32518
G1 X60.359 Y103.583 E11.36072
G1 X61.741 Y103.400 E11.44748
G1 X63.022 Y102.813 E11.53522
G1 X64.113 Y101.867 E11.62514
G1 X64.942 Y100.629 E11.71785
G1 X65.455 Y99.186 E11.81318
G1 X65.621 Y97.635 E11.91028
G1 X65.431 Y96.079 E12.00789
G1 X64.896 Y94.620 E12.10462
G1 X64.051 Y93.355 E12.19929
G1 X62.949 Y92.372 E12.29122
G1 X61.663 Y91.739 E12.38046
G1 X60.280 Y91.505 E12.46778
G1 X58.898 Y91.688 E12.55456
G1 X57.617 Y92.275 E12.64229
G1 X57.348 Y92.508 E12.66445
G1 X45.294 Y92.508 E13.41481
G1 X45.294 Y88.294 E13.67716
G1 X154.706 Y88.294 E20.48799
G1 X154.706 Y111.646 E21.94167
G1 X154.360 Y111.506 F7800.000
G1 X154.159 Y111.159 F7800.000
G1 X45.841 Y111.159 E28.68438 F630.000
G1 X45.841 Y104.035 E29.12784
G1 X59.750 Y104.035 E29.99368
G1 X60.349 Y104.137 E30.03149
G1 X61.894 Y103.932 E30.12850
G1 X63.321 Y103.278 E30.22623
G1 X64.527 Y102.232 E30.32561
G1 X65.435 Y100.877 E30.42713
G1 X65.992 Y99.309 E30.53073
G1 X66.172 Y97.631 E30.63576
G1 X65.967 Y95.950 E30.74120
G1 X65.388 Y94.370 E30.84594
G1 X64.467 Y92.994 E30.94900
G1 X63.258 Y91.914 E31.04992
G1 X61.833 Y91.213 E31.14877
G1 X60.290 Y90.952 E31.24619
G1 X58.745 Y91.156 E31.34322
G1 X57.317 Y91.810 E31.44095
G1 X57.143 Y91.961 E31.45529
G1 X45.841 Y91.961 E32.15886
G1 X45.841 Y88.841 E32.35310
G1 X154.159 Y88.841 E39.09581
G1 X154.159 Y111.099 E40.48136
G1 X144.122 Y109.995 F7800.000
G1 X125.535 Y109.995 E41.63841 F441.000
G1 X125.535 Y101.408 E42.17297
G1 X144.122 Y101.408 E43.33001
G1 X144.122 Y109.935 E43.86084
G1 X144.122 Y110.395 F7800.000
G1 X144.669 Y110.543 F7800.000
G1 X124.987 Y110.543 E45.08601 F630.000
G1 X124.987 Y100.861 E45.68869
G1 X144.669 Y100.861 E46.91386
G1 X144.669 Y110.483 E47.51281
G1 X149.412 Y99.235 F7800.000
G1 X120.425 Y99.235 E49.31724 F441.000
G1 X120.425 Y90.148 E49.88293
G1 X149.412 Y90.148 E51.68736
G1 X149.412 Y99.175 E52.24931
G1 X149.412 Y99.635 F7800.000
G1 X149.959 Y99.782 F7800.000
G1 X119.877 Y99.782 E54.12187 F630.000
G1 X119.877 Y89.601 E54.75568
G1 X149.959 Y89.601 E56.62824
G1 X149.959 Y99.722 E57.25831
G1 F1860.000 E54.25831
G92 E0
G1 X115.080 Y104.374 F7800.000
G1 E3.10000 F1860.000
G1 X115.103 Y104.553 E3.11120 F441.000
G1 X115.025 Y105.147 E3.14852
G1 X114.795 Y105.701 E3.18583
G1 X114.431 Y106.177 E3.22314
G1 X113.955 Y106.541 E3.26046
G1 X113.401 Y106.771 E3.29777
G1 X112.807 Y106.849 E3.33509
G1 X112.213 Y106.771 E3.37240
G1 X111.659 Y106.541 E3.40972
G1 X111.183 Y106.177 E3.44702
G1 X110.818 Y105.701 E3.48434
G1 X110.589 Y105.147 E3.52166
G1 X110.511 Y104.553 E3.55897
G1 X110.589 Y103.959 E3.59629
G1 X110.818 Y103.405 E3.63361
G1 X111.183 Y102.929 E3.67092
G1 X111.659 Y102.564 E3.70823
G1 X112.212 Y102.335 E3.74554
G1 X112.761 Y102.263 E3.77998
G1 X113.401 Y102.335 E3.82008 F441.000
G1 X113.955 Y102.564 E3.85740
G1 X114.430 Y102.929 E3.89471
G1 X114.795 Y103.405 E3.93203
G1 X115.025 Y103.959 E3.96934
G1 X115.072 Y104.315 E3.99172
G1 F1860.000 E0.99172
G92 E0
G1 X112.668 Y101.874 F7800.000
G1 X115.622 Y104.303 F7800.000
G1 E3.10000 F1860.000
G1 X115.655 Y104.553 E3.11569 F630.000
G1 X115.558 Y105.290 E3.16197
G1 X115.273 Y105.977 E3.20826
G1 X114.821 Y106.567 E3.25453
G1 X114.231 Y107.019 E3.30083
G1 X113.544 Y107.304 E3.34710
G1 X112.807 Y107.401 E3.39339
G1 X112.070 Y107.304 E3.43966
G1 X111.383 Y107.019 E3.48596
G1 X110.793 Y106.567 E3.53221
G1 X110.340 Y105.977 E3.57851
G1 X110.056 Y105.290 E3.62480
G1 X109.959 Y104.553 E3.67108
G1 X110.056 Y103.816 E3.71738
G1 X110.340 Y103.129 E3.76365
G1 X110.793 Y102.539 E3.80993
G1 X111.383 Y102.086 E3.85622
G1 X112.070 Y101.802 E3.90249
G1 X112.807 Y101.705 E3.94878
G1 X113.427 Y101.786 E3.98769
G1 X113.544 Y101.802 E3.99506 F630.000
G1 X114.231 Y102.086 E4.04135
G1 X114.821 Y102.539 E4.08761
G1 X115.273 Y103.129 E4.13391
G1 X115.558 Y103.816 E4.18020
G1 X115.614 Y104.244 E4.20706
G1 X113.305 Y96.781 F7800.000
G1 X112.711 Y96.860 E4.24438 F441.000
G1 X112.162 Y96.787 E4.27880
G1 X111.563 Y96.552 E4.31891
G1 X111.059 Y96.150 E4.35902
G1 X110.722 Y95.711 E4.39345
G1 X110.493 Y95.158 E4.43076
G1 X110.415 Y94.563 E4.46808
G1 X110.493 Y93.969 E4.50540
G1 X110.722 Y93.415 E4.54271
G1 X111.087 Y92.940 E4.58002
G1 X111.563 Y92.575 E4.61734
G1 X112.117 Y92.345 E4.65465
G1 X112.665 Y92.273 E4.68908
G1 X113.305 Y92.345 E4.72919 F441.000
G1 X113.859 Y92.575 E4.76650
G1 X114.334 Y92.940 E4.80381
G1 X114.699 Y93.415 E4.84113
G1 X114.929 Y93.969 E4.87845
G1 X115.007 Y94.563 E4.91576
G1 X114.929 Y95.158 E4.95307
G1 X114.699 Y95.711 E4.99039
G1 X114.335 Y96.187 E5.02770
G1 X113.859 Y96.552 E5.06502
G1 X113.361 Y96.758 E5.09859
G1 F1860.000 E2.09859
G92 E0
G1 X112.659 Y91.873 F7800.000
G1 X113.377 Y97.324 F7800.000
G1 E3.10000 F1860.000
G1 X112.711 Y97.411 E3.14180 F630.000
G1 X111.974 Y97.314 E3.18808
G1 X111.287 Y97.030 E3.23437
G1 X110.697 Y96.577 E3.28063
G1 X110.244 Y95.988 E3.32692
G1 X110.199 Y95.878 E3.33429
G1 X109.960 Y95.300 E3.37321
G1 X109.863 Y94.563 E3.41950
G1 X109.960 Y93.826 E3.46579
G1 X110.244 Y93.139 E3.51207
G1 X110.697 Y92.549 E3.55835
G1 X111.287 Y92.097 E3.60464
G1 X111.974 Y91.812 E3.65091
G1 X112.711 Y91.715 E3.69720
G1 X113.331 Y91.797 E3.73611
G1 X113.448 Y91.812 E3.74348 F630.000
G1 X114.135 Y92.097 E3.78977
G1 X114.725 Y92.549 E3.83603
G1 X115.177 Y93.139 E3.88232
G1 X115.223 Y93.249 E3.88969
G1 X115.462 Y93.826 E3.92861
G1 X115.559 Y94.563 E3.97489
G1 X115.462 Y95.301 E4.02118
G1 X115.177 Y95.987 E4.06747
G1 X114.725 Y96.577 E4.11374
G1 X114.135 Y97.030 E4.16003
G1 X113.436 Y97.316 E4.20703
G1 X113.932 Y101.555 F7800.000
G1 X101.595 Y89.218 E5.29310 F1500.000
G1 X100.818 Y89.218 E5.34146
G1 X112.943 Y101.343 E6.40888
G1 X112.225 Y101.401 E6.45373
G1 X100.041 Y89.218 E7.52631
G1 X99.264 Y89.218 E7.57467
G1 X111.625 Y101.578 E8.66282
G1 X111.099 Y101.829 E8.69909
G1 X98.487 Y89.218 E9.80934
G1 X97.711 Y89.218 E9.85769
G1 X110.660 Y102.166 E10.99763
G1 X110.291 Y102.575 E11.03187
G1 X96.934 Y89.218 E12.20773
G1 X96.157 Y89.218 E12.25608
G1 X109.972 Y103.033 E13.47229
G1 X109.745 Y103.582 E13.50929
G1 X95.380 Y89.218 E14.77385
G1 X94.603 Y89.218 E14.82220
G1 X109.621 Y104.235 E16.14422
G1 X109.642 Y105.033 E16.19392
G1 X93.827 Y89.218 E17.58619
G1 X93.050 Y89.218 E17.63454
G1 X110.051 Y106.219 E19.13120
G1 X111.141 Y107.309 F7800.000
G1 X114.615 Y110.782 E19.43698 F1500.000
G1 X115.392 Y110.782 E19.48534
G1 X112.327 Y107.718 E19.75513
G1 X113.125 Y107.739 E19.80483
G1 X116.168 Y110.782 E20.07274
G1 X116.945 Y110.782 E20.12110
G1 X113.778 Y107.615 E20.39994
G1 X114.327 Y107.387 E20.43695
G1 X117.722 Y110.782 E20.73583
G1 X118.499 Y110.782 E20.78418
G1 X114.785 Y107.069 E21.11109
G1 X115.193 Y106.700 E21.14533
G1 X119.275 Y110.782 E21.50470
G1 X120.052 Y110.782 E21.55306
G1 X115.531 Y106.261 E21.95112
G1 X115.781 Y105.735 E21.98739
G1 X120.829 Y110.782 E22.43175
G1 X121.606 Y110.782 E22.48011
G1 X115.958 Y105.135 E22.97728
G1 X116.017 Y104.417 E23.02213
G1 X122.383 Y110.782 E23.58252
G1 X123.159 Y110.782 E23.63087
G1 X115.805 Y103.428 E24.27829
G1 X119.501 Y99.356 F7800.000
G1 X115.745 Y95.601 E24.60888 F1500.000
G1 X115.886 Y94.964 E24.64943
G1 X119.501 Y98.579 E24.96763
G1 X119.501 Y97.802 E25.01599
G1 X115.890 Y94.192 E25.33384
G1 X115.564 Y93.089 E25.40540
G1 X119.501 Y97.025 E25.75192
G1 F1860.000 E22.75192
G92 E0
G1 X124.337 Y100.308 F7800.000
G1 E3.10000 F1860.000
G1 X124.188 Y100.159 E3.11314 F1500.000
G1 X123.411 Y100.159 E3.16150
G1 X124.611 Y101.359 E3.26711
G1 X124.611 Y102.136 E3.31546
G1 X122.634 Y100.159 E3.48945
G1 X121.858 Y100.159 E3.53781
G1 X124.611 Y102.912 E3.78018
G1 X124.611 Y103.689 E3.82854
G1 X121.081 Y100.159 E4.13930
G1 X120.304 Y100.159 E4.18765
G1 X124.611 Y104.466 E4.56679
G1 X124.611 Y105.243 E4.61515
G1 X115.518 Y96.150 E5.41562
G1 X115.186 Y96.595 E5.45018
G1 X124.611 Y106.019 E6.27986
G1 X124.611 Y106.796 E6.32821
G1 X114.805 Y96.991 E7.19145
G1 X114.365 Y97.328 E7.22593
G1 X124.611 Y107.573 E8.12786
G1 X124.611 Y108.350 E8.17622
G1 X113.826 Y97.565 E9.12560
G1 X113.210 Y97.726 E9.16526
G1 X124.611 Y109.127 E10.16892
G1 X124.611 Y109.903 E10.21727
G1 X112.467 Y97.759 E11.28637
G1 X111.426 Y97.495 E11.35321
G1 X124.611 Y110.680 E12.51394
G1 X123.936 Y110.782 E12.55641
G1 X102.371 Y89.218 E14.45484
G1 X103.148 Y89.218 E14.50319
G1 X109.779 Y95.848 E15.08693
G1 X109.515 Y94.808 E15.15378
G1 X103.925 Y89.218 E15.64589
G1 X104.702 Y89.218 E15.69424
G1 X109.548 Y94.064 E16.12092
G1 X109.709 Y93.448 E16.16057
G1 X105.478 Y89.218 E16.53298
G1 X106.255 Y89.218 E16.58133
G1 X109.946 Y92.909 E16.90627
G1 X110.284 Y92.469 E16.94076
G1 X107.032 Y89.218 E17.22701
G1 X107.809 Y89.218 E17.27536
G1 X110.679 Y92.088 E17.52807
G1 X111.124 Y91.756 E17.56262
G1 X108.586 Y89.218 E17.78611
G1 X109.362 Y89.218 E17.83447
G1 X111.674 Y91.529 E18.03793
G1 X112.310 Y91.388 E18.07848
G1 X110.139 Y89.218 E18.26956
G1 X110.916 Y89.218 E18.31792
G1 X113.083 Y91.384 E18.50865
G1 X114.185 Y91.710 E18.58021
G1 X111.693 Y89.218 E18.79961
G1 X112.470 Y89.218 E18.84796
G1 X119.501 Y96.249 E19.46693
G1 X119.501 Y95.472 E19.51529
G1 X113.246 Y89.218 E20.06587
G1 X114.023 Y89.218 E20.11423
G1 X119.501 Y94.695 E20.59643
G1 X119.501 Y93.918 E20.64478
G1 X114.800 Y89.218 E21.05861
G1 X115.577 Y89.218 E21.10696
G1 X119.501 Y93.142 E21.45240
G1 X119.501 Y92.365 E21.50075
G1 X116.353 Y89.218 E21.77781
G1 X117.130 Y89.218 E21.82616
G1 X119.501 Y91.588 E22.03483
G1 X119.501 Y90.811 E22.08318
G1 X117.907 Y89.218 E22.22347
G1 X118.684 Y89.218 E22.27183
G1 X119.501 Y90.034 E22.34373
G1 X119.501 Y89.258 E22.39209
G1 X119.461 Y89.218 E22.39561
G1 X113.838 Y110.782 F7800.000
G1 X92.273 Y89.218 E24.29404 F1500.000
G1 X91.496 Y89.218 E24.34239
G1 X113.061 Y110.782 E26.24082
G1 X112.284 Y110.782 E26.28917
G1 X90.720 Y89.218 E28.18760
G1 X89.943 Y89.218 E28.23596
G1 X111.508 Y110.782 E30.13439
G1 X110.731 Y110.782 E30.18274
G1 X89.166 Y89.218 E32.08117
G1 X88.389 Y89.218 E32.12952
G1 X109.954 Y110.782 E34.02795
G1 X109.177 Y110.782 E34.07631
G1 X87.612 Y89.218 E35.97474
G1 X86.836 Y89.218 E36.02309
G1 X108.400 Y110.782 E37.92152
G1 X107.624 Y110.782 E37.96987
G1 X86.059 Y89.218 E39.86830
G1 X85.282 Y89.218 E39.91666
G1 X106.847 Y110.782 E41.81509
G1 X106.070 Y110.782 E41.86344
G1 X84.505 Y89.218 E43.76187
G1 X83.728 Y89.218 E43.81023
G1 X105.293 Y110.782 E45.70865
G1 X104.517 Y110.782 E45.75701
G1 X82.952 Y89.218 E47.65544
G1 X82.175 Y89.218 E47.70379
G1 X103.740 Y110.782 E49.60222
G1 X102.963 Y110.782 E49.65058
G1 X81.398 Y89.218 E51.54901
G1 X80.621 Y89.218 E51.59736
G1 X102.186 Y110.782 E53.49579
G1 X101.409 Y110.782 E53.54414
G1 X79.845 Y89.218 E55.44257
G1 X79.068 Y89.218 E55.49093
G1 X100.633 Y110.782 E57.38936
G1 X99.856 Y110.782 E57.43771
G1 X78.291 Y89.218 E59.33614
G1 X77.514 Y89.218 E59.38449
G1 X99.079 Y110.782 E61.28292
G1 X98.302 Y110.782 E61.33128
G1 X76.737 Y89.218 E63.22971
G1 X75.961 Y89.218 E63.27806
G1 X97.525 Y110.782 E65.17649
G1 X96.749 Y110.782 E65.22484
G1 X75.184 Y89.218 E67.12327
G1 X74.407 Y89.218 E67.17163
G1 X95.972 Y110.782 E69.07006
G1 X95.195 Y110.782 E69.11841
G1 X73.630 Y89.218 E71.01684
G1 X72.853 Y89.218 E71.06519
G1 X94.418 Y110.782 E72.96362
G1 X93.642 Y110.782 E73.01198
G1 X72.077 Y89.218 E74.91041
G1 X71.300 Y89.218 E74.95876
G1 X92.865 Y110.782 E76.85719
G1 X92.088 Y110.782 E76.90554
G1 X70.523 Y89.218 E78.80397
G1 X69.746 Y89.218 E78.85233
G1 X91.311 Y110.782 E80.75076
G1 X90.534 Y110.782 E80.79911
G1 X68.970 Y89.218 E82.69754
G1 X68.193 Y89.218 E82.74589
G1 X89.758 Y110.782 E84.64432
G1 X88.981 Y110.782 E84.69268
G1 X67.416 Y89.218 E86.59111
G1 X66.639 Y89.218 E86.63946
G1 X88.204 Y110.782 E88.53789
G1 X87.427 Y110.782 E88.58625
G1 X65.862 Y89.218 E90.48467
G1 X65.086 Y89.218 E90.53303
G1 X86.650 Y110.782 E92.43146
G1 X85.874 Y110.782 E92.47981
G1 X64.309 Y89.218 E94.37824
G1 X63.532 Y89.218 E94.42660
G1 X85.097 Y110.782 E96.32502
G1 X84.320 Y110.782 E96.37338
G1 X62.755 Y89.218 E98.27181
G1 X61.978 Y89.218 E98.32016
G1 X83.543 Y110.782 E100.21859
G1 X82.767 Y110.782 E100.26695
G1 X61.202 Y89.218 E102.16537
G1 X60.425 Y89.218 E102.21373
G1 X62.163 Y90.956 E102.36673
G1 X61.145 Y90.714 E102.43184
G1 X59.648 Y89.218 E102.56362
G1 X58.871 Y89.218 E102.61197
G1 X60.233 Y90.579 E102.73184
G1 X59.547 Y90.670 E102.77491
G1 X58.095 Y89.218 E102.90278
G1 X57.318 Y89.218 E102.95113
G1 X58.861 Y90.761 E103.08700
G1 X58.279 Y90.955 E103.12521
G1 X56.541 Y89.218 E103.27821
G1 X55.764 Y89.218 E103.32656
G1 X57.746 Y91.200 E103.50104
G1 X57.213 Y91.444 E103.53751
G1 X54.987 Y89.218 E103.73348
G1 X54.211 Y89.218 E103.78183
G1 X56.577 Y91.584 E103.99020
G1 X55.801 Y91.584 E104.03855
G1 X53.434 Y89.218 E104.24692
G1 X52.657 Y89.218 E104.29527
G1 X55.024 Y91.584 E104.50364
G1 X54.247 Y91.584 E104.55199
G1 X51.880 Y89.218 E104.76036
G1 X51.103 Y89.218 E104.80871
G1 X53.470 Y91.584 E105.01708
G1 X52.694 Y91.584 E105.06543
G1 X50.327 Y89.218 E105.27380
G1 X49.550 Y89.218 E105.32215
G1 X51.917 Y91.584 E105.53052
G1 X51.140 Y91.584 E105.57887
G1 X48.773 Y89.218 E105.78724
G1 X47.996 Y89.218 E105.83560
G1 X50.363 Y91.584 E106.04396
G1 X49.586 Y91.584 E106.09232
G1 X47.220 Y89.218 E106.30068
G1 X46.443 Y89.218 E106.34904
G1 X48.810 Y91.584 E106.55740
G1 X48.033 Y91.584 E106.60576
G1 X46.218 Y89.769 E106.76556
G1 X46.218 Y90.546 E106.81392
G1 X47.256 Y91.584 E106.90534
G1 X46.479 Y91.584 E106.95369
G1 X46.218 Y91.323 E106.97673
G1 F1860.000 E103.97673
G92 E0
G1 X46.878 Y104.412 F7800.000
G1 E3.10000 F1860.000
G1 X53.249 Y110.782 E3.66082 F1500.000
G1 X54.025 Y110.782 E3.70917
G1 X47.655 Y104.412 E4.26999
G1 X48.432 Y104.412 E4.31835
G1 X54.802 Y110.782 E4.87916
G1 X55.579 Y110.782 E4.92752
G1 X49.208 Y104.412 E5.48834
G1 X49.985 Y104.412 E5.53669
G1 X56.356 Y110.782 E6.09751
G1 X57.133 Y110.782 E6.14586
G1 X50.762 Y104.412 E6.70668
G1 X51.539 Y104.412 E6.75504
G1 X57.909 Y110.782 E7.31586
G1 X58.686 Y110.782 E7.36421
G1 X52.316 Y104.412 E7.92503
G1 X53.092 Y104.412 E7.97338
