; generated by Slic3r 1.1.7 on 2014-12-24 at 19:50:00

; perimeters extrusion width = 0.40mm
; infill extrusion width = 0.67mm
; solid infill extrusion width = 0.67mm
; top infill extrusion width = 0.67mm
; support material extrusion width = 0.40mm

G21 ; set units to millimeters
M190 S70 ; wait for bed temperature to be reached
M104 S215 ; set temperature
G28 ; home all axes Start of G Code Slic3r
 
M109 S215 ; wait for temperature to be reached
G90 ; use absolute coordinates
G92 E0
M82 ; use absolute distances for extrusion
M106 S127
G1 F1860.000 E-3.00000
G92 E0
G1 Z0.200 F6000.000
G1 X87.072 Y88.125 F6000.000
G1 E3.10000 F1860.000
G1 X88.836 Y86.569 E3.14377 F1200.000
G1 X91.018 Y85.688 E3.18755
G1 X92.500 Y85.528 E3.21527
G1 X107.500 Y85.528 E3.49430
G1 X109.819 Y85.925 E3.53807
G1 X111.875 Y87.072 E3.58184 F1200.000
G1 X113.431 Y88.836 E3.62561
G1 X114.312 Y91.018 E3.66939
G1 X114.472 Y92.500 E3.69711
G1 X114.472 Y107.500 E3.97614
G1 X114.075 Y109.819 E4.01991
G1 X112.928 Y111.875 E4.06368
G1 X111.164 Y113.431 E4.10746
G1 X108.982 Y114.312 E4.15123
G1 X107.500 Y114.472 E4.17895
G1 X92.500 Y114.472 E4.45798
G1 X90.181 Y114.075 E4.50175
G1 X88.125 Y112.928 E4.54552
G1 X86.569 Y111.164 E4.58930
G1 X85.688 Y108.982 E4.63307
G1 X85.528 Y107.500 E4.66079
G1 X85.528 Y92.500 E4.93982
G1 X85.925 Y90.181 E4.98359
G1 X87.042 Y88.178 E5.02625
G1 X87.292 Y88.251 F6000.000
G1 X87.312 Y88.214 E5.02703 F1200.000
G1 X89.069 Y86.712 E5.07003
G1 X91.230 Y85.892 E5.11302
G1 X92.500 Y85.771 E5.13675
G1 X107.500 Y85.771 E5.41578
G1 X109.777 Y86.168 E5.45878
G1 X111.786 Y87.312 E5.50177 F1200.000
G1 X113.288 Y89.069 E5.54477
G1 X114.108 Y91.230 E5.58777
G1 X114.229 Y92.500 E5.61150
G1 X114.229 Y107.500 E5.89052
G1 X113.832 Y109.777 E5.93352
G1 X112.688 Y111.786 E5.97652
G1 X110.931 Y113.288 E6.01952
G1 X108.770 Y114.108 E6.06252
G1 X107.500 Y114.229 E6.08624
G1 X92.500 Y114.229 E6.36527
G1 X90.223 Y113.832 E6.40827
G1 X88.214 Y112.688 E6.45126
G1 X86.712 Y110.931 E6.49426
G1 X85.892 Y108.770 E6.53726
G1 X85.771 Y107.500 E6.56099
G1 X85.771 Y92.500 E6.84001
G1 X86.168 Y90.223 E6.88301
G1 X87.262 Y88.303 E6.92411
G1 X87.511 Y88.378 F6000.000
G1 X87.553 Y88.305 E6.92569 F1200.000
G1 X89.301 Y86.858 E6.96790
G1 X92.500 Y86.014 E7.02944
G1 X107.500 Y86.014 E7.30847
G1 X109.734 Y86.411 E7.35068
G1 X111.695 Y87.553 E7.39289 F1200.000
G1 X113.142 Y89.301 E7.43509
G1 X113.986 Y92.500 E7.49664
G1 X113.986 Y107.500 E7.77567
G1 X113.589 Y109.734 E7.81788
G1 X112.447 Y111.695 E7.86008
G1 X110.699 Y113.142 E7.90229
G1 X107.500 Y113.986 E7.96384
G1 X92.500 Y113.986 E8.24286
G1 X90.266 Y113.589 E8.28507
G1 X88.305 Y112.447 E8.32728
G1 X86.858 Y110.699 E8.36949
G1 X86.014 Y107.500 E8.43104
G1 X86.014 Y92.500 E8.71006
G1 X86.411 Y90.266 E8.75227
G1 X87.480 Y88.430 E8.79179
G1 X87.728 Y88.508 F6000.000
G1 X87.794 Y88.398 E8.79417 F1200.000
G1 X89.532 Y87.008 E8.83558
G1 X92.500 Y86.257 E8.89253
G1 X107.500 Y86.257 E9.17155
G1 X109.690 Y86.654 E9.21296
G1 X111.602 Y87.794 E9.25436 F1200.000
G1 X112.992 Y89.532 E9.29577
G1 X113.743 Y92.500 E9.35271
G1 X113.743 Y107.500 E9.63174
G1 X113.346 Y109.690 E9.67314
G1 X112.206 Y111.602 E9.71455
G1 X110.468 Y112.992 E9.75595
G1 X107.500 Y113.743 E9.81290
G1 X92.500 Y113.743 E10.09193
G1 X90.310 Y113.346 E10.13333
G1 X88.398 Y112.206 E10.17474
G1 X87.008 Y110.468 E10.21614
G1 X86.257 Y107.500 E10.27309
G1 X86.257 Y92.500 E10.55212
G1 X86.654 Y90.310 E10.59352
G1 X87.697 Y88.560 E10.63143
G1 F1860.000 E7.63143
G92 E0
G1 X107.157 Y107.157 F6000.000
G1 E3.10000 F1860.000
G1 X92.843 Y107.157 E3.36627 F1200.000
G1 X92.843 Y92.843 E3.63254
G1 X107.157 Y92.843 E3.89881
G1 X107.157 Y107.097 E4.16396
G1 X107.400 Y107.400 F6000.000
G1 X92.600 Y107.400 E4.43926 F1200.000
G1 X92.600 Y92.600 E4.71457
G1 X107.400 Y92.600 E4.98988
G1 X107.400 Y107.340 E5.26407
G1 X107.054 Y107.200 F6000.000
G1 F1860.000 E2.26407
G92 E0
G1 X92.999 Y106.961 F6000.000
G1 E3.10000 F1860.000
G1 X93.039 Y107.001 E3.10105 F1200.000
G1 X93.384 Y107.001 E3.10747
G1 X92.999 Y106.616 E3.11759
G1 X92.999 Y106.272 E3.12400
G1 X93.729 Y107.001 E3.14319
G1 X94.073 Y107.001 E3.14960
G1 X92.999 Y105.927 E3.17786
G1 X92.999 Y105.582 E3.18427
G1 X94.418 Y107.001 E3.22160
G1 X94.763 Y107.001 E3.22802
G1 X92.999 Y105.237 E3.27441
G1 X92.999 Y104.893 E3.28083
G1 X95.107 Y107.001 E3.33629
G1 X95.452 Y107.001 E3.34270
G1 X92.999 Y104.548 E3.40724
G1 X92.999 Y104.203 E3.41365
G1 X95.797 Y107.001 E3.48726
G1 X96.142 Y107.001 E3.49367
G1 X92.999 Y103.858 E3.57634
G1 X92.999 Y103.514 E3.58276
G1 X96.486 Y107.001 E3.67450
G1 X96.831 Y107.001 E3.68091
G1 X92.999 Y103.169 E3.78172
G1 X92.999 Y102.824 E3.78814
G1 X97.176 Y107.001 E3.89802
G1 X97.521 Y107.001 E3.90443
G1 X92.999 Y102.479 E4.02338
G1 X92.999 Y102.135 E4.02979
G1 X97.865 Y107.001 E4.15781
G1 X98.210 Y107.001 E4.16422
G1 X92.999 Y101.790 E4.30131
G1 X92.999 Y101.445 E4.30772
G1 X98.555 Y107.001 E4.45388
G1 X98.900 Y107.001 E4.46029
G1 X92.999 Y101.100 E4.61552
G1 X92.999 Y100.756 E4.62193
G1 X99.244 Y107.001 E4.78623
G1 X99.589 Y107.001 E4.79264
G1 X92.999 Y100.411 E4.96600
G1 X92.999 Y100.066 E4.97242
G1 X99.934 Y107.001 E5.15485
G1 X100.279 Y107.001 E5.16126
G1 X92.999 Y99.721 E5.35276
G1 X92.999 Y99.377 E5.35918
G1 X100.623 Y107.001 E5.55975
G1 X100.968 Y107.001 E5.56616
G1 X92.999 Y99.032 E5.77580
G1 X92.999 Y98.687 E5.78221
G1 X101.313 Y107.001 E6.00092
G1 X101.658 Y107.001 E6.00734
G1 X92.999 Y98.342 E6.23511
G1 X92.999 Y97.998 E6.24153
G1 X102.002 Y107.001 E6.47837
G1 X102.347 Y107.001 E6.48479
G1 X92.999 Y97.653 E6.73070
G1 X92.999 Y97.308 E6.73712
G1 X102.692 Y107.001 E6.99210
G1 X103.036 Y107.001 E6.99851
G1 X92.999 Y96.964 E7.26257
G1 X92.999 Y96.619 E7.26898
G1 X103.381 Y107.001 E7.54210
G1 X103.726 Y107.001 E7.54852
G1 X92.999 Y96.274 E7.83071
G1 X92.999 Y95.929 E7.83712
G1 X104.071 Y107.001 E8.12838
G1 X104.415 Y107.001 E8.13480
G1 X92.999 Y95.585 E8.43513
G1 X92.999 Y95.240 E8.44154
G1 X104.760 Y107.001 E8.75094
G1 X105.105 Y107.001 E8.75735
G1 X92.999 Y94.895 E9.07582
G1 X92.999 Y94.550 E9.08223
G1 X105.450 Y107.001 E9.40977
G1 X105.794 Y107.001 E9.41618
G1 X92.999 Y94.206 E9.75279
G1 X92.999 Y93.861 E9.75920
G1 X106.139 Y107.001 E10.10488
G1 X106.484 Y107.001 E10.11129
G1 X92.999 Y93.516 E10.46603
G1 X92.999 Y93.171 E10.47245
G1 X106.829 Y107.001 E10.83626
G1 X107.001 Y106.829 E10.84080
G1 X93.171 Y92.999 E11.20461
G1 X93.516 Y92.999 E11.21102
G1 X107.001 Y106.484 E11.56577
G1 X107.001 Y106.139 E11.57218
G1 X93.861 Y92.999 E11.91785
G1 X94.206 Y92.999 E11.92427
G1 X107.001 Y105.794 E12.26087
G1 X107.001 Y105.450 E12.26729
G1 X94.550 Y92.999 E12.59482
G1 X94.895 Y92.999 E12.60124
G1 X107.001 Y105.105 E12.91970
G1 X107.001 Y104.760 E12.92612
G1 X95.240 Y92.999 E13.23552
G1 X95.585 Y92.999 E13.24193
G1 X107.001 Y104.415 E13.54226
G1 X107.001 Y104.071 E13.54867
G1 X95.929 Y92.999 E13.83993
G1 X96.274 Y92.999 E13.84634
G1 X107.001 Y103.726 E14.12854
G1 X107.001 Y103.381 E14.13495
G1 X96.619 Y92.999 E14.40807
G1 X96.964 Y92.999 E14.41449
G1 X107.001 Y103.036 E14.67854
G1 X107.001 Y102.692 E14.68495
G1 X97.308 Y92.999 E14.93994
G1 X97.653 Y92.999 E14.94635
G1 X107.001 Y102.347 E15.19227
G1 X107.001 Y102.002 E15.19868
G1 X97.998 Y92.999 E15.43553
G1 X98.342 Y92.999 E15.44194
G1 X107.001 Y101.658 E15.66972
G1 X107.001 Y101.313 E15.67613
G1 X98.687 Y92.999 E15.89484
G1 X99.032 Y92.999 E15.90125
G1 X107.001 Y100.968 E16.11089
G1 X107.001 Y100.623 E16.11730
G1 X99.377 Y92.999 E16.31787
G1 X99.721 Y92.999 E16.32429
G1 X107.001 Y100.279 E16.51579
G1 X107.001 Y99.934 E16.52220
G1 X100.066 Y92.999 E16.70463
G1 X100.411 Y92.999 E16.71105
G1 X107.001 Y99.589 E16.88441
G1 X107.001 Y99.244 E16.89082
G1 X100.756 Y92.999 E17.05512
G1 X101.100 Y92.999 E17.06153
G1 X107.001 Y98.900 E17.21676
G1 X107.001 Y98.555 E17.22317
G1 X101.445 Y92.999 E17.36933
G1 X101.790 Y92.999 E17.37574
G1 X107.001 Y98.210 E17.51283
G1 X107.001 Y97.865 E17.51924
G1 X102.135 Y92.999 E17.64726
G1 X102.479 Y92.999 E17.65367
G1 X107.001 Y97.521 E17.77262
G1 X107.001 Y97.176 E17.77903
G1 X102.824 Y92.999 E17.88891
G1 X103.169 Y92.999 E17.89533
G1 X107.001 Y96.831 E17.99614
G1 X107.001 Y96.486 E18.00255
G1 X103.514 Y92.999 E18.09429
G1 X103.858 Y92.999 E18.10071
G1 X107.001 Y96.142 E18.18338
G1 X107.001 Y95.797 E18.18979
G1 X104.203 Y92.999 E18.26340
G1 X104.548 Y92.999 E18.26981
G1 X107.001 Y95.452 E18.33435
G1 X107.001 Y95.107 E18.34076
G1 X104.893 Y92.999 E18.39622
G1 X105.237 Y92.999 E18.40264
G1 X107.001 Y94.763 E18.44903
G1 X107.001 Y94.418 E18.45545
G1 X105.582 Y92.999 E18.49278
G1 X105.927 Y92.999 E18.49919
G1 X107.001 Y94.073 E18.52745
G1 X107.001 Y93.729 E18.53386
G1 X106.272 Y92.999 E18.55305
G1 X106.616 Y92.999 E18.55946
G1 X107.001 Y93.384 E18.56959
G1 X107.001 Y93.039 E18.57600
G1 X106.961 Y92.999 E18.57705
M106 S255
M104 S210 ; set temperature
M140 S65 ; set bed temperature
G1 F1860.000 E15.57705
G92 E0
G1 Z0.400 F6000.000
G1 X106.900 Y106.900 F6000.000
G1 E3.10000 F1860.000
G1 X93.100 Y106.900 E3.52270 F1866.917
G1 X93.100 Y93.100 E3.94539
G1 X106.900 Y93.100 E4.36809
G1 X106.900 Y106.840 E4.78895
G1 X107.300 Y107.300 F6000.000
G1 X92.700 Y107.300 E5.23615 F1493.534
G1 X92.700 Y92.700 E5.68335
G1 X107.300 Y92.700 E6.13056
G1 X107.300 Y107.240 E6.57592
G1 X106.954 Y107.100 F6000.000
G1 X106.579 Y106.539 F6000.000
G1 X106.539 Y106.579 E6.57864 F1633.553
G1 X105.634 Y106.579 E6.62217
G1 X106.579 Y105.634 E6.68644
G1 X106.579 Y104.729 E6.72997
G1 X104.729 Y106.579 E6.85580
G1 X103.825 Y106.579 E6.89933
G1 X106.579 Y103.825 E7.08671
G1 X106.579 Y102.920 E7.13024
G1 X102.920 Y106.579 E7.37918
G1 X102.015 Y106.579 E7.42270
G1 X106.579 Y102.015 E7.73320
G1 X106.579 Y101.111 E7.77673
G1 X101.111 Y106.579 E8.14878
G1 X100.206 Y106.579 E8.19230
G1 X106.579 Y100.206 E8.62591
G1 X106.579 Y99.302 E8.66943
G1 X99.302 Y106.579 E9.16459
G1 X98.397 Y106.579 E9.20812
G1 X106.579 Y98.397 E9.76483
G1 X106.579 Y97.492 E9.80836
G1 X97.492 Y106.579 E10.42663
G1 X96.588 Y106.579 E10.47015
G1 X106.579 Y96.588 E11.14998
G1 X106.579 Y95.683 E11.19350
G1 X95.683 Y106.579 E11.93488
G1 X94.778 Y106.579 E11.97841
G1 X106.579 Y94.778 E12.78134
G1 X106.579 Y93.874 E12.82487
G1 X93.874 Y106.579 E13.68936
G1 X93.421 Y106.126 E13.72013
G1 X106.126 Y93.421 E14.58462
G1 X105.222 Y93.421 E14.62815
G1 X93.421 Y105.222 E15.43108
G1 X93.421 Y104.317 E15.47461
G1 X104.317 Y93.421 E16.21598
G1 X103.412 Y93.421 E16.25951
G1 X93.421 Y103.412 E16.93933
G1 X93.421 Y102.508 E16.98286
G1 X102.508 Y93.421 E17.60113
G1 X101.603 Y93.421 E17.64466
G1 X93.421 Y101.603 E18.20137
G1 X93.421 Y100.698 E18.24490
G1 X100.698 Y93.421 E18.74005
G1 X99.794 Y93.421 E18.78358
G1 X93.421 Y99.794 E19.21719
G1 X93.421 Y98.889 E19.26071
G1 X98.889 Y93.421 E19.63276
G1 X97.985 Y93.421 E19.67629
G1 X93.421 Y97.985 E19.98678
G1 X93.421 Y97.080 E20.03031
G1 X97.080 Y93.421 E20.27925
G1 X96.175 Y93.421 E20.32278
G1 X93.421 Y96.175 E20.51016
G1 X93.421 Y95.271 E20.55369
G1 X95.271 Y93.421 E20.67952
G1 X94.366 Y93.421 E20.72304
G1 X93.421 Y94.366 E20.78732
G1 X93.421 Y93.461 E20.83085
G1 X93.461 Y93.421 E20.83357
G1 F1860.000 E17.83357
G92 E0
G1 Z0.600 F6000.000
G1 X106.900 Y106.900 F6000.000
G1 E3.10000 F1860.000
G1 X93.100 Y106.900 E3.52270 F1866.917
G1 X93.100 Y93.100 E3.94539
G1 X106.900 Y93.100 E4.36809
G1 X106.900 Y106.840 E4.78895
G1 X107.300 Y107.300 F6000.000
G1 X92.700 Y107.300 E5.23615 F1493.534
G1 X92.700 Y93.000 E5.67416
G1 X92.700 Y92.700 E5.68335
G1 X107.300 Y92.700 E6.13056
G1 X107.300 Y107.240 E6.57592
G1 X106.954 Y107.100 F6000.000
G1 F1860.000 E3.57592
G92 E0
G1 X93.421 Y106.539 F6000.000
G1 E3.10000 F1860.000
G1 X93.461 Y106.579 E3.10272 F1633.553
G1 X94.366 Y106.579 E3.14625
G1 X93.421 Y105.634 E3.21052
G1 X93.421 Y104.729 E3.25405
G1 X95.271 Y106.579 E3.37988
G1 X96.175 Y106.579 E3.42341
G1 X93.421 Y103.825 E3.61079
G1 X93.421 Y102.920 E3.65432
G1 X97.080 Y106.579 E3.90326
G1 X97.985 Y106.579 E3.94679
G1 X93.421 Y102.015 E4.25728
G1 X93.421 Y101.111 E4.30081
G1 X98.889 Y106.579 E4.67286
G1 X99.794 Y106.579 E4.71638
G1 X93.421 Y100.206 E5.14999
G1 X93.421 Y99.302 E5.19351
G1 X100.698 Y106.579 E5.68867
G1 X101.603 Y106.579 E5.73220
G1 X93.421 Y98.397 E6.28891
G1 X93.421 Y97.492 E6.33244
G1 X102.508 Y106.579 E6.95071
G1 X103.412 Y106.579 E6.99424
G1 X93.421 Y96.588 E7.67406
G1 X93.421 Y95.683 E7.71759
G1 X104.317 Y106.579 E8.45896
G1 X105.222 Y106.579 E8.50249
G1 X93.421 Y94.778 E9.30542
G1 X93.421 Y93.874 E9.34895
G1 X106.126 Y106.579 E10.21344
G1 X106.579 Y106.126 E10.24422
G1 X93.874 Y93.421 E11.10870
G1 X94.778 Y93.421 E11.15223
G1 X106.579 Y105.222 E11.95516
G1 X106.579 Y104.317 E11.99869
G1 X95.683 Y93.421 E12.74007
G1 X96.588 Y93.421 E12.78359
G1 X106.579 Y103.412 E13.46342
G1 X106.579 Y102.508 E13.50694
G1 X97.492 Y93.421 E14.12521
G1 X98.397 Y93.421 E14.16874
G1 X106.579 Y101.603 E14.72545
G1 X106.579 Y100.698 E14.76898
G1 X99.302 Y93.421 E15.26414
G1 X100.206 Y93.421 E15.30766
G1 X106.579 Y99.794 E15.74127
G1 X106.579 Y98.889 E15.78479
G1 X101.111 Y93.421 E16.15684
G1 X102.015 Y93.421 E16.20037
G1 X106.579 Y97.985 E16.51086
G1 X106.579 Y97.080 E16.55439
G1 X102.920 Y93.421 E16.80333
G1 X103.825 Y93.421 E16.84686
G1 X106.579 Y96.175 E17.03424
G1 X106.579 Y95.271 E17.07777
G1 X104.729 Y93.421 E17.20360
G1 X105.634 Y93.421 E17.24713
G1 X106.579 Y94.366 E17.31140
G1 X106.579 Y93.461 E17.35493
G1 X106.539 Y93.421 E17.35765
G1 F1860.000 E14.35765
G92 E0
G1 Z0.800 F6000.000
G1 X106.900 Y106.900 F6000.000
G1 E3.10000 F1860.000
G1 X93.100 Y106.900 E3.52270 F849.349
G1 X93.100 Y93.100 E3.94539
G1 X106.900 Y93.100 E4.36809
G1 X106.900 Y106.840 E4.78895
G1 X107.300 Y107.300 F6000.000
G1 X92.700 Y107.300 E5.23615 F679.480
G1 X92.700 Y93.200 E5.66804
G1 X92.700 Y92.700 E5.68335
G1 X107.300 Y92.700 E6.13056
G1 X107.300 Y107.240 E6.57592
G1 X106.954 Y107.100 F6000.000
G1 F1860.000 E3.57592
G92 E0
G1 X106.579 Y104.338 F6000.000
G1 E3.10000 F1860.000
G1 X104.338 Y106.579 E3.25244 F1061.687
G1 X101.376 Y106.579 E3.39495
G1 X106.579 Y101.376 E3.74893
G1 X106.579 Y98.414 E3.89144
G1 X98.414 Y106.579 E4.44695
G1 X95.453 Y106.579 E4.58946
G1 X106.579 Y95.453 E5.34652
G1 X105.648 Y93.421 E5.45402
G1 X93.421 Y105.648 E6.28595
G1 X93.421 Y102.686 E6.42846
G1 X102.686 Y93.421 E7.05886
G1 X99.724 Y93.421 E7.20137
G1 X93.421 Y99.724 E7.63022
G1 X93.421 Y96.762 E7.77273
G1 X96.762 Y93.421 E8.00005
G1 X93.800 Y93.421 E8.14256
G1 X93.421 Y93.800 E8.16834
G1 F1860.000 E5.16834
G92 E0
G1 Z1.000 F6000.000
G1 X106.900 Y106.900 F6000.000
G1 E3.10000 F1860.000
G1 X93.100 Y106.900 E3.52270 F852.330
G1 X93.100 Y93.400 E3.93621
G1 X93.100 Y93.100 E3.94539
G1 X106.900 Y93.100 E4.36809
G1 X106.900 Y106.840 E4.78895
G1 X107.300 Y107.300 F6000.000
G1 X92.700 Y107.300 E5.23615 F681.864
G1 X92.700 Y93.400 E5.66191
G1 X92.700 Y92.700 E5.68335
G1 X107.300 Y92.700 E6.13056
G1 X107.300 Y107.240 E6.57592
G1 X106.954 Y107.100 F6000.000
G1 F1860.000 E3.57592
G92 E0
G1 X95.211 Y106.579 F6000.000
G1 E3.10000 F1860.000
G1 X93.421 Y104.789 E3.22175 F1065.413
G1 X93.421 Y101.827 E3.36426
G1 X98.173 Y106.579 E3.68756
G1 X101.135 Y106.579 E3.83007
G1 X93.421 Y98.865 E4.35490
G1 X93.421 Y95.904 E4.49741
G1 X104.096 Y106.579 E5.22378
G1 X106.579 Y106.099 E5.34541
G1 X93.901 Y93.421 E6.20803
G1 X96.863 Y93.421 E6.35054
G1 X106.579 Y103.137 E7.01162
G1 X106.579 Y100.175 E7.15413
G1 X99.825 Y93.421 E7.61367
G1 X102.787 Y93.421 E7.75618
G1 X106.579 Y97.213 E8.01419
G1 X106.579 Y94.251 E8.15670
G1 X105.749 Y93.421 E8.21316
G1 F1860.000 E5.21316
G92 E0
G1 Z1.200 F6000.000
G1 X106.900 Y106.900 F6000.000
G1 E3.10000 F1860.000
G1 X93.100 Y106.900 E3.52270 F849.349
G1 X93.100 Y93.600 E3.93008
G1 X93.100 Y93.100 E3.94539
G1 X106.900 Y93.100 E4.36809
G1 X106.900 Y106.840 E4.78895
G1 X107.300 Y107.300 F6000.000
G1 X92.700 Y107.300 E5.23615 F679.480
G1 X92.700 Y93.600 E5.65579
G1 X92.700 Y92.700 E5.68335
G1 X107.300 Y92.700 E6.13056
G1 X107.300 Y107.240 E6.57592
G1 X106.954 Y107.100 F6000.000
G1 F1860.000 E3.57592
G92 E0
G1 X106.579 Y104.338 F6000.000
G1 E3.10000 F1860.000
G1 X104.338 Y106.579 E3.25244 F1061.687
