; generated by Slic3r 1.1.7 on 2014-12-26 at 16:04:14

; perimeters extrusion width = 0.40mm
; infill extrusion width = 0.67mm
; solid infill extrusion width = 0.67mm
; top infill extrusion width = 0.67mm
; support material extrusion width = 0.40mm

G21 ; set units to millimeters
M190 S110 ; wait for bed temperature to be reached
M104 S220 ; set temperature
G28 ; home all axes Start of G Code Slic3r
 
M109 S220 ; wait for temperature to be reached
G90 ; use absolute coordinates
G92 E0
M82 ; use absolute distances for extrusion
M106 S127
G1 F1860.000 E-3.00000
G92 E0
G1 Z0.200 F6000.000
G1 X85.673 Y84.879 F6000.000
G1 E3.10000 F1860.000
G1 X86.036 Y84.554 E3.10917 F1200.000
G1 X87.401 Y83.414 E3.14264
G1 X88.942 Y82.347 E3.17791
G1 X90.818 Y81.303 E3.21832
G1 X91.266 Y81.097 E3.22760
G1 X92.905 Y80.417 E3.26100
G1 X94.660 Y79.867 E3.29559
G1 X95.377 Y79.701 E3.30944
G1 X96.757 Y79.424 E3.33592
G1 X97.287 Y79.353 E3.34599
G1 X99.052 Y79.192 E3.37936
G1 X100.856 Y79.189 E3.41330
G1 X101.631 Y79.243 E3.42791 F1200.000
G1 X103.202 Y79.418 E3.45767
G1 X105.285 Y79.852 E3.49771
G1 X106.975 Y80.375 E3.53100
G1 X107.738 Y80.669 E3.54638
G1 X109.176 Y81.300 E3.57593
G1 X111.040 Y82.336 E3.61606
G1 X111.447 Y82.606 E3.62525
G1 X112.892 Y83.641 E3.65871
G1 X114.092 Y84.665 E3.68839
G1 X114.799 Y85.360 E3.70706
G1 X115.786 Y86.410 E3.73418
G1 X116.106 Y86.801 E3.74368
G1 X117.176 Y88.217 E3.77707
G1 X118.144 Y89.770 E3.81153
G1 X118.489 Y90.430 E3.82553
G1 X119.100 Y91.689 E3.85187
G1 X119.304 Y92.191 E3.86207
G1 X119.904 Y93.859 E3.89542
G1 X120.358 Y95.598 E3.92924
G1 X120.502 Y96.369 E3.94401
G1 X120.727 Y97.934 E3.97375
G1 X120.830 Y100.058 E4.01379
G1 X120.748 Y101.818 E4.04693
G1 X120.654 Y102.639 E4.06248
G1 X120.452 Y103.939 E4.08725
G1 X120.324 Y104.537 E4.09875
G1 X119.869 Y106.254 E4.13218
G1 X119.711 Y106.715 E4.14135
G1 X119.072 Y108.372 E4.17478
G1 X118.250 Y110.041 E4.20979
G1 X117.122 Y111.862 E4.25009
G1 X116.819 Y112.277 E4.25976
G1 X115.718 Y113.667 E4.29314
G1 X114.462 Y114.991 E4.32747
G1 X113.904 Y115.496 E4.34163
G1 X112.692 Y116.517 E4.37146
G1 X110.941 Y117.725 E4.41148
G1 X109.378 Y118.598 E4.44518
G1 X108.660 Y118.935 E4.46010
G1 X107.206 Y119.544 E4.48978
G1 X105.173 Y120.177 E4.52984
G1 X103.455 Y120.538 E4.56288
G1 X102.630 Y120.656 E4.57857
G1 X101.336 Y120.785 E4.60304
G1 X100.702 Y120.812 E4.61498
G1 X98.934 Y120.803 E4.64824
G1 X98.447 Y120.765 E4.65743
G1 X96.683 Y120.563 E4.69085
G1 X94.868 Y120.188 E4.72573
G1 X94.178 Y119.987 E4.73925
G1 X92.820 Y119.553 E4.76608
G1 X92.338 Y119.363 E4.77584
G1 X90.716 Y118.646 E4.80921
G1 X90.417 Y118.488 E4.81557
G1 X89.125 Y117.765 E4.84344
G1 X88.747 Y117.524 E4.85186
G1 X87.199 Y116.432 E4.88752
G1 X85.589 Y115.040 E4.92758
G1 X84.357 Y113.752 E4.96112
G1 X83.845 Y113.136 E4.97620
G1 X83.027 Y112.072 E5.00145
G1 X82.695 Y111.584 E5.01256
G1 X81.768 Y110.074 E5.04590
G1 X80.990 Y108.506 E5.07883
G1 X80.783 Y108.032 E5.08857
G1 X80.136 Y106.268 E5.12393
G1 X79.600 Y104.210 E5.16395
G1 X79.510 Y103.709 E5.17352
G1 X79.263 Y101.951 E5.20694
G1 X79.239 Y101.613 E5.21332
G1 X79.171 Y100.108 E5.24166
G1 X79.191 Y99.381 E5.25536
G1 X79.288 Y97.795 E5.28526
G1 X79.621 Y95.694 E5.32528
G1 X80.072 Y93.940 E5.35937
G1 X80.317 Y93.212 E5.37382
G1 X80.800 Y91.924 E5.39971
G1 X81.030 Y91.411 E5.41029
G1 X81.824 Y89.826 E5.44364
G1 X82.758 Y88.316 E5.47706
G1 X83.038 Y87.913 E5.48630
G1 X84.207 Y86.418 E5.52200
G1 X85.632 Y84.923 E5.56088
G1 X85.840 Y85.056 F6000.000
G1 X86.193 Y84.739 E5.56982 F1200.000
G1 X87.545 Y83.610 E5.60295
G1 X89.072 Y82.553 E5.63790
G1 X90.925 Y81.521 E5.67783
G1 X91.361 Y81.320 E5.68687
G1 X92.985 Y80.646 E5.71995
G1 X94.723 Y80.101 E5.75422
G1 X95.426 Y79.939 E5.76779
G1 X96.795 Y79.664 E5.79408
G1 X97.311 Y79.595 E5.80388
G1 X99.061 Y79.435 E5.83694
G1 X100.848 Y79.432 E5.87057
G1 X101.606 Y79.485 E5.88488 F1200.000
G1 X103.164 Y79.658 E5.91437
G1 X105.222 Y80.086 E5.95394
G1 X106.896 Y80.605 E5.98690
G1 X107.642 Y80.892 E6.00196
G1 X109.069 Y81.518 E6.03127
G1 X110.910 Y82.542 E6.07093
G1 X111.308 Y82.805 E6.07989
G1 X112.738 Y83.829 E6.11301
G1 X113.930 Y84.846 E6.14248
G1 X114.623 Y85.528 E6.16078
G1 X115.602 Y86.569 E6.18768
G1 X115.914 Y86.949 E6.19692
G1 X116.973 Y88.351 E6.23001
G1 X117.933 Y89.891 E6.26414
G1 X118.271 Y90.537 E6.27787
G1 X118.877 Y91.787 E6.30401
G1 X119.076 Y92.275 E6.31393
G1 X119.671 Y93.928 E6.34699
G1 X120.121 Y95.651 E6.38050
G1 X120.262 Y96.406 E6.39495
G1 X120.485 Y97.957 E6.42444
G1 X120.587 Y100.056 E6.46400
G1 X120.506 Y101.799 E6.49682
G1 X120.414 Y102.602 E6.51203
G1 X120.213 Y103.895 E6.53667
G1 X120.089 Y104.476 E6.54784
G1 X119.637 Y106.181 E6.58103
G1 X119.483 Y106.630 E6.58996
G1 X118.851 Y108.271 E6.62306
G1 X118.037 Y109.925 E6.65775
G1 X116.923 Y111.724 E6.69757
G1 X116.628 Y112.128 E6.70699
G1 X115.537 Y113.506 E6.74006
G1 X114.292 Y114.817 E6.77407
G1 X113.746 Y115.311 E6.78794
G1 X112.545 Y116.323 E6.81749
G1 X110.815 Y117.517 E6.85704
G1 X109.267 Y118.382 E6.89042
G1 X108.565 Y118.711 E6.90502
G1 X107.122 Y119.316 E6.93445
G1 X105.114 Y119.942 E6.97403
G1 X103.413 Y120.299 E7.00675
G1 X102.605 Y120.414 E7.02210
G1 X101.318 Y120.542 E7.04644
G1 X100.702 Y120.569 E7.05805
G1 X98.947 Y120.560 E7.09107
G1 X98.473 Y120.524 E7.10003
G1 X96.726 Y120.324 E7.13312
G1 X94.927 Y119.952 E7.16767
G1 X92.904 Y119.325 E7.20755
G1 X92.434 Y119.140 E7.21705
G1 X90.827 Y118.430 E7.25011
G1 X90.535 Y118.276 E7.25632
G1 X89.251 Y117.557 E7.28401
G1 X88.884 Y117.324 E7.29220
G1 X87.349 Y116.241 E7.32753
G1 X85.758 Y114.866 E7.36712
G1 X84.538 Y113.590 E7.40034
G1 X84.037 Y112.987 E7.41510
G1 X83.224 Y111.930 E7.44019
G1 X82.901 Y111.455 E7.45099
G1 X81.981 Y109.957 E7.48408
G1 X81.211 Y108.405 E7.51668
G1 X81.009 Y107.942 E7.52618
G1 X80.367 Y106.195 E7.56122
G1 X79.838 Y104.160 E7.60078
G1 X79.750 Y103.673 E7.61009
G1 X79.505 Y101.932 E7.64318
G1 X79.482 Y101.601 E7.64944
G1 X79.414 Y100.106 E7.67759
G1 X79.434 Y99.393 E7.69101
G1 X79.529 Y97.823 E7.72062
G1 X79.858 Y95.747 E7.76017
G1 X80.305 Y94.009 E7.79393
G1 X80.545 Y93.296 E7.80809
G1 X81.024 Y92.017 E7.83380
G1 X81.248 Y91.518 E7.84409
G1 X82.035 Y89.946 E7.87717
G1 X82.960 Y88.451 E7.91027
G1 X83.233 Y88.059 E7.91926
G1 X84.391 Y86.577 E7.95464
G1 X85.798 Y85.100 E7.99304
G1 X86.006 Y85.233 F6000.000
G1 X86.351 Y84.923 E8.00176 F1200.000
G1 X87.688 Y83.806 E8.03455
G1 X89.201 Y82.759 E8.06918
G1 X91.033 Y81.739 E8.10863
G1 X91.457 Y81.544 E8.11742
G1 X93.064 Y80.876 E8.15018
G1 X94.786 Y80.336 E8.18414
G1 X95.475 Y80.177 E8.19743
G1 X96.833 Y79.904 E8.22352
G1 X97.335 Y79.837 E8.23304
G1 X99.070 Y79.678 E8.26582
G1 X100.839 Y79.674 E8.29912
G1 X101.582 Y79.727 E8.31313 F1200.000
G1 X103.125 Y79.898 E8.34236
G1 X105.159 Y80.321 E8.38144
G1 X106.816 Y80.834 E8.41409
G1 X107.546 Y81.116 E8.42882
G1 X108.962 Y81.736 E8.45790
G1 X110.781 Y82.747 E8.49707
G1 X111.168 Y83.004 E8.50581
G1 X112.585 Y84.017 E8.53859
G1 X113.767 Y85.027 E8.56785
G1 X114.447 Y85.695 E8.58579
G1 X115.418 Y86.728 E8.61247
G1 X115.721 Y87.097 E8.62145
G1 X116.771 Y88.486 E8.65422
G1 X117.722 Y90.011 E8.68804
G1 X118.053 Y90.644 E8.70148
G1 X118.655 Y91.885 E8.72744
G1 X118.848 Y92.359 E8.73707
G1 X119.438 Y93.998 E8.76985
G1 X119.884 Y95.704 E8.80303
G1 X120.022 Y96.443 E8.81718
G1 X120.243 Y97.980 E8.84641
G1 X120.344 Y100.054 E8.88549
G1 X120.263 Y101.780 E8.91800
G1 X120.174 Y102.565 E8.93287
G1 X119.974 Y103.851 E8.95736
G1 X119.853 Y104.415 E8.96822
G1 X119.406 Y106.107 E9.00116
G1 X119.256 Y106.545 E9.00986
G1 X118.630 Y108.170 E9.04263
G1 X117.823 Y109.808 E9.07699
G1 X116.723 Y111.586 E9.11634
G1 X116.436 Y111.979 E9.12550
G1 X115.355 Y113.344 E9.15826
G1 X114.123 Y114.642 E9.19195
G1 X113.588 Y115.127 E9.20554
G1 X112.398 Y116.129 E9.23481
G1 X110.690 Y117.309 E9.27388
G1 X109.156 Y118.165 E9.30694
G1 X108.751 Y118.363 E9.31541
G1 X107.039 Y119.088 E9.35041
G1 X105.055 Y119.706 E9.38951
G1 X103.370 Y120.060 E9.42191
G1 X102.581 Y120.172 E9.43692
G1 X101.300 Y120.300 E9.46113
G1 X100.702 Y120.326 E9.47240
G1 X98.960 Y120.318 E9.50519
G1 X98.498 Y120.282 E9.51390
G1 X96.768 Y120.085 E9.54667
G1 X94.987 Y119.716 E9.58090
G1 X92.987 Y119.097 E9.62030
G1 X92.530 Y118.917 E9.62954
G1 X90.938 Y118.214 E9.66230
G1 X90.653 Y118.063 E9.66836
G1 X89.377 Y117.349 E9.69588
G1 X89.021 Y117.123 E9.70382
G1 X87.500 Y116.051 E9.73884
G1 X85.928 Y114.692 E9.77794
G1 X84.720 Y113.428 E9.81084
G1 X84.229 Y112.838 E9.82528
G1 X83.421 Y111.788 E9.85022
G1 X83.107 Y111.327 E9.86071
G1 X82.194 Y109.840 E9.89354
G1 X81.431 Y108.304 E9.92583
G1 X81.235 Y107.853 E9.93508
G1 X80.599 Y106.121 E9.96980
G1 X80.076 Y104.111 E10.00889
G1 X79.990 Y103.637 E10.01795
G1 X79.747 Y101.913 E10.05072
G1 X79.724 Y101.589 E10.05684
G1 X79.657 Y100.104 E10.08480
G1 X79.676 Y99.405 E10.09796
G1 X79.770 Y97.851 E10.12727
G1 X80.095 Y95.800 E10.16634
G1 X80.538 Y94.079 E10.19979
G1 X80.773 Y93.381 E10.21365
G1 X81.249 Y92.111 E10.23917
G1 X81.466 Y91.625 E10.24918
G1 X82.246 Y90.067 E10.28198
G1 X83.162 Y88.585 E10.31476
G1 X83.428 Y88.204 E10.32350
G1 X84.575 Y86.736 E10.35856
G1 X85.965 Y85.276 E10.39649
G1 X86.173 Y85.410 F6000.000
G1 X86.509 Y85.108 E10.40499 F1200.000
G1 X87.831 Y84.002 E10.43743
G1 X89.330 Y82.965 E10.47174
G1 X91.140 Y81.957 E10.51071
G1 X91.552 Y81.767 E10.51925
G1 X93.144 Y81.105 E10.55170
G1 X94.849 Y80.570 E10.58533
G1 X95.523 Y80.415 E10.59835
G1 X96.872 Y80.144 E10.62424
G1 X97.359 Y80.079 E10.63349
G1 X99.078 Y79.920 E10.66597
G1 X100.831 Y79.917 E10.69895
G1 X101.557 Y79.968 E10.71266 F1200.000
G1 X103.087 Y80.137 E10.74163
G1 X105.096 Y80.556 E10.78024
G1 X106.737 Y81.064 E10.81256
G1 X107.450 Y81.339 E10.82696
G1 X108.855 Y81.954 E10.85581
G1 X110.652 Y82.953 E10.89451
G1 X111.029 Y83.203 E10.90301
G1 X112.431 Y84.205 E10.93546
G1 X113.605 Y85.208 E10.96451
G1 X114.271 Y85.862 E10.98208
G1 X115.234 Y86.886 E11.00854
G1 X115.529 Y87.245 E11.01727
G1 X116.569 Y88.621 E11.04973
G1 X117.511 Y90.131 E11.08322
G1 X117.835 Y90.751 E11.09638
G1 X118.433 Y91.982 E11.12214
G1 X118.621 Y92.443 E11.13150
G1 X119.205 Y94.067 E11.16399
G1 X119.647 Y95.756 E11.19685
G1 X119.781 Y96.479 E11.21069
G1 X120.002 Y98.003 E11.23966
G1 X120.101 Y100.052 E11.27827
G1 X120.021 Y101.761 E11.31045
G1 X119.934 Y102.528 E11.32499
G1 X119.735 Y103.807 E11.34935
G1 X119.618 Y104.354 E11.35988
G1 X119.174 Y106.034 E11.39257
G1 X119.028 Y106.460 E11.40104
G1 X118.409 Y108.068 E11.43348
G1 X117.610 Y109.692 E11.46752
G1 X116.523 Y111.448 E11.50640
G1 X116.244 Y111.830 E11.51530
G1 X115.174 Y113.182 E11.54775
G1 X113.953 Y114.468 E11.58112
G1 X113.430 Y114.943 E11.59442
G1 X112.252 Y115.936 E11.62341
G1 X110.564 Y117.101 E11.66201
G1 X109.045 Y117.949 E11.69474
G1 X108.652 Y118.141 E11.70297
G1 X106.955 Y118.859 E11.73765
G1 X104.996 Y119.470 E11.77628
G1 X103.328 Y119.821 E11.80835
G1 X102.556 Y119.931 E11.82302
G1 X101.283 Y120.058 E11.84710
G1 X100.702 Y120.083 E11.85804
G1 X98.973 Y120.075 E11.89059
G1 X98.523 Y120.041 E11.89907
G1 X96.810 Y119.845 E11.93151
G1 X95.046 Y119.481 E11.96542
G1 X93.070 Y118.869 E12.00434
G1 X92.627 Y118.694 E12.01331
G1 X91.049 Y117.997 E12.04577
G1 X90.771 Y117.851 E12.05168
G1 X89.502 Y117.141 E12.07903
G1 X89.157 Y116.922 E12.08673
G1 X87.650 Y115.860 E12.12142
G1 X86.097 Y114.518 E12.16005
G1 X84.901 Y113.266 E12.19263
G1 X84.421 Y112.689 E12.20675
G1 X83.618 Y111.646 E12.23154
G1 X83.314 Y111.199 E12.24172
G1 X82.407 Y109.724 E12.27429
G1 X81.652 Y108.202 E12.30625
G1 X81.460 Y107.764 E12.31527
G1 X80.830 Y106.048 E12.34966
G1 X80.313 Y104.061 E12.38829
G1 X80.230 Y103.601 E12.39709
G1 X79.989 Y101.894 E12.42954
G1 X79.967 Y101.577 E12.43552
G1 X79.899 Y100.102 E12.46330
G1 X79.919 Y99.418 E12.47619
G1 X80.011 Y97.879 E12.50520
G1 X80.332 Y95.853 E12.54380
G1 X80.771 Y94.148 E12.57692
G1 X81.001 Y93.465 E12.59049
G1 X81.473 Y92.204 E12.61583
G1 X81.684 Y91.733 E12.62555
G1 X82.457 Y90.187 E12.65808
G1 X83.365 Y88.720 E12.69053
G1 X83.623 Y88.349 E12.69903
G1 X84.759 Y86.894 E12.73377
G1 X86.131 Y85.453 E12.77122
G1 F1860.000 E9.77122
G92 E0
G1 X108.075 Y108.309 F6000.000
G1 E3.10000 F1860.000
G1 X107.075 Y109.176 E3.12490 F1200.000
G1 X105.983 Y109.922 E3.14979
G1 X104.813 Y110.540 E3.17469
G1 X103.580 Y111.020 E3.19959
G1 X102.301 Y111.356 E3.22448
G1 X100.992 Y111.544 E3.24938
G1 X99.669 Y111.582 E3.27428
G1 X98.302 Y111.459 E3.30011
G1 X97.054 Y111.206 E3.32406
G1 X95.796 Y110.797 E3.34896
G1 X94.593 Y110.248 E3.37385
G1 X93.460 Y109.565 E3.39875
G1 X92.412 Y108.757 E3.42365
G1 X91.464 Y107.835 E3.44854
G1 X90.626 Y106.811 E3.47344
G1 X89.911 Y105.698 E3.49833
G1 X89.327 Y104.510 E3.52323
G1 X88.883 Y103.264 E3.54813
G1 X88.583 Y101.976 E3.57302
G1 X88.433 Y100.670 E3.59776
G1 X88.433 Y99.330 E3.62297
G1 X88.583 Y98.024 E3.64771
G1 X88.883 Y96.736 E3.67261
G1 X89.327 Y95.490 E3.69750
G1 X89.911 Y94.302 E3.72240
G1 X90.626 Y93.189 E3.74730
G1 X91.463 Y92.165 E3.77219
G1 X92.412 Y91.243 E3.79709
G1 X93.460 Y90.435 E3.82198
G1 X94.593 Y89.752 E3.84688
G1 X95.796 Y89.203 E3.87178
G1 X97.054 Y88.794 E3.89667
G1 X98.351 Y88.531 E3.92157
G1 X99.720 Y88.419 E3.94741
G1 X100.992 Y88.456 E3.97136 F1200.000
G1 X102.301 Y88.644 E3.99625
G1 X103.581 Y88.980 E4.02115
G1 X104.813 Y89.460 E4.04604
G1 X105.983 Y90.078 E4.07094
G1 X107.075 Y90.824 E4.09584
G1 X108.075 Y91.691 E4.12073
G1 X108.970 Y92.665 E4.14563
G1 X109.747 Y93.736 E4.17052
G1 X110.398 Y94.888 E4.19542
G1 X110.913 Y96.106 E4.22032
G1 X111.294 Y97.425 E4.24616
G1 X111.511 Y98.679 E4.27010
G1 X111.587 Y100.000 E4.29500
G1 X111.511 Y101.321 E4.31990
G1 X111.286 Y102.624 E4.34479
G1 X110.913 Y103.894 E4.36969
G1 X110.398 Y105.112 E4.39459
G1 X109.747 Y106.264 E4.41948
G1 X108.970 Y107.335 E4.44438
G1 X108.116 Y108.265 E4.46815
G1 X107.906 Y108.135 F6000.000
G1 X106.927 Y108.983 E4.49252 F1200.000
G1 X105.858 Y109.714 E4.51689
G1 X104.712 Y110.318 E4.54126
G1 X103.505 Y110.788 E4.56564
G1 X102.253 Y111.118 E4.59001
G1 X100.971 Y111.302 E4.61439
G1 X99.676 Y111.339 E4.63876
G1 X98.350 Y111.221 E4.66382
G1 X97.116 Y110.971 E4.68750
G1 X95.885 Y110.571 E4.71187
G1 X94.706 Y110.033 E4.73625
G1 X93.597 Y109.364 E4.76062
G1 X92.572 Y108.573 E4.78500
G1 X91.643 Y107.670 E4.80937
G1 X90.823 Y106.668 E4.83374
G1 X90.123 Y105.578 E4.85812
G1 X89.551 Y104.416 E4.88249
G1 X89.116 Y103.196 E4.90686
G1 X88.823 Y101.934 E4.93124
G1 X88.676 Y100.652 E4.95552
G1 X88.676 Y99.348 E4.98007
G1 X88.823 Y98.066 E5.00436
G1 X89.116 Y96.804 E5.02873
G1 X89.551 Y95.584 E5.05310
G1 X90.123 Y94.422 E5.07748
G1 X90.823 Y93.332 E5.10185
G1 X91.643 Y92.330 E5.12622
G1 X92.572 Y91.427 E5.15060
G1 X93.597 Y90.636 E5.17497
G1 X94.706 Y89.967 E5.19934
G1 X95.884 Y89.429 E5.22372
G1 X97.116 Y89.029 E5.24809
G1 X98.422 Y88.769 E5.27315
G1 X99.676 Y88.661 E5.29683 F1200.000
G1 X100.971 Y88.698 E5.32121
G1 X102.253 Y88.882 E5.34558
G1 X103.505 Y89.212 E5.36995
G1 X104.712 Y89.682 E5.39433
G1 X105.858 Y90.286 E5.41870
G1 X106.927 Y91.017 E5.44307
G1 X107.906 Y91.865 E5.46745
G1 X108.781 Y92.819 E5.49182
G1 X109.543 Y93.867 E5.51619
G1 X110.180 Y94.995 E5.54057
G1 X110.684 Y96.188 E5.56494
G1 X111.055 Y97.467 E5.59000
G1 X111.270 Y98.707 E5.61368
G1 X111.343 Y100.000 E5.63806
G1 X111.270 Y101.293 E5.66243
G1 X111.049 Y102.569 E5.68680
G1 X110.684 Y103.812 E5.71118
G1 X110.180 Y105.005 E5.73555
G1 X109.543 Y106.133 E5.75992
G1 X108.781 Y107.181 E5.78430
G1 X107.946 Y108.091 E5.80754
G1 X107.736 Y107.960 F6000.000
G1 X106.778 Y108.790 E5.83139 F1200.000
G1 X105.732 Y109.506 E5.85524
G1 X104.611 Y110.097 E5.87909
G1 X103.430 Y110.557 E5.90294
G1 X102.204 Y110.879 E5.92679
G1 X100.950 Y111.059 E5.95065
G1 X99.683 Y111.096 E5.97450
G1 X98.398 Y110.983 E5.99877
G1 X97.178 Y110.735 E6.02219
G1 X95.973 Y110.344 E6.04604
G1 X94.820 Y109.817 E6.06990
G1 X93.735 Y109.163 E6.09375
G1 X92.731 Y108.389 E6.11760
G1 X91.822 Y107.506 E6.14145
G1 X91.020 Y106.525 E6.16530
G1 X90.335 Y105.458 E6.18915
G1 X89.775 Y104.321 E6.21300
G1 X89.344 Y103.105 E6.23727
G1 X89.062 Y101.893 E6.26070
G1 X88.918 Y100.635 E6.28452
G1 X88.918 Y99.365 E6.30843
