; generated by Slic3r 1.1.7 on 2014-12-05 at 06:49:37

; perimeters extrusion width = 0.42mm
; infill extrusion width = 0.74mm
; solid infill extrusion width = 0.71mm
; top infill extrusion width = 0.71mm

G21 ; set units to millimeters
M190 S60 ; wait for bed temperature to be reached
M104 S186 ; set temperature
G28 ; home all axes
M109 S186 ; wait for temperature to be reached
G90 ; use absolute coordinates
G92 E0
M82 ; use absolute distances for extrusion
M106 S127
G1 F1860.000 E-3.00000
G92 E0
G1 Z0.200 F6000.000
G1 X75.784 Y75.809 F6000.000
G1 E3.10000 F1860.000
G1 X76.422 Y75.172 E3.11668 F1200.000
G1 X77.277 Y74.475 E3.13708
G1 X78.834 Y73.534 E3.17074
G1 X95.761 Y66.316 E3.51119
G1 X97.065 Y65.916 E3.53642
G1 X98.696 Y65.598 E3.56716
G1 X101.679 Y65.715 E3.62239
G1 X104.270 Y66.487 E3.67239 F1200.000
G1 X121.119 Y73.514 E4.01013
G1 X122.723 Y74.475 E4.04473
G1 X123.578 Y75.172 E4.06513
G1 X124.506 Y76.099 E4.08940
G1 X125.208 Y76.960 E4.10995
G1 X126.224 Y78.700 E4.14723
G1 X133.941 Y98.631 E4.54264
G1 X134.184 Y99.701 E4.56293
G1 X134.342 Y100.939 E4.58602
G1 X134.377 Y102.052 E4.60662
G1 X134.227 Y103.650 E4.63632
G1 X133.989 Y104.734 E4.65685
G1 X133.337 Y106.466 E4.69108
G1 X125.110 Y121.242 E5.00395
G1 X124.418 Y122.118 E5.02461
G1 X122.836 Y123.555 E5.06416
G1 X121.111 Y124.642 E5.10187
G1 X104.767 Y133.430 E5.44518
G1 X102.935 Y134.084 E5.48117
G1 X101.304 Y134.402 E5.51191
G1 X98.321 Y134.285 E5.56714
G1 X96.490 Y133.776 E5.60228
G1 X95.195 Y133.261 E5.62807
G1 X78.449 Y124.382 E5.97873
G1 X77.164 Y123.555 E6.00699
G1 X75.582 Y122.118 E6.04654
G1 X74.298 Y120.348 E6.08700
G1 X66.663 Y106.466 E6.38010
G1 X66.011 Y104.734 E6.41433
G1 X65.773 Y103.650 E6.43486
G1 X65.623 Y102.052 E6.46455
G1 X65.658 Y100.938 E6.48517
G1 X65.816 Y99.701 E6.50825
G1 X66.039 Y98.716 E6.52693
G1 X66.344 Y97.703 E6.54649
G1 X73.776 Y78.700 E6.92399
G1 X74.792 Y76.960 E6.96128
G1 X75.495 Y76.099 E6.98183
G1 X75.740 Y75.854 E6.98824
G1 X75.958 Y75.983 F6000.000
G1 X76.578 Y75.363 E7.00446 F1200.000
G1 X77.433 Y74.666 E7.02487
G1 X78.931 Y73.761 E7.05724
G1 X95.858 Y66.544 E7.39769
G1 X97.113 Y66.159 E7.42196
G1 X98.744 Y65.840 E7.45270
G1 X101.613 Y65.953 E7.50583
G1 X104.174 Y66.715 E7.55527 F1200.000
G1 X121.024 Y73.742 E7.89300
G1 X122.567 Y74.666 E7.92628
G1 X123.422 Y75.363 E7.94668
G1 X124.314 Y76.255 E7.97003
G1 X125.016 Y77.116 E7.99058
G1 X125.994 Y78.790 E8.02644
G1 X133.700 Y98.686 E8.42117
G1 X133.943 Y99.756 E8.44146
G1 X134.095 Y100.946 E8.46367
G1 X134.130 Y102.060 E8.48428
G1 X133.986 Y103.597 E8.51284
G1 X133.747 Y104.681 E8.53337
G1 X133.120 Y106.346 E8.56630
G1 X124.916 Y121.089 E8.87842
G1 X124.224 Y121.965 E8.89908
G1 X122.702 Y123.347 E8.93712
G1 X120.994 Y124.424 E8.97447
G1 X104.650 Y133.212 E9.31778
G1 X102.887 Y133.841 E9.35240
G1 X101.256 Y134.160 E9.38314
G1 X98.387 Y134.047 E9.43627
G1 X96.557 Y133.538 E9.47141
G1 X95.311 Y133.042 E9.49621
G1 X78.583 Y124.175 E9.84649
G1 X77.298 Y123.347 E9.87475
G1 X75.776 Y121.965 E9.91279
G1 X74.514 Y120.229 E9.95249
G1 X66.880 Y106.346 E10.24560
G1 X66.253 Y104.681 E10.27852
G1 X66.014 Y103.597 E10.29905
G1 X65.870 Y102.060 E10.32762
G1 X65.905 Y100.946 E10.34823
G1 X66.057 Y99.756 E10.37043
G1 X66.280 Y98.771 E10.38912
G1 X66.574 Y97.794 E10.40799
G1 X74.006 Y78.790 E10.78549
G1 X74.984 Y77.116 E10.82136
G1 X75.686 Y76.255 E10.84191
G1 X75.914 Y76.028 E10.84786
G1 F1860.000 E7.84786
G92 E0
G1 X103.801 Y104.460 F6000.000
G1 E3.10000 F1860.000
G1 X102.688 Y105.102 E3.12377 F1200.000
G1 X101.988 Y105.262 E3.13706
G1 X101.436 Y105.388 E3.14755
G1 X100.154 Y105.292 E3.17132
G1 X98.958 Y104.823 E3.19510
G1 X97.953 Y104.021 E3.21887
G1 X97.229 Y102.960 E3.24265
G1 X96.850 Y101.732 E3.26642
G1 X96.850 Y100.446 E3.29019
G1 X97.229 Y99.218 E3.31397
G1 X97.953 Y98.157 E3.33774
G1 X98.958 Y97.355 E3.36152
G1 X100.154 Y96.886 E3.38529
G1 X101.436 Y96.790 E3.40907
G1 X101.762 Y96.864 E3.41526
G1 X102.688 Y97.076 E3.43284 F1200.000
G1 X103.801 Y97.718 E3.45661
G1 X104.675 Y98.660 E3.48039
G1 X105.233 Y99.818 E3.50416
G1 X105.425 Y101.089 E3.52794
G1 X105.233 Y102.360 E3.55171
G1 X104.675 Y103.518 E3.57549
G1 X103.844 Y104.413 E3.59809
G1 X103.645 Y104.264 F6000.000
G1 X102.597 Y104.869 E3.62049 F1200.000
G1 X101.933 Y105.021 E3.63308
G1 X101.417 Y105.139 E3.64289
G1 X100.210 Y105.048 E3.66528
G1 X99.083 Y104.606 E3.68768
G1 X98.419 Y104.077 E3.70338
G1 X98.136 Y103.851 E3.71007
G1 X97.454 Y102.851 E3.73247
G1 X97.098 Y101.694 E3.75486
G1 X97.098 Y100.484 E3.77726
G1 X97.454 Y99.327 E3.79966
G1 X98.136 Y98.327 E3.82205
G1 X99.083 Y97.572 E3.84445
G1 X100.210 Y97.130 E3.86684
G1 X101.214 Y97.054 E3.88548
G1 X101.417 Y97.039 E3.88924 F1200.000
G1 X102.597 Y97.309 E3.91163
G1 X103.645 Y97.914 E3.93403
G1 X104.469 Y98.801 E3.95642
G1 X104.994 Y99.892 E3.97882
G1 X105.174 Y101.089 E4.00122
G1 X104.994 Y102.286 E4.02361
G1 X104.469 Y103.377 E4.04601
G1 X103.688 Y104.218 E4.06724
G1 F1860.000 E1.06724
G92 E0
G1 X101.172 Y96.855 F6000.000
G1 X107.109 Y100.383 F6000.000
G1 E3.10000 F1860.000
G1 X107.504 Y101.039 E3.11416 F1200.000
G1 X108.003 Y101.323 E3.12479
G1 X112.571 Y104.222 E3.22488
G1 X114.334 Y106.015 E3.27140
G1 X114.890 Y107.637 E3.30312
G1 X114.710 Y109.857 E3.34432
G1 X114.041 Y111.618 E3.37917
G1 X113.393 Y113.434 E3.41485
G1 X113.298 Y115.196 E3.44750
G1 X113.509 Y116.138 E3.46535
G1 X113.986 Y117.015 E3.48383
G1 X114.722 Y117.769 E3.50331
G1 X115.749 Y118.254 E3.52433
G1 X116.751 Y118.314 E3.54288
G1 X117.963 Y118.049 E3.56585
G1 X118.832 Y117.410 E3.58581
G1 X119.376 Y116.739 E3.60179
G1 X119.762 Y115.653 E3.62310
G1 X119.717 Y114.604 E3.64254
G1 X119.531 Y113.867 E3.65659
G1 X118.809 Y112.978 E3.67777
G1 X117.744 Y112.488 E3.69947
G1 X117.061 Y112.378 E3.71227
G1 X117.079 Y112.193 E3.71570
G1 X117.872 Y112.217 E3.73038
G1 X118.971 Y112.710 E3.75265
G1 X119.788 Y113.738 E3.77695
G1 X120.169 Y114.720 E3.79643
G1 X120.185 Y115.818 E3.81676
G1 X119.707 Y117.044 E3.84110
G1 X119.083 Y117.834 E3.85973
G1 X117.906 Y118.592 E3.88563
G1 X116.636 Y118.819 E3.90950
G1 X115.584 Y118.786 E3.92897
G1 X114.350 Y118.190 E3.95433
G1 X113.228 Y117.198 E3.98203
G1 X112.666 Y116.226 E4.00280
G1 X112.311 Y115.196 E4.02296
G1 X112.352 Y113.362 E4.05690
G1 X112.730 Y111.525 E4.09159
G1 X113.230 Y109.695 E4.12668
G1 X113.345 Y107.568 E4.16610
G1 X112.708 Y106.194 E4.19412
G1 X111.452 Y105.313 E4.22249
G1 X110.345 Y104.929 E4.24417
G1 X109.122 Y104.854 E4.26684
G1 X107.662 Y105.089 E4.29419
G1 X105.702 Y106.175 E4.33565
G1 X105.155 Y107.264 E4.35819
G1 X104.170 Y108.912 E4.39372
G1 X103.537 Y109.862 E4.41484
G1 X102.430 Y110.841 E4.44218
G1 X101.890 Y110.999 E4.45259
G1 X100.283 Y111.412 E4.48328
G1 X99.367 Y114.287 E4.53911
G1 X99.440 Y115.752 E4.56623
G1 X100.073 Y117.216 E4.59574
G1 X100.716 Y118.135 E4.61648
G1 X102.156 Y119.055 E4.64811
G1 X103.451 Y120.170 E4.67972
G1 X104.100 Y121.522 E4.70747
G1 X104.283 Y122.966 E4.73439
G1 X103.972 Y125.054 E4.77344
G1 X102.800 Y126.532 E4.80834
G1 X101.555 Y127.383 E4.83625
G1 X100.074 Y127.671 E4.86415
G1 X98.387 Y127.202 E4.89655
G1 X97.569 Y126.582 E4.91553
G1 X96.984 Y125.785 E4.93382
G1 X96.647 Y124.745 E4.95406
G1 X96.598 Y123.427 E4.97845
G1 X97.095 Y122.430 E4.99906
G1 X98.106 Y121.618 E5.02305
G1 X98.388 Y121.591 E5.02829
G1 X97.423 Y122.689 E5.05534
G1 X96.967 Y123.681 E5.07553
G1 X97.010 Y124.795 E5.09617
G1 X97.362 Y125.489 E5.11055
G1 X97.967 Y126.235 E5.12832
G1 X98.879 Y126.759 E5.14779
G1 X100.101 Y127.016 E5.17089
G1 X101.482 Y126.763 E5.19686
G1 X102.738 Y125.894 E5.22512
G1 X103.421 Y124.423 E5.25512
G1 X103.454 Y122.998 E5.28149
G1 X103.206 Y122.079 E5.29910
G1 X102.484 Y121.186 E5.32034
G1 X101.209 Y120.074 E5.35163
G1 X99.951 Y119.407 E5.37798
G1 X98.590 Y118.423 E5.40905
G1 X97.679 Y117.251 E5.43652
G1 X96.884 Y115.869 E5.46601
G1 X96.442 Y114.448 E5.49354
G1 X96.322 Y112.316 E5.53305
G1 X96.606 Y110.596 E5.56530
G1 X95.396 Y108.436 E5.61110
G1 X95.240 Y107.077 E5.63642
G1 X94.246 Y105.961 E5.66405
G1 X92.324 Y105.087 E5.70312
G1 X90.878 Y104.854 E5.73021
G1 X89.655 Y104.929 E5.75288
G1 X88.548 Y105.313 E5.77456
G1 X87.292 Y106.194 E5.80294
G1 X86.655 Y107.568 E5.83095
G1 X86.770 Y109.695 E5.87037
G1 X87.270 Y111.525 E5.90546
G1 X87.648 Y113.362 E5.94015
G1 X87.689 Y115.196 E5.97410
G1 X87.334 Y116.226 E5.99425
G1 X86.772 Y117.198 E6.01502
G1 X85.650 Y118.190 E6.04272
G1 X84.416 Y118.786 E6.06808
G1 X83.364 Y118.819 E6.08756
G1 X82.094 Y118.592 E6.11142
G1 X80.917 Y117.834 E6.13733
G1 X80.293 Y117.044 E6.15595
G1 X79.815 Y115.818 E6.18029
G1 X79.831 Y114.720 E6.20062
G1 X80.212 Y113.738 E6.22010
G1 X81.029 Y112.710 E6.24440
G1 X82.128 Y112.217 E6.26667
G1 X82.921 Y112.193 E6.28136
G1 X82.939 Y112.378 E6.28479
G1 X82.256 Y112.488 E6.29759
G1 X81.191 Y112.978 E6.31928
G1 X80.469 Y113.867 E6.34046
G1 X80.283 Y114.604 E6.35452
G1 X80.238 Y115.653 E6.37395
G1 X80.624 Y116.739 E6.39526
G1 X81.168 Y117.410 E6.41124
G1 X82.037 Y118.049 E6.43120
G1 X83.249 Y118.314 E6.45417
G1 X84.251 Y118.254 E6.47272
G1 X85.278 Y117.769 E6.49374
G1 X86.014 Y117.015 E6.51323
G1 X86.491 Y116.138 E6.53171
G1 X86.702 Y115.196 E6.54956
G1 X86.607 Y113.434 E6.58220
G1 X85.959 Y111.618 E6.61788
G1 X85.290 Y109.857 E6.65274
G1 X85.110 Y107.637 E6.69393
G1 X85.666 Y106.015 E6.72565
G1 X87.429 Y104.222 E6.77217
G1 X91.997 Y101.323 E6.87227
G1 X92.496 Y101.039 E6.88289
G1 X92.891 Y100.383 E6.89705
G1 X92.400 Y99.868 E6.91021
G1 X91.271 Y99.522 E6.93205
G1 X88.868 Y99.490 E6.97651
G1 X87.242 Y99.743 E7.00696
G1 X85.759 Y100.176 E7.03554
G1 X84.806 Y100.630 E7.05506
G1 X83.974 Y101.415 E7.07622
G1 X82.955 Y102.459 E7.10321
G1 X81.829 Y103.508 E7.13167
G1 X80.617 Y104.506 E7.16074
G1 X79.545 Y105.151 E7.18388
G1 X79.545 Y105.127 E7.18432
G1 X78.294 Y105.572 E7.20889
G1 X77.484 Y105.776 E7.22434
G1 X75.907 Y105.734 E7.25353
G1 X75.040 Y105.525 E7.27002
G1 X74.087 Y105.037 E7.28984
G1 X73.366 Y104.436 E7.30719
G1 X72.682 Y103.211 E7.33315
G1 X72.463 Y102.220 E7.35193
G1 X72.495 Y101.183 E7.37112
G1 X72.718 Y100.200 E7.38976
G1 X73.223 Y99.360 E7.40790
G1 X73.892 Y98.703 E7.42525
G1 X74.849 Y98.259 E7.44476
G1 X76.150 Y98.087 E7.46905
G1 X77.282 Y98.496 E7.49131
G1 X77.867 Y99.028 E7.50594
G1 X77.752 Y99.173 E7.50937
G1 X77.187 Y98.780 E7.52210
G1 X76.080 Y98.392 E7.54381
G1 X74.942 Y98.532 E7.56501
G1 X74.302 Y98.936 E7.57901
G1 X73.620 Y99.556 E7.59607
G1 X73.138 Y100.408 E7.61419
G1 X72.899 Y101.165 E7.62887
G1 X72.833 Y101.968 E7.64378
G1 X72.977 Y102.768 E7.65881
G1 X73.609 Y104.040 E7.68508
G1 X74.362 Y104.628 E7.70276
G1 X75.094 Y105.057 E7.71846
G1 X75.833 Y105.266 E7.73267
G1 X76.964 Y105.318 E7.75362
G1 X77.657 Y105.177 E7.76670
G1 X78.739 Y104.815 E7.78780
G1 X79.728 Y104.283 E7.80858
G1 X81.018 Y103.299 E7.83858
G1 X82.074 Y102.112 E7.86798
G1 X83.128 Y100.774 E7.89949
G1 X84.418 Y99.542 E7.93250
G1 X85.861 Y98.564 E7.96475
G1 X87.374 Y97.769 E7.99636
G1 X89.070 Y97.060 E8.03037
G1 X91.278 Y96.393 E8.07305
G1 X93.429 Y96.080 E8.11326
G1 X91.975 Y95.164 E8.14506
G1 X89.900 Y94.470 E8.18554
G1 X87.784 Y93.303 E8.23025
G1 X86.468 Y92.325 E8.26058
G1 X85.813 Y90.783 E8.29157
G1 X85.723 Y89.428 E8.31669
G1 X86.136 Y87.975 E8.34464
G1 X86.508 Y86.340 E8.37566
G1 X86.986 Y84.601 E8.40902
G1 X87.138 Y82.852 E8.44150
G1 X86.908 Y81.808 E8.46127
G1 X86.455 Y80.941 E8.47937
G1 X85.856 Y80.368 E8.49470
G1 X84.964 Y79.993 E8.51260
G1 X83.664 Y79.722 E8.53718
G1 X82.612 Y79.918 E8.55697
G1 X81.742 Y80.218 E8.57400
G1 X81.087 Y80.775 E8.58991
G1 X80.531 Y81.470 E8.60637
G1 X80.273 Y82.548 E8.62687
G1 X80.289 Y83.433 E8.64325
G1 X80.468 Y84.174 E8.65735
G1 X81.191 Y85.065 E8.67858
G1 X82.256 Y85.556 E8.70027
G1 X82.939 Y85.665 E8.71307
G1 X82.921 Y85.850 E8.71650
G1 X82.128 Y85.826 E8.73119
G1 X81.029 Y85.333 E8.75346
G1 X80.212 Y84.305 E8.77776
G1 X79.833 Y83.324 E8.79721
G1 X79.828 Y82.393 E8.81445
G1 X80.140 Y81.227 E8.83677
G1 X80.773 Y80.452 E8.85529
G1 X81.559 Y79.811 E8.87406
G1 X82.599 Y79.394 E8.89478
G1 X83.644 Y79.225 E8.91435
G1 X85.007 Y79.441 E8.93988
G1 X86.139 Y79.980 E8.96308
G1 X86.929 Y80.703 E8.98290
G1 X87.444 Y81.692 E9.00352
G1 X87.737 Y82.829 E9.02524
G1 X87.654 Y84.681 E9.05954
G1 X87.322 Y86.518 E9.09408
G1 X87.341 Y89.319 E9.14589
G1 X87.649 Y90.401 E9.16670
G1 X88.336 Y91.148 E9.18548
G1 X89.099 Y91.533 E9.20130
G1 X90.389 Y91.817 E9.22573
G1 X92.251 Y91.804 E9.26018
G1 X94.499 Y91.726 E9.30179
G1 X95.896 Y91.518 E9.32792
G1 X97.386 Y90.796 E9.35854
G1 X99.906 Y89.331 E9.41248
G1 X101.783 Y88.103 E9.45398
G1 X102.756 Y86.474 E9.48908
G1 X102.640 Y85.053 E9.51545
G1 X102.307 Y84.043 E9.53513
G1 X101.350 Y83.192 E9.55882
G1 X100.570 Y82.673 E9.57615
G1 X99.157 Y81.848 E9.60642
G1 X97.639 Y81.056 E9.63811
G1 X96.515 Y79.954 E9.66723
G1 X95.901 Y78.543 E9.69570
G1 X95.717 Y77.058 E9.72338
G1 X96.028 Y74.946 E9.76288
G1 X97.200 Y73.467 E9.79777
G1 X98.445 Y72.617 E9.82567
G1 X99.926 Y72.329 E9.85357
G1 X101.613 Y72.798 E9.88597
G1 X102.431 Y73.418 E9.90495
G1 X103.016 Y74.215 E9.92325
G1 X103.352 Y75.255 E9.94348
G1 X103.402 Y76.573 E9.96787
G1 X102.905 Y77.570 E9.98849
G1 X101.894 Y78.382 E10.01248
G1 X101.612 Y78.409 E10.01772
G1 X102.577 Y77.311 E10.04477
G1 X103.034 Y76.319 E10.06496
G1 X102.989 Y75.205 E10.08560
G1 X102.638 Y74.511 E10.09997
G1 X102.033 Y73.765 E10.11774
G1 X101.121 Y73.241 E10.13721
G1 X99.899 Y72.984 E10.16032
G1 X98.519 Y73.237 E10.18628
G1 X97.262 Y74.106 E10.21453
G1 X96.579 Y75.577 E10.24455
G1 X96.546 Y77.010 E10.27107
G1 X96.792 Y77.941 E10.28887
G1 X97.474 Y78.831 E10.30962
G1 X98.562 Y79.817 E10.33679
G1 X101.475 Y81.153 E10.39607
G1 X102.668 Y81.801 E10.42120
G1 X104.031 Y82.731 E10.45171
G1 X105.418 Y84.256 E10.48986
G1 X105.936 Y86.238 E10.52775
G1 X105.815 Y88.345 E10.56680
G1 X105.422 Y90.032 E10.59883
G1 X105.741 Y90.834 E10.61481
G1 X107.839 Y91.770 E10.65731
G1 X109.727 Y91.985 E10.69247
G1 X110.940 Y91.693 E10.71555
G1 X111.655 Y91.296 E10.73068
G1 X112.337 Y90.554 E10.74932
G1 X112.646 Y89.457 E10.77040
G1 X112.636 Y88.259 E10.79256
G1 X112.661 Y86.540 E10.82438
G1 X112.346 Y84.683 E10.85922
G1 X112.263 Y82.829 E10.89356
G1 X112.556 Y81.692 E10.91528
G1 X113.071 Y80.703 E10.93590
G1 X113.861 Y79.980 E10.95571
G1 X114.993 Y79.441 E10.97891
G1 X116.357 Y79.225 E11.00445
G1 X117.401 Y79.394 E11.02402
G1 X118.441 Y79.811 E11.04474
G1 X119.227 Y80.452 E11.06351
G1 X119.860 Y81.227 E11.08203
G1 X120.172 Y82.393 E11.10435
G1 X120.167 Y83.324 E11.12159
G1 X119.788 Y84.305 E11.14104
G1 X118.971 Y85.333 E11.16534
G1 X117.872 Y85.826 E11.18761
G1 X117.079 Y85.850 E11.20230
G1 X117.061 Y85.665 E11.20573
G1 X117.744 Y85.556 E11.21852
G1 X118.809 Y85.065 E11.24022
G1 X119.532 Y84.174 E11.26145
G1 X119.711 Y83.433 E11.27555
G1 X119.727 Y82.548 E11.29192
G1 X119.469 Y81.470 E11.31243
G1 X118.913 Y80.775 E11.32889
G1 X118.258 Y80.218 E11.34480
G1 X117.388 Y79.918 E11.36183
G1 X116.336 Y79.722 E11.38162
G1 X115.036 Y79.993 E11.40619
G1 X114.144 Y80.368 E11.42409
G1 X113.545 Y80.941 E11.43943
G1 X113.092 Y81.808 E11.45752
G1 X112.862 Y82.852 E11.47730
G1 X113.013 Y84.600 E11.50974
G1 X113.478 Y86.356 E11.54336
G1 X113.848 Y88.061 E11.57564
G1 X114.264 Y89.550 E11.60423
G1 X114.174 Y90.940 E11.63000
G1 X113.535 Y92.517 E11.66148
G1 X112.441 Y93.537 E11.68915
G1 X110.421 Y94.600 E11.73138
G1 X108.066 Y95.164 E11.77617
G1 X107.255 Y95.644 E11.79361
G1 X107.364 Y96.196 E11.80401
G1 X108.722 Y96.393 E11.82939
G1 X110.930 Y97.060 E11.87206
G1 X112.626 Y97.769 E11.90608
G1 X114.139 Y98.564 E11.93769
G1 X115.582 Y99.542 E11.96994
G1 X116.872 Y100.774 E12.00294
G1 X117.926 Y102.112 E12.03445
G1 X118.982 Y103.299 E12.06386
G1 X120.272 Y104.283 E12.09386
G1 X121.261 Y104.815 E12.11464
G1 X122.342 Y105.177 E12.13574
G1 X123.036 Y105.318 E12.14882
G1 X124.167 Y105.266 E12.16977
G1 X124.906 Y105.057 E12.18398
G1 X125.638 Y104.628 E12.19967
G1 X126.391 Y104.040 E12.21736
G1 X127.023 Y102.768 E12.24363
G1 X127.167 Y101.968 E12.25866
G1 X127.101 Y101.165 E12.27357
G1 X126.862 Y100.408 E12.28825
G1 X126.380 Y99.556 E12.30637
G1 X125.698 Y98.936 E12.32343
G1 X125.058 Y98.532 E12.33743
G1 X123.920 Y98.393 E12.35863
