; generated by Slic3r 1.1.7 on 2015-05-09 at 19:27:39

; perimeters extrusion width = 0.40mm
; infill extrusion width = 0.42mm
; solid infill extrusion width = 0.42mm
; top infill extrusion width = 0.42mm
; support material extrusion width = 0.40mm

G21 ; set units to millimeters
M190 S75 ; wait for bed temperature to be reached
M104 S240 ; set temperature
M106 S255; Turn on Fan fully
G28 ; home all axes Start of G Code Slic3r
G1 Z20
M280 P0 S10 
G1 Z22
G29 ; AutoBed leveing
G1 X208 Y20 F4000
G1 Z4
 
  
M109 S240 ; wait for temperature to be reached
G90 ; use absolute coordinates
G92 E0
M82 ; use absolute distances for extrusion
M106 S127
G1 F1980.000 E-4.00000
G92 E0
G1 Z0.300 F6000.000
G1 X78.655 Y85.212 F6000.000
G1 E4.00000 F1980.000
G1 X78.896 Y84.989 E4.01346 F1650.000
G1 X79.882 Y84.337 E4.06197
G1 X80.965 Y83.854 E4.11065
G1 X82.107 Y83.557 E4.15906
G1 X82.803 Y83.469 E4.18784
G1 X83.313 Y83.449 E4.20878
G1 X84.283 Y83.447 E4.24855
G1 X115.729 Y83.447 E5.53867
G1 X117.161 Y83.467 E5.59745 F1650.000
G1 X117.805 Y83.542 E5.62404
G1 X118.951 Y83.825 E5.67246
G1 X120.042 Y84.295 E5.72122
G1 X121.088 Y84.976 E5.77241
G1 X121.914 Y85.734 E5.81842
G1 X122.646 Y86.664 E5.86698
G1 X123.216 Y87.701 E5.91549
G1 X123.608 Y88.820 E5.96414
G1 X123.800 Y89.881 E6.00838
G1 X123.827 Y90.213 E6.02204
G1 X123.842 Y108.498 E6.77221
G1 X123.828 Y109.772 E6.82448
G1 X123.807 Y110.048 E6.83587
G1 X123.629 Y111.095 E6.87941
G1 X123.251 Y112.219 E6.92810
G1 X122.694 Y113.262 E6.97658
G1 X121.972 Y114.203 E7.02525
G1 X121.109 Y115.007 E7.07365
G1 X120.114 Y115.666 E7.12260
G1 X119.040 Y116.144 E7.17082
G1 X117.893 Y116.443 E7.21948
G1 X117.195 Y116.531 E7.24831
G1 X116.686 Y116.551 E7.26921
G1 X115.682 Y116.553 E7.31043
G1 X101.680 Y116.553 E7.88487
G1 X100.213 Y116.533 E7.94507
G1 X99.568 Y116.458 E7.97171
G1 X98.910 Y116.322 E7.99927
G1 X81.048 Y111.674 E8.75651
G1 X79.960 Y111.205 E8.80510
G1 X78.909 Y110.521 E8.85655
G1 X78.040 Y109.715 E8.90520
G1 X77.353 Y108.834 E8.95100
G1 X76.786 Y107.803 E8.99929
G1 X76.392 Y106.677 E9.04821
G1 X76.200 Y105.619 E9.09235
G1 X76.160 Y104.891 E9.12223
G1 X76.158 Y91.502 E9.67155
G1 X76.172 Y90.221 E9.72413
G1 X76.193 Y89.952 E9.73520
G1 X76.387 Y88.841 E9.78145
G1 X76.750 Y87.778 E9.82753
G1 X77.304 Y86.739 E9.87584
G1 X78.024 Y85.801 E9.92435
G1 X78.610 Y85.252 E9.95729
G1 F1980.000 E5.95729
G92 E0
G1 X78.872 Y85.447 F6000.000
G1 E4.00000 F1980.000
G1 X79.093 Y85.243 E4.01235 F1650.000
G1 X80.035 Y84.619 E4.05868
G1 X81.070 Y84.158 E4.10518
G1 X82.160 Y83.874 E4.15142
G1 X82.827 Y83.790 E4.17898
G1 X84.283 Y83.769 E4.23872
G1 X115.728 Y83.769 E5.52882
G1 X117.138 Y83.787 E5.58665 F1650.000
G1 X117.752 Y83.859 E5.61203
G1 X118.847 Y84.129 E5.65827
G1 X119.889 Y84.578 E5.70485
G1 X120.890 Y85.230 E5.75386
G1 X121.677 Y85.952 E5.79769
G1 X122.377 Y86.840 E5.84408
G1 X122.921 Y87.830 E5.89041
G1 X123.296 Y88.899 E5.93688
G1 X123.480 Y89.912 E5.97915
G1 X123.507 Y90.232 E5.99229
G1 X123.520 Y108.497 E6.74166
G1 X123.508 Y109.753 E6.79317
G1 X123.487 Y110.017 E6.80404
G1 X123.317 Y111.016 E6.84562
G1 X122.956 Y112.090 E6.89212
G1 X122.425 Y113.086 E6.93843
G1 X121.735 Y113.985 E6.98491
G1 X120.911 Y114.754 E7.03114
G1 X119.961 Y115.383 E7.07790
G1 X118.936 Y115.840 E7.12396
G1 X117.840 Y116.126 E7.17044
G1 X117.172 Y116.210 E7.19805
G1 X116.686 Y116.230 E7.21801
G1 X115.682 Y116.231 E7.25921
G1 X101.680 Y116.231 E7.83363
G1 X100.236 Y116.213 E7.89288
G1 X99.621 Y116.141 E7.91831
G1 X98.991 Y116.011 E7.94471
G1 X81.152 Y111.370 E8.70093
G1 X80.113 Y110.922 E8.74735
G1 X79.107 Y110.267 E8.79661
G1 X78.276 Y109.497 E8.84307
G1 X77.622 Y108.659 E8.88670
G1 X77.080 Y107.673 E8.93283
G1 X76.704 Y106.599 E8.97955
G1 X76.520 Y105.587 E9.02173
G1 X76.481 Y104.891 E9.05034
G1 X76.480 Y91.503 E9.59960
G1 X76.493 Y90.240 E9.65141
G1 X76.513 Y89.983 E9.66198
G1 X76.699 Y88.920 E9.70626
G1 X77.045 Y87.908 E9.75016
G1 X77.574 Y86.915 E9.79630
G1 X78.261 Y86.019 E9.84264
G1 X78.828 Y85.488 E9.87450
G1 F1980.000 E5.87450
G92 E0
G1 X115.736 Y108.742 F6000.000
G1 E4.00000 F1980.000
G1 X115.736 Y104.613 E4.16937 F900.000
G1 X83.595 Y104.615 E5.48798
G1 X83.595 Y90.884 E6.05132
G1 X116.404 Y90.884 E7.39736
G1 X116.404 Y92.411 E7.45998
G1 X85.700 Y92.415 E8.71968
G1 X85.344 Y92.480 E8.73450
G1 X85.006 Y92.618 E8.74950
G1 X84.702 Y92.822 E8.76454
G1 X84.567 Y92.947 E8.77205
G1 X84.446 Y93.085 E8.77960
G1 X84.250 Y93.393 E8.79460
G1 X84.120 Y93.736 E8.80962
G1 X84.065 Y94.088 E8.82423
G1 X84.063 Y102.265 E9.15973
G1 X84.083 Y102.530 E9.17062
G1 X84.176 Y102.884 E9.18564
G1 X84.340 Y103.211 E9.20065
G1 X84.446 Y103.361 E9.20819
G1 X84.567 Y103.498 E9.21569
G1 X84.798 Y103.696 E9.22817
G1 X85.005 Y103.827 E9.23824
G1 X85.171 Y103.905 E9.24576
G1 X85.523 Y104.007 E9.26077
G1 X85.828 Y104.035 E9.27335
G1 X116.406 Y104.035 E10.52786
G1 X116.405 Y109.116 E10.73631
G1 X100.968 Y109.116 E11.36961
G1 X100.968 Y108.740 E11.38505
G1 X115.676 Y108.741 E11.98843
G1 F1980.000 E7.98843
G92 E0
G1 X115.414 Y108.420 F6000.000
G1 E4.00000 F1980.000
G1 X115.414 Y104.935 E4.14294 F900.000
G1 X83.274 Y104.936 E5.46153
G1 X83.274 Y90.563 E6.05119
G1 X116.726 Y90.563 E7.42359
G1 X116.726 Y92.731 E7.51254
G1 X85.727 Y92.736 E8.78432
G1 X85.435 Y92.789 E8.79651
G1 X85.157 Y92.902 E8.80880
G1 X84.908 Y93.069 E8.82112
G1 X84.798 Y93.171 E8.82727
G1 X84.698 Y93.285 E8.83346
G1 X84.537 Y93.537 E8.84575
G1 X84.432 Y93.818 E8.85806
G1 X84.386 Y94.108 E8.87011
G1 X84.386 Y102.337 E9.20769
G1 X84.432 Y102.627 E9.21975
G1 X84.477 Y102.770 E9.22592
G1 X84.611 Y103.039 E9.23822
G1 X84.699 Y103.161 E9.24439
G1 X84.797 Y103.274 E9.25054
G1 X84.991 Y103.439 E9.26098
G1 X85.293 Y103.607 E9.27515
G1 X85.581 Y103.691 E9.28745
G1 X85.834 Y103.714 E9.29788
G1 X116.725 Y103.714 E10.56526
G1 X116.726 Y109.437 E10.80004
G1 X100.647 Y109.437 E11.45969
G1 X100.647 Y108.419 E11.50145
G1 X115.354 Y108.419 E12.10484
G1 F1980.000 E8.10484
G92 E0
G1 X115.093 Y108.097 F6000.000
G1 E4.00000 F1980.000
G1 X115.093 Y105.257 E4.11652 F720.000
G1 X83.330 Y105.258 E5.41965
G1 X83.240 Y105.245 E5.42337
G1 X83.126 Y105.195 E5.42849
G1 X83.000 Y105.058 E5.43612
G1 X82.953 Y104.873 E5.44395
G1 X82.953 Y90.618 E6.02879
G1 X83.000 Y90.442 E6.03625
G1 X83.076 Y90.343 E6.04136
G1 X83.181 Y90.275 E6.04649
G1 X83.330 Y90.242 E6.05274
G1 X116.670 Y90.242 E7.42060
G1 X116.819 Y90.275 E7.42685
G1 X116.924 Y90.343 E7.43197
G1 X117.025 Y90.499 E7.43961
G1 X117.047 Y90.627 E7.44492
G1 X117.041 Y92.734 E7.53137
G1 X117.000 Y92.853 E7.53654
G1 X116.924 Y92.952 E7.54166
G1 X116.819 Y93.020 E7.54678
G1 X116.693 Y93.051 E7.55213
G1 X85.840 Y93.053 E8.81793
G1 X85.639 Y93.071 E8.82621
G1 X85.414 Y93.137 E8.83581
G1 X85.208 Y93.246 E8.84540
G1 X85.028 Y93.396 E8.85498
G1 X84.825 Y93.681 E8.86934
G1 X84.743 Y93.900 E8.87893
G1 X84.707 Y94.129 E8.88845
G1 X84.707 Y102.316 E9.22433
G1 X84.778 Y102.657 E9.23861
G1 X84.951 Y102.961 E9.25296
G1 X85.184 Y103.181 E9.26612
G1 X85.414 Y103.309 E9.27690
G1 X85.638 Y103.374 E9.28650
G1 X85.840 Y103.392 E9.29478
G1 X116.693 Y103.394 E10.56058
G1 X116.819 Y103.426 E10.56593
G1 X116.924 Y103.494 E10.57104
G1 X117.025 Y103.650 E10.57868
G1 X117.047 Y103.778 E10.58401
G1 X117.047 Y109.373 E10.81358
G1 X117.025 Y109.501 E10.81889
G1 X116.966 Y109.611 E10.82401
G1 X116.874 Y109.695 E10.82913
G1 X116.760 Y109.745 E10.83425
G1 X115.682 Y109.760 E10.87850
G1 X100.680 Y109.757 E11.49396
G1 X100.554 Y109.725 E11.49931
G1 X100.449 Y109.657 E11.50443
G1 X100.372 Y109.558 E11.50955
G1 X100.332 Y109.439 E11.51471
G1 X100.326 Y108.482 E11.55399
G1 X100.347 Y108.354 E11.55930
G1 X100.407 Y108.245 E11.56441
G1 X100.499 Y108.160 E11.56953
G1 X100.613 Y108.110 E11.57464
G1 X100.702 Y108.097 E11.57836
G1 X115.033 Y108.097 E12.16629
G1 F1980.000 E8.16629
G92 E0
G1 X115.493 Y108.097 F6000.000
G1 X85.195 Y104.135 F6000.000
G1 E4.00000 F1980.000
G1 X85.246 Y104.185 E4.00293 F900.000
G1 X84.925 Y104.402 E4.01884
G1 X83.808 Y103.286 E4.08361
G1 X83.808 Y103.824 E4.10568
G1 X84.386 Y104.402 E4.13923
G1 X83.848 Y104.402 E4.16131
G1 X83.808 Y104.362 E4.16363
G1 F1980.000 E0.16363
G92 E0
G1 X83.881 Y102.896 F6000.000
G1 E4.00000 F1980.000
G1 X83.829 Y102.324 E4.01492 F600.000
G1 F1980.000 E0.01492
G92 E0
G1 X83.829 Y94.121 F6000.000
G1 E4.00000 F1980.000
G1 X83.881 Y93.548 E4.01496 F600.000
G1 F1980.000 E0.01496
G92 E0
G1 X83.808 Y93.284 F6000.000
G1 E4.00000 F1980.000
G1 X83.852 Y93.328 E4.00255 F900.000
G1 X84.145 Y93.161 E4.01639
G1 X83.808 Y92.824 E4.03594
G1 X83.808 Y92.363 E4.05483
G1 X84.337 Y92.892 E4.08548
G1 X84.564 Y92.658 E4.09884
G1 X83.808 Y91.903 E4.14268
G1 X83.808 Y91.443 E4.16157
G1 X84.839 Y92.473 E4.22137
G1 X85.154 Y92.328 E4.23560
G1 X83.923 Y91.097 E4.30698
G1 X84.384 Y91.097 E4.32587
G1 X85.512 Y92.225 E4.39130
G1 X85.944 Y92.197 E4.40907
G1 X84.844 Y91.097 E4.47288
G1 X85.305 Y91.097 E4.49177
G1 X86.404 Y92.197 E4.55558
G1 X86.865 Y92.197 E4.57447
G1 X85.765 Y91.097 E4.63828
G1 X86.225 Y91.097 E4.65716
G1 X87.325 Y92.197 E4.72097
G1 X87.786 Y92.197 E4.73986
G1 X86.686 Y91.097 E4.80368
G1 X87.146 Y91.097 E4.82256
G1 X88.246 Y92.197 E4.88638
G1 X88.706 Y92.197 E4.90527
G1 X87.607 Y91.097 E4.96908
G1 X88.067 Y91.097 E4.98797
G1 X89.167 Y92.197 E5.05179
G1 X89.627 Y92.197 E5.07068
G1 X88.527 Y91.097 E5.13450
G1 X88.988 Y91.097 E5.15338
G1 X90.088 Y92.197 E5.21720
G1 X90.548 Y92.197 E5.23609
G1 X89.448 Y91.097 E5.29991
G1 X89.908 Y91.097 E5.31880
G1 X91.008 Y92.197 E5.38262
G1 X91.469 Y92.197 E5.40151
G1 X90.369 Y91.097 E5.46534
G1 X90.829 Y91.097 E5.48423
G1 X91.929 Y92.197 E5.54805
G1 X92.390 Y92.197 E5.56694
G1 X91.290 Y91.097 E5.63077
G1 X91.750 Y91.097 E5.64966
G1 X92.850 Y92.197 E5.71349
G1 X93.311 Y92.197 E5.73237
G1 X92.210 Y91.097 E5.79620
G1 X92.671 Y91.097 E5.81509
G1 X93.771 Y92.197 E5.87892
G1 X94.231 Y92.197 E5.89781
G1 X93.131 Y91.097 E5.96165
G1 X93.592 Y91.097 E5.98053
G1 X94.692 Y92.197 E6.04437
G1 X95.152 Y92.197 E6.06326
G1 X94.052 Y91.097 E6.12709
G1 X94.512 Y91.097 E6.14598
G1 X95.613 Y92.197 E6.20982
G1 X96.073 Y92.197 E6.22871
G1 X94.973 Y91.097 E6.29255
G1 X95.433 Y91.097 E6.31144
G1 X96.533 Y92.197 E6.37528
G1 X96.994 Y92.197 E6.39417
G1 X95.893 Y91.097 E6.45801
G1 X96.354 Y91.097 E6.47690
G1 X97.454 Y92.197 E6.54074
G1 X97.915 Y92.197 E6.55963
G1 X96.814 Y91.097 E6.62347
G1 X97.275 Y91.097 E6.64236
G1 X98.375 Y92.197 E6.70621
G1 X98.835 Y92.197 E6.72510
G1 X97.735 Y91.097 E6.78894
G1 X98.195 Y91.097 E6.80783
G1 X99.296 Y92.197 E6.87168
G1 X99.756 Y92.197 E6.89057
G1 X98.656 Y91.097 E6.95442
G1 X99.116 Y91.097 E6.97331
G1 X100.217 Y92.197 E7.03716
G1 X100.677 Y92.197 E7.05605
G1 X99.577 Y91.097 E7.11990
G1 X100.037 Y91.097 E7.13879
G1 X101.137 Y92.197 E7.20265
G1 X101.598 Y92.197 E7.22154
G1 X100.497 Y91.097 E7.28539
G1 X100.958 Y91.097 E7.30428
G1 X102.058 Y92.197 E7.36814
G1 X102.519 Y92.197 E7.38703
G1 X101.418 Y91.097 E7.45089
G1 X101.878 Y91.097 E7.46978
G1 X102.979 Y92.197 E7.53364
G1 X103.440 Y92.197 E7.55253
G1 X102.339 Y91.097 E7.61639
G1 X102.799 Y91.097 E7.63528
G1 X103.900 Y92.197 E7.69914
G1 X104.360 Y92.197 E7.71803
G1 X103.260 Y91.097 E7.78190
G1 X103.720 Y91.097 E7.80078
G1 X104.821 Y92.197 E7.86465
G1 X105.281 Y92.197 E7.88354
G1 X104.180 Y91.097 E7.94741
G1 X104.641 Y91.097 E7.96630
G1 X105.742 Y92.197 E8.03017
G1 X106.202 Y92.197 E8.04906
G1 X105.101 Y91.096 E8.11293
G1 X105.562 Y91.096 E8.13181
G1 X106.662 Y92.197 E8.19569
G1 X107.123 Y92.197 E8.21458
G1 X106.022 Y91.096 E8.27845
G1 X106.482 Y91.096 E8.29734
G1 X107.583 Y92.197 E8.36121
G1 X108.044 Y92.197 E8.38010
G1 X106.943 Y91.096 E8.44398
G1 X107.403 Y91.096 E8.46287
G1 X108.504 Y92.197 E8.52675
G1 X108.964 Y92.197 E8.54564
G1 X107.863 Y91.096 E8.60952
G1 X108.324 Y91.096 E8.62840
G1 X109.425 Y92.197 E8.69229
G1 X109.885 Y92.197 E8.71118
G1 X108.784 Y91.096 E8.77506
G1 X109.245 Y91.096 E8.79395
G1 X110.346 Y92.197 E8.85783
G1 X110.806 Y92.197 E8.87672
G1 X109.705 Y91.096 E8.94061
G1 X110.165 Y91.096 E8.95949
G1 X111.267 Y92.197 E9.02338
G1 X111.727 Y92.197 E9.04227
G1 X110.626 Y91.096 E9.10616
G1 X111.086 Y91.096 E9.12505
G1 X112.187 Y92.197 E9.18894
G1 X112.648 Y92.197 E9.20783
G1 X111.547 Y91.096 E9.27172
G1 X112.007 Y91.096 E9.29061
G1 X113.108 Y92.197 E9.35450
G1 X113.569 Y92.197 E9.37339
G1 X112.467 Y91.096 E9.43729
G1 X112.928 Y91.096 E9.45617
G1 X114.029 Y92.197 E9.52007
G1 X114.489 Y92.197 E9.53896
G1 X113.388 Y91.096 E9.60286
G1 X113.848 Y91.096 E9.62174
G1 X114.950 Y92.197 E9.68564
G1 X115.410 Y92.197 E9.70453
G1 X114.309 Y91.096 E9.76843
G1 X114.769 Y91.096 E9.78732
G1 X115.871 Y92.197 E9.85122
G1 X116.191 Y92.058 E9.86557
G1 X115.230 Y91.096 E9.92137
G1 X115.690 Y91.096 E9.94025
G1 X116.191 Y91.597 E9.96934
G1 X116.191 Y91.137 E9.98822
G1 X116.151 Y91.097 E9.99055
G1 F1980.000 E5.99055
G92 E0
G1 X116.070 Y104.195 F6000.000
G1 E4.00000 F1980.000
G1 X116.070 Y108.956 E4.26689 F600.000
G1 F1980.000 E0.26689
G92 E0
G1 X115.896 Y104.324 F6000.000
G1 E4.00000 F1980.000
G1 X85.826 Y104.325 E4.78157 F600.000
G1 X85.707 Y104.323 E4.78465
G1 X85.583 Y104.177 E4.78963
M106 S221
M104 S238 ; set temperature
M140 S70 ; set bed temperature
G1 F1980.000 E0.78963
G92 E0
G1 Z0.600 F6000.000
G1 X115.943 Y108.726 F6000.000
G1 E4.00000 F1980.000
G1 X115.943 Y104.629 E4.20913 F1800.000
G1 X83.580 Y104.630 E5.86126
G1 X83.580 Y90.869 E6.56379
G1 X116.420 Y90.869 E8.24027
G1 X116.420 Y92.426 E8.31975
G1 X85.700 Y92.430 E9.88802
G1 X85.348 Y92.495 E9.90625
G1 X85.013 Y92.631 E9.92476
G1 X84.856 Y92.725 E9.93406
G1 X84.578 Y92.957 E9.95255
G1 X84.353 Y93.242 E9.97108
G1 X84.263 Y93.400 E9.98040
G1 X84.135 Y93.741 E9.99895
G1 X84.080 Y94.086 E10.01680
G1 X84.078 Y102.268 E10.43449
G1 X84.098 Y102.527 E10.44776
G1 X84.135 Y102.706 E10.45707
G1 X84.263 Y103.045 E10.47557
G1 X84.458 Y103.352 E10.49415
G1 X84.578 Y103.488 E10.50340
G1 X84.856 Y103.720 E10.52191
G1 X85.177 Y103.891 E10.54045
G1 X85.526 Y103.993 E10.55901
G1 X85.824 Y104.020 E10.57430
G1 X116.420 Y104.020 E12.13623
G1 X116.420 Y109.131 E12.39717
G1 X100.953 Y109.131 E13.18677
G1 X100.953 Y108.724 E13.20754
G1 X115.883 Y108.726 E13.96971
G1 F1980.000 E9.96971
G92 E0
G1 X115.543 Y108.325 F6000.000
G1 E4.00000 F1980.000
G1 X115.543 Y105.030 E4.16825 F1800.000
G1 X83.827 Y105.031 E5.78733
G1 X83.338 Y105.030 E5.81232
G1 X83.193 Y105.006 E5.81979
G1 X83.180 Y104.465 E5.84744
G1 X83.180 Y90.647 E6.55283
G1 X83.193 Y90.493 E6.56071
G1 X83.338 Y90.469 E6.56818
G1 X116.662 Y90.469 E8.26941
G1 X116.807 Y90.493 E8.27688
G1 X116.820 Y90.647 E8.28474
G1 X116.820 Y92.648 E8.38690
G1 X116.807 Y92.801 E8.39477
G1 X116.662 Y92.826 E8.40224
G1 X85.733 Y92.829 E9.98118
G1 X85.461 Y92.879 E9.99532
G1 X85.201 Y92.985 E10.00964
G1 X85.080 Y93.057 E10.01682
G1 X84.865 Y93.237 E10.03113
G1 X84.691 Y93.457 E10.04546
G1 X84.621 Y93.580 E10.05265
G1 X84.522 Y93.842 E10.06699
G1 X84.480 Y94.112 E10.08091
G1 X84.480 Y102.334 E10.50066
G1 X84.522 Y102.603 E10.51459
G1 X84.565 Y102.737 E10.52176
G1 X84.691 Y102.988 E10.53607
G1 X84.772 Y103.103 E10.54327
G1 X84.865 Y103.208 E10.55043
G1 X85.080 Y103.388 E10.56475
G1 X85.328 Y103.520 E10.57907
G1 X85.598 Y103.599 E10.59342
G1 X85.831 Y103.620 E10.60540
G1 X116.662 Y103.620 E12.17933
G1 X116.807 Y103.644 E12.18680
G1 X116.820 Y103.798 E12.19471
G1 X116.820 Y109.353 E12.47827
G1 X116.807 Y109.507 E12.48615
G1 X116.662 Y109.531 E12.49362
G1 X100.711 Y109.531 E13.30795
G1 X100.566 Y109.507 E13.31543
G1 X100.553 Y109.353 E13.32329
G1 X100.566 Y108.349 E13.37457
G1 X100.711 Y108.324 E13.38205
G1 X115.483 Y108.325 E14.13617
G1 F1980.000 E10.13617
G92 E0
G1 X115.143 Y107.925 F6000.000
G1 E4.00000 F1980.000
G1 X115.143 Y105.430 E4.12736 F1440.000
G1 X83.336 Y105.430 E5.75111
G1 X83.112 Y105.383 E5.76282
G1 X82.959 Y105.283 E5.77210
G1 X82.848 Y105.140 E5.78137
G1 X82.789 Y104.968 E5.79065
G1 X82.780 Y104.870 E5.79569
G1 X82.780 Y90.630 E6.52264
G1 X82.811 Y90.443 E6.53231
G1 X82.898 Y90.283 E6.54159
G1 X82.959 Y90.216 E6.54624
G1 X83.112 Y90.117 E6.55551
G1 X83.336 Y90.069 E6.56722
G1 X116.664 Y90.069 E8.26864
G1 X116.889 Y90.117 E8.28036
G1 X117.041 Y90.216 E8.28963
G1 X117.102 Y90.283 E8.29428
