; generated by Slic3r 1.1.7 on 2015-05-10 at 14:36:32

; perimeters extrusion width = 0.40mm
; infill extrusion width = 0.42mm
; solid infill extrusion width = 0.42mm
; top infill extrusion width = 0.42mm
; support material extrusion width = 0.40mm

G21 ; set units to millimeters
M190 S60 ; wait for bed temperature to be reached
M104 S215 ; set temperature
M106 S255; Turn on Fan fully
G28 ; home all axes Start of G Code Slic3r
G1 Z20
M280 P0 S10 
G1 Z22
G29 ; AutoBed leveing
G1 X208 Y20 F4000
G1 Z4
 
  
M109 S215 ; wait for temperature to be reached
G90 ; use absolute coordinates
G92 E0
M82 ; use absolute distances for extrusion
G1 F1980.000 E-4.00000
G92 E0
G1 Z0.300 F6000.000
G1 X60.012 Y68.358 F6000.000
G1 E4.00000 F1980.000
G1 X61.766 Y66.875 E4.09208 F1650.000
G1 X63.919 Y66.077 E4.18416
G1 X65.115 Y65.969 E4.23229
G1 X134.885 Y65.969 E7.02968
G1 X137.147 Y66.366 E7.12176
G1 X139.139 Y67.509 E7.21384 F1650.000
G1 X140.622 Y69.263 E7.30592
G1 X141.420 Y71.416 E7.39800
G1 X141.528 Y72.612 E7.44613
G1 X141.528 Y127.388 E9.64236
G1 X141.131 Y129.650 E9.73444
G1 X139.988 Y131.642 E9.82652
G1 X138.234 Y133.125 E9.91860
G1 X136.081 Y133.923 E10.01068
G1 X134.885 Y134.031 E10.05881
G1 X65.115 Y134.031 E12.85620
G1 X62.853 Y133.634 E12.94828
G1 X60.861 Y132.491 E13.04036
G1 X59.378 Y130.737 E13.13244
G1 X58.580 Y128.584 E13.22452
G1 X58.472 Y127.388 E13.27265
G1 X58.472 Y72.612 E15.46889
G1 X58.869 Y70.350 E15.56097
G1 X59.983 Y68.410 E15.65064
G1 F1980.000 E11.65064
G92 E0
G1 X60.302 Y68.529 F6000.000
G1 E4.00000 F1980.000
G1 X60.331 Y68.479 E4.00231 F1650.000
G1 X62.072 Y67.071 E4.09212
G1 X65.115 Y66.290 E4.21806
G1 X134.885 Y66.290 E7.01545
G1 X137.090 Y66.687 E7.10526
G1 X139.017 Y67.828 E7.19507 F1650.000
G1 X140.426 Y69.569 E7.28487
G1 X141.207 Y72.612 E7.41082
G1 X141.207 Y127.388 E9.60705
G1 X140.810 Y129.593 E9.69686
G1 X139.669 Y131.521 E9.78667
G1 X137.928 Y132.929 E9.87647
G1 X134.885 Y133.710 E10.00241
G1 X65.115 Y133.710 E12.79981
G1 X62.910 Y133.313 E12.88962
G1 X60.983 Y132.172 E12.97942
G1 X59.574 Y130.431 E13.06923
G1 X58.793 Y127.388 E13.19517
G1 X58.793 Y72.612 E15.39141
G1 X59.190 Y70.407 E15.48122
G1 X60.271 Y68.581 E15.56631
G1 F1980.000 E11.56631
G92 E0
G1 X129.793 Y122.968 F6000.000
G1 E4.00000 F1980.000
G1 X129.528 Y123.159 E4.01309 F900.000
G1 X129.247 Y123.326 E4.02617
G1 X128.954 Y123.468 E4.03926
G1 X128.649 Y123.585 E4.05235
G1 X128.335 Y123.675 E4.06544
G1 X128.015 Y123.738 E4.07852
G1 X127.690 Y123.773 E4.09161
G1 X127.364 Y123.780 E4.10470
G1 X127.038 Y123.759 E4.11779
G1 X126.715 Y123.710 E4.13088
G1 X126.398 Y123.634 E4.14396
G1 X126.089 Y123.530 E4.15705
G1 X125.838 Y123.421 E4.16799
G1 X125.502 Y123.245 E4.18322
G1 X125.229 Y123.066 E4.19631
G1 X124.973 Y122.864 E4.20939
G1 X124.734 Y122.641 E4.22248
G1 X124.516 Y122.398 E4.23557
G1 X124.320 Y122.137 E4.24866
G1 X124.147 Y121.861 E4.26174
G1 X123.998 Y121.570 E4.27483
G1 X123.875 Y121.268 E4.28792
G1 X123.778 Y120.956 E4.30101
G1 X123.719 Y120.689 E4.31195
G1 X123.666 Y120.313 E4.32718
G1 X123.652 Y119.987 E4.34027
G1 X123.666 Y119.661 E4.35335
G1 X123.708 Y119.337 E4.36644
G1 X123.778 Y119.019 E4.37953
G1 X123.875 Y118.707 E4.39262
G1 X123.998 Y118.405 E4.40571
G1 X124.147 Y118.114 E4.41879
G1 X124.320 Y117.837 E4.43188
G1 X124.516 Y117.577 E4.44497
G1 X124.734 Y117.334 E4.45805
G1 X124.973 Y117.111 E4.47114
G1 X125.229 Y116.909 E4.48423
G1 X125.502 Y116.729 E4.49732
G1 X125.789 Y116.574 E4.51041
G1 X126.089 Y116.445 E4.52349
G1 X126.398 Y116.341 E4.53658
G1 X126.715 Y116.265 E4.54967
G1 X127.038 Y116.216 E4.56275
G1 X127.364 Y116.195 E4.57584
G1 X127.637 Y116.200 E4.58678
G1 X128.015 Y116.237 E4.60201 F900.000
G1 X128.335 Y116.299 E4.61510
G1 X128.649 Y116.390 E4.62819
G1 X128.954 Y116.506 E4.64128
G1 X129.247 Y116.649 E4.65437
G1 X129.528 Y116.816 E4.66745
G1 X129.793 Y117.007 E4.68054
G1 X130.040 Y117.220 E4.69362
G1 X130.268 Y117.453 E4.70672
G1 X130.476 Y117.705 E4.71980
G1 X130.661 Y117.974 E4.73289
G1 X130.822 Y118.258 E4.74598
G1 X130.958 Y118.554 E4.75907
G1 X131.068 Y118.862 E4.77215
G1 X131.152 Y119.177 E4.78524
G1 X131.208 Y119.499 E4.79833
G1 X131.236 Y119.824 E4.81141
G1 X131.236 Y120.151 E4.82451
G1 X131.208 Y120.476 E4.83759
G1 X131.152 Y120.797 E4.85068
G1 X131.068 Y121.113 E4.86377
G1 X130.958 Y121.420 E4.87685
G1 X130.822 Y121.717 E4.88994
G1 X130.661 Y122.001 E4.90303
G1 X130.476 Y122.270 E4.91612
G1 X130.268 Y122.522 E4.92921
G1 X130.040 Y122.755 E4.94229
G1 X129.838 Y122.929 E4.95298
G1 F1980.000 E0.95298
G92 E0
G1 X129.594 Y122.715 F6000.000
G1 E4.00000 F1980.000
G1 X129.351 Y122.890 E4.01198 F900.000
G1 X129.095 Y123.043 E4.02395
G1 X128.826 Y123.173 E4.03593
G1 X128.547 Y123.280 E4.04791
G1 X128.260 Y123.362 E4.05989
G1 X127.967 Y123.420 E4.07186
G1 X127.670 Y123.452 E4.08384
G1 X127.371 Y123.458 E4.09582
G1 X127.073 Y123.439 E4.10780
G1 X126.777 Y123.394 E4.11978
G1 X126.487 Y123.324 E4.13175
G1 X125.966 Y123.127 E4.15410
G1 X125.667 Y122.969 E4.16766
G1 X125.417 Y122.805 E4.17964
G1 X125.182 Y122.620 E4.19161
G1 X124.964 Y122.416 E4.20359
G1 X124.765 Y122.193 E4.21557
G1 X124.585 Y121.955 E4.22755
G1 X124.426 Y121.702 E4.23953
G1 X124.290 Y121.436 E4.25150
G1 X124.177 Y121.159 E4.26348
G1 X124.033 Y120.621 E4.28583
G1 X123.987 Y120.286 E4.29939
G1 X123.974 Y119.987 E4.31137
G1 X123.987 Y119.689 E4.32334
G1 X124.025 Y119.393 E4.33532
G1 X124.089 Y119.101 E4.34730
G1 X124.177 Y118.815 E4.35928
G1 X124.290 Y118.539 E4.37126
G1 X124.426 Y118.273 E4.38323
G1 X124.585 Y118.020 E4.39521
G1 X124.765 Y117.781 E4.40719
G1 X124.964 Y117.559 E4.41917
G1 X125.386 Y117.194 E4.44151
G1 X125.667 Y117.006 E4.45507
G1 X125.930 Y116.864 E4.46705
G1 X126.204 Y116.745 E4.47903
G1 X126.487 Y116.650 E4.49101
G1 X126.777 Y116.580 E4.50298
G1 X127.331 Y116.519 E4.52533
G1 X127.670 Y116.523 E4.53889 F900.000
G1 X127.967 Y116.555 E4.55087
G1 X128.260 Y116.612 E4.56284
G1 X128.547 Y116.695 E4.57482
G1 X128.826 Y116.802 E4.58680
G1 X129.095 Y116.932 E4.59878
G1 X129.351 Y117.085 E4.61076
G1 X129.594 Y117.260 E4.62274
G1 X129.820 Y117.454 E4.63471
G1 X130.029 Y117.668 E4.64669
G1 X130.219 Y117.898 E4.65867
G1 X130.388 Y118.145 E4.67065
G1 X130.536 Y118.404 E4.68262
G1 X130.660 Y118.676 E4.69460
G1 X130.761 Y118.957 E4.70658
G1 X130.837 Y119.246 E4.71856
G1 X130.911 Y119.798 E4.74090
G1 X130.914 Y120.137 E4.75447
G1 X130.889 Y120.434 E4.76644
G1 X130.837 Y120.729 E4.77842
G1 X130.761 Y121.017 E4.79040
G1 X130.660 Y121.299 E4.80237
G1 X130.536 Y121.570 E4.81435
G1 X130.388 Y121.830 E4.82633
G1 X130.219 Y122.076 E4.83831
G1 X130.029 Y122.307 E4.85029
G1 X129.639 Y122.676 E4.87182
G1 F1980.000 E0.87182
G92 E0
G1 X129.394 Y122.462 F6000.000
G1 E4.00000 F1980.000
G1 X129.174 Y122.621 E4.01087 F720.000
G1 X128.698 Y122.878 E4.03258
G1 X128.184 Y123.050 E4.05430
G1 X127.649 Y123.131 E4.07601
G1 X127.378 Y123.137 E4.08688
G1 X127.107 Y123.119 E4.09775
G1 X126.576 Y123.015 E4.11946
G1 X126.094 Y122.832 E4.14014
G1 X125.832 Y122.693 E4.15204
G1 X125.392 Y122.376 E4.17376
G1 X125.194 Y122.191 E4.18463
G1 X124.850 Y121.772 E4.20634
G1 X124.583 Y121.302 E4.22806
G1 X124.480 Y121.051 E4.23892
G1 X124.348 Y120.552 E4.25961
G1 X124.307 Y120.258 E4.27151
G1 X124.295 Y119.987 E4.28237
G1 X124.342 Y119.448 E4.30409
G1 X124.480 Y118.924 E4.32580
G1 X124.583 Y118.673 E4.33667
G1 X124.850 Y118.202 E4.35839
G1 X125.194 Y117.784 E4.38010
G1 X125.392 Y117.599 E4.39097
G1 X125.832 Y117.282 E4.41268
G1 X126.070 Y117.153 E4.42355
G1 X126.576 Y116.960 E4.44527
G1 X126.839 Y116.896 E4.45613
G1 X127.107 Y116.855 E4.46700
G1 X127.623 Y116.843 E4.48768
G1 X127.918 Y116.873 E4.49958 F720.000
G1 X128.445 Y117.000 E4.52130
G1 X128.942 Y117.215 E4.54301
G1 X129.394 Y117.512 E4.56473
G1 X129.600 Y117.689 E4.57559
G1 X129.962 Y118.092 E4.59731
G1 X130.249 Y118.551 E4.61903
G1 X130.454 Y119.053 E4.64074
G1 X130.569 Y119.582 E4.66246
G1 X130.593 Y120.123 E4.68417
G1 X130.523 Y120.660 E4.70589
G1 X130.454 Y120.922 E4.71675
G1 X130.362 Y121.177 E4.72762
G1 X130.115 Y121.659 E4.74934
G1 X129.790 Y122.092 E4.77105
G1 X129.440 Y122.423 E4.79037
G1 F1980.000 E0.79037
G92 E0
G1 X127.604 Y116.547 F6000.000
G1 X127.737 Y83.803 F6000.000
G1 E4.00000 F1980.000
G1 X127.411 Y83.811 E4.01309 F900.000
G1 X127.085 Y83.789 E4.02618
G1 X126.762 Y83.741 E4.03926
G1 X126.445 Y83.664 E4.05235
G1 X126.135 Y83.560 E4.06544
G1 X125.836 Y83.431 E4.07853
G1 X125.549 Y83.276 E4.09162
G1 X125.276 Y83.097 E4.10470
G1 X125.019 Y82.895 E4.11779
G1 X124.781 Y82.671 E4.13088
G1 X124.563 Y82.428 E4.14397
G1 X124.367 Y82.168 E4.15706
G1 X124.194 Y81.891 E4.17014
G1 X124.045 Y81.601 E4.18323
G1 X123.921 Y81.298 E4.19632
G1 X123.825 Y80.986 E4.20941
G1 X123.766 Y80.720 E4.22035
G1 X123.713 Y80.344 E4.23557
G1 X123.699 Y80.018 E4.24866
G1 X123.713 Y79.692 E4.26175
G1 X123.755 Y79.368 E4.27484
G1 X123.825 Y79.049 E4.28793
G1 X123.921 Y78.737 E4.30101
G1 X124.045 Y78.435 E4.31410
G1 X124.194 Y78.144 E4.32719
G1 X124.367 Y77.868 E4.34028
G1 X124.531 Y77.650 E4.35122
G1 X124.781 Y77.364 E4.36645
G1 X125.019 Y77.141 E4.37953
G1 X125.276 Y76.939 E4.39262
G1 X125.504 Y76.789 E4.40356
G1 X125.836 Y76.605 E4.41879
G1 X126.135 Y76.475 E4.43187
G1 X126.445 Y76.372 E4.44496
G1 X126.762 Y76.295 E4.45805
G1 X127.085 Y76.246 E4.47114
G1 X127.411 Y76.225 E4.48422
G1 X127.684 Y76.231 E4.49517
G1 X128.062 Y76.267 E4.51040 F900.000
G1 X128.382 Y76.330 E4.52349
G1 X128.696 Y76.420 E4.53657
G1 X129.000 Y76.537 E4.54965
G1 X129.294 Y76.679 E4.56275
G1 X129.575 Y76.847 E4.57583
G1 X129.840 Y77.037 E4.58892
G1 X130.087 Y77.250 E4.60201
G1 X130.315 Y77.483 E4.61510
G1 X130.523 Y77.735 E4.62818
G1 X130.708 Y78.004 E4.64128
G1 X130.869 Y78.288 E4.65436
G1 X131.005 Y78.585 E4.66744
G1 X131.115 Y78.892 E4.68054
G1 X131.199 Y79.208 E4.69362
G1 X131.255 Y79.529 E4.70671
G1 X131.283 Y79.855 E4.71980
G1 X131.283 Y80.181 E4.73289
G1 X131.255 Y80.506 E4.74598
G1 X131.199 Y80.828 E4.75906
G1 X131.129 Y81.092 E4.77000
G1 X131.005 Y81.451 E4.78523
G1 X130.869 Y81.747 E4.79832
G1 X130.708 Y82.031 E4.81141
G1 X130.523 Y82.300 E4.82449
G1 X130.315 Y82.552 E4.83758
G1 X130.087 Y82.785 E4.85067
G1 X129.840 Y82.998 E4.86376
G1 X129.575 Y83.189 E4.87684
G1 X129.294 Y83.356 E4.88993
G1 X129.001 Y83.499 E4.90301
G1 X128.696 Y83.616 E4.91611
G1 X128.382 Y83.706 E4.92920
G1 X128.062 Y83.768 E4.94228
G1 X127.797 Y83.797 E4.95296
G1 F1980.000 E0.95296
G92 E0
G1 X127.717 Y83.482 F6000.000
G1 E4.00000 F1980.000
G1 X127.418 Y83.489 E4.01198 F900.000
G1 X127.120 Y83.470 E4.02396
G1 X126.824 Y83.425 E4.03593
G1 X126.534 Y83.355 E4.04791
G1 X126.251 Y83.260 E4.05989
G1 X125.976 Y83.141 E4.07187
G1 X125.714 Y82.999 E4.08385
G1 X125.464 Y82.835 E4.09582
G1 X125.229 Y82.651 E4.10780
G1 X125.011 Y82.446 E4.11978
G1 X124.812 Y82.224 E4.13175
G1 X124.632 Y81.985 E4.14373
G1 X124.473 Y81.732 E4.15571
G1 X124.337 Y81.466 E4.16769
G1 X124.224 Y81.190 E4.17967
G1 X124.136 Y80.904 E4.19165
G1 X124.072 Y80.613 E4.20362
G1 X124.033 Y80.316 E4.21560
G1 X124.021 Y80.018 E4.22758
G1 X124.033 Y79.719 E4.23955
G1 X124.072 Y79.423 E4.25153
G1 X124.136 Y79.131 E4.26351
G1 X124.224 Y78.846 E4.27549
G1 X124.455 Y78.339 E4.29783
G1 X124.632 Y78.050 E4.31140
G1 X124.812 Y77.812 E4.32337
G1 X125.011 Y77.589 E4.33535
G1 X125.433 Y77.225 E4.35770
G1 X125.714 Y77.036 E4.37126
G1 X125.977 Y76.894 E4.38324
G1 X126.251 Y76.776 E4.39521
G1 X126.534 Y76.681 E4.40719
G1 X126.824 Y76.611 E4.41917
G1 X127.378 Y76.549 E4.44152
G1 X127.716 Y76.553 E4.45507 F900.000
G1 X128.013 Y76.585 E4.46705
G1 X128.307 Y76.643 E4.47903
G1 X128.594 Y76.725 E4.49101
G1 X128.873 Y76.832 E4.50298
G1 X129.142 Y76.962 E4.51497
G1 X129.398 Y77.116 E4.52694
G1 X129.640 Y77.290 E4.53892
G1 X129.867 Y77.485 E4.55090
G1 X130.076 Y77.698 E4.56288
G1 X130.266 Y77.929 E4.57485
G1 X130.435 Y78.175 E4.58683
G1 X130.583 Y78.435 E4.59881
G1 X130.707 Y78.706 E4.61078
G1 X130.808 Y78.988 E4.62276
G1 X130.884 Y79.276 E4.63474
G1 X130.935 Y79.571 E4.64672
G1 X130.961 Y79.868 E4.65870
G1 X130.961 Y80.167 E4.67067
G1 X130.935 Y80.465 E4.68265
G1 X130.818 Y81.010 E4.70500
G1 X130.707 Y81.329 E4.71856
G1 X130.583 Y81.601 E4.73054
G1 X130.435 Y81.860 E4.74252
G1 X130.266 Y82.107 E4.75449
G1 X130.076 Y82.337 E4.76647
G1 X129.867 Y82.551 E4.77845
G1 X129.640 Y82.745 E4.79042
G1 X129.398 Y82.920 E4.80240
G1 X129.141 Y83.073 E4.81438
G1 X128.873 Y83.203 E4.82635
G1 X128.594 Y83.310 E4.83834
G1 X128.307 Y83.393 E4.85031
G1 X127.776 Y83.476 E4.87184
G1 F1980.000 E0.87184
G92 E0
G1 X127.696 Y83.161 F6000.000
G1 E4.00000 F1980.000
G1 X127.154 Y83.150 E4.02172 F720.000
G1 X126.623 Y83.046 E4.04343
G1 X126.141 Y82.862 E4.06411
G1 X125.878 Y82.723 E4.07601
G1 X125.439 Y82.407 E4.09773
G1 X125.060 Y82.020 E4.11944
G1 X124.897 Y81.803 E4.13031
G1 X124.630 Y81.332 E4.15202
G1 X124.527 Y81.081 E4.16289
G1 X124.394 Y80.583 E4.18357
G1 X124.354 Y80.289 E4.19547
G1 X124.342 Y80.018 E4.20634
G1 X124.389 Y79.478 E4.22806
G1 X124.527 Y78.955 E4.24977
G1 X124.753 Y78.462 E4.27149
G1 X125.045 Y78.037 E4.29217
G1 X125.241 Y77.814 E4.30407
G1 X125.439 Y77.629 E4.31493
G1 X125.857 Y77.327 E4.33561
G1 X126.117 Y77.184 E4.34751
G1 X126.366 Y77.076 E4.35838
G1 X126.886 Y76.927 E4.38010
G1 X127.154 Y76.886 E4.39096
G1 X127.670 Y76.874 E4.41164
G1 X127.965 Y76.903 E4.42354 F720.000
G1 X128.231 Y76.955 E4.43441
G1 X128.745 Y77.127 E4.45613
G1 X129.221 Y77.384 E4.47784
G1 X129.647 Y77.720 E4.49956
G1 X130.009 Y78.123 E4.52127
G1 X130.162 Y78.346 E4.53214
G1 X130.409 Y78.828 E4.55385
G1 X130.570 Y79.345 E4.57557
G1 X130.640 Y79.882 E4.59729
G1 X130.616 Y80.423 E4.61900
G1 X130.507 Y80.927 E4.63968
G1 X130.409 Y81.208 E4.65158
G1 X130.162 Y81.690 E4.67330
G1 X129.837 Y82.122 E4.69501
G1 X129.441 Y82.493 E4.71673
G1 X128.989 Y82.790 E4.73844
G1 X128.492 Y83.005 E4.76016
G1 X128.231 Y83.080 E4.77103
G1 X127.755 Y83.155 E4.79034
G1 F1980.000 E0.79034
G92 E0
G1 X127.681 Y76.577 F6000.000
G1 X76.278 Y80.156 F6000.000
G1 E4.00000 F1980.000
G1 X76.250 Y80.481 E4.01309 F900.000
G1 X76.194 Y80.803 E4.02618
G1 X76.111 Y81.118 E4.03926
G1 X76.019 Y81.375 E4.05021
G1 X75.864 Y81.722 E4.06544
G1 X75.703 Y82.006 E4.07852
G1 X75.518 Y82.275 E4.09161
G1 X75.311 Y82.527 E4.10470
G1 X75.083 Y82.760 E4.11778
G1 X74.835 Y82.973 E4.13087
G1 X74.570 Y83.164 E4.14396
G1 X74.290 Y83.331 E4.15705
G1 X73.996 Y83.474 E4.17013
G1 X73.691 Y83.590 E4.18322
G1 X73.429 Y83.666 E4.19416
G1 X73.057 Y83.743 E4.20939
G1 X72.733 Y83.778 E4.22247
G1 X72.407 Y83.785 E4.23556
G1 X72.081 Y83.764 E4.24865
G1 X71.758 Y83.715 E4.26174
G1 X71.441 Y83.639 E4.27483
G1 X71.131 Y83.535 E4.28791
G1 X70.831 Y83.405 E4.30101
G1 X70.544 Y83.250 E4.31409
G1 X70.271 Y83.071 E4.32718
G1 X70.015 Y82.869 E4.34027
G1 X69.777 Y82.646 E4.35336
G1 X69.559 Y82.403 E4.36644
G1 X69.362 Y82.142 E4.37953
G1 X69.189 Y81.866 E4.39263
G1 X69.040 Y81.575 E4.40571
G1 X68.917 Y81.273 E4.41879
G1 X68.820 Y80.961 E4.43188
G1 X68.750 Y80.643 E4.44496
G1 X68.708 Y80.319 E4.45806
G1 X68.694 Y79.993 E4.47114
G1 X68.708 Y79.667 E4.48423
G1 X68.750 Y79.343 E4.49732
G1 X68.820 Y79.024 E4.51042
G1 X68.917 Y78.712 E4.52350
G1 X69.040 Y78.410 E4.53657
G1 X69.189 Y78.119 E4.54967
G1 X69.362 Y77.843 E4.56276
G1 X69.559 Y77.582 E4.57584
G1 X69.777 Y77.339 E4.58893
G1 X70.015 Y77.116 E4.60201
G1 X70.271 Y76.914 E4.61511
G1 X70.544 Y76.735 E4.62820
G1 X70.832 Y76.580 E4.64128
G1 X71.131 Y76.450 E4.65437
G1 X71.441 Y76.346 E4.66746
G1 X71.758 Y76.270 E4.68055
G1 X72.081 Y76.221 E4.69364
G1 X72.406 Y76.200 E4.70672
G1 X72.679 Y76.206 E4.71766
G1 X73.057 Y76.242 E4.73289 F900.000
G1 X73.378 Y76.305 E4.74598
G1 X73.691 Y76.395 E4.75906
G1 X73.996 Y76.511 E4.77215
G1 X74.290 Y76.654 E4.78524
G1 X74.570 Y76.821 E4.79833
G1 X74.835 Y77.012 E4.81142
G1 X75.083 Y77.225 E4.82451
G1 X75.311 Y77.458 E4.83759
G1 X75.518 Y77.710 E4.85068
G1 X75.703 Y77.979 E4.86377
G1 X75.864 Y78.263 E4.87685
G1 X76.001 Y78.560 E4.88994
G1 X76.111 Y78.867 E4.90303
G1 X76.194 Y79.183 E4.91612
G1 X76.250 Y79.504 E4.92920
G1 X76.278 Y79.829 E4.94229
G1 X76.278 Y80.096 E4.95298
G1 F1980.000 E0.95298
G92 E0
G1 X75.957 Y80.142 F6000.000
G1 E4.00000 F1980.000
