; generated by Slic3r 1.1.7 on 2015-03-28 at 19:36:16

; perimeters extrusion width = 0.40mm
; infill extrusion width = 0.42mm
; solid infill extrusion width = 0.42mm
; top infill extrusion width = 0.42mm
; support material extrusion width = 0.40mm

G21 ; set units to millimeters
M190 S110 ; wait for bed temperature to be reached
M104 S220 ; set temperature
M106 S255; Turn on Fan fully
G28 ; home all axes Start of G Code Slic3r
G1 Z20
M280 P0 S10 
G1 Z20
G29 ; AutoBed leveing
G1 X208 Y20 F4000
G1 Z4
 
  
M109 S220 ; wait for temperature to be reached
G90 ; use absolute coordinates
G92 E0
M82 ; use absolute distances for extrusion
M106 S127
G1 F1980.000 E-4.00000
G92 E0
G1 Z0.300 F6000.000
G1 X70.295 Y64.189 F6000.000
G1 E4.00000 F1980.000
G1 X71.862 Y62.579 E4.09322 F1650.000
G1 X74.678 Y60.860 E4.23016
G1 X76.527 Y60.293 E4.31043
G1 X78.439 Y60.002 E4.39071
G1 X121.495 Y59.788 E6.17778
G1 X123.480 Y60.081 E6.26106
G1 X125.329 Y60.650 E6.34135 F1650.000
G1 X128.138 Y62.367 E6.47801
G1 X129.705 Y63.977 E6.57124
G1 X131.035 Y65.959 E6.67031
G1 X132.082 Y68.366 E6.77928
G1 X132.504 Y69.711 E6.83776
G1 X134.255 Y78.441 E7.20732
G1 X134.384 Y79.747 E7.26179
G1 X134.384 Y119.026 E8.89208
G1 X134.284 Y120.176 E8.94000
G1 X132.534 Y130.134 E9.35962
G1 X132.082 Y131.634 E9.42464
G1 X131.035 Y134.041 E9.53361
G1 X129.705 Y136.023 E9.63268
G1 X128.138 Y137.633 E9.72590
G1 X125.329 Y139.350 E9.86256
G1 X123.480 Y139.919 E9.94286
G1 X121.495 Y140.212 E10.02614
G1 X78.439 Y139.998 E11.81320
G1 X76.527 Y139.707 E11.89348
G1 X74.678 Y139.140 E11.97375
G1 X71.862 Y137.421 E12.11069
G1 X70.295 Y135.811 E12.20392
G1 X68.965 Y133.829 E12.30299
G1 X67.918 Y131.422 E12.41196
G1 X67.486 Y130.030 E12.47243
G1 X65.807 Y121.193 E12.84579
G1 X65.617 Y119.026 E12.93604
G1 X65.617 Y79.747 E14.56633
G1 X65.753 Y78.411 E14.62207
G1 X67.502 Y69.893 E14.98301
G1 X67.918 Y68.578 E15.04023
G1 X68.965 Y66.171 E15.14919
G1 X70.262 Y64.239 E15.24578
G1 F1980.000 E11.24578
G92 E0
G1 X70.526 Y64.413 F6000.000
G1 E4.00000 F1980.000
G1 X72.092 Y62.803 E4.09322 F1650.000
G1 X74.772 Y61.167 E4.22354
G1 X76.621 Y60.601 E4.30381
G1 X78.441 Y60.324 E4.38020
G1 X121.497 Y60.110 E6.16727
G1 X123.385 Y60.389 E6.24652
G1 X125.235 Y60.957 E6.32681 F1650.000
G1 X127.908 Y62.591 E6.45686
G1 X129.474 Y64.201 E6.55008
G1 X130.740 Y66.087 E6.64436
G1 X131.788 Y68.495 E6.75333
G1 X132.189 Y69.774 E6.80898
G1 X133.939 Y78.504 E7.17854
G1 X134.063 Y79.747 E7.23038
G1 X133.967 Y120.121 E8.90610
G1 X132.217 Y130.078 E9.32572
G1 X131.787 Y131.506 E9.38759
G1 X130.740 Y133.913 E9.49656
G1 X129.474 Y135.799 E9.59084
G1 X127.908 Y137.409 E9.68406
G1 X125.235 Y139.043 E9.81411
G1 X123.385 Y139.612 E9.89441
G1 X121.497 Y139.890 E9.97365
G1 X78.441 Y139.676 E11.76072
G1 X76.621 Y139.399 E11.83711
G1 X74.772 Y138.833 E11.91738
G1 X72.092 Y137.197 E12.04770
G1 X70.526 Y135.587 E12.14092
G1 X69.260 Y133.701 E12.23520
G1 X68.212 Y131.293 E12.34417
G1 X67.802 Y129.969 E12.40171
G1 X66.126 Y121.159 E12.77391
G1 X65.939 Y119.026 E12.86279
G1 X65.939 Y79.747 E14.49308
G1 X66.068 Y78.476 E14.54612
G1 X67.817 Y69.957 E14.90706
G1 X68.213 Y68.707 E14.96150
G1 X69.260 Y66.299 E15.07047
G1 X70.492 Y64.463 E15.16226
G1 F1980.000 E11.16226
G92 E0
G1 X122.958 Y76.784 F6000.000
G1 E4.00000 F1980.000
G1 X121.528 Y77.374 E4.06421 F900.000
G1 X120.100 Y76.784 E4.12834
G1 X119.218 Y75.432 E4.19534
G1 X118.925 Y73.753 E4.26610
G1 X119.218 Y72.075 E4.33676
G1 X120.099 Y70.721 E4.40381
G1 X121.528 Y70.131 E4.46796
G1 X122.685 Y70.609 E4.51994
G1 X122.958 Y70.721 E4.53220 F900.000
G1 X123.838 Y72.076 E4.59923
G1 X124.131 Y73.753 E4.66987
G1 X123.838 Y75.432 E4.74063
G1 X122.991 Y76.734 E4.80510
G1 F1980.000 E0.80510
G92 E0
G1 X122.743 Y76.525 F6000.000
G1 E4.00000 F1980.000
G1 X121.528 Y77.026 E4.05456 F900.000
G1 X120.315 Y76.525 E4.10904
G1 X119.524 Y75.312 E4.16916
G1 X119.251 Y73.753 E4.23485
G1 X119.524 Y72.196 E4.30046
G1 X120.314 Y70.980 E4.36063
G1 X121.303 Y70.572 E4.40505
G1 X121.528 Y70.479 E4.41513 F900.000
G1 X122.743 Y70.980 E4.46970
G1 X123.532 Y72.196 E4.52986
G1 X123.805 Y73.753 E4.59545
G1 X123.532 Y75.312 E4.66114
G1 X122.776 Y76.475 E4.71873
G1 F1980.000 E0.71873
G92 E0
G1 X122.528 Y76.266 F6000.000
G1 E4.00000 F1980.000
G1 X121.528 Y76.679 E4.04490 F720.000
G1 X120.529 Y76.266 E4.08975
G1 X119.829 Y75.192 E4.14298
G1 X119.578 Y73.753 E4.20361
G1 X119.829 Y72.316 E4.26415
G1 X120.529 Y71.239 E4.31746
G1 X121.528 Y70.827 E4.36230
G1 X122.440 Y71.203 E4.40327
G1 X122.528 Y71.239 E4.40721 F720.000
G1 X123.227 Y72.316 E4.46049
G1 X123.478 Y73.753 E4.52102
G1 X123.227 Y75.192 E4.58165
G1 X122.561 Y76.216 E4.63236
G1 F1980.000 E0.63236
G92 E0
G1 X122.459 Y71.110 F6000.000
G1 X81.075 Y73.965 F6000.000
G1 E4.00000 F1980.000
G1 X80.782 Y75.644 E4.07076 F900.000
G1 X79.902 Y76.996 E4.13772
G1 X78.472 Y77.586 E4.20193
G1 X77.044 Y76.996 E4.26606
G1 X76.162 Y75.644 E4.33306
G1 X75.869 Y73.965 E4.40381
G1 X76.162 Y72.288 E4.47448
G1 X77.043 Y70.933 E4.54153
G1 X78.472 Y70.343 E4.60568
G1 X79.630 Y70.821 E4.65766
G1 X79.902 Y70.933 E4.66991 F900.000
G1 X80.782 Y72.288 E4.73694
G1 X81.065 Y73.906 E4.80510
G1 F1980.000 E0.80510
G92 E0
G1 X80.749 Y73.965 F6000.000
G1 E4.00000 F1980.000
G1 X80.476 Y75.524 E4.06569 F900.000
G1 X79.687 Y76.737 E4.12577
G1 X78.472 Y77.238 E4.18033
G1 X77.259 Y76.737 E4.23482
G1 X76.468 Y75.524 E4.29493
G1 X76.195 Y73.965 E4.36063
G1 X76.468 Y72.408 E4.42623
G1 X77.258 Y71.192 E4.48641
G1 X78.247 Y70.784 E4.53083
G1 X78.472 Y70.691 E4.54091 F900.000
G1 X79.687 Y71.192 E4.59548
G1 X80.476 Y72.408 E4.65563
G1 X80.738 Y73.906 E4.71873
G1 F1980.000 E0.71873
G92 E0
G1 X80.422 Y73.965 F6000.000
G1 E4.00000 F1980.000
G1 X80.171 Y75.404 E4.06063 F720.000
G1 X79.472 Y76.478 E4.11383
G1 X78.472 Y76.891 E4.15873
G1 X77.473 Y76.478 E4.20358
G1 X76.773 Y75.404 E4.25681
G1 X76.522 Y73.965 E4.31744
G1 X76.773 Y72.528 E4.37798
G1 X77.473 Y71.451 E4.43129
G1 X78.472 Y71.039 E4.47613
G1 X79.384 Y71.415 E4.51710
G1 X79.472 Y71.451 E4.52104 F720.000
G1 X80.171 Y72.528 E4.57432
G1 X80.412 Y73.906 E4.63236
G1 F1980.000 E0.63236
G92 E0
G1 X79.390 Y71.320 F6000.000
G1 X78.472 Y122.308 F6000.000
G1 E4.00000 F1980.000
G1 X79.628 Y122.785 E4.05192 F900.000
G1 X79.901 Y122.898 E4.06416 F900.000
G1 X80.782 Y124.252 E4.13121
G1 X81.075 Y125.929 E4.20188
G1 X80.782 Y127.609 E4.27265
G1 X79.900 Y128.961 E4.33963
G1 X78.472 Y129.551 E4.40377
G1 X77.044 Y128.961 E4.46792
G1 X76.162 Y127.609 E4.53490
G1 X75.869 Y125.929 E4.60567
G1 X76.162 Y124.252 E4.67634
G1 X77.043 Y122.898 E4.74339
G1 X78.417 Y122.331 E4.80506
G1 F1980.000 E0.80506
G92 E0
G1 X78.472 Y122.655 F6000.000
G1 E4.00000 F1980.000
G1 X79.686 Y123.157 E4.05450 F900.000
G1 X80.476 Y124.372 E4.11468
G1 X80.749 Y125.929 E4.18029
G1 X80.476 Y127.489 E4.24599
G1 X79.685 Y128.702 E4.30609
G1 X78.697 Y129.110 E4.35049
G1 X78.472 Y129.203 E4.36059
G1 X77.259 Y128.702 E4.41508
G1 X76.468 Y127.489 E4.47519
G1 X76.195 Y125.929 E4.54089
G1 X76.468 Y124.372 E4.60650
G1 X77.258 Y123.157 E4.66667
G1 X78.247 Y122.748 E4.71108
G1 X78.417 Y122.678 E4.71869 F900.000
G1 F1980.000 E0.71869
G92 E0
G1 X78.472 Y123.003 F6000.000
G1 E4.00000 F1980.000
G1 X79.383 Y123.380 E4.04090 F720.000
G1 X79.471 Y123.416 E4.04485 F720.000
G1 X80.171 Y124.492 E4.09815
G1 X80.422 Y125.929 E4.15870
G1 X80.171 Y127.368 E4.21933
G1 X79.471 Y128.443 E4.27256
G1 X78.472 Y128.855 E4.31741
G1 X77.473 Y128.443 E4.36225
G1 X76.773 Y127.368 E4.41548
G1 X76.522 Y125.929 E4.47611
G1 X76.773 Y124.492 E4.53666
G1 X77.473 Y123.416 E4.58996
G1 X78.417 Y123.026 E4.63232
G1 F1980.000 E0.63232
G92 E0
G1 X79.450 Y123.312 F6000.000
G1 X120.711 Y129.426 F6000.000
G1 E4.00000 F1980.000
G1 X120.098 Y129.173 E4.02754 F900.000
G1 X119.218 Y127.818 E4.09457
G1 X118.925 Y126.141 E4.16522
G1 X119.218 Y124.462 E4.23597
G1 X120.098 Y123.110 E4.30294
G1 X121.528 Y122.520 E4.36715
G1 X122.956 Y123.110 E4.43128
G1 X123.838 Y124.462 E4.49826
G1 X124.131 Y126.141 E4.56904
G1 X123.838 Y127.819 E4.63970
G1 X122.957 Y129.173 E4.70675
G1 X120.711 Y130.100 E4.80760
G1 X120.711 Y129.486 E4.83312
G1 F1980.000 E0.83312
G92 E0
G1 X121.032 Y129.211 F6000.000
G1 E4.00000 F1980.000
G1 X120.313 Y128.914 E4.03232 F900.000
G1 X119.524 Y127.698 E4.09247
G1 X119.251 Y126.141 E4.15806
G1 X119.524 Y124.582 E4.22375
G1 X120.313 Y123.369 E4.28383
G1 X121.528 Y122.868 E4.33839
G1 X122.741 Y123.369 E4.39288
G1 X123.532 Y124.582 E4.45299
G1 X123.805 Y126.141 E4.51869
G1 X123.532 Y127.698 E4.58429
G1 X122.742 Y128.914 E4.64447
G1 X121.032 Y129.620 E4.72123
G1 X121.032 Y129.271 E4.73572
G1 F1980.000 E0.73572
G92 E0
G1 X121.155 Y128.913 F6000.000
G1 E4.00000 F1980.000
G1 X120.528 Y128.655 E4.02816 F720.000
G1 X119.829 Y127.578 E4.08144
G1 X119.578 Y126.141 E4.14197
G1 X119.829 Y124.702 E4.20260
G1 X120.528 Y123.628 E4.25580
G1 X121.528 Y123.215 E4.30071
G1 X122.439 Y123.592 E4.34161
G1 X122.527 Y123.628 E4.34555 F720.000
G1 X123.227 Y124.702 E4.39878
G1 X123.478 Y126.141 E4.45942
G1 X123.227 Y127.578 E4.51996
G1 X122.527 Y128.655 E4.57326
G1 X121.354 Y129.139 E4.62593
G1 X121.354 Y128.995 E4.63189
G1 X121.211 Y128.936 E4.63833
G1 F1980.000 E0.63833
G92 E0
G1 X122.469 Y123.502 F6000.000
G1 X117.766 Y121.319 F6000.000
G1 E4.00000 F1980.000
G1 X82.233 Y121.319 E5.47478 F900.000
G1 X82.233 Y123.842 E5.57953
G1 X82.503 Y125.929 E5.66686
G1 X82.163 Y128.558 E5.77689
G1 X81.218 Y130.730 E5.87517
G1 X79.895 Y132.090 E5.95395
G1 X78.472 Y132.526 E6.01570
G1 X77.049 Y132.090 E6.07746
G1 X75.726 Y130.730 E6.15623
G1 X74.781 Y128.558 E6.25452
G1 X74.440 Y125.929 E6.36454
G1 X74.710 Y123.851 E6.45153
G1 X74.710 Y121.319 E6.55663
G1 X74.573 Y121.319 E6.56230
G1 X74.573 Y78.575 E8.33636
G1 X74.710 Y78.575 E8.34203
G1 X74.710 Y76.149 E8.44274
G1 X74.440 Y74.071 E8.52972
G1 X74.781 Y71.442 E8.63974
G1 X75.726 Y69.270 E8.73803
G1 X77.049 Y67.910 E8.81681
G1 X78.472 Y67.474 E8.87856
G1 X79.895 Y67.910 E8.94032
G1 X81.218 Y69.270 E9.01909
G1 X82.163 Y71.442 E9.11737
G1 X82.502 Y74.071 E9.22740
G1 X82.233 Y76.158 E9.31474
G1 X82.233 Y78.575 E9.41508
G1 X117.767 Y78.575 E10.88992
G1 X117.767 Y75.946 E10.99907
G1 X117.498 Y73.859 E11.08641
G1 X117.837 Y71.230 E11.19643
G1 X118.782 Y69.058 E11.29471
G1 X120.106 Y67.698 E11.37351
G1 X121.528 Y67.260 E11.43527
G1 X122.950 Y67.698 E11.49703
G1 X124.274 Y69.058 E11.57582
G1 X125.219 Y71.230 E11.67411
G1 X125.560 Y73.859 E11.78414
G1 X125.290 Y75.937 E11.87112
G1 X125.290 Y78.575 E11.98063
G1 X125.428 Y78.575 E11.98635
G1 X125.428 Y121.319 E13.76041
G1 X125.289 Y121.319 E13.76620
G1 X125.289 Y124.055 E13.87976
G1 X125.560 Y126.141 E13.96710
G1 X125.219 Y128.770 E14.07712
G1 X124.274 Y130.942 E14.17541
G1 X122.950 Y132.302 E14.25420
G1 X121.528 Y132.740 E14.31596
G1 X120.106 Y132.302 E14.37772
G1 X118.782 Y130.942 E14.45652
G1 X117.837 Y128.770 E14.55481
G1 X117.496 Y126.141 E14.66483
G1 X117.766 Y124.063 E14.75181
G1 X117.766 Y121.379 E14.86323
G1 F1980.000 E10.86323
G92 E0
G1 X117.444 Y121.640 F6000.000
G1 E4.00000 F1980.000
G1 X82.555 Y121.640 E5.44809 F900.000
G1 X82.555 Y123.822 E5.53864
G1 X82.827 Y125.929 E5.62685
G1 X82.476 Y128.645 E5.74049
G1 X81.490 Y130.912 E5.84310
G1 X80.068 Y132.373 E5.92773
G1 X78.472 Y132.862 E5.99699
G1 X76.876 Y132.373 E6.06625
G1 X75.454 Y130.912 E6.15089
G1 X74.468 Y128.645 E6.25350
G1 X74.116 Y125.929 E6.36715
G1 X74.388 Y123.830 E6.45500
G1 X74.388 Y121.640 E6.54590
G1 X74.251 Y121.640 E6.55157
G1 X74.251 Y78.254 E8.35231
G1 X74.388 Y78.254 E8.35798
G1 X74.388 Y76.170 E8.44449
G1 X74.116 Y74.071 E8.53234
G1 X74.468 Y71.355 E8.64598
G1 X75.454 Y69.088 E8.74860
G1 X76.876 Y67.627 E8.83323
G1 X78.472 Y67.138 E8.90249
G1 X80.068 Y67.627 E8.97175
G1 X81.490 Y69.088 E9.05638
G1 X82.476 Y71.355 E9.15900
G1 X82.827 Y74.071 E9.27264
G1 X82.555 Y76.178 E9.36084
G1 X82.555 Y78.254 E9.44699
G1 X117.445 Y78.254 E10.89514
G1 X117.445 Y75.966 E10.99009
G1 X117.173 Y73.859 E11.07829
G1 X117.524 Y71.143 E11.19193
G1 X118.510 Y68.876 E11.29454
G1 X119.933 Y67.415 E11.37919
G1 X121.528 Y66.924 E11.44846
G1 X123.123 Y67.415 E11.51774
G1 X124.546 Y68.876 E11.60238
G1 X125.532 Y71.143 E11.70500
G1 X125.884 Y73.859 E11.81864
G1 X125.612 Y75.958 E11.90649
G1 X125.612 Y78.254 E12.00180
G1 X125.750 Y78.254 E12.00753
G1 X125.750 Y121.640 E13.80827
G1 X125.611 Y121.640 E13.81405
G1 X125.611 Y124.034 E13.91341
G1 X125.884 Y126.141 E14.00162
G1 X125.532 Y128.857 E14.11526
G1 X124.546 Y131.124 E14.21787
G1 X123.123 Y132.585 E14.30252
G1 X121.528 Y133.076 E14.37179
G1 X119.933 Y132.585 E14.44107
G1 X118.510 Y131.124 E14.52571
G1 X117.524 Y128.857 E14.62833
G1 X117.172 Y126.141 E14.74197
G1 X117.444 Y124.042 E14.82982
G1 X117.444 Y121.700 E14.92704
G1 F1980.000 E10.92704
G92 E0
G1 X117.123 Y121.961 F6000.000
G1 E4.00000 F1980.000
G1 X82.876 Y121.961 E5.42141 F720.000
G1 X82.876 Y123.801 E5.49776
G1 X83.151 Y125.929 E5.58683
G1 X82.789 Y128.731 E5.70408
G1 X81.761 Y131.094 E5.81103
G1 X80.241 Y132.656 E5.90152
G1 X78.472 Y133.198 E5.97828
G1 X76.703 Y132.656 E6.05505
G1 X75.183 Y131.094 E6.14554
G1 X74.155 Y128.731 E6.25249
G1 X73.792 Y125.929 E6.36975
G1 X74.067 Y123.809 E6.45847
G1 X74.067 Y121.961 E6.53517
G1 X73.930 Y121.961 E6.54084
G1 X73.930 Y77.933 E8.36826
G1 X74.067 Y77.933 E8.37393
G1 X74.067 Y76.191 E8.44623
G1 X73.792 Y74.071 E8.53495
G1 X74.155 Y71.269 E8.65221
G1 X75.183 Y68.906 E8.75916
G1 X76.703 Y67.344 E8.84965
G1 X78.472 Y66.802 E8.92642
G1 X80.241 Y67.344 E9.00318
G1 X81.761 Y68.906 E9.09367
G1 X82.789 Y71.269 E9.20062
G1 X83.151 Y74.071 E9.31787
G1 X82.876 Y76.199 E9.40694
G1 X82.876 Y77.933 E9.47889
G1 X117.124 Y77.933 E10.90036
G1 X117.124 Y75.987 E10.98111
G1 X116.849 Y73.859 E11.07018
G1 X117.211 Y71.057 E11.18743
G1 X118.239 Y68.694 E11.29437
G1 X119.760 Y67.131 E11.38487
G1 X121.528 Y66.588 E11.46166
G1 X123.296 Y67.131 E11.53845
G1 X124.817 Y68.694 E11.62894
G1 X125.845 Y71.057 E11.73589
G1 X126.208 Y73.859 E11.85315
G1 X125.933 Y75.978 E11.94187
G1 X125.933 Y77.933 E12.02297
G1 X126.071 Y77.933 E12.02870
G1 X126.071 Y121.961 E13.85612
G1 X125.932 Y121.961 E13.86191
G1 X125.932 Y124.013 E13.94706
G1 X126.208 Y126.141 E14.03614
G1 X125.845 Y128.943 E14.15340
G1 X124.817 Y131.306 E14.26034
G1 X123.296 Y132.869 E14.35084
G1 X121.528 Y133.412 E14.42763
G1 X119.760 Y132.869 E14.50441
G1 X118.239 Y131.306 E14.59491
G1 X117.211 Y128.943 E14.70185
G1 X116.848 Y126.141 E14.81912
G1 X117.123 Y124.022 E14.90783
G1 X117.123 Y122.021 E14.99085
G1 F1980.000 E10.99085
G92 E0
G1 X117.123 Y121.561 F6000.000
G1 X117.979 Y121.739 F6000.000
G1 E4.00000 F1980.000
G1 X119.649 Y123.410 E4.09804 F900.000
G1 X119.470 Y123.685 E4.11169
G1 X117.979 Y122.194 E4.19921
G1 X117.979 Y122.649 E4.21809
G1 X119.290 Y123.961 E4.29508
G1 X119.111 Y124.236 E4.30873
G1 X117.979 Y123.104 E4.37519
G1 X117.979 Y123.559 E4.39407
G1 X118.984 Y124.564 E4.45309
G1 X118.916 Y124.952 E4.46941
G1 X117.979 Y124.014 E4.52446
G1 X117.934 Y124.424 E4.54158
G1 X118.849 Y125.339 E4.59530
G1 X118.781 Y125.726 E4.61161
G1 X117.881 Y124.826 E4.66443
G1 X117.829 Y125.229 E4.68128
G1 X118.714 Y126.113 E4.73319
G1 X118.798 Y126.653 E4.75585
G1 X117.777 Y125.632 E4.81579
G1 X117.725 Y126.035 E4.83264
G1 X118.895 Y127.204 E4.90130
G1 X118.991 Y127.756 E4.92453
G1 X117.761 Y126.525 E4.99674
G1 F1980.000 E0.99674
G92 E0
G1 X117.829 Y127.048 F6000.000
G1 E4.00000 F1980.000
G1 X119.641 Y128.860 E4.10637 F900.000
G1 F1980.000 E0.10637
G92 E0
G1 X120.244 Y129.464 F6000.000
G1 E4.00000 F1980.000
G1 X120.498 Y129.717 E4.01491 F900.000
G1 X120.498 Y130.172 E4.03379
G1 X117.896 Y127.571 E4.18650
G1 X117.964 Y128.093 E4.20837
G1 X122.185 Y132.315 E4.45615
G1 X121.837 Y132.422 E4.47126
G1 X118.032 Y128.616 E4.69463
G1 F1980.000 E0.69463
G92 E0
G1 X118.330 Y129.369 F6000.000
G1 E4.00000 F1980.000
G1 X121.455 Y132.494 E4.18345 F900.000
G1 X120.798 Y132.292 E4.21197
G1 X118.680 Y130.174 E4.33630
G1 F1980.000 E0.33630
G92 E0
G1 X120.673 Y130.347 F6000.000
G1 E4.00000 F1980.000
G1 X122.533 Y132.208 E4.10922 F900.000
G1 X122.851 Y132.071 E4.12359
G1 X120.994 Y130.214 E4.23258
G1 X121.316 Y130.081 E4.24704
G1 X123.079 Y131.843 E4.35048
