; generated by Slic3r 1.1.7 on 2015-03-29 at 18:38:50

; perimeters extrusion width = 0.40mm
; infill extrusion width = 0.42mm
; solid infill extrusion width = 0.42mm
; top infill extrusion width = 0.42mm
; support material extrusion width = 0.40mm

G21 ; set units to millimeters
M190 S110 ; wait for bed temperature to be reached
M104 S240 ; set temperature
M106 S255; Turn on Fan fully
G28 ; home all axes Start of G Code Slic3r
G1 Z20
M280 P0 S10 
G1 Z20
G29 ; AutoBed leveing
G1 X208 Y20 F4000
G1 Z4
 
  
M109 S240 ; wait for temperature to be reached
G90 ; use absolute coordinates
G92 E0
M82 ; use absolute distances for extrusion
M106 S127
G1 F1980.000 E-4.00000
G92 E0
G1 Z0.300 F6000.000
G1 X80.346 Y73.824 F6000.000
G1 E4.00000 F1980.000
G1 X82.290 Y72.601 E4.09758 F1650.000
G1 X84.803 Y72.107 E4.20640
G1 X115.656 Y72.107 E5.51723
G1 X117.918 Y72.504 E5.61481
G1 X119.909 Y73.648 E5.71238 F1650.000
G1 X121.578 Y75.740 E5.82609
G1 X131.561 Y95.385 E6.76234
G1 X132.017 Y96.536 E6.81496
G1 X132.561 Y98.405 E6.89764
G1 X132.826 Y100.262 E6.97737
G1 X132.826 Y102.238 E7.06129
G1 X132.561 Y104.096 E7.14103
G1 X132.017 Y105.964 E7.22370
G1 X131.380 Y107.449 E7.29236
G1 X121.396 Y124.593 E8.13528
G1 X119.915 Y126.348 E8.23286
G1 X117.924 Y127.493 E8.33043
G1 X115.656 Y127.893 E8.42831
G1 X84.803 Y127.893 E9.73914
G1 X82.541 Y127.496 E9.83672
G1 X80.550 Y126.352 E9.93429
G1 X79.127 Y124.701 E10.02689
G1 X68.703 Y107.557 E10.87939
G1 X68.018 Y106.020 E10.95088
G1 X67.456 Y104.152 E11.03377
G1 X67.174 Y102.238 E11.11598
G1 X67.174 Y100.262 E11.19990
G1 X67.456 Y98.348 E11.28212
G1 X68.018 Y96.480 E11.36501
G1 X68.511 Y95.280 E11.42011
G1 X78.935 Y75.636 E12.36498
G1 X80.310 Y73.871 E12.46001
G1 F1980.000 E8.46001
G92 E0
G1 X80.603 Y74.026 F6000.000
G1 E4.00000 F1980.000
G1 X82.514 Y72.857 E4.09518 F1650.000
G1 X84.803 Y72.429 E4.19412
G1 X115.656 Y72.429 E5.50495
G1 X117.860 Y72.825 E5.60012
G1 X119.788 Y73.966 E5.69529 F1650.000
G1 X121.291 Y75.886 E5.79889
G1 X131.275 Y95.530 E6.73513
G1 X131.708 Y96.626 E6.78521
G1 X132.253 Y98.494 E6.86788
G1 X132.505 Y100.262 E6.94376
G1 X132.505 Y102.238 E7.02768
G1 X132.253 Y104.006 E7.10356
G1 X131.708 Y105.874 E7.18623
G1 X131.102 Y107.287 E7.25157
G1 X121.118 Y124.431 E8.09449
G1 X119.666 Y126.136 E8.18966
G1 X117.710 Y127.228 E8.28483
G1 X115.656 Y127.571 E8.37333
G1 X84.803 Y127.571 E9.68417
G1 X82.599 Y127.175 E9.77933
G1 X80.671 Y126.034 E9.87450
G1 X79.402 Y124.534 E9.95797
G1 X68.977 Y107.390 E10.81048
G1 X68.326 Y105.927 E10.87851
G1 X67.763 Y104.059 E10.96140
G1 X67.495 Y102.238 E11.03963
G1 X67.495 Y100.262 E11.12355
G1 X67.763 Y98.441 E11.20179
G1 X68.326 Y96.572 E11.28468
G1 X68.795 Y95.431 E11.33711
G1 X79.219 Y75.787 E12.28199
G1 X80.566 Y74.073 E12.37459
G1 F1980.000 E8.37459
G92 E0
G1 X123.921 Y103.458 F6000.000
G1 E4.00000 F1980.000
G1 X122.241 Y104.896 E4.09395 F900.000
G1 X120.082 Y104.896 E4.18570
G1 X118.402 Y103.458 E4.27966
G1 X117.793 Y101.250 E4.37696
G1 X118.402 Y99.042 E4.47427
G1 X120.082 Y97.604 E4.56823
G1 X122.241 Y97.604 E4.65998
G1 X123.660 Y98.819 E4.73935
G1 X123.921 Y99.042 E4.75393 F900.000
G1 X124.530 Y101.250 E4.85124
G1 X123.937 Y103.400 E4.94600
G1 F1980.000 E0.94600
G92 E0
G1 X123.637 Y103.278 F6000.000
G1 E4.00000 F1980.000
G1 X122.122 Y104.575 E4.08473 F900.000
G1 X120.200 Y104.575 E4.16638
G1 X118.686 Y103.278 E4.25111
G1 X118.127 Y101.250 E4.34047
G1 X118.686 Y99.222 E4.42984
G1 X120.200 Y97.925 E4.51456
G1 X122.122 Y97.925 E4.59622 F900.000
G1 X123.637 Y99.222 E4.68095
G1 X124.196 Y101.250 E4.77031
G1 X123.653 Y103.220 E4.85713
G1 F1980.000 E0.85713
G92 E0
G1 X123.353 Y103.097 F6000.000
G1 E4.00000 F1980.000
G1 X122.004 Y104.253 E4.07550 F720.000
G1 X120.319 Y104.253 E4.14706
G1 X118.969 Y103.097 E4.22256
G1 X118.460 Y101.250 E4.30398
G1 X118.969 Y99.403 E4.38540
G1 X120.319 Y98.247 E4.46090
G1 X122.004 Y98.247 E4.53246
G1 X123.242 Y99.307 E4.60174
G1 X123.353 Y99.403 E4.60796 F720.000
G1 X123.863 Y101.250 E4.68939
G1 X123.369 Y103.040 E4.76826
G1 F1980.000 E0.76826
G92 E0
G1 X123.295 Y99.171 F6000.000
G1 X82.459 Y101.250 F6000.000
G1 E4.00000 F1980.000
G1 X81.828 Y103.467 E4.09794 F900.000
G1 X80.103 Y104.896 E4.19309
G1 X77.906 Y104.896 E4.28645
G1 X76.182 Y103.467 E4.38160
G1 X75.550 Y101.250 E4.47954
G1 X76.182 Y99.033 E4.57748
G1 X77.906 Y97.604 E4.67263
G1 X80.103 Y97.604 E4.76599
G1 X81.560 Y98.811 E4.84634
G1 X81.828 Y99.033 E4.86114 F900.000
G1 X82.443 Y101.192 E4.95653
G1 F1980.000 E0.95653
G92 E0
G1 X82.125 Y101.250 F6000.000
G1 E4.00000 F1980.000
G1 X81.546 Y103.283 E4.08982 F900.000
G1 X79.987 Y104.575 E4.17581
G1 X78.022 Y104.575 E4.25931
G1 X76.464 Y103.283 E4.34531
G1 X75.885 Y101.250 E4.43513
G1 X76.464 Y99.217 E4.52494
G1 X78.022 Y97.925 E4.61094
G1 X79.987 Y97.925 E4.69444 F900.000
G1 X81.546 Y99.217 E4.78044
G1 X82.108 Y101.192 E4.86770
G1 F1980.000 E0.86770
G92 E0
G1 X81.791 Y101.250 F6000.000
G1 E4.00000 F1980.000
G1 X81.264 Y103.099 E4.08169 F720.000
G1 X79.872 Y104.253 E4.15853
G1 X78.138 Y104.253 E4.23218
G1 X76.746 Y103.099 E4.30902
G1 X76.219 Y101.250 E4.39071
G1 X76.746 Y99.401 E4.47240
G1 X78.138 Y98.247 E4.54924
G1 X79.872 Y98.247 E4.62289
G1 X81.149 Y99.306 E4.69340
G1 X81.264 Y99.401 E4.69973 F720.000
G1 X81.774 Y101.192 E4.77887
G1 F1980.000 E0.77887
G92 E0
G1 X81.174 Y99.159 F6000.000
G1 X85.596 Y96.043 F6000.000
G1 E4.00000 F1980.000
G1 X85.596 Y79.543 E4.70104 F900.000
G1 X114.863 Y79.543 E5.94450
G1 X114.863 Y96.043 E6.64554
G1 X120.368 Y96.043 E6.87947
G1 X120.368 Y96.186 E6.88553
G1 X121.504 Y96.075 E6.93401
G1 X122.839 Y96.473 E6.99321
G1 X124.021 Y97.383 E7.05659
G1 X124.911 Y98.731 E7.12523
G1 X125.390 Y100.376 E7.19799
G1 X125.390 Y102.124 E7.27230
G1 X124.911 Y103.769 E7.34507
G1 X124.021 Y105.117 E7.41371
G1 X122.839 Y106.027 E7.47708
G1 X121.504 Y106.425 E7.53628
G1 X120.368 Y106.314 E7.58476
G1 X120.368 Y106.457 E7.59082
G1 X114.863 Y106.457 E7.82475
G1 X114.863 Y120.457 E8.41958
G1 X85.596 Y120.457 E9.66303
G1 X85.596 Y106.457 E10.25786
G1 X79.798 Y106.457 E10.50422
G1 X79.798 Y106.317 E10.51017
G1 X78.646 Y106.426 E10.55933
G1 X77.250 Y106.023 E10.62105
G1 X76.023 Y105.108 E10.68610
G1 X75.103 Y103.760 E10.75543
G1 X74.610 Y102.121 E10.82816
G1 X74.610 Y100.379 E10.90216
G1 X75.103 Y98.740 E10.97488
G1 X76.023 Y97.392 E11.04422
G1 X77.250 Y96.477 E11.10927
G1 X78.646 Y96.074 E11.17099
G1 X79.798 Y96.183 E11.22015
G1 X79.798 Y96.043 E11.22610
G1 X85.536 Y96.043 E11.46991
G1 F1980.000 E7.46991
G92 E0
G1 X85.275 Y95.721 F6000.000
G1 E4.00000 F1980.000
G1 X85.275 Y79.221 E4.70104 F900.000
G1 X115.184 Y79.221 E5.97181
G1 X115.184 Y95.721 E6.67286
G1 X120.690 Y95.721 E6.90679
G1 X120.690 Y95.831 E6.91145
G1 X121.536 Y95.749 E6.94755
G1 X122.988 Y96.182 E7.01196
G1 X124.260 Y97.161 E7.08014
G1 X125.206 Y98.595 E7.15313
G1 X125.712 Y100.330 E7.22991
G1 X125.712 Y102.170 E7.30812
G1 X125.206 Y103.905 E7.38490
G1 X124.260 Y105.339 E7.45789
G1 X122.988 Y106.318 E7.52607
G1 X121.536 Y106.751 E7.59047
G1 X120.690 Y106.669 E7.62658
G1 X120.690 Y106.779 E7.63124
G1 X115.184 Y106.779 E7.86517
G1 X115.184 Y120.779 E8.46000
G1 X85.275 Y120.779 E9.73077
G1 X85.275 Y106.779 E10.32559
G1 X79.476 Y106.779 E10.57196
G1 X79.476 Y106.670 E10.57655
G1 X78.615 Y106.752 E10.61330
G1 X77.105 Y106.315 E10.68009
G1 X75.787 Y105.333 E10.74991
G1 X74.809 Y103.900 E10.82364
G1 X74.288 Y102.168 E10.90048
G1 X74.288 Y100.332 E10.97850
G1 X74.809 Y98.600 E11.05535
G1 X75.787 Y97.167 E11.12907
G1 X77.105 Y96.185 E11.19889
G1 X78.615 Y95.748 E11.26568
G1 X79.476 Y95.830 E11.30243
G1 X79.476 Y95.721 E11.30703
G1 X85.215 Y95.721 E11.55084
G1 F1980.000 E7.55084
G92 E0
G1 X84.953 Y95.400 F6000.000
G1 E4.00000 F1980.000
G1 X84.953 Y78.900 E4.70104 F720.000
G1 X115.506 Y78.900 E5.99913
G1 X115.506 Y95.400 E6.70017
G1 X121.011 Y95.400 E6.93410
G1 X121.011 Y95.477 E6.93737
G1 X121.567 Y95.423 E6.96109
G1 X123.137 Y95.891 E7.03071
G1 X124.498 Y96.939 E7.10370
G1 X125.502 Y98.458 E7.18103
G1 X126.033 Y100.284 E7.26183
G1 X126.033 Y102.216 E7.34393
G1 X125.502 Y104.042 E7.42473
G1 X124.498 Y105.561 E7.50206
G1 X123.137 Y106.609 E7.57506
G1 X121.567 Y107.077 E7.64467
G1 X121.011 Y107.023 E7.66839
G1 X121.011 Y107.100 E7.67166
G1 X115.506 Y107.100 E7.90559
G1 X115.506 Y121.100 E8.50042
G1 X84.953 Y121.100 E9.79850
G1 X84.953 Y107.100 E10.39333
G1 X79.155 Y107.100 E10.63969
G1 X79.155 Y107.024 E10.64294
G1 X78.585 Y107.077 E10.66727
G1 X76.960 Y106.608 E10.73913
G1 X75.552 Y105.559 E10.81372
G1 X74.516 Y104.040 E10.89184
G1 X73.967 Y102.215 E10.97280
G1 X73.967 Y100.285 E11.05484
G1 X74.516 Y98.460 E11.13581
G1 X75.552 Y96.941 E11.21393
G1 X76.960 Y95.892 E11.28852
G1 X78.585 Y95.423 E11.36038
G1 X79.155 Y95.476 E11.38471
G1 X79.155 Y95.400 E11.38796
G1 X84.893 Y95.400 E11.63177
G1 F1980.000 E7.63177
G92 E0
G1 X85.353 Y95.400 F6000.000
G1 X80.928 Y98.011 F6000.000
G1 E4.00000 F1980.000
G1 X79.264 Y96.346 E4.10000 F900.000
G1 F1980.000 E0.10000
G92 E0
G1 X79.853 Y97.391 F6000.000
G1 E4.00000 F1980.000
G1 X78.761 Y96.299 E4.06561 F900.000
G1 X78.379 Y96.373 E4.08213
G1 X79.397 Y97.391 E4.14330
G1 X78.941 Y97.391 E4.16265
G1 X78.026 Y96.475 E4.21768
G1 X77.672 Y96.577 E4.23332
G1 X78.486 Y97.391 E4.28221
G1 X78.030 Y97.391 E4.30157
G1 X77.326 Y96.686 E4.34389
G1 X77.065 Y96.881 E4.35773
G1 X77.690 Y97.506 E4.39529
G1 X77.441 Y97.713 E4.40904
G1 X76.804 Y97.076 E4.44733
G1 X76.543 Y97.270 E4.46116
G1 X77.192 Y97.919 E4.50016
G1 X76.943 Y98.126 E4.51391
G1 X76.282 Y97.465 E4.55362
G1 X76.067 Y97.705 E4.56733
G1 X76.694 Y98.332 E4.60500
G1 X76.445 Y98.539 E4.61874
G1 X75.882 Y97.976 E4.65254
G1 X75.697 Y98.247 E4.66647
G1 X76.195 Y98.745 E4.69641
G1 X75.975 Y98.981 E4.71010
G1 X75.512 Y98.518 E4.73791
G1 X75.328 Y98.789 E4.75184
G1 X75.874 Y99.335 E4.78468
G1 X75.773 Y99.690 E4.80035
G1 X75.209 Y99.126 E4.83424
G1 X75.104 Y99.476 E4.84978
G1 X75.672 Y100.044 E4.88393
G1 X75.571 Y100.399 E4.89960
G1 X74.998 Y99.826 E4.93401
G1 X74.893 Y100.176 E4.94955
G1 X75.470 Y100.753 E4.98424
G1 X75.369 Y101.108 E4.99990
G1 X74.823 Y100.561 E5.03275
G1 X74.823 Y101.017 E5.05211
G1 X75.438 Y101.632 E5.08907
G1 X75.619 Y102.269 E5.11721
G1 X74.823 Y101.472 E5.16507
G1 X74.823 Y101.928 E5.18443
G1 X75.801 Y102.906 E5.24319
G1 F1980.000 E1.24319
G92 E0
G1 X75.518 Y103.990 F6000.000
G1 E4.00000 F1980.000
G1 X77.361 Y105.833 E4.11075 F900.000
G1 F1980.000 E0.11075
G92 E0
G1 X78.642 Y106.203 F6000.000
G1 E4.00000 F1980.000
G1 X74.949 Y102.510 E4.22189 F900.000
G1 X75.145 Y103.162 E4.25081
G1 X78.001 Y106.018 E4.42242
G1 X78.004 Y105.109 E4.46104
G1 X79.067 Y106.172 E4.52491
G1 X79.483 Y106.133 E4.54268
G1 X78.459 Y105.109 E4.60419
G1 X78.915 Y105.109 E4.62354
G1 X80.050 Y106.244 E4.69174
G1 X80.505 Y106.244 E4.71109
G1 X79.370 Y105.109 E4.77928
G1 X79.826 Y105.109 E4.79864
G1 X80.961 Y106.244 E4.86683
G1 X81.416 Y106.244 E4.88619
G1 X80.236 Y105.063 E4.95714
G1 X80.485 Y104.857 E4.97089
G1 X81.872 Y106.244 E5.05425
G1 X82.328 Y106.244 E5.07361
G1 X80.734 Y104.650 E5.16937
G1 X80.983 Y104.444 E5.18312
G1 X82.783 Y106.244 E5.29129
G1 X83.239 Y106.244 E5.31065
G1 X81.232 Y104.237 E5.43123
G1 X81.481 Y104.031 E5.44497
G1 X83.694 Y106.244 E5.57796
G1 X84.150 Y106.244 E5.59731
G1 X81.730 Y103.824 E5.74270
G1 X81.979 Y103.618 E5.75645
G1 X84.606 Y106.244 E5.91424
G1 X85.061 Y106.244 E5.93360
G1 X82.101 Y103.284 E6.11145
G1 X82.202 Y102.930 E6.12711
G1 X85.517 Y106.244 E6.32626
G1 F1980.000 E2.32626
G92 E0
G1 X85.809 Y106.537 F6000.000
G1 E4.00000 F1980.000
G1 X99.517 Y120.244 E4.82363 F900.000
G1 X99.972 Y120.244 E4.84299
G1 X82.303 Y102.575 E5.90465
G1 X82.404 Y102.220 E5.92032
G1 X100.428 Y120.244 E7.00329
G1 X100.883 Y120.244 E7.02265
G1 X82.505 Y101.866 E8.12693
G1 X82.606 Y101.511 E8.14259
G1 X101.339 Y120.244 E9.26818
G1 X101.795 Y120.244 E9.28753
G1 X82.633 Y101.082 E10.43889
G1 X82.451 Y100.445 E10.46703
G1 X102.250 Y120.244 E11.65666
G1 X102.706 Y120.244 E11.67602
G1 X82.270 Y99.808 E12.90393
G1 X82.089 Y99.171 E12.93207
G1 X103.161 Y120.244 E14.19826
G1 X103.617 Y120.244 E14.21762
G1 X79.767 Y96.394 E15.65068
G1 X80.084 Y96.256 E15.66539
G1 X104.073 Y120.244 E17.10675
G1 X104.528 Y120.244 E17.12610
G1 X80.540 Y96.256 E18.56746
G1 X80.996 Y96.256 E18.58682
G1 X104.984 Y120.244 E20.02817
G1 X105.439 Y120.244 E20.04753
G1 X81.451 Y96.256 E21.48889
G1 X81.907 Y96.256 E21.50824
G1 X105.895 Y120.244 E22.94960
G1 X106.350 Y120.244 E22.96895
G1 X82.362 Y96.256 E24.41031
G1 X82.818 Y96.256 E24.42967
G1 X106.806 Y120.244 E25.87102
G1 X107.262 Y120.244 E25.89038
G1 X83.274 Y96.256 E27.33174
G1 X83.729 Y96.256 E27.35109
G1 X107.717 Y120.244 E28.79245
G1 X108.173 Y120.244 E28.81181
G1 X84.185 Y96.256 E30.25316
G1 X84.640 Y96.256 E30.27252
G1 X108.628 Y120.244 E31.71387
G1 X109.084 Y120.244 E31.73323
G1 X85.096 Y96.256 E33.17459
G1 X85.551 Y96.256 E33.19394
G1 X109.539 Y120.244 E34.63530
G1 X109.995 Y120.244 E34.65466
G1 X85.809 Y96.058 E36.10789
G1 X85.809 Y95.603 E36.12725
G1 X110.451 Y120.244 E37.60786
G1 X110.906 Y120.244 E37.62722
G1 X85.809 Y95.147 E39.13520
G1 X85.809 Y94.691 E39.15456
G1 X111.362 Y120.244 E40.68992
G1 X111.817 Y120.244 E40.70928
G1 X85.809 Y94.236 E42.27201
G1 X85.809 Y93.780 E42.29137
G1 X112.273 Y120.244 E43.88147
G1 X112.729 Y120.244 E43.90083
G1 X85.809 Y93.325 E45.51831
G1 X85.809 Y92.869 E45.53767
G1 X113.184 Y120.244 E47.18253
G1 X113.640 Y120.244 E47.20188
G1 X85.809 Y92.414 E48.87411
G1 X85.809 Y91.958 E48.89347
G1 X114.095 Y120.244 E50.59308
G1 X114.551 Y120.244 E50.61243
G1 X85.809 Y91.502 E52.33941
G1 X85.809 Y91.047 E52.35877
G1 X114.650 Y119.887 E54.09168
G1 X114.650 Y119.432 E54.11103
G1 X85.809 Y90.591 E55.84394
G1 X85.809 Y90.136 E55.86330
G1 X114.650 Y118.976 E57.59621
G1 X114.650 Y118.520 E57.61556
G1 X85.809 Y89.680 E59.34847
G1 X85.809 Y89.225 E59.36783
G1 X114.650 Y118.065 E61.10074
G1 X114.650 Y117.609 E61.12009
G1 X85.809 Y88.769 E62.85300
G1 X85.809 Y88.313 E62.87236
G1 X114.650 Y117.154 E64.60526
G1 X114.650 Y116.698 E64.62462
G1 X85.809 Y87.858 E66.35753
G1 X85.809 Y87.402 E66.37689
G1 X114.650 Y116.242 E68.10979
G1 X114.650 Y115.787 E68.12915
G1 X85.809 Y86.947 E69.86206
G1 X85.809 Y86.491 E69.88142
G1 X114.650 Y115.331 E71.61432
G1 X114.650 Y114.876 E71.63368
G1 X85.809 Y86.035 E73.36659
G1 X85.809 Y85.580 E73.38594
G1 X114.650 Y114.420 E75.11885
G1 X114.650 Y113.965 E75.13821
G1 X85.809 Y85.124 E76.87112
G1 X85.809 Y84.669 E76.89047
G1 X114.650 Y113.509 E78.62338
G1 X114.650 Y113.053 E78.64274
G1 X85.809 Y84.213 E80.37565
G1 X85.809 Y83.758 E80.39500
G1 X114.650 Y112.598 E82.12791
G1 X114.650 Y112.142 E82.14727
G1 X85.809 Y83.302 E83.88018
G1 X85.809 Y82.846 E83.89953
G1 X114.650 Y111.687 E85.63244
G1 X114.650 Y111.231 E85.65180
G1 X85.809 Y82.391 E87.38471
G1 X85.809 Y81.935 E87.40406
G1 X114.650 Y110.776 E89.13697
G1 X114.650 Y110.320 E89.15633
G1 X85.809 Y81.480 E90.88924
G1 X85.809 Y81.024 E90.90859
G1 X114.650 Y109.864 E92.64150
G1 X114.650 Y109.409 E92.66086
G1 X85.809 Y80.568 E94.39376
G1 X85.809 Y80.113 E94.41312
G1 X114.650 Y108.953 E96.14603
G1 X114.650 Y108.498 E96.16539
G1 X85.908 Y79.756 E97.89237
G1 X86.364 Y79.756 E97.91172
G1 X114.650 Y108.042 E99.61133
G1 X114.650 Y107.586 E99.63068
G1 X86.819 Y79.756 E101.30291
G1 X87.275 Y79.756 E101.32227
G1 X114.650 Y107.131 E102.96713
G1 X114.650 Y106.675 E102.98648
G1 X87.730 Y79.756 E104.60397
G1 X88.186 Y79.756 E104.62332
G1 X114.674 Y106.244 E106.21490
G1 X115.130 Y106.244 E106.23425
G1 X88.641 Y79.756 E107.82582
G1 X89.097 Y79.756 E107.84518
G1 X115.585 Y106.244 E109.43675
G1 X116.041 Y106.244 E109.45611
G1 X89.553 Y79.756 E111.04768
G1 X90.008 Y79.756 E111.06704
G1 X116.496 Y106.244 E112.65861
G1 X116.952 Y106.244 E112.67797
G1 X90.464 Y79.756 E114.26954
G1 X90.919 Y79.756 E114.28889
G1 X117.407 Y106.244 E115.88047
G1 X117.863 Y106.244 E115.89982
G1 X91.375 Y79.756 E117.49139
G1 X91.830 Y79.756 E117.51075
G1 X118.319 Y106.244 E119.10232
G1 X118.774 Y106.244 E119.12168
G1 X92.286 Y79.756 E120.71325
G1 X92.742 Y79.756 E120.73261
G1 X119.230 Y106.244 E122.32418
G1 F1980.000 E118.32418
G92 E0
G1 X119.685 Y106.244 F6000.000
