; generated by Slic3r 1.1.7 on 2014-12-29 at 11:54:26

; perimeters extrusion width = 0.40mm
; infill extrusion width = 0.44mm
; solid infill extrusion width = 0.44mm
; top infill extrusion width = 0.44mm

G21 ; set units to millimeters
M190 S110 ; wait for bed temperature to be reached
M104 S220 ; set temperature
G28 ; home all axes Start of G Code Slic3r
 
M109 S220 ; wait for temperature to be reached
G90 ; use absolute coordinates
G92 E0
M82 ; use absolute distances for extrusion
M106 S127
G1 F1860.000 E-3.00000
G92 E0
G1 Z0.294 F7800.000
G1 X73.523 Y72.737 F7800.000
G1 E3.10000 F1860.000
G1 X75.292 Y71.154 E3.24777 F1800.000
G1 X77.484 Y70.243 E3.39555
G1 X79.072 Y70.063 E3.49502
G1 X120.870 Y70.063 E6.09693
G1 X123.210 Y70.460 E6.24471
G1 X125.289 Y71.608 E6.39248 F1800.000
G1 X126.873 Y73.376 E6.54025
G1 X127.784 Y75.568 E6.68803
G1 X127.964 Y77.136 E6.78630
G1 X128.024 Y97.128 E8.03074
G1 X128.024 Y102.849 E8.38688
G1 X127.964 Y122.864 E9.63279
G1 X127.560 Y125.203 E9.78056
G1 X126.407 Y127.278 E9.92834
G1 X124.634 Y128.856 E10.07611
G1 X122.439 Y129.761 E10.22388
G1 X120.870 Y129.937 E10.32216
G1 X79.070 Y129.937 E12.92417
G1 X76.730 Y129.540 E13.07195
G1 X74.651 Y128.392 E13.21972
G1 X73.068 Y126.624 E13.36749
G1 X72.156 Y124.432 E13.51527
G1 X71.976 Y122.842 E13.61486
G1 X71.977 Y77.156 E16.45881
G1 X72.375 Y74.815 E16.60658
G1 X73.494 Y72.790 E16.75062
G1 X74.016 Y73.023 F7800.000
G1 X74.065 Y72.938 E16.75672 F1800.000
G1 X75.816 Y71.478 E16.89864
G1 X79.072 Y70.610 E17.10839
G1 X120.870 Y70.610 E19.71031
G1 X123.115 Y71.007 E19.85222
G1 X125.088 Y72.150 E19.99414 F1800.000
G1 X126.549 Y73.900 E20.13606
G1 X127.417 Y77.138 E20.34474
G1 X127.477 Y97.128 E21.58908
G1 X127.477 Y102.847 E21.94512
G1 X127.417 Y122.862 E23.19102
G1 X127.014 Y125.106 E23.33294
G1 X125.865 Y127.075 E23.47486
G1 X124.111 Y128.531 E23.61678
G1 X120.870 Y129.390 E23.82546
G1 X79.070 Y129.390 E26.42747
G1 X76.825 Y128.993 E26.56939
G1 X74.852 Y127.850 E26.71131
G1 X73.391 Y126.100 E26.85323
G1 X72.523 Y122.842 E27.06309
G1 X72.524 Y77.156 E29.90703
G1 X72.922 Y74.911 E30.04895
G1 X73.986 Y73.075 E30.18103
G1 F1860.000 E27.18103
G92 E0
G1 X120.576 Y122.549 F7800.000
G1 E3.10000 F1860.000
G1 X79.365 Y122.549 E5.66535 F441.000
G1 X79.364 Y117.436 E5.98360
G1 X120.576 Y117.436 E8.54901
G1 X120.576 Y122.489 E8.86353
G1 X120.230 Y122.349 F7800.000
G1 X120.029 Y122.001 F7800.000
G1 X79.912 Y122.001 E11.36076 F630.000
G1 X79.912 Y117.983 E11.61089
G1 X120.029 Y117.983 E14.10811
G1 X120.029 Y121.941 E14.35451
G1 X119.612 Y118.360 F7800.000
G1 X119.652 Y118.400 E14.35803 F1500.000
G1 X119.652 Y119.188 E14.40708
G1 X118.825 Y118.360 E14.47997
G1 X118.037 Y118.360 E14.52901
G1 X119.652 Y119.976 E14.67126
G1 X119.652 Y120.764 E14.72031
G1 X117.249 Y118.360 E14.93193
G1 X116.461 Y118.360 E14.98097
G1 X119.652 Y121.552 E15.26195
G1 X118.938 Y121.625 E15.30668
G1 X115.673 Y118.360 E15.59409
G1 X114.885 Y118.360 E15.64314
G1 X118.150 Y121.625 E15.93056
G1 X117.362 Y121.625 E15.97961
G1 X114.097 Y118.360 E16.26702
G1 X113.309 Y118.360 E16.31607
G1 X116.574 Y121.625 E16.60349
G1 X115.786 Y121.625 E16.65254
G1 X112.521 Y118.360 E16.93995
G1 X111.733 Y118.360 E16.98900
G1 X114.998 Y121.625 E17.27642
G1 X114.210 Y121.625 E17.32547
G1 X110.945 Y118.360 E17.61288
G1 X110.157 Y118.360 E17.66193
G1 X113.422 Y121.625 E17.94935
G1 X112.634 Y121.625 E17.99840
G1 X109.369 Y118.360 E18.28581
G1 X108.581 Y118.360 E18.33486
G1 X111.846 Y121.625 E18.62228
G1 X111.058 Y121.625 E18.67133
G1 X107.794 Y118.360 E18.95874
G1 X107.006 Y118.360 E19.00779
G1 X110.270 Y121.625 E19.29521
G1 X109.483 Y121.625 E19.34426
G1 X106.218 Y118.360 E19.63167
G1 X105.430 Y118.360 E19.68072
G1 X108.695 Y121.625 E19.96814
G1 X107.907 Y121.625 E20.01719
G1 X104.642 Y118.360 E20.30460
G1 X103.854 Y118.360 E20.35365
G1 X107.119 Y121.625 E20.64107
G1 X106.331 Y121.625 E20.69012
G1 X103.066 Y118.360 E20.97753
G1 X102.278 Y118.360 E21.02658
G1 X105.543 Y121.625 E21.31400
G1 X104.755 Y121.625 E21.36304
G1 X101.490 Y118.360 E21.65046
G1 X100.702 Y118.360 E21.69951
G1 X103.967 Y121.625 E21.98693
G1 X103.179 Y121.625 E22.03597
G1 X99.914 Y118.360 E22.32339
G1 X99.126 Y118.360 E22.37244
G1 X102.391 Y121.625 E22.65986
G1 X101.603 Y121.625 E22.70890
G1 X98.338 Y118.360 E22.99632
G1 X97.550 Y118.360 E23.04537
G1 X100.815 Y121.625 E23.33279
G1 X100.027 Y121.625 E23.38183
G1 X96.763 Y118.360 E23.66925
G1 X95.975 Y118.360 E23.71830
G1 X99.239 Y121.625 E24.00571
G1 X98.452 Y121.625 E24.05476
G1 X95.187 Y118.360 E24.34218
G1 X94.399 Y118.360 E24.39123
G1 X97.664 Y121.625 E24.67864
G1 X96.876 Y121.625 E24.72769
G1 X93.611 Y118.360 E25.01511
G1 X92.823 Y118.360 E25.06416
G1 X96.088 Y121.625 E25.35157
G1 X95.300 Y121.625 E25.40062
G1 X92.035 Y118.360 E25.68804
G1 X91.247 Y118.360 E25.73709
G1 X94.512 Y121.625 E26.02450
G1 X93.724 Y121.625 E26.07355
G1 X90.459 Y118.360 E26.36097
G1 X89.671 Y118.360 E26.41002
G1 X92.936 Y121.625 E26.69743
G1 X92.148 Y121.625 E26.74648
G1 X88.883 Y118.360 E27.03390
G1 X88.095 Y118.360 E27.08294
G1 X91.360 Y121.625 E27.37036
G1 X90.572 Y121.625 E27.41941
G1 X87.307 Y118.360 E27.70683
G1 X86.519 Y118.360 E27.75587
G1 X89.784 Y121.625 E28.04329
G1 X88.996 Y121.625 E28.09234
G1 X85.732 Y118.360 E28.37976
G1 X84.944 Y118.360 E28.42880
G1 X88.208 Y121.625 E28.71622
G1 X87.421 Y121.625 E28.76527
G1 X84.156 Y118.360 E29.05268
G1 X83.368 Y118.360 E29.10173
G1 X86.633 Y121.625 E29.38915
G1 X85.845 Y121.625 E29.43820
G1 X82.580 Y118.360 E29.72561
G1 X81.792 Y118.360 E29.77466
G1 X85.057 Y121.625 E30.06208
G1 X84.269 Y121.625 E30.11113
G1 X81.004 Y118.360 E30.39854
G1 X80.289 Y118.433 E30.44327
G1 X83.481 Y121.625 E30.72425
G1 X82.693 Y121.625 E30.77330
G1 X80.289 Y119.221 E30.98491
G1 X80.289 Y120.009 E31.03396
G1 X81.905 Y121.625 E31.17621
G1 X81.117 Y121.625 E31.22526
G1 X80.289 Y120.797 E31.29814
G1 X80.289 Y121.585 E31.34719
G1 X80.329 Y121.625 E31.35071
G1 F1860.000 E28.35071
G92 E0
G1 X120.576 Y112.536 F7800.000
G1 E3.10000 F1860.000
G1 X79.364 Y112.536 E5.66545 F441.000
G1 X79.364 Y107.423 E5.98370
G1 X120.576 Y107.423 E8.54915
G1 X120.576 Y112.476 E8.86367
G1 X120.230 Y112.336 F7800.000
G1 X120.029 Y111.989 F7800.000
G1 X79.911 Y111.989 E11.36099 F630.000
G1 X79.911 Y107.971 E11.61112
G1 X120.029 Y107.971 E14.10844
G1 X120.029 Y111.929 E14.35484
G1 X119.612 Y108.347 F7800.000
G1 X119.652 Y108.387 E14.35836 F1500.000
G1 X119.652 Y109.175 E14.40741
G1 X118.825 Y108.347 E14.48030
G1 X118.037 Y108.347 E14.52935
G1 X119.652 Y109.963 E14.67160
G1 X119.652 Y110.751 E14.72065
G1 X117.249 Y108.347 E14.93227
G1 X116.461 Y108.347 E14.98132
G1 X119.652 Y111.539 E15.26231
G1 X118.938 Y111.612 E15.30705
G1 X115.673 Y108.347 E15.59446
G1 X114.885 Y108.347 E15.64351
G1 X118.150 Y111.612 E15.93093
G1 X117.362 Y111.612 E15.97998
G1 X114.097 Y108.347 E16.26740
G1 X113.309 Y108.347 E16.31645
G1 X116.574 Y111.612 E16.60386
G1 X115.786 Y111.612 E16.65291
G1 X112.521 Y108.347 E16.94033
G1 X111.733 Y108.347 E16.98938
G1 X114.998 Y111.612 E17.27680
G1 X114.210 Y111.612 E17.32585
G1 X110.945 Y108.347 E17.61327
G1 X110.157 Y108.347 E17.66232
G1 X113.422 Y111.612 E17.94973
G1 X112.634 Y111.612 E17.99878
G1 X109.369 Y108.347 E18.28620
G1 X108.581 Y108.347 E18.33525
G1 X111.846 Y111.612 E18.62267
G1 X111.058 Y111.612 E18.67172
G1 X107.793 Y108.347 E18.95913
G1 X107.005 Y108.347 E19.00818
G1 X110.270 Y111.612 E19.29560
G1 X109.482 Y111.612 E19.34465
G1 X106.217 Y108.347 E19.63207
G1 X105.429 Y108.347 E19.68112
G1 X108.694 Y111.612 E19.96854
G1 X107.906 Y111.612 E20.01758
G1 X104.641 Y108.347 E20.30500
G1 X103.853 Y108.347 E20.35405
G1 X107.118 Y111.612 E20.64147
G1 X106.330 Y111.612 E20.69052
G1 X103.065 Y108.347 E20.97794
G1 X102.277 Y108.347 E21.02699
G1 X105.542 Y111.612 E21.31440
G1 X104.754 Y111.612 E21.36345
G1 X101.489 Y108.347 E21.65087
G1 X100.701 Y108.347 E21.69992
G1 X103.966 Y111.612 E21.98734
G1 X103.178 Y111.612 E22.03639
G1 X99.914 Y108.347 E22.32380
G1 X99.126 Y108.347 E22.37285
G1 X102.390 Y111.612 E22.66027
G1 X101.602 Y111.612 E22.70932
G1 X98.338 Y108.347 E22.99674
G1 X97.550 Y108.347 E23.04579
G1 X100.815 Y111.612 E23.33320
G1 X100.027 Y111.612 E23.38225
G1 X96.762 Y108.347 E23.66967
G1 X95.974 Y108.347 E23.71872
G1 X99.239 Y111.612 E24.00614
G1 X98.451 Y111.612 E24.05519
G1 X95.186 Y108.347 E24.34261
G1 X94.398 Y108.347 E24.39166
G1 X97.663 Y111.612 E24.67907
G1 X96.875 Y111.612 E24.72812
G1 X93.610 Y108.347 E25.01554
G1 X92.822 Y108.347 E25.06459
G1 X96.087 Y111.612 E25.35201
G1 X95.299 Y111.612 E25.40106
G1 X92.034 Y108.347 E25.68847
G1 X91.246 Y108.347 E25.73752
G1 X94.511 Y111.612 E26.02494
G1 X93.723 Y111.612 E26.07399
G1 X90.458 Y108.347 E26.36141
G1 X89.670 Y108.347 E26.41046
G1 X92.935 Y111.612 E26.69788
G1 X92.147 Y111.612 E26.74692
G1 X88.882 Y108.347 E27.03434
G1 X88.094 Y108.347 E27.08339
G1 X91.359 Y111.612 E27.37081
G1 X90.571 Y111.612 E27.41986
G1 X87.306 Y108.347 E27.70728
G1 X86.518 Y108.347 E27.75633
G1 X89.783 Y111.612 E28.04374
G1 X88.995 Y111.612 E28.09279
G1 X85.730 Y108.347 E28.38021
G1 X84.942 Y108.347 E28.42926
G1 X88.207 Y111.612 E28.71668
G1 X87.419 Y111.612 E28.76573
G1 X84.154 Y108.347 E29.05314
G1 X83.366 Y108.347 E29.10219
G1 X86.631 Y111.612 E29.38961
G1 X85.843 Y111.612 E29.43866
G1 X82.578 Y108.347 E29.72608
G1 X81.790 Y108.347 E29.77513
G1 X85.055 Y111.612 E30.06255
G1 X84.267 Y111.612 E30.11159
G1 X81.003 Y108.347 E30.39901
G1 X80.288 Y108.420 E30.44375
G1 X83.479 Y111.612 E30.72474
G1 X82.691 Y111.612 E30.77378
G1 X80.288 Y109.208 E30.98541
G1 X80.288 Y109.996 E31.03446
G1 X81.904 Y111.612 E31.17671
G1 X81.116 Y111.612 E31.22576
G1 X80.288 Y110.784 E31.29865
G1 X80.288 Y111.572 E31.34770
G1 X80.328 Y111.612 E31.35122
G1 F1860.000 E28.35122
G92 E0
G1 X120.636 Y102.534 F7800.000
G1 E3.10000 F1860.000
G1 X79.364 Y102.534 E5.66918 F441.000
G1 X79.364 Y97.421 E5.98743
G1 X120.636 Y97.421 E8.55661
G1 X120.636 Y102.474 E8.87112
G1 X120.290 Y102.334 F7800.000
G1 X120.089 Y101.987 F7800.000
G1 X79.911 Y101.987 E11.37218 F630.000
G1 X79.911 Y97.968 E11.62231
G1 X120.089 Y97.968 E14.12336
G1 X120.089 Y101.927 E14.36976
G1 X119.672 Y98.345 F7800.000
G1 X119.712 Y98.385 E14.37328 F1500.000
G1 X119.712 Y99.160 E14.42150
G1 X118.898 Y98.345 E14.49323
G1 X118.123 Y98.345 E14.54145
G1 X119.712 Y99.935 E14.68138
G1 X119.712 Y100.709 E14.72960
G1 X117.348 Y98.345 E14.93773
G1 X116.574 Y98.345 E14.98595
G1 X119.712 Y101.484 E15.26228
G1 X119.064 Y101.610 E15.30342
G1 X115.799 Y98.345 E15.59083
G1 X115.024 Y98.345 E15.63906
G1 X118.289 Y101.610 E15.92648
G1 X117.514 Y101.610 E15.97470
G1 X114.249 Y98.345 E16.26212
G1 X113.475 Y98.345 E16.31034
G1 X116.739 Y101.610 E16.59776
G1 X115.965 Y101.610 E16.64599
G1 X112.700 Y98.345 E16.93340
G1 X111.925 Y98.345 E16.98163
G1 X115.190 Y101.610 E17.26904
G1 X114.415 Y101.610 E17.31727
G1 X111.150 Y98.345 E17.60469
G1 X110.376 Y98.345 E17.65291
G1 X113.641 Y101.610 E17.94033
G1 X112.866 Y101.610 E17.98855
G1 X109.601 Y98.345 E18.27597
G1 X108.826 Y98.345 E18.32420
G1 X112.091 Y101.610 E18.61161
G1 X111.316 Y101.610 E18.65984
G1 X108.052 Y98.345 E18.94725
G1 X107.277 Y98.345 E18.99548
G1 X110.542 Y101.610 E19.28290
G1 X109.767 Y101.610 E19.33112
G1 X106.502 Y98.345 E19.61854
G1 X105.727 Y98.345 E19.66676
G1 X108.992 Y101.610 E19.95418
G1 X108.218 Y101.610 E20.00241
G1 X104.953 Y98.345 E20.28982
G1 X104.178 Y98.345 E20.33805
G1 X107.443 Y101.610 E20.62546
G1 X106.668 Y101.610 E20.67369
G1 X103.403 Y98.345 E20.96111
G1 X102.629 Y98.345 E21.00933
G1 X105.893 Y101.610 E21.29675
G1 X105.119 Y101.610 E21.34497
G1 X101.854 Y98.345 E21.63239
G1 X101.079 Y98.345 E21.68062
G1 X104.344 Y101.610 E21.96803
G1 X103.569 Y101.610 E22.01626
G1 X100.304 Y98.345 E22.30367
G1 X99.530 Y98.345 E22.35190
G1 X102.795 Y101.610 E22.63932
G1 X102.020 Y101.610 E22.68754
G1 X98.755 Y98.345 E22.97496
G1 X97.980 Y98.345 E23.02318
G1 X101.245 Y101.610 E23.31060
G1 X100.470 Y101.610 E23.35883
G1 X97.205 Y98.345 E23.64624
G1 X96.431 Y98.345 E23.69447
G1 X99.696 Y101.610 E23.98188
G1 X98.921 Y101.610 E24.03011
G1 X95.656 Y98.345 E24.31753
G1 X94.881 Y98.345 E24.36575
G1 X98.146 Y101.610 E24.65317
G1 X97.371 Y101.610 E24.70139
G1 X94.107 Y98.345 E24.98881
G1 X93.332 Y98.345 E25.03704
G1 X96.597 Y101.610 E25.32445
G1 X95.822 Y101.610 E25.37268
G1 X92.557 Y98.345 E25.66009
G1 X91.782 Y98.345 E25.70832
G1 X95.047 Y101.610 E25.99574
G1 X94.273 Y101.610 E26.04396
G1 X91.008 Y98.345 E26.33138
G1 X90.233 Y98.345 E26.37960
G1 X93.498 Y101.610 E26.66702
G1 X92.723 Y101.610 E26.71524
G1 X89.458 Y98.345 E27.00266
G1 X88.684 Y98.345 E27.05089
G1 X91.948 Y101.610 E27.33830
G1 X91.174 Y101.610 E27.38653
G1 X87.909 Y98.345 E27.67394
G1 X87.134 Y98.345 E27.72217
G1 X90.399 Y101.610 E28.00959
G1 X89.624 Y101.610 E28.05781
G1 X86.359 Y98.345 E28.34523
G1 X85.585 Y98.345 E28.39345
G1 X88.850 Y101.610 E28.68087
G1 X88.075 Y101.610 E28.72910
G1 X84.810 Y98.345 E29.01651
G1 X84.035 Y98.345 E29.06474
G1 X87.300 Y101.610 E29.35215
G1 X86.525 Y101.610 E29.40038
G1 X83.261 Y98.345 E29.68780
G1 X82.486 Y98.345 E29.73602
G1 X85.751 Y101.610 E30.02344
G1 X84.976 Y101.610 E30.07166
G1 X81.711 Y98.345 E30.35908
G1 X80.936 Y98.345 E30.40730
G1 X84.201 Y101.610 E30.69472
G1 X83.426 Y101.610 E30.74295
G1 X80.288 Y98.471 E31.01927
G1 X80.288 Y99.246 E31.06750
G1 X82.652 Y101.610 E31.27562
G1 X81.877 Y101.610 E31.32385
G1 X80.288 Y100.021 E31.46377
G1 X80.288 Y100.795 E31.51200
G1 X81.102 Y101.610 E31.58372
G1 X80.328 Y101.610 E31.63195
G1 X80.288 Y101.570 E31.63547
G1 F1860.000 E28.63547
G92 E0
G1 X120.576 Y92.411 F7800.000
G1 E3.10000 F1860.000
G1 X79.364 Y92.411 E5.66545 F441.000
G1 X79.364 Y87.298 E5.98370
G1 X120.576 Y87.298 E8.54915
G1 X120.576 Y92.351 E8.86367
G1 X120.230 Y92.211 F7800.000
G1 X120.029 Y91.863 F7800.000
G1 X79.911 Y91.863 E11.36099 F630.000
G1 X79.911 Y87.845 E11.61112
G1 X120.029 Y87.845 E14.10844
G1 X120.029 Y91.803 E14.35484
G1 X119.612 Y88.222 F7800.000
G1 X119.652 Y88.262 E14.35836 F1500.000
G1 X119.652 Y89.050 E14.40741
G1 X118.825 Y88.222 E14.48030
G1 X118.037 Y88.222 E14.52935
G1 X119.652 Y89.838 E14.67160
G1 X119.652 Y90.626 E14.72065
G1 X117.249 Y88.222 E14.93227
G1 X116.461 Y88.222 E14.98132
G1 X119.652 Y91.414 E15.26231
G1 X118.938 Y91.487 E15.30705
G1 X115.673 Y88.222 E15.59446
G1 X114.885 Y88.222 E15.64351
G1 X118.150 Y91.487 E15.93093
G1 X117.362 Y91.487 E15.97998
G1 X114.097 Y88.222 E16.26740
G1 X113.309 Y88.222 E16.31645
G1 X116.574 Y91.487 E16.60386
G1 X115.786 Y91.487 E16.65291
G1 X112.521 Y88.222 E16.94033
G1 X111.733 Y88.222 E16.98938
G1 X114.998 Y91.487 E17.27680
G1 X114.210 Y91.487 E17.32585
G1 X110.945 Y88.222 E17.61326
G1 X110.157 Y88.222 E17.66231
G1 X113.422 Y91.487 E17.94973
G1 X112.634 Y91.487 E17.99878
G1 X109.369 Y88.222 E18.28620
G1 X108.581 Y88.222 E18.33525
G1 X111.846 Y91.487 E18.62266
G1 X111.058 Y91.487 E18.67171
G1 X107.793 Y88.222 E18.95913
G1 X107.005 Y88.222 E19.00818
G1 X110.270 Y91.487 E19.29560
G1 X109.482 Y91.487 E19.34465
G1 X106.217 Y88.222 E19.63206
G1 X105.429 Y88.222 E19.68111
G1 X108.694 Y91.487 E19.96853
G1 X107.906 Y91.487 E20.01758
G1 X104.641 Y88.222 E20.30500
G1 X103.853 Y88.222 E20.35405
G1 X107.118 Y91.487 E20.64146
G1 X106.330 Y91.487 E20.69051
G1 X103.065 Y88.222 E20.97793
G1 X102.277 Y88.222 E21.02698
G1 X105.542 Y91.487 E21.31440
G1 X104.754 Y91.487 E21.36345
G1 X101.489 Y88.222 E21.65086
G1 X100.701 Y88.222 E21.69991
G1 X103.966 Y91.487 E21.98733
G1 X103.178 Y91.487 E22.03638
G1 X99.914 Y88.222 E22.32380
G1 X99.126 Y88.222 E22.37285
G1 X102.390 Y91.487 E22.66026
G1 X101.602 Y91.487 E22.70931
G1 X98.338 Y88.222 E22.99673
G1 X97.550 Y88.222 E23.04578
G1 X100.815 Y91.487 E23.33320
G1 X100.027 Y91.487 E23.38225
G1 X96.762 Y88.222 E23.66966
G1 X95.974 Y88.222 E23.71871
G1 X99.239 Y91.487 E24.00613
G1 X98.451 Y91.487 E24.05518
G1 X95.186 Y88.222 E24.34260
G1 X94.398 Y88.222 E24.39165
G1 X97.663 Y91.487 E24.67906
G1 X96.875 Y91.487 E24.72811
G1 X93.610 Y88.222 E25.01553
G1 X92.822 Y88.222 E25.06458
G1 X96.087 Y91.487 E25.35200
G1 X95.299 Y91.487 E25.40105
G1 X92.034 Y88.222 E25.68846
