; generated by Slic3r 1.1.7 on 2014-12-05 at 10:31:46

; perimeters extrusion width = 0.42mm
; infill extrusion width = 0.74mm
; solid infill extrusion width = 0.71mm
; top infill extrusion width = 0.71mm

G21 ; set units to millimeters
M190 S60 ; wait for bed temperature to be reached
M104 S186 ; set temperature
G28 ; home all axes
M109 S186 ; wait for temperature to be reached
G90 ; use absolute coordinates
G92 E0
M82 ; use absolute distances for extrusion
M106 S127
G1 F1860.000 E-3.00000
G92 E0
G1 Z0.200 F6000.000
G1 X38.803 Y38.803 F6000.000
G1 E3.10000 F1860.000
G1 X39.941 Y37.666 E3.12976 F1200.000
G1 X41.771 Y36.397 E3.17096
G1 X43.929 Y35.851 E3.21215
G1 X45.952 Y36.043 E3.24973
G1 X138.161 Y60.393 E5.01410 F1200.000
G1 X139.152 Y60.812 E5.03401
G1 X139.426 Y60.953 E5.03971
G1 X140.393 Y61.574 E5.06097
G1 X141.453 Y62.461 E5.08653
G1 X173.297 Y94.305 E5.91969
G1 X174.566 Y96.135 E5.96088
G1 X175.112 Y98.293 E6.00207
G1 X175.022 Y99.864 E6.03118
G1 X164.019 Y159.059 E7.14505
G1 X163.228 Y161.140 E7.18624
G1 X161.758 Y162.812 E7.22743
G1 X159.795 Y163.862 E7.26862
G1 X157.877 Y164.164 E7.30454
G1 X112.079 Y164.117 E8.15182
G1 X111.466 Y164.042 E8.16324
G1 X110.343 Y163.796 E8.18450
G1 X109.334 Y163.427 E8.20438
G1 X108.513 Y163.018 E8.22135
G1 X26.632 Y115.315 E9.97449
G1 X24.939 Y113.869 E10.01569
G1 X23.860 Y111.921 E10.05688
G1 X23.530 Y109.917 E10.09446
G1 X23.530 Y104.917 E10.18696
G1 X23.635 Y103.773 E10.20822
G1 X34.681 Y44.475 E11.32411
G1 X35.473 Y42.393 E11.36531
G1 X36.405 Y41.201 E11.39331
G1 X38.759 Y38.848 E11.45488
G1 F1860.000 E8.45488
G92 E0
G1 X139.891 Y109.676 F6000.000
G1 E3.10000 F1860.000
G1 X92.610 Y71.996 E4.21850 F1200.000
G1 X93.016 Y71.389 E4.23202
G1 X147.790 Y101.777 E5.39085
G1 X139.936 Y109.631 E5.59635
G1 X139.873 Y109.345 F6000.000
G1 X92.942 Y71.945 E6.70656 F1200.000
G1 X93.095 Y71.715 E6.71166
G1 X147.384 Y101.834 E7.86022
G1 X139.917 Y109.300 E8.05556
G1 X139.599 Y109.663 F6000.000
G1 F1860.000 E5.05556
G92 E0
G1 X131.549 Y81.681 F6000.000
G1 E3.10000 F1860.000
G1 X159.833 Y109.965 E3.84001 F1200.000
G1 X148.265 Y121.533 E4.14266
G1 X41.359 Y45.574 E6.56885
G1 X44.426 Y42.506 E6.64911
G1 X124.393 Y82.844 E8.30607
G1 X133.927 Y66.954 E8.64887
G1 X134.101 Y66.828 E8.65287
G1 X134.334 Y66.699 E8.65778
G1 X134.580 Y66.601 E8.66269
G1 X134.837 Y66.533 E8.66760
G1 X135.100 Y66.497 E8.67251
G1 X135.365 Y66.493 E8.67742
G1 X135.629 Y66.522 E8.68233
G1 X135.887 Y66.583 E8.68724
G1 X136.136 Y66.676 E8.69215
G1 X136.362 Y66.793 E8.69686
G1 X136.805 Y67.139 E8.70726
G1 X168.389 Y98.722 E9.53359
G1 X166.051 Y101.060 E9.59474
G1 X139.111 Y74.119 E10.29960
G1 X131.593 Y81.637 E10.49629
G1 X131.898 Y81.681 F6000.000
G1 X160.182 Y109.965 E11.23629 F1200.000
G1 X148.292 Y121.856 E11.54739
G1 X40.977 Y45.606 E13.98286
G1 X44.378 Y42.205 E14.07183
G1 X124.299 Y82.519 E15.72785
G1 X133.741 Y66.784 E16.06734
G1 X133.968 Y66.619 E16.07255
G1 X134.227 Y66.476 E16.07802
G1 X134.502 Y66.366 E16.08349
G1 X134.788 Y66.290 E16.08897
G1 X135.081 Y66.250 E16.09444
G1 X135.377 Y66.246 E16.09991
G1 X135.671 Y66.278 E16.10539
G1 X135.959 Y66.346 E16.11086
G1 X136.236 Y66.449 E16.11633
G1 X136.496 Y66.584 E16.12175
G1 X136.969 Y66.953 E16.13284
G1 X168.738 Y98.722 E16.96403
G1 X166.051 Y101.409 E17.03433
G1 X139.111 Y74.469 E17.73919
G1 X131.943 Y81.637 E17.92673
G1 X131.601 Y81.978 F6000.000
G1 X131.385 Y81.620 F6000.000
G1 X127.590 Y77.825 E18.02601 F1200.000
G1 X127.722 Y77.605 E18.03075
G1 X131.560 Y81.444 E18.13118
G1 X131.736 Y81.269 E18.13577
G1 X127.853 Y77.386 E18.23735
G1 X127.985 Y77.167 E18.24208
G1 X131.911 Y81.093 E18.34481
G1 X132.087 Y80.918 E18.34940
G1 X128.116 Y76.948 E18.45327
G1 X128.248 Y76.728 E18.45800
G1 X132.262 Y80.742 E18.56303
G1 X132.437 Y80.567 E18.56762
G1 X128.379 Y76.509 E18.67379
G1 X128.511 Y76.290 E18.67852
G1 X132.613 Y80.392 E18.78583
G1 X132.788 Y80.216 E18.79042
G1 X128.643 Y76.071 E18.89889
G1 X128.774 Y75.851 E18.90362
G1 X132.964 Y80.041 E19.01323
G1 X133.139 Y79.865 E19.01782
G1 X128.906 Y75.632 E19.12858
G1 X129.037 Y75.413 E19.13331
G1 X133.315 Y79.690 E19.24522
G1 X133.490 Y79.514 E19.24981
G1 X129.169 Y75.193 E19.36286
G1 X129.300 Y74.974 E19.36759
G1 X133.665 Y79.339 E19.48180
G1 X133.841 Y79.164 E19.48639
G1 X129.432 Y74.755 E19.60174
G1 X129.564 Y74.536 E19.60647
G1 X134.016 Y78.988 E19.72296
G1 X134.192 Y78.813 E19.72755
G1 X129.695 Y74.316 E19.84520
G1 X129.827 Y74.097 E19.84993
G1 X134.367 Y78.637 E19.96872
G1 X134.543 Y78.462 E19.97331
G1 X129.958 Y73.878 E20.09325
G1 X130.090 Y73.658 E20.09798
G1 X134.718 Y78.287 E20.21907
G1 X134.893 Y78.111 E20.22366
G1 X130.221 Y73.439 E20.34589
G1 X130.353 Y73.220 E20.35062
G1 X135.069 Y77.936 E20.47400
G1 X135.244 Y77.760 E20.47859
G1 X130.485 Y73.001 E20.60312
G1 X130.616 Y72.781 E20.60785
G1 X135.420 Y77.585 E20.73353
G1 X135.595 Y77.409 E20.73812
G1 X130.748 Y72.562 E20.86494
G1 X130.879 Y72.343 E20.86967
G1 X135.771 Y77.234 E20.99764
G1 X135.946 Y77.059 E21.00223
G1 X131.011 Y72.123 E21.13135
G1 X131.142 Y71.904 E21.13608
G1 X136.121 Y76.883 E21.26635
G1 X136.297 Y76.708 E21.27094
G1 X131.274 Y71.685 E21.40235
G1 X131.406 Y71.466 E21.40708
G1 X136.472 Y76.532 E21.53964
G1 X136.648 Y76.357 E21.54423
G1 X131.537 Y71.246 E21.67794
G1 X131.669 Y71.027 E21.68267
G1 X136.823 Y76.181 E21.81753
G1 X136.998 Y76.006 E21.82212
G1 X131.800 Y70.808 E21.95812
G1 X131.932 Y70.588 E21.96285
G1 X137.174 Y75.831 E22.10000
G1 X137.349 Y75.655 E22.10459
G1 X132.063 Y70.369 E22.24289
G1 X132.195 Y70.150 E22.24762
G1 X137.525 Y75.480 E22.38706
G1 X137.700 Y75.304 E22.39165
G1 X132.327 Y69.931 E22.53225
G1 X132.458 Y69.711 E22.53698
G1 X137.876 Y75.129 E22.67872
G1 X138.051 Y74.953 E22.68331
G1 X132.590 Y69.492 E22.82620
G1 X132.721 Y69.273 E22.83093
G1 X138.226 Y74.778 E22.97496
G1 X138.402 Y74.603 E22.97955
G1 X132.853 Y69.053 E23.12473
G1 X132.984 Y68.834 E23.12946
G1 X138.577 Y74.427 E23.27579
G1 X138.753 Y74.252 E23.28038
G1 X133.116 Y68.615 E23.42786
G1 X133.248 Y68.396 E23.43259
G1 X138.928 Y74.076 E23.58122
G1 X139.104 Y73.901 E23.58581
G1 X133.379 Y68.176 E23.73558
G1 X133.511 Y67.957 E23.74031
G1 X166.220 Y100.666 E24.59609
G1 X166.395 Y100.491 E24.60068
G1 X133.642 Y67.738 E25.45760
G1 X133.774 Y67.519 E25.46233
G1 X166.571 Y100.315 E26.32041
G1 X166.746 Y100.140 E26.32500
G1 X133.905 Y67.299 E27.18422
G1 X134.037 Y67.080 E27.18895
G1 X166.921 Y99.965 E28.04931
G1 X167.097 Y99.789 E28.05390
G1 X134.241 Y66.933 E28.91353
G1 X134.474 Y66.815 E28.91836
G1 X167.272 Y99.614 E29.77649
G1 X167.448 Y99.438 E29.78108
G1 X134.734 Y66.725 E30.63697
G1 X135.028 Y66.667 E30.64251
G1 X167.623 Y99.263 E31.49531
G1 X167.799 Y99.087 E31.49990
G1 X135.365 Y66.653 E32.34848
G1 X135.785 Y66.723 E32.35637
G1 X167.974 Y98.912 E33.19854
G1 X168.149 Y98.737 E33.20313
G1 X136.571 Y67.158 E34.02933
G1 F1860.000 E31.02933
G92 E0
G1 X126.932 Y78.921 F6000.000
G1 E3.10000 F1860.000
G1 X158.778 Y110.767 E3.93319 F1200.000
G1 X158.953 Y110.591 E3.93778
G1 X127.064 Y78.702 E4.77211
G1 X127.195 Y78.483 E4.77684
G1 X159.129 Y110.416 E5.61232
G1 X159.304 Y110.241 E5.61691
G1 X127.327 Y78.263 E6.45354
G1 X127.458 Y78.044 E6.45827
G1 X159.480 Y110.065 E7.29605
G1 X158.602 Y110.942 F6000.000
G1 X126.801 Y79.140 E8.12809 F1200.000
G1 X126.669 Y79.360 E8.13282
G1 X158.427 Y111.118 E8.96371
G1 X158.252 Y111.293 E8.96830
G1 X126.537 Y79.579 E9.79805
G1 X126.406 Y79.798 E9.80278
G1 X158.076 Y111.469 E10.63138
G1 X157.901 Y111.644 E10.63596
G1 X126.274 Y80.018 E11.46341
G1 X126.143 Y80.237 E11.46815
G1 X147.140 Y101.234 E12.01750
G1 X146.352 Y100.797 F6000.000
G1 X126.011 Y80.456 E12.54967 F1200.000
G1 X125.880 Y80.675 E12.55440
G1 X145.564 Y100.359 E13.06940
G1 X144.776 Y99.922 F6000.000
G1 X125.748 Y80.895 E13.56722 F1200.000
G1 X125.617 Y81.114 E13.57196
G1 X143.988 Y99.485 E14.05260
G1 X143.200 Y99.048 F6000.000
G1 X125.485 Y81.333 E14.51608 F1200.000
G1 X125.353 Y81.553 E14.52081
G1 X142.411 Y98.611 E14.96710
G1 X141.623 Y98.173 F6000.000
G1 X125.222 Y81.772 E15.39622 F1200.000
G1 X125.090 Y81.991 E15.40095
G1 X140.835 Y97.736 E15.81290
G1 X140.047 Y97.299 F6000.000
G1 X124.959 Y82.210 E16.20767 F1200.000
G1 X124.827 Y82.430 E16.21240
G1 X139.259 Y96.862 E16.58999
G1 X138.471 Y96.425 F6000.000
G1 X124.696 Y82.649 E16.95041 F1200.000
G1 X124.564 Y82.868 E16.95514
G1 X137.683 Y95.987 E17.29838
G1 X136.895 Y95.550 F6000.000
G1 X124.340 Y82.995 E17.62686 F1200.000
G1 X123.632 Y82.638 F6000.000
G1 X136.107 Y95.113 E17.95325 F1200.000
G1 X135.319 Y94.676 F6000.000
G1 X122.924 Y82.281 E18.27754 F1200.000
G1 X122.216 Y81.924 F6000.000
G1 X134.531 Y94.239 E18.59974 F1200.000
G1 X133.743 Y93.801 F6000.000
G1 X121.508 Y81.567 E18.91984 F1200.000
G1 X120.800 Y81.210 F6000.000
G1 X132.955 Y93.364 E19.23785 F1200.000
G1 X132.167 Y92.927 F6000.000
G1 X120.092 Y80.852 E19.55376 F1200.000
G1 X119.384 Y80.495 F6000.000
G1 X131.379 Y92.490 E19.86758 F1200.000
G1 X130.591 Y92.053 F6000.000
G1 X118.676 Y80.138 E20.17930 F1200.000
G1 X117.968 Y79.781 F6000.000
G1 X129.803 Y91.615 E20.48892 F1200.000
G1 X129.015 Y91.178 F6000.000
G1 X117.260 Y79.424 E20.79645 F1200.000
G1 X116.552 Y79.067 F6000.000
G1 X128.226 Y90.741 E21.10189 F1200.000
G1 X127.438 Y90.304 F6000.000
G1 X115.844 Y78.710 E21.40523 F1200.000
G1 X115.136 Y78.353 F6000.000
G1 X126.650 Y89.867 E21.70647 F1200.000
G1 X125.862 Y89.429 F6000.000
G1 X114.428 Y77.995 E22.00562 F1200.000
G1 X113.720 Y77.638 F6000.000
G1 X125.074 Y88.992 E22.30267 F1200.000
G1 X124.286 Y88.555 F6000.000
G1 X113.012 Y77.281 E22.59763 F1200.000
G1 X112.305 Y76.924 F6000.000
G1 X123.498 Y88.118 E22.89049 F1200.000
G1 X122.710 Y87.681 F6000.000
G1 X111.597 Y76.567 E23.18126 F1200.000
G1 X110.889 Y76.210 F6000.000
G1 X121.922 Y87.243 E23.46993 F1200.000
G1 X121.134 Y86.806 F6000.000
G1 X110.181 Y75.853 E23.75650 F1200.000
G1 X109.473 Y75.496 F6000.000
G1 X120.346 Y86.369 E24.04098 F1200.000
G1 X119.558 Y85.932 F6000.000
G1 X108.765 Y75.139 E24.32337 F1200.000
G1 X108.057 Y74.781 F6000.000
G1 X118.770 Y85.495 E24.60366 F1200.000
G1 X117.982 Y85.057 F6000.000
G1 X107.349 Y74.424 E24.88185 F1200.000
G1 X106.641 Y74.067 F6000.000
G1 X117.194 Y84.620 E25.15795 F1200.000
G1 X116.406 Y84.183 F6000.000
G1 X105.933 Y73.710 E25.43196 F1200.000
G1 X105.225 Y73.353 F6000.000
G1 X115.618 Y83.746 E25.70387 F1200.000
G1 X114.830 Y83.309 F6000.000
G1 X104.517 Y72.996 E25.97368 F1200.000
G1 X103.809 Y72.639 F6000.000
G1 X114.041 Y82.871 E26.24140 F1200.000
G1 X113.253 Y82.434 F6000.000
G1 X103.101 Y72.282 E26.50702 F1200.000
G1 X102.393 Y71.924 F6000.000
G1 X112.465 Y81.997 E26.77055 F1200.000
G1 X111.677 Y81.560 F6000.000
G1 X101.685 Y71.567 E27.03198 F1200.000
G1 X100.977 Y71.210 F6000.000
G1 X110.889 Y81.122 E27.29131 F1200.000
G1 X110.101 Y80.685 F6000.000
G1 X100.269 Y70.853 E27.54855 F1200.000
G1 X99.561 Y70.496 F6000.000
G1 X109.313 Y80.248 E27.80370 F1200.000
G1 X108.525 Y79.811 F6000.000
G1 X98.853 Y70.139 E28.05675 F1200.000
G1 X98.145 Y69.782 F6000.000
G1 X107.737 Y79.374 E28.30770 F1200.000
G1 X106.949 Y78.936 F6000.000
G1 X97.437 Y69.425 E28.55656 F1200.000
G1 X96.729 Y69.068 F6000.000
G1 X106.161 Y78.499 E28.80333 F1200.000
G1 X105.373 Y78.062 F6000.000
G1 X96.021 Y68.710 E29.04800 F1200.000
G1 X95.313 Y68.353 F6000.000
G1 X104.585 Y77.625 E29.29057 F1200.000
G1 X103.797 Y77.188 F6000.000
G1 X94.605 Y67.996 E29.53105 F1200.000
G1 X93.897 Y67.639 F6000.000
G1 X103.009 Y76.750 E29.76943 F1200.000
G1 X102.221 Y76.313 F6000.000
G1 X93.189 Y67.282 E30.00572 F1200.000
G1 X92.481 Y66.925 F6000.000
G1 X101.433 Y75.876 E30.23991 F1200.000
G1 X100.645 Y75.439 F6000.000
G1 X91.773 Y66.568 E30.47200 F1200.000
G1 X91.066 Y66.211 F6000.000
G1 X99.856 Y75.002 E30.70200 F1200.000
G1 X99.068 Y74.564 F6000.000
G1 X90.358 Y65.854 E30.92991 F1200.000
G1 X89.650 Y65.496 F6000.000
G1 X98.280 Y74.127 E31.15572 F1200.000
G1 X97.492 Y73.690 F6000.000
G1 X88.942 Y65.139 E31.37943 F1200.000
G1 X88.234 Y64.782 F6000.000
G1 X96.704 Y73.253 E31.60105 F1200.000
G1 X95.916 Y72.816 F6000.000
G1 X87.526 Y64.425 E31.82058 F1200.000
G1 X86.818 Y64.068 F6000.000
G1 X95.128 Y72.378 E32.03801 F1200.000
G1 X94.340 Y71.941 F6000.000
G1 X86.110 Y63.711 E32.25334 F1200.000
G1 X85.402 Y63.354 F6000.000
G1 X93.552 Y71.504 E32.46658 F1200.000
G1 X92.929 Y71.232 F6000.000
G1 X84.694 Y62.997 E32.68205 F1200.000
G1 X83.986 Y62.639 F6000.000
G1 X92.789 Y71.442 E32.91236 F1200.000
G1 X92.648 Y71.653 E32.91704
G1 X83.278 Y62.282 E33.16220
G1 X82.570 Y61.925 F6000.000
G1 X92.508 Y71.863 E33.42220 F1200.000
G1 X93.765 Y73.120 F6000.000
G1 X126.562 Y105.918 E34.28029 F1200.000
G1 X125.350 Y105.057 F6000.000
G1 X81.862 Y61.568 E35.41809 F1200.000
G1 X81.154 Y61.211 F6000.000
G1 X124.138 Y104.195 E36.54270 F1200.000
G1 X122.926 Y103.334 F6000.000
G1 X80.446 Y60.854 E37.65412 F1200.000
G1 X79.738 Y60.497 F6000.000
G1 X121.714 Y102.473 E38.75236 F1200.000
G1 X120.502 Y101.612 F6000.000
G1 X79.030 Y60.140 E39.83740 F1200.000
G1 X78.322 Y59.783 F6000.000
G1 X119.290 Y100.751 E40.90926 F1200.000
G1 X118.078 Y99.889 F6000.000
G1 X77.614 Y59.425 E41.96793 F1200.000
G1 X76.906 Y59.068 F6000.000
G1 X116.866 Y99.028 E43.01342 F1200.000
G1 X115.654 Y98.167 F6000.000
G1 X76.198 Y58.711 E44.04571 F1200.000
G1 X75.490 Y58.354 F6000.000
G1 X114.442 Y97.306 E45.06482 F1200.000
G1 X113.230 Y96.445 F6000.000
G1 X74.782 Y57.997 E46.07074 F1200.000
G1 X74.074 Y57.640 F6000.000
G1 X112.018 Y95.584 E47.06347 F1200.000
G1 X110.806 Y94.722 F6000.000
G1 X73.366 Y57.283 E48.04301 F1200.000
G1 X72.658 Y56.926 F6000.000
G1 X109.594 Y93.861 E49.00937 F1200.000
G1 X108.382 Y93.000 F6000.000
G1 X71.950 Y56.569 E49.96253 F1200.000
G1 X71.242 Y56.211 F6000.000
G1 X107.170 Y92.139 E50.90251 F1200.000
G1 X105.958 Y91.278 F6000.000
G1 X70.534 Y55.854 E51.82930 F1200.000
G1 X69.827 Y55.497 F6000.000
G1 X104.746 Y90.416 E52.74291 F1200.000
G1 X103.534 Y89.555 F6000.000
G1 X69.119 Y55.140 E53.64332 F1200.000
G1 X68.411 Y54.783 F6000.000
G1 X102.322 Y88.694 E54.53055 F1200.000
G1 X101.110 Y87.833 F6000.000
G1 X67.703 Y54.426 E55.40459 F1200.000
G1 X66.995 Y54.069 F6000.000
G1 X99.898 Y86.972 E56.26544 F1200.000
G1 X98.686 Y86.111 F6000.000
G1 X66.287 Y53.712 E57.11310 F1200.000
G1 X65.579 Y53.354 F6000.000
G1 X97.474 Y85.249 E57.94758 F1200.000
G1 X96.262 Y84.388 F6000.000
G1 X64.871 Y52.997 E58.76887 F1200.000
G1 X64.163 Y52.640 F6000.000
G1 X95.050 Y83.527 E59.57697 F1200.000
G1 X93.838 Y82.666 F6000.000
G1 X63.455 Y52.283 E60.37188 F1200.000
G1 X62.747 Y51.926 F6000.000
G1 X92.626 Y81.805 E61.15360 F1200.000
G1 X91.414 Y80.944 F6000.000
G1 X62.039 Y51.569 E61.92214 F1200.000
G1 X61.331 Y51.212 F6000.000
G1 X90.201 Y80.082 E62.67749 F1200.000
G1 X88.989 Y79.221 F6000.000
G1 X60.623 Y50.855 E63.41965 F1200.000
G1 X59.915 Y50.498 F6000.000
G1 X87.777 Y78.360 E64.14862 F1200.000
G1 X86.565 Y77.499 F6000.000
G1 X59.207 Y50.140 E64.86440 F1200.000
G1 X58.499 Y49.783 F6000.000
G1 X85.353 Y76.638 E65.56700 F1200.000
G1 X84.141 Y75.776 F6000.000
G1 X57.791 Y49.426 E66.25641 F1200.000
G1 X57.083 Y49.069 F6000.000
G1 X82.929 Y74.915 E66.93263 F1200.000
G1 X81.717 Y74.054 F6000.000
G1 X56.375 Y48.712 E67.59566 F1200.000
G1 X55.667 Y48.355 F6000.000
G1 X80.505 Y73.193 E68.24551 F1200.000
G1 X79.293 Y72.332 F6000.000
G1 X54.959 Y47.998 E68.88216 F1200.000
G1 X54.251 Y47.641 F6000.000
G1 X78.081 Y71.471 E69.50563 F1200.000
G1 X76.869 Y70.609 F6000.000
G1 X53.543 Y47.283 E70.11591 F1200.000
G1 X52.835 Y46.926 F6000.000
G1 X75.657 Y69.748 E70.71301 F1200.000
G1 X74.445 Y68.887 F6000.000
G1 X52.127 Y46.569 E71.29691 F1200.000
G1 X51.419 Y46.212 F6000.000
G1 X73.233 Y68.026 E71.86763 F1200.000
G1 X72.021 Y67.165 F6000.000
G1 X50.711 Y45.855 E72.42516 F1200.000
G1 X50.003 Y45.498 F6000.000
G1 X70.809 Y66.303 E72.96950 F1200.000
G1 X69.597 Y65.442 F6000.000
G1 X49.295 Y45.141 E73.50065 F1200.000
G1 X48.588 Y44.784 F6000.000
G1 X68.385 Y64.581 E74.01862 F1200.000
G1 X67.173 Y63.720 F6000.000
G1 X47.880 Y44.427 E74.52339 F1200.000
G1 X47.172 Y44.069 F6000.000
G1 X65.961 Y62.859 E75.01498 F1200.000
G1 X64.749 Y61.998 F6000.000
