; generated by Slic3r 1.1.7 on 2014-12-25 at 16:36:00

; perimeters extrusion width = 0.40mm
; infill extrusion width = 0.67mm
; solid infill extrusion width = 0.67mm
; top infill extrusion width = 0.67mm
; support material extrusion width = 0.40mm

G21 ; set units to millimeters
M190 S60 ; wait for bed temperature to be reached
M104 S186 ; set temperature
G28 ; home all axes Start of G Code Slic3r
 
M109 S186 ; wait for temperature to be reached
G90 ; use absolute coordinates
G92 E0
M82 ; use absolute distances for extrusion
G1 F1860.000 E-3.00000
G92 E0
G1 Z0.200 F6000.000
G1 X84.113 Y85.089 F6000.000
G1 E3.10000 F1860.000
G1 X85.365 Y83.858 E3.13306 F1200.000
G1 X88.513 Y81.485 E3.20724
G1 X90.042 Y80.620 E3.24029
G1 X93.697 Y79.143 E3.31447
G1 X95.397 Y78.703 E3.34753
G1 X99.310 Y78.222 E3.42171
G1 X101.066 Y78.237 E3.45476
G1 X104.970 Y78.785 E3.52895 F1200.000
G1 X106.662 Y79.255 E3.56201
G1 X110.291 Y80.795 E3.63619
G1 X111.805 Y81.686 E3.66924
G1 X114.911 Y84.112 E3.74342
G1 X116.142 Y85.365 E3.77648
G1 X118.515 Y88.513 E3.85066
G1 X119.380 Y90.042 E3.88372
G1 X120.842 Y93.660 E3.95715
G1 X121.297 Y95.397 E3.99095
G1 X121.778 Y99.310 E4.06513
G1 X121.763 Y101.066 E4.09819
G1 X121.215 Y104.970 E4.17237
G1 X120.745 Y106.662 E4.20542
G1 X119.205 Y110.291 E4.27961
G1 X118.314 Y111.805 E4.31266
G1 X115.887 Y114.911 E4.38685
G1 X114.635 Y116.142 E4.41990
G1 X111.487 Y118.515 E4.49408
G1 X109.958 Y119.380 E4.52714
G1 X106.303 Y120.857 E4.60132
G1 X104.603 Y121.297 E4.63437
G1 X100.690 Y121.778 E4.70855
G1 X98.934 Y121.763 E4.74160
G1 X95.030 Y121.215 E4.81579
G1 X93.338 Y120.745 E4.84885
G1 X89.709 Y119.205 E4.92303
G1 X88.195 Y118.314 E4.95609
G1 X85.089 Y115.887 E5.03027
G1 X83.858 Y114.635 E5.06332
G1 X81.485 Y111.487 E5.13751
G1 X80.620 Y109.958 E5.17056
G1 X79.158 Y106.341 E5.24399
G1 X78.703 Y104.603 E5.27779
G1 X78.222 Y100.690 E5.35198
G1 X78.237 Y98.934 E5.38503
G1 X78.785 Y95.030 E5.45921
G1 X79.255 Y93.338 E5.49227
G1 X80.795 Y89.709 E5.56645
G1 X81.686 Y88.195 E5.59950
G1 X84.076 Y85.136 E5.67256
G1 X84.304 Y85.238 F6000.000
G1 X85.511 Y84.052 E5.70442 F1200.000
G1 X88.659 Y81.679 E5.77860
G1 X90.133 Y80.845 E5.81046
G1 X93.788 Y79.368 E5.88464
G1 X95.427 Y78.944 E5.91651
G1 X99.339 Y78.463 E5.99069
G1 X101.032 Y78.478 E6.02254
G1 X104.936 Y79.026 E6.09673 F1200.000
G1 X106.605 Y79.494 E6.12935
G1 X110.196 Y81.018 E6.20277
G1 X111.655 Y81.877 E6.23463
G1 X114.762 Y84.304 E6.30881
G1 X115.948 Y85.511 E6.34068
G1 X118.321 Y88.659 E6.41486
G1 X119.155 Y90.133 E6.44672
G1 X120.617 Y93.751 E6.52015
G1 X121.056 Y95.427 E6.55276
G1 X121.537 Y99.340 E6.62694
G1 X121.522 Y101.032 E6.65880
G1 X120.974 Y104.936 E6.73298
G1 X120.522 Y106.568 E6.76485
G1 X118.982 Y110.196 E6.83903
G1 X118.123 Y111.655 E6.87089
G1 X115.696 Y114.762 E6.94508
G1 X114.489 Y115.948 E6.97693
G1 X111.341 Y118.321 E7.05112
G1 X109.867 Y119.155 E7.08298
G1 X106.212 Y120.632 E7.15716
G1 X104.573 Y121.056 E7.18902
G1 X100.661 Y121.537 E7.26320
G1 X98.968 Y121.522 E7.29506
G1 X95.064 Y120.974 E7.36925
G1 X93.432 Y120.522 E7.40111
G1 X89.804 Y118.982 E7.47529
G1 X88.345 Y118.123 E7.50716
G1 X85.238 Y115.696 E7.58134
G1 X84.052 Y114.489 E7.61320
G1 X81.679 Y111.341 E7.68738
G1 X80.845 Y109.867 E7.71924
G1 X79.383 Y106.250 E7.79267
G1 X78.944 Y104.573 E7.82528
G1 X78.463 Y100.660 E7.89947
G1 X78.478 Y98.968 E7.93132
G1 X79.026 Y95.064 E8.00551
G1 X79.478 Y93.432 E8.03737
G1 X81.018 Y89.804 E8.11155
G1 X81.877 Y88.345 E8.14341
G1 X84.267 Y85.286 E8.21647
G1 X84.495 Y85.388 F6000.000
G1 X85.658 Y84.245 E8.24713 F1200.000
G1 X88.806 Y81.873 E8.32132
G1 X90.224 Y81.070 E8.35199
G1 X93.879 Y79.593 E8.42617
G1 X95.456 Y79.185 E8.45684
G1 X99.369 Y78.704 E8.53102
G1 X100.998 Y78.718 E8.56168
G1 X104.902 Y79.267 E8.63587 F1200.000
G1 X106.473 Y79.702 E8.66654
G1 X110.101 Y81.242 E8.74072
G1 X111.506 Y82.069 E8.77139
G1 X114.612 Y84.495 E8.84557
G1 X115.755 Y85.658 E8.87624
G1 X118.127 Y88.806 E8.95042
G1 X118.930 Y90.224 E8.98109
G1 X120.392 Y93.842 E9.05452
G1 X120.815 Y95.456 E9.08593
G1 X121.296 Y99.369 E9.16012
G1 X121.282 Y100.999 E9.19079
G1 X120.733 Y104.902 E9.26497
G1 X120.298 Y106.473 E9.29563
G1 X118.758 Y110.101 E9.36982
G1 X117.931 Y111.506 E9.40049
G1 X115.504 Y114.612 E9.47467
G1 X114.342 Y115.754 E9.50534
G1 X111.194 Y118.127 E9.57952
G1 X109.776 Y118.930 E9.61019
G1 X106.121 Y120.407 E9.68437
G1 X104.544 Y120.815 E9.71504
G1 X100.631 Y121.296 E9.78922
G1 X99.002 Y121.282 E9.81988
G1 X95.098 Y120.733 E9.89407
G1 X93.527 Y120.298 E9.92474
G1 X89.899 Y118.758 E9.99892
G1 X88.494 Y117.931 E10.02959
G1 X85.388 Y115.505 E10.10377
G1 X84.245 Y114.342 E10.13444
G1 X81.873 Y111.194 E10.20862
G1 X81.070 Y109.776 E10.23929
G1 X79.608 Y106.159 E10.31272
G1 X79.185 Y104.544 E10.34414
G1 X78.704 Y100.631 E10.41832
G1 X78.718 Y99.001 E10.44899
G1 X79.267 Y95.098 E10.52317
G1 X79.702 Y93.527 E10.55384
G1 X81.242 Y89.899 E10.62802
G1 X82.069 Y88.494 E10.65869
G1 X84.458 Y85.435 E10.73174
G1 F1860.000 E7.73174
G92 E0
G1 X108.000 Y108.045 F6000.000
G1 E3.10000 F1860.000
G1 X105.650 Y109.848 E3.15574 F1200.000
G1 X102.914 Y110.981 E3.21148
G1 X99.977 Y111.368 E3.26722
G1 X97.041 Y110.981 E3.32295
G1 X94.305 Y109.848 E3.37869
G1 X91.955 Y108.045 E3.43443
G1 X90.152 Y105.695 E3.49017
G1 X89.018 Y102.959 E3.54591
G1 X88.632 Y100.022 E3.60165
G1 X89.018 Y97.086 E3.65738
G1 X90.152 Y94.349 E3.71312
G1 X91.955 Y91.999 E3.76886
G1 X94.305 Y90.196 E3.82460
G1 X97.041 Y89.063 E3.88034
G1 X99.977 Y88.676 E3.93608
G1 X100.063 Y88.688 E3.93770
G1 X102.914 Y89.063 E3.99182 F1200.000
G1 X105.650 Y90.196 E4.04756
G1 X108.000 Y91.999 E4.10329
G1 X109.803 Y94.349 E4.15903
G1 X110.937 Y97.086 E4.21477
G1 X111.323 Y100.022 E4.27051
G1 X110.937 Y102.959 E4.32625
G1 X109.803 Y105.695 E4.38199
G1 X108.037 Y107.997 E4.43660
G1 X107.827 Y107.872 F6000.000
G1 X105.528 Y109.636 E4.49113 F1200.000
G1 X102.851 Y110.745 E4.54567
G1 X99.977 Y111.123 E4.60020
G1 X99.924 Y111.116 E4.60122
G1 X97.104 Y110.745 E4.65473
G1 X94.427 Y109.636 E4.70927
G1 X92.128 Y107.872 E4.76380
G1 X90.364 Y105.573 E4.81834
G1 X89.255 Y102.895 E4.87287
G1 X88.877 Y100.022 E4.92741
G1 X89.255 Y97.149 E4.98194
G1 X90.364 Y94.472 E5.03648
G1 X92.128 Y92.173 E5.09101
G1 X94.427 Y90.409 E5.14555
G1 X97.104 Y89.300 E5.20008
G1 X97.158 Y89.292 E5.20110
G1 X99.977 Y88.921 E5.25462 F1200.000
G1 X102.851 Y89.300 E5.30915
G1 X105.528 Y90.409 E5.36369
G1 X107.827 Y92.173 E5.41822
G1 X109.591 Y94.472 E5.47276
G1 X110.700 Y97.149 E5.52729
G1 X111.078 Y100.022 E5.58183
G1 X110.700 Y102.895 E5.63636
G1 X109.591 Y105.573 E5.69090
G1 X107.863 Y107.824 E5.74430
G1 F1860.000 E2.74430
G92 E0
G1 X97.038 Y88.911 F6000.000
G1 X110.675 Y110.096 F6000.000
G1 E3.10000 F1860.000
G1 X110.342 Y110.522 E3.11017 F1200.000
G1 X107.267 Y112.841 E3.18265
G1 X103.696 Y114.284 E3.25514
G1 X99.873 Y114.754 E3.32762
G1 X96.059 Y114.218 E3.40010
G1 X92.513 Y112.713 E3.47258
G1 X89.478 Y110.342 E3.54506
G1 X87.159 Y107.267 E3.61755
G1 X85.716 Y103.696 E3.69003
G1 X85.246 Y99.873 E3.76251
G1 X85.782 Y96.058 E3.83499
G1 X87.287 Y92.513 E3.90748
G1 X89.658 Y89.478 E3.97996
G1 X92.733 Y87.159 E4.05244
G1 X96.304 Y85.716 E4.12492
G1 X100.127 Y85.246 E4.19740 F1200.000
G1 X103.941 Y85.782 E4.26989
G1 X107.487 Y87.287 E4.34237
G1 X110.522 Y89.658 E4.41485
G1 X112.841 Y92.733 E4.48733
G1 X114.284 Y96.304 E4.55981
G1 X114.754 Y100.127 E4.63230
G1 X114.218 Y103.941 E4.70478
G1 X112.713 Y107.487 E4.77726
G1 X110.712 Y110.049 E4.83844
G1 X110.867 Y110.246 F6000.000
G1 X110.514 Y110.697 E4.84922 F1200.000
G1 X107.387 Y113.054 E4.92290
G1 X103.757 Y114.521 E4.99659
G1 X99.871 Y114.999 E5.07027
G1 X95.993 Y114.454 E5.14396
G1 X92.389 Y112.924 E5.21764
G1 X89.303 Y110.514 E5.29133
G1 X86.946 Y107.387 E5.36502
G1 X85.479 Y103.757 E5.43870
G1 X85.001 Y99.871 E5.51239
G1 X85.546 Y95.993 E5.58607
G1 X87.076 Y92.389 E5.65976
G1 X89.486 Y89.303 E5.73344
G1 X92.613 Y86.946 E5.80713
G1 X96.243 Y85.479 E5.88082
G1 X100.156 Y85.005 E5.95499
G1 X104.007 Y85.546 E6.02817 F1200.000
G1 X107.611 Y87.076 E6.10186
G1 X110.697 Y89.486 E6.17554
G1 X113.054 Y92.613 E6.24923
G1 X114.521 Y96.243 E6.32291
G1 X114.999 Y100.129 E6.39660
G1 X114.454 Y104.007 E6.47028
G1 X112.924 Y107.611 E6.54397
G1 X110.903 Y110.199 E6.60575
G1 F1860.000 E3.60575
G92 E0
G1 X100.517 Y85.177 F6000.000
G1 X103.782 Y85.917 F6000.000
G1 E3.10000 F1860.000
G1 X114.079 Y96.214 E3.37402 F1200.000
G1 X114.169 Y96.647 E3.38235
G1 X103.383 Y85.861 E3.66941
G1 X102.983 Y85.805 E3.67700
G1 X114.217 Y97.039 E3.97597
G1 X114.265 Y97.431 E3.98340
G1 X102.583 Y85.749 E4.29429
G1 X102.184 Y85.693 E4.30188
G1 X114.313 Y97.822 E4.62469
G1 X114.361 Y98.214 E4.63212
G1 X108.363 Y92.216 E4.79175
G1 X107.784 Y91.637 F6000.000
G1 X101.784 Y85.637 E4.95144 F1200.000
G1 X101.384 Y85.581 E4.95903
G1 X106.307 Y90.504 E5.09005
G1 X105.372 Y89.912 F6000.000
G1 X100.985 Y85.524 E5.20683 F1200.000
G1 X100.585 Y85.468 E5.21442
G1 X104.786 Y89.669 E5.32623
G1 X104.199 Y89.426 F6000.000
G1 X100.185 Y85.412 E5.43306 F1200.000
G1 X99.865 Y85.436 E5.43909
G1 X103.613 Y89.183 E5.53883
G1 X103.026 Y88.940 F6000.000
G1 X99.559 Y85.473 E5.63110 F1200.000
G1 X99.253 Y85.511 E5.63690
G1 X102.607 Y88.865 E5.72616
G1 X102.212 Y88.813 E5.73367
G1 X98.947 Y85.549 E5.82054
G1 X98.642 Y85.586 E5.82634
G1 X101.816 Y88.761 E5.91083
G1 X101.420 Y88.709 E5.91834
G1 X98.336 Y85.624 E6.00044
G1 X98.030 Y85.661 E6.00624
G1 X101.025 Y88.657 E6.08596
G1 X100.629 Y88.605 E6.09347
G1 X97.724 Y85.699 E6.17079
G1 X97.418 Y85.737 E6.17660
G1 X100.234 Y88.553 E6.25154
G1 X99.870 Y88.533 E6.25838
G1 X97.112 Y85.774 E6.33180
G1 X96.806 Y85.812 E6.33760
G1 X99.567 Y88.573 E6.41108
G1 X99.263 Y88.613 E6.41684
G1 X96.500 Y85.849 E6.49039
G1 X96.224 Y85.917 E6.49573
G1 X98.960 Y88.653 E6.56854
G1 X98.656 Y88.693 E6.57430
G1 X95.979 Y86.016 E6.64554
G1 X95.735 Y86.115 E6.65051
G1 X98.352 Y88.733 E6.72018
G1 X98.049 Y88.773 E6.72594
G1 X95.490 Y86.214 E6.79405
G1 X95.245 Y86.313 E6.79901
G1 X97.745 Y88.813 E6.86555
G1 X97.442 Y88.853 E6.87131
G1 X95.001 Y86.412 E6.93628
G1 X94.756 Y86.510 E6.94124
G1 X97.138 Y88.893 E7.00464
G1 X96.868 Y88.966 E7.00991
G1 X94.511 Y86.609 E7.07263
G1 X94.266 Y86.708 E7.07759
G1 X96.625 Y89.066 E7.14035
G1 X96.382 Y89.167 E7.14530
G1 X94.022 Y86.807 E7.20811
G1 X93.777 Y86.906 E7.21307
G1 X96.139 Y89.268 E7.27592
G1 X95.896 Y89.368 E7.28087
G1 X93.532 Y87.005 E7.34377
G1 X93.288 Y87.104 E7.34874
G1 X95.653 Y89.469 E7.41168
G1 X95.410 Y89.569 E7.41663
G1 X93.043 Y87.203 E7.47962
G1 X92.801 Y87.304 E7.48456
G1 X95.167 Y89.670 E7.54753
G1 X94.924 Y89.771 E7.55248
G1 X92.605 Y87.452 E7.61420
G1 X92.409 Y87.599 E7.61882
G1 X94.681 Y89.871 E7.67928
G1 X94.438 Y89.972 E7.68423
G1 X92.213 Y87.747 E7.74345
G1 X92.017 Y87.895 E7.74807
G1 X94.201 Y90.079 E7.80619
G1 X94.007 Y90.228 E7.81080
G1 X91.821 Y88.042 E7.86897
G1 X91.626 Y88.190 E7.87359
G1 X93.813 Y90.377 E7.93179
G1 X93.618 Y90.526 E7.93640
G1 X91.430 Y88.338 E7.99465
G1 X91.234 Y88.485 E7.99927
G1 X93.424 Y90.675 E8.05755
G1 X93.229 Y90.825 E8.06217
G1 X91.038 Y88.633 E8.12049
G1 X90.842 Y88.781 E8.12511
G1 X93.035 Y90.974 E8.18348
G1 X92.841 Y91.123 E8.18809
G1 X90.646 Y88.928 E8.24650
G1 X90.450 Y89.076 E8.25111
G1 X92.646 Y91.272 E8.30956
G1 X92.452 Y91.421 E8.31417
G1 X90.254 Y89.224 E8.37266
G1 X90.058 Y89.371 E8.37728
G1 X92.257 Y91.570 E8.43580
G1 X92.063 Y91.720 E8.44042
G1 X89.865 Y89.521 E8.49891
G1 X89.693 Y89.693 E8.50349
G1 X91.869 Y91.869 E8.56138
G1 X91.714 Y92.057 E8.56598
G1 X89.539 Y89.883 E8.62384
G1 X89.389 Y90.076 E8.62845
G1 X91.564 Y92.252 E8.68636
G1 X91.415 Y92.446 E8.69097
G1 X89.238 Y90.269 E8.74892
G1 X89.087 Y90.461 E8.75352
G1 X91.266 Y92.640 E8.81151
G1 X91.117 Y92.835 E8.81612
G1 X88.937 Y90.654 E8.87415
G1 X88.786 Y90.847 E8.87876
G1 X90.968 Y93.029 E8.93683
G1 X90.819 Y93.224 E8.94144
G1 X88.635 Y91.040 E8.99954
G1 X88.485 Y91.233 E9.00415
G1 X90.669 Y93.418 E9.06230
G1 X90.520 Y93.612 E9.06691
G1 X88.334 Y91.426 E9.12510
G1 X88.183 Y91.619 E9.12971
G1 X90.371 Y93.807 E9.18793
G1 X90.222 Y94.001 E9.19254
G1 X88.033 Y91.812 E9.25081
G1 X87.882 Y92.005 E9.25542
G1 X90.073 Y94.196 E9.31373
G1 X89.953 Y94.420 E9.31851
G1 X87.731 Y92.197 E9.37765
G1 X87.581 Y92.390 E9.38226
G1 X89.853 Y94.663 E9.44273
G1 X89.752 Y94.906 E9.44768
G1 X87.430 Y92.583 E9.50949
G1 X87.325 Y92.822 E9.51439
G1 X89.652 Y95.149 E9.57631
G1 X89.551 Y95.391 E9.58126
G1 X87.223 Y93.063 E9.64322
G1 X87.120 Y93.304 E9.64815
G1 X89.450 Y95.634 E9.71016
G1 X89.350 Y95.877 E9.71511
G1 X87.018 Y93.546 E9.77716
G1 X86.916 Y93.787 E9.78209
G1 X89.249 Y96.120 E9.84419
G1 X89.148 Y96.363 E9.84914
G1 X86.813 Y94.028 E9.91129
G1 X86.711 Y94.269 E9.91622
G1 X89.048 Y96.606 E9.97841
G1 X88.947 Y96.849 E9.98336
G1 X86.609 Y94.510 E10.04560
G1 X86.506 Y94.752 E10.05053
G1 X88.858 Y97.104 E10.11313
G1 X88.818 Y97.407 E10.11889
G1 X86.404 Y94.993 E10.18315
G1 X86.302 Y95.234 E10.18808
G1 X88.778 Y97.711 E10.25400
G1 X88.738 Y98.015 E10.25976
G1 X86.199 Y95.475 E10.32734
G1 X86.097 Y95.716 E10.33227
G1 X88.698 Y98.318 E10.40151
G1 X88.659 Y98.622 E10.40728
G1 X85.994 Y95.958 E10.47818
G1 X85.917 Y96.223 E10.48339
G1 X88.619 Y98.925 E10.55530
G1 X88.579 Y99.229 E10.56106
G1 X85.874 Y96.525 E10.63303
G1 X85.832 Y96.826 E10.63876
G1 X88.539 Y99.532 E10.71079
G1 X88.499 Y99.836 E10.71655
G1 X85.790 Y97.127 E10.78865
G1 X85.747 Y97.428 E10.79437
G1 X88.494 Y100.175 E10.86748
G1 X88.546 Y100.571 E10.87499
G1 X85.705 Y97.730 E10.95061
G1 X85.663 Y98.031 E10.95633
G1 X88.598 Y100.967 E11.03446
G1 X88.651 Y101.362 E11.04197
G1 X85.620 Y98.332 E11.12262
G1 X85.578 Y98.633 E11.12834
G1 X88.703 Y101.758 E11.21150
G1 X88.755 Y102.154 E11.21901
G1 X85.536 Y98.935 E11.30468
G1 X85.493 Y99.236 E11.31040
G1 X88.807 Y102.549 E11.39858
G1 X88.859 Y102.945 E11.40609
G1 X85.451 Y99.537 E11.49678
G1 X85.409 Y99.838 E11.50251
G1 X89.076 Y103.505 E11.60009
G1 X89.318 Y104.091 F6000.000
G1 X85.446 Y100.219 E11.70314 F1200.000
G1 X85.494 Y100.611 E11.71057
G1 X89.561 Y104.678 E11.81881
G1 X89.804 Y105.264 F6000.000
G1 X85.543 Y101.003 E11.93223 F1200.000
G1 X85.591 Y101.394 E11.93965
G1 X90.164 Y105.968 E12.06137
G1 X91.297 Y107.445 F6000.000
G1 X85.639 Y101.786 E12.21197 F1200.000
G1 X85.687 Y102.178 E12.21939
G1 X97.816 Y114.307 E12.54220
G1 X98.216 Y114.363 E12.54980
G1 X92.555 Y108.702 E12.70046
G1 X94.032 Y109.835 F6000.000
G1 X98.616 Y114.419 E12.82246 F1200.000
G1 X99.015 Y114.476 E12.83005
G1 X94.735 Y110.195 E12.94397
G1 X95.322 Y110.438 F6000.000
G1 X99.415 Y114.532 E13.05291 F1200.000
G1 X99.815 Y114.588 E13.06050
G1 X95.908 Y110.681 E13.16447
G1 X96.495 Y110.924 F6000.000
G1 X100.135 Y114.564 E13.26135 F1200.000
G1 X100.441 Y114.527 E13.26715
G1 X97.055 Y111.141 E13.35726
G1 X97.450 Y111.193 E13.36477
G1 X100.747 Y114.489 E13.45249
G1 X101.053 Y114.451 E13.45829
G1 X97.846 Y111.245 E13.54363
G1 X98.242 Y111.297 E13.55114
G1 X101.358 Y114.414 E13.63408
G1 X101.664 Y114.376 E13.63989
G1 X98.637 Y111.349 E13.72045
G1 X99.033 Y111.401 E13.72796
G1 X101.970 Y114.339 E13.80613
G1 X102.276 Y114.301 E13.81193
G1 X99.429 Y111.453 E13.88772
G1 X99.824 Y111.505 E13.89523
G1 X102.582 Y114.263 E13.96863
G1 X102.888 Y114.226 E13.97443
G1 X100.164 Y111.501 E14.04695
G1 X100.467 Y111.461 E14.05271
G1 X103.194 Y114.188 E14.12529
G1 X103.500 Y114.151 E14.13109
G1 X100.771 Y111.421 E14.20373
G1 X101.074 Y111.381 E14.20949
G1 X103.776 Y114.083 E14.28140
G1 X104.021 Y113.984 E14.28637
G1 X101.378 Y111.341 E14.35670
G1 X101.681 Y111.301 E14.36247
G1 X104.265 Y113.885 E14.43123
G1 X104.510 Y113.786 E14.43620
G1 X101.985 Y111.261 E14.50340
G1 X102.289 Y111.221 E14.50916
G1 X104.755 Y113.687 E14.57480
G1 X104.999 Y113.588 E14.57976
G1 X102.592 Y111.181 E14.64383
G1 X102.896 Y111.141 E14.64959
G1 X105.244 Y113.490 E14.71209
G1 X105.489 Y113.391 E14.71705
G1 X103.151 Y111.052 E14.77929
G1 X103.393 Y110.952 E14.78423
G1 X105.734 Y113.292 E14.84651
G1 X105.978 Y113.193 E14.85148
G1 X103.636 Y110.851 E14.91380
G1 X103.879 Y110.751 E14.91875
G1 X106.223 Y113.094 E14.98112
G1 X106.468 Y112.995 E14.98608
G1 X104.122 Y110.650 E15.04850
