; generated by Slic3r 1.1.7 on 2014-12-04 at 08:56:05

; perimeters extrusion width = 0.42mm
; infill extrusion width = 0.74mm
; solid infill extrusion width = 0.71mm
; top infill extrusion width = 0.71mm

G21 ; set units to millimeters
M190 S60 ; wait for bed temperature to be reached
M104 S186 ; set temperature
G28 ; home all axes
M109 S186 ; wait for temperature to be reached
G90 ; use absolute coordinates
G92 E0
M82 ; use absolute distances for extrusion
M106 S127
G1 F1860.000 E-3.00000
G92 E0
G1 Z0.200 F6000.000
G1 X84.800 Y85.710 F6000.000
G1 E3.10000 F1860.000
G1 X86.557 Y84.204 E3.14280 F1200.000
G1 X88.719 Y83.381 E3.18561
G1 X90.000 Y83.258 E3.20942
G1 X110.000 Y83.258 E3.57942
G1 X112.279 Y83.655 E3.62222
G1 X114.290 Y84.800 E3.66503 F1200.000
G1 X115.796 Y86.557 E3.70783
G1 X116.619 Y88.719 E3.75064
G1 X116.742 Y90.000 E3.77444
G1 X116.742 Y110.000 E4.14445
G1 X116.345 Y112.279 E4.18725
G1 X115.200 Y114.290 E4.23006
G1 X113.443 Y115.796 E4.27286
G1 X111.281 Y116.619 E4.31567
G1 X110.000 Y116.742 E4.33947
G1 X90.000 Y116.742 E4.70948
G1 X87.721 Y116.345 E4.75228
G1 X85.710 Y115.200 E4.79509
G1 X84.204 Y113.443 E4.83789
G1 X83.381 Y111.281 E4.88070
G1 X83.258 Y110.000 E4.90450
G1 X83.258 Y90.000 E5.27451
G1 X83.655 Y87.721 E5.31731
G1 X84.769 Y85.764 E5.35895
G1 X85.023 Y85.840 F6000.000
G1 X85.045 Y85.802 E5.35975 F1200.000
G1 X86.793 Y84.353 E5.40176
G1 X90.000 Y83.506 E5.46313
G1 X110.000 Y83.506 E5.83314
G1 X112.236 Y83.902 E5.87514
G1 X114.198 Y85.045 E5.91715 F1200.000
G1 X115.647 Y86.793 E5.95915
G1 X116.494 Y90.000 E6.02053
G1 X116.494 Y110.000 E6.39053
G1 X116.098 Y112.236 E6.43254
G1 X114.955 Y114.198 E6.47454
G1 X113.207 Y115.647 E6.51655
G1 X110.000 Y116.494 E6.57792
G1 X90.000 Y116.494 E6.94792
G1 X87.764 Y116.098 E6.98993
G1 X85.802 Y114.955 E7.03194
G1 X84.353 Y113.207 E7.07394
G1 X83.506 Y110.000 E7.13531
G1 X83.506 Y90.000 E7.50532
G1 X83.902 Y87.764 E7.54732
G1 X84.991 Y85.894 E7.58736
G1 X85.245 Y85.972 F6000.000
G1 X85.290 Y85.896 E7.58898 F1200.000
G1 X87.028 Y84.505 E7.63018
G1 X90.000 Y83.753 E7.68690
G1 X110.000 Y83.753 E8.05690
G1 X112.191 Y84.150 E8.09809
G1 X114.104 Y85.290 E8.13928 F1200.000
G1 X115.495 Y87.028 E8.18048
G1 X116.247 Y90.000 E8.23720
G1 X116.247 Y110.000 E8.60720
G1 X115.850 Y112.191 E8.64839
G1 X114.710 Y114.104 E8.68958
G1 X112.972 Y115.495 E8.73078
G1 X110.000 Y116.247 E8.78750
G1 X90.000 Y116.247 E9.15750
G1 X87.809 Y115.850 E9.19869
G1 X85.896 Y114.710 E9.23988
G1 X84.505 Y112.972 E9.28108
G1 X83.753 Y110.000 E9.33780
G1 X83.753 Y90.000 E9.70780
G1 X84.150 Y87.809 E9.74899
G1 X85.212 Y86.026 E9.78740
G1 F1860.000 E6.78740
G92 E0
G1 X109.653 Y109.653 F6000.000
G1 E3.10000 F1860.000
G1 X90.347 Y109.653 E3.45716 F1200.000
G1 X90.347 Y90.347 E3.81431
G1 X109.653 Y90.347 E4.17147
G1 X109.653 Y109.590 E4.52746
G1 X109.900 Y109.900 F6000.000
G1 X90.100 Y109.900 E4.89377 F1200.000
G1 X90.100 Y90.100 E5.26007
G1 X109.900 Y90.100 E5.62638
G1 X109.900 Y109.837 E5.99152
G1 X109.536 Y109.690 F6000.000
G1 F1860.000 E2.99152
G92 E0
G1 X90.546 Y109.494 F6000.000
G1 E3.10000 F1860.000
G1 X90.506 Y109.454 E3.10105 F1200.000
G1 X90.506 Y109.103 E3.10754
G1 X90.897 Y109.494 E3.11776
G1 X91.248 Y109.494 E3.12426
G1 X90.506 Y108.752 E3.14366
G1 X90.506 Y108.401 E3.15015
G1 X91.599 Y109.494 E3.17874
G1 X91.950 Y109.494 E3.18523
G1 X90.506 Y108.050 E3.22300
G1 X90.506 Y107.699 E3.22949
G1 X92.301 Y109.494 E3.27644
G1 X92.652 Y109.494 E3.28293
G1 X90.506 Y107.348 E3.33905
G1 X90.506 Y106.997 E3.34554
G1 X93.003 Y109.494 E3.41085
G1 X93.353 Y109.494 E3.41734
G1 X90.506 Y106.647 E3.49183
G1 X90.506 Y106.296 E3.49832
G1 X93.704 Y109.494 E3.58199
G1 X94.055 Y109.494 E3.58848
G1 X90.506 Y105.945 E3.68132
G1 X90.506 Y105.594 E3.68781
G1 X94.406 Y109.494 E3.78984
G1 X94.757 Y109.494 E3.79633
G1 X90.506 Y105.243 E3.90754
G1 X90.506 Y104.892 E3.91403
G1 X95.108 Y109.494 E4.03442
G1 X95.459 Y109.494 E4.04091
G1 X90.506 Y104.541 E4.17047
G1 X90.506 Y104.190 E4.17697
G1 X95.810 Y109.494 E4.31571
G1 X96.160 Y109.494 E4.32220
G1 X90.506 Y103.840 E4.47013
G1 X90.506 Y103.489 E4.47662
G1 X96.511 Y109.494 E4.63373
G1 X96.862 Y109.494 E4.64022
G1 X90.506 Y103.138 E4.80650
G1 X90.506 Y102.787 E4.81300
G1 X97.213 Y109.494 E4.98846
G1 X97.564 Y109.494 E4.99495
G1 X90.506 Y102.436 E5.17960
G1 X90.506 Y102.085 E5.18609
G1 X97.915 Y109.494 E5.37992
G1 X98.266 Y109.494 E5.38641
G1 X90.506 Y101.734 E5.58941
G1 X90.506 Y101.383 E5.59591
G1 X98.617 Y109.494 E5.80809
G1 X98.967 Y109.494 E5.81458
G1 X90.506 Y101.033 E6.03595
G1 X90.506 Y100.682 E6.04244
G1 X99.318 Y109.494 E6.27299
G1 X99.669 Y109.494 E6.27948
G1 X90.506 Y100.331 E6.51920
G1 X90.506 Y99.980 E6.52570
G1 X100.020 Y109.494 E6.77460
G1 X100.371 Y109.494 E6.78109
G1 X90.506 Y99.629 E7.03918
G1 X90.506 Y99.278 E7.04567
G1 X100.722 Y109.494 E7.31294
G1 X101.073 Y109.494 E7.31943
G1 X90.506 Y98.927 E7.59587
G1 X90.506 Y98.577 E7.60237
G1 X101.423 Y109.494 E7.88799
G1 X101.774 Y109.494 E7.89448
G1 X90.506 Y98.226 E8.18929
G1 X90.506 Y97.875 E8.19578
G1 X102.125 Y109.494 E8.49977
G1 X102.476 Y109.494 E8.50626
G1 X90.506 Y97.524 E8.81942
G1 X90.506 Y97.173 E8.82591
G1 X102.827 Y109.494 E9.14826
G1 X103.178 Y109.494 E9.15475
G1 X90.506 Y96.822 E9.48628
G1 X90.506 Y96.471 E9.49277
G1 X103.529 Y109.494 E9.83348
G1 X103.880 Y109.494 E9.83997
G1 X90.506 Y96.120 E10.18985
G1 X90.506 Y95.770 E10.19634
G1 X104.230 Y109.494 E10.55541
G1 X104.581 Y109.494 E10.56190
G1 X90.506 Y95.419 E10.93015
G1 X90.506 Y95.068 E10.93664
G1 X104.932 Y109.494 E11.31406
G1 X105.283 Y109.494 E11.32056
G1 X90.506 Y94.717 E11.70716
G1 X90.506 Y94.366 E11.71365
G1 X105.634 Y109.494 E12.10944
G1 X105.985 Y109.494 E12.11593
G1 X90.506 Y94.015 E12.52090
G1 X90.506 Y93.664 E12.52739
G1 X106.336 Y109.494 E12.94153
G1 X106.687 Y109.494 E12.94802
G1 X90.506 Y93.313 E13.37135
G1 X90.506 Y92.963 E13.37784
G1 X107.037 Y109.494 E13.81035
G1 X107.388 Y109.494 E13.81684
G1 X90.506 Y92.612 E14.25853
G1 X90.506 Y92.261 E14.26502
G1 X107.739 Y109.494 E14.71588
G1 X108.090 Y109.494 E14.72237
G1 X90.506 Y91.910 E15.18242
G1 X90.506 Y91.559 E15.18891
G1 X108.441 Y109.494 E15.65814
G1 X108.792 Y109.494 E15.66463
G1 X90.506 Y91.208 E16.14303
G1 X90.506 Y90.857 E16.14952
G1 X109.143 Y109.494 E16.63711
G1 X109.474 Y109.474 E16.64324
G1 X90.526 Y90.526 E17.13896
G1 X90.857 Y90.506 E17.14509
G1 X109.494 Y109.143 E17.63268
G1 X109.494 Y108.792 E17.63917
G1 X91.208 Y90.506 E18.11758
G1 X91.559 Y90.506 E18.12407
G1 X109.494 Y108.441 E18.59330
G1 X109.494 Y108.090 E18.59979
G1 X91.910 Y90.506 E19.05983
G1 X92.261 Y90.506 E19.06632
G1 X109.494 Y107.739 E19.51719
G1 X109.494 Y107.388 E19.52368
G1 X92.612 Y90.506 E19.96537
G1 X92.963 Y90.506 E19.97186
G1 X109.494 Y107.037 E20.40436
G1 X109.494 Y106.687 E20.41086
G1 X93.313 Y90.506 E20.83418
G1 X93.664 Y90.506 E20.84067
G1 X109.494 Y106.336 E21.25482
G1 X109.494 Y105.985 E21.26131
G1 X94.015 Y90.506 E21.66628
G1 X94.366 Y90.506 E21.67277
G1 X109.494 Y105.634 E22.06855
G1 X109.494 Y105.283 E22.07504
G1 X94.717 Y90.506 E22.46165
G1 X95.068 Y90.506 E22.46814
G1 X109.494 Y104.932 E22.84557
G1 X109.494 Y104.581 E22.85206
G1 X95.419 Y90.506 E23.22030
G1 X95.770 Y90.506 E23.22680
G1 X109.494 Y104.230 E23.58586
G1 X109.494 Y103.880 E23.59235
G1 X96.120 Y90.506 E23.94224
G1 X96.471 Y90.506 E23.94873
G1 X109.494 Y103.529 E24.28944
G1 X109.494 Y103.178 E24.29593
G1 X96.822 Y90.506 E24.62745
G1 X97.173 Y90.506 E24.63395
G1 X109.494 Y102.827 E24.95629
G1 X109.494 Y102.476 E24.96278
G1 X97.524 Y90.506 E25.27595
G1 X97.875 Y90.506 E25.28244
G1 X109.494 Y102.125 E25.58643
G1 X109.494 Y101.774 E25.59292
G1 X98.226 Y90.506 E25.88772
G1 X98.577 Y90.506 E25.89421
G1 X109.494 Y101.423 E26.17984
G1 X109.494 Y101.073 E26.18633
G1 X98.927 Y90.506 E26.46278
G1 X99.278 Y90.506 E26.46927
G1 X109.494 Y100.722 E26.73654
G1 X109.494 Y100.371 E26.74303
G1 X99.629 Y90.506 E27.00111
G1 X99.980 Y90.506 E27.00760
G1 X109.494 Y100.020 E27.25651
G1 X109.494 Y99.669 E27.26300
G1 X100.331 Y90.506 E27.50273
G1 X100.682 Y90.506 E27.50922
G1 X109.494 Y99.318 E27.73977
G1 X109.494 Y98.967 E27.74626
G1 X101.033 Y90.506 E27.96762
G1 X101.383 Y90.506 E27.97411
G1 X109.494 Y98.617 E28.18630
G1 X109.494 Y98.266 E28.19279
G1 X101.734 Y90.506 E28.39580
G1 X102.085 Y90.506 E28.40229
G1 X109.494 Y97.915 E28.59612
G1 X109.494 Y97.564 E28.60261
G1 X102.436 Y90.506 E28.78725
G1 X102.787 Y90.506 E28.79374
G1 X109.494 Y97.213 E28.96921
G1 X109.494 Y96.862 E28.97570
G1 X103.138 Y90.506 E29.14199
G1 X103.489 Y90.506 E29.14848
G1 X109.494 Y96.511 E29.30559
G1 X109.494 Y96.160 E29.31208
G1 X103.840 Y90.506 E29.46000
G1 X104.190 Y90.506 E29.46649
G1 X109.494 Y95.810 E29.60524
G1 X109.494 Y95.459 E29.61173
G1 X104.541 Y90.506 E29.74130
G1 X104.892 Y90.506 E29.74779
G1 X109.494 Y95.108 E29.86818
G1 X109.494 Y94.757 E29.87467
G1 X105.243 Y90.506 E29.98587
G1 X105.594 Y90.506 E29.99237
G1 X109.494 Y94.406 E30.09439
G1 X109.494 Y94.055 E30.10088
G1 X105.945 Y90.506 E30.19373
G1 X106.296 Y90.506 E30.20022
G1 X109.494 Y93.704 E30.28389
G1 X109.494 Y93.353 E30.29038
G1 X106.647 Y90.506 E30.36486
G1 X106.997 Y90.506 E30.37136
G1 X109.494 Y93.003 E30.43666
G1 X109.494 Y92.652 E30.44315
G1 X107.348 Y90.506 E30.49928
G1 X107.699 Y90.506 E30.50577
G1 X109.494 Y92.301 E30.55272
G1 X109.494 Y91.950 E30.55921
G1 X108.050 Y90.506 E30.59698
G1 X108.401 Y90.506 E30.60347
G1 X109.494 Y91.599 E30.63205
G1 X109.494 Y91.248 E30.63854
G1 X108.752 Y90.506 E30.65795
G1 X109.103 Y90.506 E30.66444
G1 X109.494 Y90.897 E30.67467
G1 X109.494 Y90.546 E30.68116
G1 X109.454 Y90.506 E30.68221
M106 S245
M140 S50 ; set bed temperature
G1 F1860.000 E27.68221
G92 E0
G1 Z0.400 F6000.000
G1 X109.370 Y109.370 F6000.000
G1 E3.10000 F1860.000
G1 X90.630 Y109.370 E3.68901 F2400.000
G1 X90.630 Y90.630 E4.27803
G1 X109.370 Y90.630 E4.86704
G1 X109.370 Y109.307 E5.45407
G1 X109.790 Y109.790 F6000.000
G1 X90.210 Y109.790 E6.06949 F2400.000
G1 X90.210 Y90.210 E6.68491
G1 X109.790 Y90.210 E7.30032
G1 X109.790 Y109.727 E7.91376
G1 X109.426 Y109.580 F6000.000
G1 X109.024 Y108.984 F6000.000
G1 X108.984 Y109.024 E7.91660 F2100.000
G1 X108.011 Y109.024 E7.96548
G1 X109.024 Y108.011 E8.03746
G1 X109.024 Y107.037 E8.08635
G1 X107.037 Y109.024 E8.22746
G1 X106.064 Y109.024 E8.27634
G1 X109.024 Y106.064 E8.48659
G1 X109.024 Y105.090 E8.53547
G1 X105.090 Y109.024 E8.81485
G1 X104.117 Y109.024 E8.86374
G1 X109.024 Y104.117 E9.21225
G1 X109.024 Y103.144 E9.26114
G1 X103.144 Y109.024 E9.67879
G1 X102.170 Y109.024 E9.72768
G1 X109.024 Y102.170 E10.21446
G1 X109.024 Y101.197 E10.26335
G1 X101.197 Y109.024 E10.81927
G1 X100.223 Y109.024 E10.86815
G1 X109.024 Y100.223 E11.49321
G1 X109.024 Y99.250 E11.54209
G1 X99.250 Y109.024 E12.23628
G1 X98.277 Y109.024 E12.28517
G1 X109.024 Y98.277 E13.04849
G1 X109.024 Y97.303 E13.09738
G1 X97.303 Y109.024 E13.92984
G1 X96.330 Y109.024 E13.97872
G1 X109.024 Y96.330 E14.88032
G1 X109.024 Y95.356 E14.92920
G1 X95.356 Y109.024 E15.89993
G1 X94.383 Y109.024 E15.94882
G1 X109.024 Y94.383 E16.98868
G1 X109.024 Y93.409 E17.03757
G1 X93.409 Y109.024 E18.14657
G1 X92.436 Y109.024 E18.19545
G1 X109.024 Y92.436 E19.37358
G1 X109.024 Y91.463 E19.42247
G1 X91.463 Y109.024 E20.66974
G1 X90.976 Y108.537 E20.70431
G1 X108.537 Y90.976 E21.95157
G1 X107.564 Y90.976 E22.00046
G1 X90.976 Y107.564 E23.17859
G1 X90.976 Y106.591 E23.22748
G1 X106.591 Y90.976 E24.33648
G1 X105.617 Y90.976 E24.38536
G1 X90.976 Y105.617 E25.42523
G1 X90.976 Y104.644 E25.47411
G1 X104.644 Y90.976 E26.44484
G1 X103.670 Y90.976 E26.49373
G1 X90.976 Y103.670 E27.39532
G1 X90.976 Y102.697 E27.44421
G1 X102.697 Y90.976 E28.27667
G1 X101.723 Y90.976 E28.32555
G1 X90.976 Y101.723 E29.08888
G1 X90.976 Y100.750 E29.13776
G1 X100.750 Y90.976 E29.83195
G1 X99.777 Y90.976 E29.88084
G1 X90.976 Y99.777 E30.50589
G1 X90.976 Y98.803 E30.55478
G1 X98.803 Y90.976 E31.11070
G1 X97.830 Y90.976 E31.15958
G1 X90.976 Y97.830 E31.64637
G1 X90.976 Y96.856 E31.69525
G1 X96.856 Y90.976 E32.11290
G1 X95.883 Y90.976 E32.16179
G1 X90.976 Y95.883 E32.51030
G1 X90.976 Y94.910 E32.55919
G1 X94.910 Y90.976 E32.83857
G1 X93.936 Y90.976 E32.88745
G1 X90.976 Y93.936 E33.09770
G1 X90.976 Y92.963 E33.14659
G1 X92.963 Y90.976 E33.28770
G1 X91.989 Y90.976 E33.33658
G1 X90.976 Y91.989 E33.40856
G1 X90.976 Y91.016 E33.45744
G1 X91.016 Y90.976 E33.46028
M106 S245
G1 F1860.000 E30.46028
G92 E0
G1 Z0.600 F6000.000
G1 X109.370 Y109.370 F6000.000
G1 E3.10000 F1860.000
G1 X90.630 Y109.370 E3.68901 F2400.000
G1 X90.630 Y90.630 E4.27803
G1 X109.370 Y90.630 E4.86704
G1 X109.370 Y109.307 E5.45407
G1 X109.790 Y109.790 F6000.000
G1 X90.210 Y109.790 E6.06949 F2400.000
G1 X90.210 Y90.210 E6.68491
G1 X109.790 Y90.210 E7.30032
G1 X109.790 Y109.727 E7.91376
G1 X109.426 Y109.580 F6000.000
G1 F1860.000 E4.91376
G92 E0
G1 X90.976 Y108.984 F6000.000
G1 E3.10000 F1860.000
G1 X91.016 Y109.024 E3.10284 F2100.000
G1 X91.989 Y109.024 E3.15173
G1 X90.976 Y108.011 E3.22370
G1 X90.976 Y107.037 E3.27259
G1 X92.963 Y109.024 E3.41370
G1 X93.936 Y109.024 E3.46258
G1 X90.976 Y106.064 E3.67283
G1 X90.976 Y105.090 E3.72172
G1 X94.910 Y109.024 E4.00110
G1 X95.883 Y109.024 E4.04998
G1 X90.976 Y104.117 E4.39850
G1 X90.976 Y103.144 E4.44738
G1 X96.856 Y109.024 E4.86503
G1 X97.830 Y109.024 E4.91392
G1 X90.976 Y102.170 E5.40070
G1 X90.976 Y101.197 E5.44959
G1 X98.803 Y109.024 E6.00551
G1 X99.777 Y109.024 E6.05439
G1 X90.976 Y100.223 E6.67945
G1 X90.976 Y99.250 E6.72833
G1 X100.750 Y109.024 E7.42252
G1 X101.723 Y109.024 E7.47141
G1 X90.976 Y98.277 E8.23473
G1 X90.976 Y97.303 E8.28362
G1 X102.697 Y109.024 E9.11608
G1 X103.670 Y109.024 E9.16496
G1 X90.976 Y96.330 E10.06656
G1 X90.976 Y95.356 E10.11544
G1 X104.644 Y109.024 E11.08617
G1 X105.617 Y109.024 E11.13506
G1 X90.976 Y94.383 E12.17492
G1 X90.976 Y93.409 E12.22381
G1 X106.591 Y109.024 E13.33281
G1 X107.564 Y109.024 E13.38169
G1 X90.976 Y92.436 E14.55982
G1 X90.976 Y91.463 E14.60871
G1 X108.537 Y109.024 E15.85598
G1 X109.024 Y108.537 E15.89055
G1 X91.463 Y90.976 E17.13781
G1 X92.436 Y90.976 E17.18670
G1 X109.024 Y107.564 E18.36483
G1 X109.024 Y106.591 E18.41372
G1 X93.409 Y90.976 E19.52272
G1 X94.383 Y90.976 E19.57160
G1 X109.024 Y105.617 E20.61147
G1 X109.024 Y104.644 E20.66035
G1 X95.356 Y90.976 E21.63108
G1 X96.330 Y90.976 E21.67997
G1 X109.024 Y103.670 E22.58156
G1 X109.024 Y102.697 E22.63045
G1 X97.303 Y90.976 E23.46291
G1 X98.277 Y90.976 E23.51179
G1 X109.024 Y101.723 E24.27512
G1 X109.024 Y100.750 E24.32400
G1 X99.250 Y90.976 E25.01819
G1 X100.223 Y90.976 E25.06708
G1 X109.024 Y99.777 E25.69213
G1 X109.024 Y98.803 E25.74102
G1 X101.197 Y90.976 E26.29694
G1 X102.170 Y90.976 E26.34582
G1 X109.024 Y97.830 E26.83261
G1 X109.024 Y96.856 E26.88149
G1 X103.144 Y90.976 E27.29914
G1 X104.117 Y90.976 E27.34803
G1 X109.024 Y95.883 E27.69654
G1 X109.024 Y94.910 E27.74543
G1 X105.090 Y90.976 E28.02481
G1 X106.064 Y90.976 E28.07370
G1 X109.024 Y93.936 E28.28394
G1 X109.024 Y92.963 E28.33283
G1 X107.037 Y90.976 E28.47394
G1 X108.011 Y90.976 E28.52282
G1 X109.024 Y91.989 E28.59480
G1 X109.024 Y91.016 E28.64369
G1 X108.984 Y90.976 E28.64653
M106 S255
G1 F1860.000 E25.64653
G92 E0
G1 Z0.800 F6000.000
G1 X109.370 Y109.370 F6000.000
G1 E3.10000 F1860.000
G1 X90.630 Y109.370 E3.68901 F924.953
G1 X90.630 Y90.630 E4.27803
G1 X109.370 Y90.630 E4.86704
G1 X109.370 Y109.307 E5.45407
G1 X109.790 Y109.790 F6000.000
G1 X90.210 Y109.790 E6.06949 F924.953
G1 X90.210 Y90.210 E6.68491
G1 X109.790 Y90.210 E7.30032
G1 X109.790 Y109.727 E7.91376
G1 X109.426 Y109.580 F6000.000
G1 F1860.000 E4.91376
G92 E0
G1 X109.024 Y103.736 F6000.000
G1 E3.10000 F1860.000
G1 X103.736 Y109.024 E3.48769 F1156.192
G1 X97.205 Y109.024 E3.82626
G1 X109.024 Y97.205 E4.69277
G1 X108.722 Y90.976 E5.01606
G1 X90.976 Y108.722 E6.31709
G1 X90.976 Y102.191 E6.65566
G1 X102.191 Y90.976 E7.47788
G1 X95.660 Y90.976 E7.81645
G1 X90.976 Y95.660 E8.15986
G1 F1860.000 E5.15986
G92 E0
G1 Z1.000 F6000.000
G1 X109.370 Y109.370 F6000.000
G1 E3.10000 F1860.000
G1 X90.630 Y109.370 E3.68901 F935.874
G1 X90.630 Y90.630 E4.27803
G1 X109.370 Y90.630 E4.86704
