; generated by Slic3r 1.1.7 on 2014-12-04 at 08:19:20

; perimeters extrusion width = 0.45mm
; infill extrusion width = 0.47mm
; solid infill extrusion width = 0.47mm
; top infill extrusion width = 0.47mm

G21 ; set units to millimeters
M190 S60 ; wait for bed temperature to be reached
M104 S190 ; set temperature
G28 ; home all axes
M109 S190 ; wait for temperature to be reached
G90 ; use absolute coordinates
G92 E0
M82 ; use absolute distances for extrusion
M106 S157
G1 F1860.000 E-4.00000
G1 Z0.700 F7800.000
G92 E0
G1 X84.816 Y85.716 F7800.000
G1 Z0.400 F7800.000
G1 E4.00000 F1860.000
G1 X86.573 Y84.214 E4.27857 F1080.000
G1 X88.734 Y83.395 E4.55714
G1 X90.000 Y83.275 E4.71049
G1 X110.000 Y83.275 E7.12149
G1 X112.276 Y83.672 E7.40005
G1 X114.284 Y84.816 E7.67862 F1080.000
G1 X115.786 Y86.573 E7.95719
G1 X116.605 Y88.734 E8.23576
G1 X116.725 Y90.000 E8.38912
G1 X116.725 Y110.000 E10.80011
G1 X116.328 Y112.276 E11.07868
G1 X115.184 Y114.284 E11.35725
G1 X113.427 Y115.786 E11.63582
G1 X111.266 Y116.605 E11.91439
G1 X110.000 Y116.725 E12.06774
G1 X90.000 Y116.725 E14.47873
G1 X87.724 Y116.328 E14.75730
G1 X85.716 Y115.184 E15.03587
G1 X84.214 Y113.427 E15.31444
G1 X83.395 Y111.266 E15.59301
G1 X83.275 Y110.000 E15.74636
G1 X83.275 Y90.000 E18.15736
G1 X83.672 Y87.724 E18.43593
G1 X84.783 Y85.775 E18.70636
G1 F1860.000 E14.70636
G1 Z0.700 F7800.000
G92 E0
G1 X108.150 Y108.150 F7800.000
G1 Z0.400 F7800.000
G1 E4.00000 F1860.000
G1 X91.850 Y108.150 E5.96501 F540.000
G1 X91.850 Y91.850 E7.93002
G1 X108.150 Y91.850 E9.89503
G1 X108.150 Y108.083 E11.85191
G1 X108.875 Y108.875 F7800.000
G1 X91.125 Y108.875 E13.99169 F540.000
G1 X91.125 Y91.125 E16.13147
G1 X108.875 Y91.125 E18.27125
G1 X108.875 Y108.808 E20.40290
G1 X109.600 Y109.600 F7800.000
G1 X90.400 Y109.600 E22.71745 F540.000
G1 X90.400 Y90.400 E25.03200
G1 X109.600 Y90.400 E27.34656
G1 X109.600 Y109.532 E29.65297
G1 X109.210 Y109.375 F7800.000
G1 F1860.000 E25.65297
G1 Z0.700 F7800.000
G92 E0
G1 X92.355 Y107.605 F7800.000
G1 Z0.400 F7800.000
G1 E4.00000 F1860.000
G1 X92.395 Y107.645 E4.00682 F1080.000
G1 X93.447 Y107.645 E4.13360
G1 X92.355 Y106.553 E4.31971
G1 X92.355 Y105.501 E4.44649
G1 X94.499 Y107.645 E4.81190
G1 X95.550 Y107.645 E4.93868
G1 X92.355 Y104.450 E5.48338
G1 X92.355 Y103.398 E5.61016
G1 X96.602 Y107.645 E6.33415
G1 X97.654 Y107.645 E6.46093
G1 X92.355 Y102.346 E7.36422
G1 X92.355 Y101.295 E7.49100
G1 X98.705 Y107.645 E8.57358
G1 X99.757 Y107.645 E8.70036
G1 X92.355 Y100.243 E9.96224
G1 X92.355 Y99.191 E10.08902
G1 X100.809 Y107.645 E11.53019
G1 X101.860 Y107.645 E11.65697
G1 X92.355 Y98.140 E13.27743
G1 X92.355 Y97.088 E13.40421
G1 X102.912 Y107.645 E15.20397
G1 X103.964 Y107.645 E15.33075
G1 X92.355 Y96.036 E17.30980
G1 X92.355 Y94.985 E17.43658
G1 X105.015 Y107.645 E19.59492
G1 X106.067 Y107.645 E19.72170
G1 X92.355 Y93.933 E22.05934
G1 X92.355 Y92.881 E22.18612
G1 X107.119 Y107.645 E24.70305
G1 X107.645 Y107.119 E24.79270
G1 X92.881 Y92.355 E27.30963
G1 X93.933 Y92.355 E27.43641
G1 X107.645 Y106.067 E29.77405
G1 X107.645 Y105.015 E29.90083
G1 X94.985 Y92.355 E32.05918
G1 X96.036 Y92.355 E32.18596
G1 X107.645 Y103.964 E34.16501
G1 X107.645 Y102.912 E34.29179
G1 X97.088 Y92.355 E36.09154
G1 X98.140 Y92.355 E36.21832
G1 X107.645 Y101.860 E37.83879
G1 X107.645 Y100.809 E37.96557
G1 X99.191 Y92.355 E39.40674
G1 X100.243 Y92.355 E39.53352
G1 X107.645 Y99.757 E40.79539
G1 X107.645 Y98.705 E40.92217
G1 X101.295 Y92.355 E42.00476
G1 X102.346 Y92.355 E42.13154
G1 X107.645 Y97.654 E43.03482
G1 X107.645 Y96.602 E43.16160
G1 X103.398 Y92.355 E43.88560
G1 X104.450 Y92.355 E44.01238
G1 X107.645 Y95.550 E44.55708
G1 X107.645 Y94.499 E44.68386
G1 X105.501 Y92.355 E45.04927
G1 X106.553 Y92.355 E45.17605
G1 X107.645 Y93.447 E45.36216
G1 X107.645 Y92.395 E45.48894
G1 X107.605 Y92.355 E45.49576
M106 S245
M104 S186 ; set temperature
M140 S50 ; set bed temperature
G1 F1860.000 E41.49576
G1 Z1.100 F7800.000
G92 E0
G1 X108.875 Y108.875 F7800.000
G1 Z0.800 F7800.000
G1 E4.00000 F1860.000
G1 X91.125 Y108.875 E5.32833 F1800.000
G1 X91.125 Y91.125 E6.65665
G1 X108.875 Y91.125 E7.98498
G1 X108.875 Y108.808 E9.30826
G1 X109.325 Y109.325 F7800.000
G1 X90.675 Y109.325 E10.70393 F1800.000
G1 X90.675 Y90.675 E12.09961
G1 X109.325 Y90.675 E13.49529
G1 X109.325 Y109.258 E14.88592
G1 X109.775 Y109.775 F7800.000
G1 X90.225 Y109.775 E16.34895 F1800.000
G1 X90.225 Y90.225 E17.81198
G1 X109.775 Y90.225 E19.27501
G1 X109.775 Y109.708 E20.73299
G1 X109.385 Y109.550 F7800.000
G1 X108.565 Y108.525 F7800.000
G1 X108.525 Y108.565 E20.73739 F3600.000
G1 X107.855 Y108.565 E20.78951
G1 X108.565 Y107.855 E20.86762
G1 X108.565 Y107.184 E20.91975
G1 X107.184 Y108.565 E21.07157
G1 X106.514 Y108.565 E21.12369
G1 X108.565 Y106.514 E21.34923
G1 X108.565 Y105.844 E21.40135
G1 X105.844 Y108.565 E21.70060
G1 X105.174 Y108.565 E21.75273
G1 X108.565 Y105.174 E22.12569
G1 X108.565 Y104.504 E22.17781
G1 X104.504 Y108.565 E22.62448
G1 X103.834 Y108.565 E22.67661
G1 X108.565 Y103.834 E23.19699
G1 X108.565 Y103.163 E23.24912
G1 X103.163 Y108.565 E23.84322
G1 X102.493 Y108.565 E23.89534
G1 X108.565 Y102.493 E24.56315
G1 X108.565 Y101.823 E24.61528
G1 X101.823 Y108.565 E25.35680
G1 X101.153 Y108.565 E25.40892
G1 X108.565 Y101.153 E26.22416
G1 X108.565 Y100.483 E26.27628
G1 X100.483 Y108.565 E27.16523
G1 X99.812 Y108.565 E27.21736
G1 X108.565 Y99.812 E28.18002
G1 X108.565 Y99.142 E28.23214
G1 X99.142 Y108.565 E29.26852
G1 X98.472 Y108.565 E29.32064
G1 X108.565 Y98.472 E30.43073
G1 X108.565 Y97.802 E30.48285
G1 X97.802 Y108.565 E31.66665
G1 X97.132 Y108.565 E31.71877
G1 X108.565 Y97.132 E32.97629
G1 X108.565 Y96.462 E33.02841
G1 X96.462 Y108.565 E34.35963
G1 X95.791 Y108.565 E34.41176
G1 X108.565 Y95.791 E35.81669
G1 X108.565 Y95.121 E35.86882
G1 X95.121 Y108.565 E37.34747
G1 X94.451 Y108.565 E37.39959
G1 X108.565 Y94.451 E38.95195
G1 X108.565 Y93.781 E39.00408
G1 X93.781 Y108.565 E40.63015
G1 X93.111 Y108.565 E40.68227
G1 X108.565 Y93.111 E42.38206
G1 X108.565 Y92.440 E42.43418
G1 X92.440 Y108.565 E44.20769
G1 X91.770 Y108.565 E44.25981
G1 X108.565 Y91.770 E46.10702
G1 X108.230 Y91.435 E46.14388
G1 X91.435 Y108.230 E47.99109
G1 X91.435 Y107.560 E48.04321
G1 X107.560 Y91.435 E49.81671
G1 X106.889 Y91.435 E49.86884
G1 X91.435 Y106.889 E51.56863
G1 X91.435 Y106.219 E51.62075
G1 X106.219 Y91.435 E53.24682
G1 X105.549 Y91.435 E53.29895
G1 X91.435 Y105.549 E54.85131
G1 X91.435 Y104.879 E54.90343
G1 X104.879 Y91.435 E56.38208
G1 X104.209 Y91.435 E56.43420
G1 X91.435 Y104.209 E57.83914
G1 X91.435 Y103.538 E57.89127
G1 X103.538 Y91.435 E59.22249
G1 X102.868 Y91.435 E59.27461
G1 X91.435 Y102.868 E60.53213
G1 X91.435 Y102.198 E60.58425
G1 X102.198 Y91.435 E61.76805
G1 X101.528 Y91.435 E61.82017
G1 X91.435 Y101.528 E62.93026
G1 X91.435 Y100.858 E62.98238
G1 X100.858 Y91.435 E64.01876
G1 X100.188 Y91.435 E64.07088
G1 X91.435 Y100.188 E65.03354
G1 X91.435 Y99.517 E65.08567
G1 X99.517 Y91.435 E65.97462
G1 X98.847 Y91.435 E66.02674
G1 X91.435 Y98.847 E66.84198
G1 X91.435 Y98.177 E66.89410
G1 X98.177 Y91.435 E67.63562
G1 X97.507 Y91.435 E67.68775
G1 X91.435 Y97.507 E68.35556
G1 X91.435 Y96.837 E68.40768
G1 X96.837 Y91.435 E69.00178
G1 X96.166 Y91.435 E69.05390
G1 X91.435 Y96.166 E69.57429
G1 X91.435 Y95.496 E69.62641
G1 X95.496 Y91.435 E70.07309
G1 X94.826 Y91.435 E70.12521
G1 X91.435 Y94.826 E70.49817
G1 X91.435 Y94.156 E70.55030
G1 X94.156 Y91.435 E70.84955
G1 X93.486 Y91.435 E70.90167
G1 X91.435 Y93.486 E71.12721
G1 X91.435 Y92.816 E71.17933
G1 X92.816 Y91.435 E71.33115
G1 X92.145 Y91.435 E71.38328
G1 X91.435 Y92.145 E71.46139
G1 X91.435 Y91.475 E71.51351
G1 X91.475 Y91.435 E71.51791
M106 S245
G1 F1860.000 E67.51791
G1 Z1.500 F7800.000
G92 E0
G1 X108.875 Y108.875 F7800.000
G1 Z1.200 F7800.000
G1 E4.00000 F1860.000
G1 X91.125 Y108.875 E5.32833 F1800.000
G1 X91.125 Y91.125 E6.65665
G1 X108.875 Y91.125 E7.98498
G1 X108.875 Y108.808 E9.30826
G1 X109.325 Y109.325 F7800.000
G1 X90.675 Y109.325 E10.70393 F1800.000
G1 X90.675 Y90.675 E12.09961
G1 X109.325 Y90.675 E13.49529
G1 X109.325 Y109.258 E14.88592
G1 X109.775 Y109.775 F7800.000
G1 X90.225 Y109.775 E16.34895 F1800.000
G1 X90.225 Y90.225 E17.81198
G1 X109.775 Y90.225 E19.27501
G1 X109.775 Y109.708 E20.73299
G1 X109.385 Y109.550 F7800.000
G1 F1860.000 E16.73299
G1 Z1.500 F7800.000
G92 E0
G1 X91.435 Y108.525 F7800.000
G1 Z1.200 F7800.000
G1 E4.00000 F1860.000
G1 X91.475 Y108.565 E4.00440 F3600.000
G1 X92.145 Y108.565 E4.05652
G1 X91.435 Y107.855 E4.13463
G1 X91.435 Y107.184 E4.18676
G1 X92.816 Y108.565 E4.33858
G1 X93.486 Y108.565 E4.39070
G1 X91.435 Y106.514 E4.61624
G1 X91.435 Y105.844 E4.66836
G1 X94.156 Y108.565 E4.96761
G1 X94.826 Y108.565 E5.01974
G1 X91.435 Y105.174 E5.39270
G1 X91.435 Y104.504 E5.44482
G1 X95.496 Y108.565 E5.89150
G1 X96.166 Y108.565 E5.94362
G1 X91.435 Y103.834 E6.46401
G1 X91.435 Y103.163 E6.51613
G1 X96.837 Y108.565 E7.11023
G1 X97.507 Y108.565 E7.16235
G1 X91.435 Y102.493 E7.83016
G1 X91.435 Y101.823 E7.88229
G1 X98.177 Y108.565 E8.62381
G1 X98.847 Y108.565 E8.67593
G1 X91.435 Y101.153 E9.49117
G1 X91.435 Y100.483 E9.54329
G1 X99.517 Y108.565 E10.43224
G1 X100.188 Y108.565 E10.48437
G1 X91.435 Y99.812 E11.44703
G1 X91.435 Y99.142 E11.49915
G1 X100.858 Y108.565 E12.53553
G1 X101.528 Y108.565 E12.58765
G1 X91.435 Y98.472 E13.69774
G1 X91.435 Y97.802 E13.74986
G1 X102.198 Y108.565 E14.93366
G1 X102.868 Y108.565 E14.98578
G1 X91.435 Y97.132 E16.24330
G1 X91.435 Y96.462 E16.29542
G1 X103.538 Y108.565 E17.62664
G1 X104.209 Y108.565 E17.67877
G1 X91.435 Y95.791 E19.08371
G1 X91.435 Y95.121 E19.13583
G1 X104.879 Y108.565 E20.61448
G1 X105.549 Y108.565 E20.66660
G1 X91.435 Y94.451 E22.21896
G1 X91.435 Y93.781 E22.27109
G1 X106.219 Y108.565 E23.89716
G1 X106.889 Y108.565 E23.94928
G1 X91.435 Y93.111 E25.64907
G1 X91.435 Y92.440 E25.70120
G1 X107.560 Y108.565 E27.47470
G1 X108.230 Y108.565 E27.52682
G1 X91.435 Y91.770 E29.37403
G1 X91.770 Y91.435 E29.41089
G1 X108.565 Y108.230 E31.25810
G1 X108.565 Y107.560 E31.31022
G1 X92.440 Y91.435 E33.08372
G1 X93.111 Y91.435 E33.13585
G1 X108.565 Y106.889 E34.83564
G1 X108.565 Y106.219 E34.88776
G1 X93.781 Y91.435 E36.51383
G1 X94.451 Y91.435 E36.56596
G1 X108.565 Y105.549 E38.11832
G1 X108.565 Y104.879 E38.17044
G1 X95.121 Y91.435 E39.64909
G1 X95.791 Y91.435 E39.70122
G1 X108.565 Y104.209 E41.10615
G1 X108.565 Y103.538 E41.15828
G1 X96.462 Y91.435 E42.48950
G1 X97.132 Y91.435 E42.54162
G1 X108.565 Y102.868 E43.79914
G1 X108.565 Y102.198 E43.85126
G1 X97.802 Y91.435 E45.03506
G1 X98.472 Y91.435 E45.08718
G1 X108.565 Y101.528 E46.19727
G1 X108.565 Y100.858 E46.24939
G1 X99.142 Y91.435 E47.28577
G1 X99.812 Y91.435 E47.33789
G1 X108.565 Y100.188 E48.30055
G1 X108.565 Y99.517 E48.35268
G1 X100.483 Y91.435 E49.24163
G1 X101.153 Y91.435 E49.29375
G1 X108.565 Y98.847 E50.10899
G1 X108.565 Y98.177 E50.16111
G1 X101.823 Y91.435 E50.90263
G1 X102.493 Y91.435 E50.95476
G1 X108.565 Y97.507 E51.62257
G1 X108.565 Y96.837 E51.67469
G1 X103.163 Y91.435 E52.26879
G1 X103.834 Y91.435 E52.32091
G1 X108.565 Y96.166 E52.84130
G1 X108.565 Y95.496 E52.89342
G1 X104.504 Y91.435 E53.34010
G1 X105.174 Y91.435 E53.39222
G1 X108.565 Y94.826 E53.76518
G1 X108.565 Y94.156 E53.81731
G1 X105.844 Y91.435 E54.11656
G1 X106.514 Y91.435 E54.16868
G1 X108.565 Y93.486 E54.39422
G1 X108.565 Y92.816 E54.44634
G1 X107.184 Y91.435 E54.59816
G1 X107.855 Y91.435 E54.65029
G1 X108.565 Y92.145 E54.72840
G1 X108.565 Y91.475 E54.78052
G1 X108.525 Y91.435 E54.78492
M106 S255
G1 F1860.000 E50.78492
G1 Z1.900 F7800.000
G92 E0
G1 X108.875 Y108.875 F7800.000
G1 Z1.600 F7800.000
G1 E4.00000 F1860.000
G1 X91.125 Y108.875 E5.32833 F1078.996
G1 X91.125 Y91.125 E6.65665
G1 X108.875 Y91.125 E7.98498
G1 X108.875 Y108.808 E9.30826
G1 X109.325 Y109.325 F7800.000
G1 X90.675 Y109.325 E10.70393 F1078.996
G1 X90.675 Y90.675 E12.09961
G1 X109.325 Y90.675 E13.49529
G1 X109.325 Y109.258 E14.88592
G1 X109.775 Y109.775 F7800.000
G1 X90.225 Y109.775 E16.34895 F1078.996
G1 X90.225 Y90.225 E17.81198
G1 X109.775 Y90.225 E19.27501
G1 X109.775 Y109.708 E20.73299
G1 X109.385 Y109.550 F7800.000
G1 X108.565 Y108.076 F7800.000
G1 X108.076 Y108.565 E20.78678 F2157.992
G1 X101.462 Y108.565 E21.30116
G1 X108.565 Y101.462 E22.08241
G1 X108.565 Y94.848 E22.59679
G1 X94.848 Y108.565 E24.10549
G1 X91.435 Y105.364 E24.46940
G1 X105.364 Y91.435 E26.00139
G1 X98.750 Y91.435 E26.51578
G1 X91.435 Y98.750 E27.32031
G1 X91.435 Y92.136 E27.83469
G1 X92.136 Y91.435 E27.91177
G1 F1860.000 E23.91177
G1 Z2.300 F7800.000
G92 E0
G1 X108.875 Y108.875 F7800.000
G1 Z2.000 F7800.000
G1 E4.00000 F1860.000
G1 X91.125 Y108.875 E5.32833 F1069.154
G1 X91.125 Y91.125 E6.65665
G1 X108.875 Y91.125 E7.98498
G1 X108.875 Y108.808 E9.30826
G1 X109.325 Y109.325 F7800.000
G1 X90.675 Y109.325 E10.70393 F1069.154
G1 X90.675 Y90.675 E12.09961
G1 X109.325 Y90.675 E13.49529
G1 X109.325 Y109.258 E14.88592
G1 X109.775 Y109.775 F7800.000
G1 X90.225 Y109.775 E16.34895 F1069.154
G1 X90.225 Y90.225 E17.81198
G1 X109.775 Y90.225 E19.27501
G1 X109.775 Y109.708 E20.73299
G1 X109.385 Y109.550 F7800.000
G1 F1860.000 E16.73299
G1 Z2.300 F7800.000
G92 E0
G1 X97.166 Y108.565 F7800.000
G1 Z2.000 F7800.000
G1 E4.00000 F1860.000
G1 X91.435 Y102.834 E4.63031 F2138.307
G1 X91.435 Y96.220 E5.14470
G1 X103.780 Y108.565 E6.50246
G1 X108.565 Y106.736 E6.90087
G1 X93.264 Y91.435 E8.58378
G1 X99.878 Y91.435 E9.09817
G1 X108.565 Y100.122 E10.05364
G1 X108.565 Y93.508 E10.56802
G1 X106.492 Y91.435 E10.79604
G1 F1860.000 E6.79604
G1 Z2.700 F7800.000
G92 E0
G1 X108.875 Y108.875 F7800.000
G1 Z2.400 F7800.000
G1 E4.00000 F1860.000
G1 X91.125 Y108.875 E5.32833 F1078.996
G1 X91.125 Y91.125 E6.65665
G1 X108.875 Y91.125 E7.98498
G1 X108.875 Y108.808 E9.30826
G1 X109.325 Y109.325 F7800.000
G1 X90.675 Y109.325 E10.70393 F1078.996
G1 X90.675 Y90.675 E12.09961
G1 X109.325 Y90.675 E13.49529
G1 X109.325 Y109.258 E14.88592
G1 X109.775 Y109.775 F7800.000
G1 X90.225 Y109.775 E16.34895 F1078.996
G1 X90.225 Y90.225 E17.81198
G1 X109.775 Y90.225 E19.27501
G1 X109.775 Y109.708 E20.73299
G1 X109.385 Y109.550 F7800.000
G1 X108.565 Y108.076 F7800.000
G1 X108.076 Y108.565 E20.78678 F2157.992
G1 X101.462 Y108.565 E21.30116
G1 X108.565 Y101.462 E22.08241
G1 X108.565 Y94.848 E22.59679
G1 X94.848 Y108.565 E24.10549
G1 X91.435 Y105.364 E24.46940
G1 X105.364 Y91.435 E26.00139
G1 X98.750 Y91.435 E26.51578
G1 X91.435 Y98.750 E27.32031
G1 X91.435 Y92.136 E27.83469
G1 X92.136 Y91.435 E27.91177
G1 F1860.000 E23.91177
G1 Z3.100 F7800.000
G92 E0
G1 X108.875 Y108.875 F7800.000
G1 Z2.800 F7800.000
G1 E4.00000 F1860.000
G1 X91.125 Y108.875 E5.32833 F1069.154
G1 X91.125 Y91.125 E6.65665
G1 X108.875 Y91.125 E7.98498
G1 X108.875 Y108.808 E9.30826
G1 X109.325 Y109.325 F7800.000
G1 X90.675 Y109.325 E10.70393 F1069.154
G1 X90.675 Y90.675 E12.09961
G1 X109.325 Y90.675 E13.49529
G1 X109.325 Y109.258 E14.88592
G1 X109.775 Y109.775 F7800.000
G1 X90.225 Y109.775 E16.34895 F1069.154
G1 X90.225 Y90.225 E17.81198
G1 X109.775 Y90.225 E19.27501
G1 X109.775 Y109.708 E20.73299
G1 X109.385 Y109.550 F7800.000
G1 F1860.000 E16.73299
G1 Z3.100 F7800.000
G92 E0
G1 X97.166 Y108.565 F7800.000
G1 Z2.800 F7800.000
G1 E4.00000 F1860.000
G1 X91.435 Y102.834 E4.63031 F2138.307
G1 X91.435 Y96.220 E5.14470
G1 X103.780 Y108.565 E6.50246
G1 X108.565 Y106.736 E6.90087
G1 X93.264 Y91.435 E8.58378
G1 X99.878 Y91.435 E9.09817
G1 X108.565 Y100.122 E10.05364
G1 X108.565 Y93.508 E10.56802
G1 X106.492 Y91.435 E10.79604
G1 F1860.000 E6.79604
G1 Z3.500 F7800.000
G92 E0
G1 X108.875 Y108.875 F7800.000
G1 Z3.200 F7800.000
G1 E4.00000 F1860.000
G1 X91.125 Y108.875 E5.32833 F1078.996
G1 X91.125 Y91.125 E6.65665
G1 X108.875 Y91.125 E7.98498
G1 X108.875 Y108.808 E9.30826
G1 X109.325 Y109.325 F7800.000
G1 X90.675 Y109.325 E10.70393 F1078.996
G1 X90.675 Y90.675 E12.09961
G1 X109.325 Y90.675 E13.49529
G1 X109.325 Y109.258 E14.88592
G1 X109.775 Y109.775 F7800.000
G1 X90.225 Y109.775 E16.34895 F1078.996
G1 X90.225 Y90.225 E17.81198
G1 X109.775 Y90.225 E19.27501
G1 X109.775 Y109.708 E20.73299
G1 X109.385 Y109.550 F7800.000
