; generated by Slic3r 1.1.7 on 2014-12-13 at 18:39:36

; perimeters extrusion width = 0.42mm
; infill extrusion width = 0.74mm
; solid infill extrusion width = 0.71mm
; top infill extrusion width = 0.71mm
; support material extrusion width = 0.42mm

G21 ; set units to millimeters
M190 S57 ; wait for bed temperature to be reached
M104 S186 ; set temperature
G28 ; home all axes Start of G Code Slic3r
 
M109 S186 ; wait for temperature to be reached
G90 ; use absolute coordinates
G92 E0
M82 ; use absolute distances for extrusion
G1 F1860.000 E-3.00000
G92 E0
G1 Z0.200 F6000.000
G1 X84.679 Y85.665 F6000.000
G1 E3.10000 F1860.000
G1 X86.440 Y84.132 E3.13770 F1200.000
G1 X88.613 Y83.278 E3.17541
G1 X90.000 Y83.137 E3.19792
G1 X110.000 Y83.137 E3.52090
G1 X112.301 Y83.534 E3.55860
G1 X114.335 Y84.679 E3.59631 F1200.000
G1 X115.868 Y86.440 E3.63401
G1 X116.722 Y88.613 E3.67171
G1 X116.863 Y90.000 E3.69423
G1 X116.863 Y110.000 E4.01721
G1 X116.466 Y112.301 E4.05491
G1 X115.321 Y114.335 E4.09261
G1 X113.560 Y115.868 E4.13032
G1 X111.387 Y116.722 E4.16802
G1 X110.000 Y116.863 E4.19053
G1 X90.000 Y116.863 E4.51352
G1 X87.699 Y116.466 E4.55122
G1 X85.665 Y115.321 E4.58892
G1 X84.132 Y113.560 E4.62662
G1 X83.278 Y111.387 E4.66433
G1 X83.137 Y110.000 E4.68684
G1 X83.137 Y90.000 E5.00982
G1 X83.534 Y87.699 E5.04753
G1 X84.648 Y85.720 E5.08421
G1 X84.875 Y85.777 F6000.000
G1 X84.893 Y85.745 E5.08482 F1200.000
G1 X86.647 Y84.260 E5.12192
G1 X88.801 Y83.462 E5.15902
G1 X90.000 Y83.353 E5.17846
G1 X110.000 Y83.353 E5.50145
G1 X112.263 Y83.750 E5.53855
G1 X114.255 Y84.893 E5.57565 F1200.000
G1 X115.740 Y86.647 E5.61275
G1 X116.538 Y88.801 E5.64985
G1 X116.647 Y90.000 E5.66930
G1 X116.647 Y110.000 E5.99228
G1 X116.250 Y112.263 E6.02938
G1 X115.107 Y114.255 E6.06648
G1 X113.353 Y115.740 E6.10358
G1 X111.199 Y116.538 E6.14068
G1 X110.000 Y116.647 E6.16013
G1 X90.000 Y116.647 E6.48311
G1 X87.737 Y116.250 E6.52022
G1 X85.745 Y115.107 E6.55732
G1 X84.260 Y113.353 E6.59442
G1 X83.462 Y111.199 E6.63152
G1 X83.353 Y110.000 E6.65096
G1 X83.353 Y90.000 E6.97395
G1 X83.750 Y87.737 E7.01105
G1 X84.843 Y85.832 E7.04653
G1 X85.069 Y85.891 F6000.000
G1 X85.107 Y85.826 E7.04775 F1200.000
G1 X86.853 Y84.391 E7.08424
G1 X90.000 Y83.568 E7.13677
G1 X110.000 Y83.568 E7.45976
G1 X112.224 Y83.965 E7.49624
G1 X114.174 Y85.107 E7.53273 F1200.000
G1 X115.609 Y86.853 E7.56922
G1 X116.432 Y90.000 E7.62176
G1 X116.432 Y110.000 E7.94474
G1 X116.035 Y112.224 E7.98123
G1 X114.893 Y114.174 E8.01772
G1 X113.147 Y115.609 E8.05421
G1 X110.000 Y116.432 E8.10675
G1 X90.000 Y116.432 E8.42973
G1 X87.776 Y116.035 E8.46622
G1 X85.826 Y114.893 E8.50271
G1 X84.391 Y113.147 E8.53920
G1 X83.568 Y110.000 E8.59173
G1 X83.568 Y90.000 E8.91472
G1 X83.965 Y87.776 E8.95121
G1 X85.037 Y85.945 E8.98546
G1 X85.262 Y86.006 F6000.000
G1 X85.321 Y85.909 E8.98730 F1200.000
G1 X87.058 Y84.525 E9.02317
G1 X90.000 Y83.784 E9.07216
G1 X110.000 Y83.784 E9.39515
G1 X112.185 Y84.181 E9.43101
G1 X114.091 Y85.321 E9.46688 F1200.000
G1 X115.475 Y87.058 E9.50275
G1 X116.216 Y90.000 E9.55174
G1 X116.216 Y110.000 E9.87473
G1 X115.819 Y112.185 E9.91059
G1 X114.679 Y114.091 E9.94646
G1 X112.942 Y115.475 E9.98233
G1 X110.000 Y116.216 E10.03132
G1 X90.000 Y116.216 E10.35431
G1 X87.815 Y115.819 E10.39017
G1 X85.909 Y114.679 E10.42604
G1 X84.525 Y112.942 E10.46191
G1 X83.784 Y110.000 E10.51090
G1 X83.784 Y90.000 E10.83389
G1 X84.181 Y87.815 E10.86975
G1 X85.230 Y86.060 E10.90276
G1 F1860.000 E7.90276
G92 E0
G1 X109.704 Y109.704 F6000.000
G1 E3.10000 F1860.000
G1 X90.296 Y109.704 E3.41343 F1200.000
G1 X90.296 Y90.296 E3.72686
G1 X109.704 Y90.296 E4.04029
G1 X109.704 Y109.641 E4.35270
G1 X109.920 Y109.920 F6000.000
G1 X90.080 Y109.920 E4.67310 F1200.000
G1 X90.080 Y90.080 E4.99350
G1 X109.920 Y90.080 E5.31390
G1 X109.920 Y109.857 E5.63329
G1 X109.556 Y109.710 F6000.000
G1 F1860.000 E2.63329
G92 E0
G1 X90.432 Y109.528 F6000.000
G1 E3.10000 F1860.000
G1 X90.472 Y109.568 E3.10091 F1200.000
G1 X90.778 Y109.568 E3.10585
G1 X90.432 Y109.222 E3.11374
G1 X90.432 Y108.917 E3.11867
G1 X91.083 Y109.568 E3.13354
G1 X91.389 Y109.568 E3.13848
G1 X90.432 Y108.611 E3.16032
G1 X90.432 Y108.306 E3.16526
G1 X91.694 Y109.568 E3.19408
G1 X92.000 Y109.568 E3.19902
G1 X90.432 Y108.000 E3.23482
G1 X90.432 Y107.695 E3.23975
G1 X92.305 Y109.568 E3.28253
G1 X92.611 Y109.568 E3.28747
G1 X90.432 Y107.389 E3.33722
G1 X90.432 Y107.084 E3.34216
G1 X92.916 Y109.568 E3.39889
G1 X93.222 Y109.568 E3.40383
G1 X90.432 Y106.778 E3.46754
G1 X90.432 Y106.472 E3.47248
G1 X93.528 Y109.568 E3.54317
G1 X93.833 Y109.568 E3.54810
G1 X90.432 Y106.167 E3.62577
G1 X90.432 Y105.861 E3.63070
G1 X94.139 Y109.568 E3.71535
G1 X94.444 Y109.568 E3.72029
G1 X90.432 Y105.556 E3.81191
G1 X90.432 Y105.250 E3.81684
G1 X94.750 Y109.568 E3.91545
G1 X95.055 Y109.568 E3.92038
G1 X90.432 Y104.945 E4.02596
G1 X90.432 Y104.639 E4.03090
G1 X95.361 Y109.568 E4.14345
G1 X95.666 Y109.568 E4.14839
G1 X90.432 Y104.334 E4.26792
G1 X90.432 Y104.028 E4.27286
G1 X95.972 Y109.568 E4.39937
G1 X96.277 Y109.568 E4.40431
G1 X90.432 Y103.723 E4.53780
G1 X90.432 Y103.417 E4.54273
G1 X96.583 Y109.568 E4.68320
G1 X96.888 Y109.568 E4.68813
G1 X90.432 Y103.112 E4.83558
G1 X90.432 Y102.806 E4.84052
G1 X97.194 Y109.568 E4.99494
G1 X97.499 Y109.568 E4.99987
G1 X90.432 Y102.501 E5.16128
G1 X90.432 Y102.195 E5.16621
G1 X97.805 Y109.568 E5.33459
G1 X98.110 Y109.568 E5.33953
G1 X90.432 Y101.890 E5.51488
G1 X90.432 Y101.584 E5.51982
G1 X98.416 Y109.568 E5.70215
G1 X98.722 Y109.568 E5.70709
G1 X90.432 Y101.278 E5.89640
G1 X90.432 Y100.973 E5.90134
G1 X99.027 Y109.568 E6.09763
G1 X99.333 Y109.568 E6.10256
G1 X90.432 Y100.667 E6.30583
G1 X90.432 Y100.362 E6.31077
G1 X99.638 Y109.568 E6.52101
G1 X99.944 Y109.568 E6.52595
G1 X90.432 Y100.056 E6.74317
G1 X90.432 Y99.751 E6.74811
G1 X100.249 Y109.568 E6.97231
G1 X100.555 Y109.568 E6.97724
G1 X90.432 Y99.445 E7.20842
G1 X90.432 Y99.140 E7.21336
G1 X100.860 Y109.568 E7.45152
G1 X101.166 Y109.568 E7.45645
G1 X90.432 Y98.834 E7.70159
G1 X90.432 Y98.529 E7.70652
G1 X101.471 Y109.568 E7.95863
G1 X101.777 Y109.568 E7.96357
G1 X90.432 Y98.223 E8.22266
G1 X90.432 Y97.918 E8.22759
G1 X102.082 Y109.568 E8.49366
G1 X102.388 Y109.568 E8.49860
G1 X90.432 Y97.612 E8.77164
G1 X90.432 Y97.307 E8.77658
G1 X102.693 Y109.568 E9.05660
G1 X102.999 Y109.568 E9.06154
G1 X90.432 Y97.001 E9.34854
G1 X90.432 Y96.696 E9.35347
G1 X103.304 Y109.568 E9.64746
G1 X103.610 Y109.568 E9.65239
G1 X90.432 Y96.390 E9.95335
G1 X90.432 Y96.085 E9.95828
G1 X103.915 Y109.568 E10.26622
G1 X104.221 Y109.568 E10.27115
G1 X90.432 Y95.779 E10.58607
G1 X90.432 Y95.473 E10.59100
G1 X104.527 Y109.568 E10.91289
G1 X104.832 Y109.568 E10.91783
G1 X90.432 Y95.168 E11.24670
G1 X90.432 Y94.862 E11.25163
G1 X105.138 Y109.568 E11.58748
G1 X105.443 Y109.568 E11.59241
G1 X90.432 Y94.557 E11.93524
G1 X90.432 Y94.251 E11.94017
G1 X105.749 Y109.568 E12.28997
G1 X106.054 Y109.568 E12.29491
G1 X90.432 Y93.946 E12.65169
G1 X90.432 Y93.640 E12.65662
G1 X106.360 Y109.568 E13.02038
G1 X106.665 Y109.568 E13.02532
G1 X90.432 Y93.335 E13.39605
G1 X90.432 Y93.029 E13.40099
G1 X106.971 Y109.568 E13.77870
G1 X107.276 Y109.568 E13.78363
G1 X90.432 Y92.724 E14.16833
G1 X90.432 Y92.418 E14.17326
G1 X107.582 Y109.568 E14.56493
G1 X107.887 Y109.568 E14.56986
G1 X90.432 Y92.113 E14.96851
G1 X90.432 Y91.807 E14.97345
G1 X108.193 Y109.568 E15.37907
G1 X108.498 Y109.568 E15.38400
G1 X90.432 Y91.502 E15.79661
G1 X90.432 Y91.196 E15.80154
G1 X108.804 Y109.568 E16.22112
G1 X109.109 Y109.568 E16.22606
G1 X90.432 Y90.891 E16.65262
G1 X90.432 Y90.585 E16.65755
G1 X109.415 Y109.568 E17.09109
G1 X109.568 Y109.415 E17.09458
G1 X90.585 Y90.432 E17.52811
G1 X90.891 Y90.432 E17.53305
G1 X109.568 Y109.109 E17.95960
G1 X109.568 Y108.804 E17.96454
G1 X91.196 Y90.432 E18.38412
G1 X91.502 Y90.432 E18.38905
G1 X109.568 Y108.498 E18.80166
G1 X109.568 Y108.193 E18.80659
G1 X91.807 Y90.432 E19.21222
G1 X92.113 Y90.432 E19.21715
G1 X109.568 Y107.887 E19.61580
G1 X109.568 Y107.582 E19.62073
G1 X92.418 Y90.432 E20.01240
G1 X92.724 Y90.432 E20.01734
G1 X109.568 Y107.276 E20.40203
G1 X109.568 Y106.971 E20.40696
G1 X93.029 Y90.432 E20.78468
G1 X93.335 Y90.432 E20.78961
G1 X109.568 Y106.665 E21.16035
G1 X109.568 Y106.360 E21.16528
G1 X93.640 Y90.432 E21.52904
G1 X93.946 Y90.432 E21.53397
G1 X109.568 Y106.054 E21.89075
G1 X109.568 Y105.749 E21.89569
G1 X94.251 Y90.432 E22.24549
G1 X94.557 Y90.432 E22.25042
G1 X109.568 Y105.443 E22.59325
G1 X109.568 Y105.138 E22.59818
G1 X94.862 Y90.432 E22.93403
G1 X95.168 Y90.432 E22.93896
G1 X109.568 Y104.832 E23.26783
G1 X109.568 Y104.527 E23.27277
G1 X95.473 Y90.432 E23.59466
G1 X95.779 Y90.432 E23.59959
G1 X109.568 Y104.221 E23.91451
G1 X109.568 Y103.915 E23.91944
G1 X96.085 Y90.432 E24.22738
G1 X96.390 Y90.432 E24.23231
G1 X109.568 Y103.610 E24.53327
G1 X109.568 Y103.304 E24.53821
G1 X96.696 Y90.432 E24.83219
G1 X97.001 Y90.432 E24.83712
G1 X109.568 Y102.999 E25.12412
G1 X109.568 Y102.693 E25.12906
G1 X97.307 Y90.432 E25.40908
G1 X97.612 Y90.432 E25.41402
G1 X109.568 Y102.388 E25.68706
G1 X109.568 Y102.082 E25.69200
G1 X97.918 Y90.432 E25.95807
G1 X98.223 Y90.432 E25.96300
G1 X109.568 Y101.777 E26.22209
G1 X109.568 Y101.471 E26.22703
G1 X98.529 Y90.432 E26.47914
G1 X98.834 Y90.432 E26.48407
G1 X109.568 Y101.166 E26.72921
G1 X109.568 Y100.860 E26.73415
G1 X99.140 Y90.432 E26.97230
G1 X99.445 Y90.432 E26.97724
G1 X109.568 Y100.555 E27.20842
G1 X109.568 Y100.249 E27.21335
G1 X99.751 Y90.432 E27.43755
G1 X100.056 Y90.432 E27.44249
G1 X109.568 Y99.944 E27.65971
G1 X109.568 Y99.638 E27.66465
G1 X100.362 Y90.432 E27.87490
G1 X100.667 Y90.432 E27.87983
G1 X109.568 Y99.333 E28.08310
G1 X109.568 Y99.027 E28.08803
G1 X100.973 Y90.432 E28.28432
G1 X101.278 Y90.432 E28.28926
G1 X109.568 Y98.721 E28.47857
G1 X109.568 Y98.416 E28.48351
G1 X101.584 Y90.432 E28.66584
G1 X101.890 Y90.432 E28.67078
G1 X109.568 Y98.110 E28.84613
G1 X109.568 Y97.805 E28.85107
G1 X102.195 Y90.432 E29.01945
G1 X102.501 Y90.432 E29.02438
G1 X109.568 Y97.499 E29.18579
G1 X109.568 Y97.194 E29.19072
G1 X102.806 Y90.432 E29.34514
G1 X103.112 Y90.432 E29.35008
G1 X109.568 Y96.888 E29.49753
G1 X109.568 Y96.583 E29.50246
G1 X103.417 Y90.432 E29.64293
G1 X103.723 Y90.432 E29.64786
G1 X109.568 Y96.277 E29.78136
G1 X109.568 Y95.972 E29.78629
G1 X104.028 Y90.432 E29.91280
G1 X104.334 Y90.432 E29.91774
G1 X109.568 Y95.666 E30.03727
G1 X109.568 Y95.361 E30.04221
G1 X104.639 Y90.432 E30.15477
G1 X104.945 Y90.432 E30.15970
G1 X109.568 Y95.055 E30.26528
G1 X109.568 Y94.750 E30.27021
G1 X105.250 Y90.432 E30.36882
G1 X105.556 Y90.432 E30.37375
G1 X109.568 Y94.444 E30.46538
G1 X109.568 Y94.139 E30.47031
G1 X105.861 Y90.432 E30.55496
G1 X106.167 Y90.432 E30.55989
G1 X109.568 Y93.833 E30.63756
G1 X109.568 Y93.528 E30.64249
G1 X106.472 Y90.432 E30.71318
G1 X106.778 Y90.432 E30.71812
G1 X109.568 Y93.222 E30.78183
G1 X109.568 Y92.916 E30.78677
G1 X107.084 Y90.432 E30.84350
G1 X107.389 Y90.432 E30.84844
G1 X109.568 Y92.611 E30.89819
G1 X109.568 Y92.305 E30.90313
G1 X107.695 Y90.432 E30.94591
G1 X108.000 Y90.432 E30.95084
G1 X109.568 Y92.000 E30.98665
G1 X109.568 Y91.694 E30.99158
G1 X108.306 Y90.432 E31.02040
G1 X108.611 Y90.432 E31.02534
G1 X109.568 Y91.389 E31.04719
G1 X109.568 Y91.083 E31.05212
G1 X108.917 Y90.432 E31.06699
G1 X109.222 Y90.432 E31.07192
G1 X109.568 Y90.778 E31.07981
G1 X109.568 Y90.472 E31.08475
G1 X109.528 Y90.432 E31.08566
M106 S244
M140 S50 ; set bed temperature
G1 F1860.000 E28.08566
G92 E0
G1 Z0.400 F6000.000
G1 X109.370 Y109.370 F6000.000
G1 E3.10000 F1860.000
G1 X90.630 Y109.370 E3.68901 F2400.000
G1 X90.630 Y90.630 E4.27803
G1 X109.370 Y90.630 E4.86704
G1 X109.370 Y109.307 E5.45407
G1 X109.790 Y109.790 F6000.000
G1 X90.210 Y109.790 E6.06949 F1920.000
G1 X90.210 Y90.210 E6.68491
G1 X109.790 Y90.210 E7.30032
G1 X109.790 Y109.727 E7.91376
G1 X109.426 Y109.580 F6000.000
G1 X109.024 Y108.984 F6000.000
G1 X108.984 Y109.024 E7.91660 F2100.000
G1 X108.011 Y109.024 E7.96548
G1 X109.024 Y108.011 E8.03746
G1 X109.024 Y107.037 E8.08635
G1 X107.037 Y109.024 E8.22746
G1 X106.064 Y109.024 E8.27634
G1 X109.024 Y106.064 E8.48659
G1 X109.024 Y105.090 E8.53547
G1 X105.090 Y109.024 E8.81485
G1 X104.117 Y109.024 E8.86374
G1 X109.024 Y104.117 E9.21225
G1 X109.024 Y103.144 E9.26114
G1 X103.144 Y109.024 E9.67879
G1 X102.170 Y109.024 E9.72768
G1 X109.024 Y102.170 E10.21446
G1 X109.024 Y101.197 E10.26335
G1 X101.197 Y109.024 E10.81927
G1 X100.223 Y109.024 E10.86815
G1 X109.024 Y100.223 E11.49321
G1 X109.024 Y99.250 E11.54209
G1 X99.250 Y109.024 E12.23628
G1 X98.277 Y109.024 E12.28517
G1 X109.024 Y98.277 E13.04849
G1 X109.024 Y97.303 E13.09738
G1 X97.303 Y109.024 E13.92984
G1 X96.330 Y109.024 E13.97872
G1 X109.024 Y96.330 E14.88032
G1 X109.024 Y95.356 E14.92920
G1 X95.356 Y109.024 E15.89993
G1 X94.383 Y109.024 E15.94882
G1 X109.024 Y94.383 E16.98868
G1 X109.024 Y93.409 E17.03757
G1 X93.409 Y109.024 E18.14656
G1 X92.436 Y109.024 E18.19545
G1 X109.024 Y92.436 E19.37358
G1 X109.024 Y91.463 E19.42247
G1 X91.463 Y109.024 E20.66974
G1 X90.976 Y108.537 E20.70430
G1 X108.537 Y90.976 E21.95157
G1 X107.564 Y90.976 E22.00046
G1 X90.976 Y107.564 E23.17859
G1 X90.976 Y106.591 E23.22748
G1 X106.591 Y90.976 E24.33648
G1 X105.617 Y90.976 E24.38536
G1 X90.976 Y105.617 E25.42523
G1 X90.976 Y104.644 E25.47411
G1 X104.644 Y90.976 E26.44484
G1 X103.670 Y90.976 E26.49373
G1 X90.976 Y103.670 E27.39532
G1 X90.976 Y102.697 E27.44420
G1 X102.697 Y90.976 E28.27666
G1 X101.723 Y90.976 E28.32555
G1 X90.976 Y101.723 E29.08887
G1 X90.976 Y100.750 E29.13776
G1 X100.750 Y90.976 E29.83195
G1 X99.777 Y90.976 E29.88083
G1 X90.976 Y99.777 E30.50589
G1 X90.976 Y98.803 E30.55477
G1 X98.803 Y90.976 E31.11069
G1 X97.830 Y90.976 E31.15958
G1 X90.976 Y97.830 E31.64637
G1 X90.976 Y96.856 E31.69525
G1 X96.856 Y90.976 E32.11290
G1 X95.883 Y90.976 E32.16179
G1 X90.976 Y95.883 E32.51030
G1 X90.976 Y94.910 E32.55919
G1 X94.910 Y90.976 E32.83857
G1 X93.936 Y90.976 E32.88745
G1 X90.976 Y93.936 E33.09770
G1 X90.976 Y92.963 E33.14658
G1 X92.963 Y90.976 E33.28770
G1 X91.989 Y90.976 E33.33658
G1 X90.976 Y91.989 E33.40856
G1 X90.976 Y91.016 E33.45744
G1 X91.016 Y90.976 E33.46028
M106 S244
G1 F1860.000 E30.46028
G92 E0
G1 Z0.600 F6000.000
G1 X109.370 Y109.370 F6000.000
G1 E3.10000 F1860.000
G1 X90.630 Y109.370 E3.68901 F2400.000
G1 X90.630 Y90.630 E4.27803
G1 X109.370 Y90.630 E4.86704
G1 X109.370 Y109.307 E5.45407
G1 X109.790 Y109.790 F6000.000
G1 X90.210 Y109.790 E6.06949 F1920.000
G1 X90.210 Y90.210 E6.68491
G1 X109.790 Y90.210 E7.30032
G1 X109.790 Y109.727 E7.91376
G1 X109.426 Y109.580 F6000.000
G1 F1860.000 E4.91376
G92 E0
G1 X90.976 Y108.984 F6000.000
G1 E3.10000 F1860.000
G1 X91.016 Y109.024 E3.10284 F2100.000
G1 X91.989 Y109.024 E3.15173
G1 X90.976 Y108.011 E3.22370
G1 X90.976 Y107.037 E3.27259
G1 X92.963 Y109.024 E3.41370
G1 X93.936 Y109.024 E3.46258
G1 X90.976 Y106.064 E3.67283
G1 X90.976 Y105.090 E3.72172
G1 X94.910 Y109.024 E4.00110
G1 X95.883 Y109.024 E4.04998
G1 X90.976 Y104.117 E4.39850
G1 X90.976 Y103.144 E4.44738
G1 X96.856 Y109.024 E4.86503
G1 X97.830 Y109.024 E4.91392
G1 X90.976 Y102.170 E5.40070
G1 X90.976 Y101.197 E5.44959
G1 X98.803 Y109.024 E6.00551
G1 X99.777 Y109.024 E6.05439
G1 X90.976 Y100.223 E6.67945
G1 X90.976 Y99.250 E6.72833
G1 X100.750 Y109.024 E7.42252
G1 X101.723 Y109.024 E7.47141
G1 X90.976 Y98.277 E8.23473
G1 X90.976 Y97.303 E8.28362
G1 X102.697 Y109.024 E9.11608
G1 X103.670 Y109.024 E9.16496
G1 X90.976 Y96.330 E10.06656
G1 X90.976 Y95.356 E10.11544
G1 X104.644 Y109.024 E11.08617
G1 X105.617 Y109.024 E11.13506
G1 X90.976 Y94.383 E12.17492
G1 X90.976 Y93.409 E12.22381
G1 X106.591 Y109.024 E13.33281
G1 X107.564 Y109.024 E13.38169
G1 X90.976 Y92.436 E14.55983
G1 X90.976 Y91.463 E14.60871
G1 X108.537 Y109.024 E15.85598
G1 X109.024 Y108.537 E15.89055
G1 X91.463 Y90.976 E17.13782
G1 X92.436 Y90.976 E17.18670
G1 X109.024 Y107.564 E18.36483
G1 X109.024 Y106.591 E18.41372
G1 X93.409 Y90.976 E19.52272
G1 X94.383 Y90.976 E19.57160
G1 X109.024 Y105.617 E20.61147
G1 X109.024 Y104.644 E20.66035
