; generated by Slic3r 1.1.7 on 2014-11-29 at 07:42:35

; perimeters extrusion width = 0.30mm
; infill extrusion width = 0.37mm
; solid infill extrusion width = 0.37mm
; top infill extrusion width = 0.37mm

G21 ; set units to millimeters
M107
M190 S100 ; wait for bed temperature to be reached
M104 S240 ; set temperature
G28 ; home all axes
M109 S240 ; wait for temperature to be reached
G90 ; use absolute coordinates
G92 E0
M82 ; use absolute distances for extrusion
G1 F3000.000 E-4.00000
G1 Z0.500 F7800.000
G92 E0
G1 X82.260 Y66.517 F7800.000
G1 Z0.200 F7800.000
G1 E4.00000 F3000.000
G1 X83.921 Y65.513 E4.06108 F360.000
G1 X85.500 Y65.243 E4.11150
G1 X105.500 Y65.243 E4.74102
G1 X107.400 Y65.639 E4.80210
G1 X108.983 Y66.760 E4.86318 F360.000
G1 X109.987 Y68.421 E4.92426
G1 X110.257 Y70.000 E4.97468
G1 X110.257 Y90.000 E5.60420
G1 X109.861 Y91.900 E5.66527
G1 X108.740 Y93.483 E5.72635
G1 X107.079 Y94.487 E5.78743
G1 X105.500 Y94.757 E5.83786
G1 X85.500 Y94.757 E6.46737
G1 X83.600 Y94.361 E6.52845
G1 X82.017 Y93.240 E6.58953
G1 X81.013 Y91.579 E6.65061
G1 X80.743 Y90.000 E6.70104
G1 X80.743 Y70.000 E7.33055
G1 X81.139 Y68.100 E7.39163
G1 X82.234 Y66.553 E7.45129
G1 X82.582 Y66.758 F7800.000
G1 X82.632 Y66.692 E7.45389 F360.000
G1 X84.265 Y65.799 E7.51246
G1 X85.500 Y65.621 E7.55174
G1 X105.500 Y65.621 E8.18126
G1 X107.318 Y66.017 E8.23983
G1 X108.808 Y67.132 E8.29840 F360.000
G1 X109.701 Y68.765 E8.35697
G1 X109.879 Y70.000 E8.39626
G1 X109.879 Y90.000 E9.02577
G1 X109.483 Y91.818 E9.08434
G1 X108.368 Y93.308 E9.14291
G1 X106.735 Y94.201 E9.20149
G1 X105.500 Y94.379 E9.24077
G1 X85.500 Y94.379 E9.87028
G1 X83.682 Y93.983 E9.92886
G1 X82.192 Y92.868 E9.98743
G1 X81.299 Y91.235 E10.04600
G1 X81.121 Y90.000 E10.08528
G1 X81.121 Y70.000 E10.71480
G1 X81.517 Y68.182 E10.77337
G1 X82.555 Y66.794 E10.82793
G1 F3000.000 E6.82793
G1 Z0.500 F7800.000
G92 E0
G1 X85.311 Y69.922 F7800.000
G1 Z0.200 F7800.000
G1 E4.00000 F3000.000
G1 X85.422 Y69.811 E4.00494 F360.000
G1 X105.578 Y69.811 E4.63938
G1 X105.689 Y69.922 E4.64432
G1 X105.689 Y90.078 E5.27877
G1 X105.578 Y90.189 E5.28370
G1 X85.422 Y90.189 E5.91815
G1 X85.311 Y90.078 E5.92309
G1 X85.311 Y69.967 E6.55612
G1 F3000.000 E2.55612
G1 Z0.500 F7800.000
G92 E0
G1 X105.300 Y89.800 F7800.000
G1 Z0.200 F7800.000
G1 E4.00000 F3000.000
G1 X85.700 Y89.800 E4.61692 F270.000
G1 X85.700 Y70.200 E5.23385
G1 X105.300 Y70.200 E5.85077
G1 X105.300 Y89.755 E6.46628
G1 X105.040 Y89.650 F7800.000
G1 X104.921 Y89.421 F7800.000
G1 X86.079 Y89.421 E7.05937 F540.000
G1 X86.079 Y70.579 E7.65247
G1 X104.921 Y70.579 E8.24556
G1 X104.921 Y89.376 E8.83724
G1 X104.543 Y89.043 F7800.000
G1 X86.457 Y89.043 E9.40651 F540.000
G1 X86.457 Y70.957 E9.97577
G1 X104.543 Y70.957 E10.54504
G1 X104.543 Y88.998 E11.11288
G1 F3000.000 E7.11288
G1 Z0.500 F7800.000
G92 E0
G1 X104.249 Y71.212 F7800.000
G1 Z0.200 F7800.000
G1 E4.00000 F3000.000
G1 X104.289 Y71.252 E4.00178 F540.000
G1 X104.289 Y71.791 E4.01876
G1 X103.709 Y71.212 E4.04456
G1 X103.169 Y71.212 E4.06155
G1 X104.289 Y72.331 E4.11137
G1 X104.289 Y72.870 E4.12835
G1 X102.630 Y71.212 E4.20219
G1 X102.090 Y71.212 E4.21918
G1 X104.289 Y73.410 E4.31703
G1 X104.289 Y73.950 E4.33402
G1 X101.551 Y71.212 E4.45590
G1 X101.011 Y71.212 E4.47288
G1 X104.289 Y74.489 E4.61878
G1 X104.289 Y75.029 E4.63576
G1 X100.471 Y71.212 E4.80568
G1 X99.932 Y71.212 E4.82266
G1 X104.289 Y75.568 E5.01660
G1 X104.289 Y76.108 E5.03358
G1 X99.392 Y71.212 E5.25154
G1 X98.853 Y71.212 E5.26852
G1 X104.289 Y76.648 E5.51050
G1 X104.289 Y77.187 E5.52748
G1 X98.313 Y71.212 E5.79348
G1 X97.773 Y71.212 E5.81046
G1 X104.289 Y77.727 E6.10047
G1 X104.289 Y78.266 E6.11746
G1 X97.234 Y71.212 E6.43149
G1 X96.694 Y71.212 E6.44848
G1 X104.289 Y78.806 E6.78653
G1 X104.289 Y79.346 E6.80351
G1 X96.155 Y71.212 E7.16558
G1 X95.615 Y71.212 E7.18257
G1 X104.289 Y79.885 E7.56866
G1 X104.289 Y80.425 E7.58564
G1 X95.075 Y71.212 E7.99575
G1 X94.536 Y71.212 E8.01274
G1 X104.289 Y80.964 E8.44687
G1 X104.289 Y81.504 E8.46385
G1 X93.996 Y71.212 E8.92200
G1 X93.457 Y71.212 E8.93899
G1 X104.289 Y82.044 E9.42116
G1 X104.289 Y82.583 E9.43814
G1 X92.917 Y71.212 E9.94433
G1 X92.377 Y71.212 E9.96131
G1 X104.289 Y83.123 E10.49152
G1 X104.289 Y83.662 E10.50851
G1 X91.838 Y71.212 E11.06273
G1 X91.298 Y71.212 E11.07972
G1 X104.289 Y84.202 E11.65796
G1 X104.289 Y84.742 E11.67495
G1 X90.759 Y71.212 E12.27721
G1 X90.219 Y71.212 E12.29420
G1 X104.289 Y85.281 E12.92048
G1 X104.289 Y85.821 E12.93747
G1 X89.679 Y71.212 E13.58777
G1 X89.140 Y71.212 E13.60476
G1 X104.289 Y86.360 E14.27908
G1 X104.289 Y86.900 E14.29607
G1 X88.600 Y71.212 E14.99441
G1 X88.061 Y71.212 E15.01139
G1 X104.289 Y87.440 E15.73376
G1 X104.289 Y87.979 E15.75074
G1 X87.521 Y71.212 E16.49712
G1 X86.981 Y71.212 E16.51411
G1 X104.289 Y88.519 E17.28451
G1 X104.019 Y88.789 E17.29652
G1 X86.712 Y71.481 E18.06692
G1 X86.712 Y72.021 E18.08391
G1 X103.479 Y88.789 E18.83029
G1 X102.940 Y88.789 E18.84727
G1 X86.712 Y72.561 E19.56964
G1 X86.712 Y73.100 E19.58662
G1 X102.400 Y88.789 E20.28496
G1 X101.860 Y88.789 E20.30195
G1 X86.712 Y73.640 E20.97627
G1 X86.712 Y74.179 E20.99326
G1 X101.321 Y88.789 E21.64356
G1 X100.781 Y88.789 E21.66055
G1 X86.712 Y74.719 E22.28683
G1 X86.712 Y75.259 E22.30382
G1 X100.242 Y88.789 E22.90608
G1 X99.702 Y88.789 E22.92307
G1 X86.712 Y75.798 E23.50131
G1 X86.712 Y76.338 E23.51830
G1 X99.162 Y88.789 E24.07253
G1 X98.623 Y88.789 E24.08951
G1 X86.712 Y76.877 E24.61972
G1 X86.712 Y77.417 E24.63670
G1 X98.083 Y88.789 E25.14289
G1 X97.544 Y88.789 E25.15987
G1 X86.712 Y77.957 E25.64204
G1 X86.712 Y78.496 E25.65903
G1 X97.004 Y88.789 E26.11718
G1 X96.464 Y88.789 E26.13416
G1 X86.712 Y79.036 E26.56829
G1 X86.712 Y79.575 E26.58528
G1 X95.925 Y88.789 E26.99539
G1 X95.385 Y88.789 E27.01237
G1 X86.712 Y80.115 E27.39846
G1 X86.712 Y80.655 E27.41545
G1 X94.846 Y88.789 E27.77752
G1 X94.306 Y88.789 E27.79450
G1 X86.712 Y81.194 E28.13256
G1 X86.712 Y81.734 E28.14954
G1 X93.766 Y88.789 E28.46357
G1 X93.227 Y88.789 E28.48056
G1 X86.712 Y82.273 E28.77057
G1 X86.712 Y82.813 E28.78755
G1 X92.687 Y88.789 E29.05355
G1 X92.148 Y88.789 E29.07053
G1 X86.712 Y83.353 E29.31251
G1 X86.712 Y83.892 E29.32949
G1 X91.608 Y88.789 E29.54745
G1 X91.068 Y88.789 E29.56443
G1 X86.712 Y84.432 E29.75837
G1 X86.712 Y84.971 E29.77535
G1 X90.529 Y88.789 E29.94527
G1 X89.989 Y88.789 E29.96225
G1 X86.712 Y85.511 E30.10815
G1 X86.712 Y86.051 E30.12513
G1 X89.450 Y88.789 E30.24701
G1 X88.910 Y88.789 E30.26400
G1 X86.712 Y86.590 E30.36185
G1 X86.712 Y87.130 E30.37884
G1 X88.370 Y88.789 E30.45268
G1 X87.831 Y88.789 E30.46966
G1 X86.712 Y87.669 E30.51948
G1 X86.712 Y88.209 E30.53647
G1 X87.291 Y88.789 E30.56227
G1 X86.752 Y88.789 E30.57925
G1 X86.712 Y88.749 E30.58103
M106 S154
M104 S235 ; set temperature
M140 S90 ; set bed temperature
G1 F3000.000 E26.58103
G1 Z0.700 F7800.000
G92 E0
G1 X104.750 Y89.250 F7800.000
G1 Z0.400 F7800.000
G1 E4.00000 F3000.000
G1 X86.250 Y89.250 E4.46148 F1800.000
G1 X86.250 Y70.750 E4.92297
G1 X104.750 Y70.750 E5.38445
G1 X104.750 Y89.205 E5.84482
G1 X105.050 Y89.550 F7800.000
G1 X85.950 Y89.550 E6.32127 F1800.000
G1 X85.950 Y70.450 E6.79772
G1 X105.050 Y70.450 E7.27417
G1 X105.050 Y89.505 E7.74950
G1 X105.350 Y89.850 F7800.000
G1 X85.650 Y89.850 E8.24092 F900.000
G1 X85.650 Y70.150 E8.73234
G1 X105.350 Y70.150 E9.22375
G1 X105.350 Y89.805 E9.71405
G1 X105.090 Y89.700 F7800.000
G1 X104.540 Y89.000 F7800.000
G1 X104.500 Y89.040 E9.71571 F1800.000
G1 X103.999 Y89.040 E9.73044
G1 X104.540 Y88.499 E9.75293
G1 X104.540 Y87.998 E9.76766
G1 X103.498 Y89.040 E9.81097
G1 X102.997 Y89.040 E9.82570
G1 X104.540 Y87.497 E9.88985
G1 X104.540 Y86.996 E9.90457
G1 X102.496 Y89.040 E9.98955
G1 X101.995 Y89.040 E10.00428
G1 X104.540 Y86.495 E10.11008
G1 X104.540 Y85.994 E10.12480
G1 X101.494 Y89.040 E10.25143
G1 X100.993 Y89.040 E10.26616
G1 X104.540 Y85.493 E10.41361
G1 X104.540 Y84.991 E10.42834
G1 X100.491 Y89.040 E10.59662
G1 X99.990 Y89.040 E10.61135
G1 X104.540 Y84.490 E10.80046
G1 X104.540 Y83.989 E10.81519
G1 X99.489 Y89.040 E11.02513
G1 X98.988 Y89.040 E11.03986
G1 X104.540 Y83.488 E11.27062
G1 X104.540 Y82.987 E11.28535
G1 X98.487 Y89.040 E11.53694
G1 X97.986 Y89.040 E11.55167
G1 X104.540 Y82.486 E11.82409
G1 X104.540 Y81.985 E11.83882
G1 X97.485 Y89.040 E12.13207
G1 X96.983 Y89.040 E12.14680
G1 X104.540 Y81.483 E12.46087
G1 X104.540 Y80.982 E12.47560
G1 X96.482 Y89.040 E12.81050
G1 X95.981 Y89.040 E12.82523
G1 X104.540 Y80.481 E13.18096
G1 X104.541 Y79.980 E13.19569
G1 X95.480 Y89.040 E13.57225
G1 X94.979 Y89.040 E13.58698
G1 X104.541 Y79.479 E13.98437
G1 X104.541 Y78.978 E13.99909
G1 X94.478 Y89.040 E14.41731
G1 X93.977 Y89.040 E14.43203
G1 X104.541 Y78.477 E14.87108
G1 X104.541 Y77.975 E14.88580
G1 X93.475 Y89.040 E15.34567
G1 X92.974 Y89.040 E15.36040
G1 X104.541 Y77.474 E15.84110
G1 X104.541 Y76.973 E15.85583
G1 X92.473 Y89.040 E16.35735
G1 X91.972 Y89.040 E16.37208
G1 X104.541 Y76.472 E16.89443
G1 X104.541 Y75.971 E16.90916
G1 X91.471 Y89.040 E17.45234
G1 X90.970 Y89.040 E17.46707
G1 X104.541 Y75.470 E18.03107
G1 X104.541 Y74.969 E18.04580
G1 X90.469 Y89.040 E18.63064
G1 X89.967 Y89.040 E18.64537
G1 X104.541 Y74.467 E19.25103
G1 X104.541 Y73.966 E19.26576
G1 X89.466 Y89.040 E19.89225
G1 X88.965 Y89.040 E19.90697
G1 X104.541 Y73.465 E20.55429
G1 X104.541 Y72.964 E20.56902
G1 X88.464 Y89.040 E21.23717
G1 X87.963 Y89.040 E21.25189
G1 X104.541 Y72.463 E21.94087
G1 X104.541 Y71.962 E21.95559
G1 X87.462 Y89.040 E22.66540
G1 X86.961 Y89.040 E22.68012
G1 X104.541 Y71.461 E23.41075
G1 X104.520 Y70.980 E23.42490
G1 X86.480 Y89.020 E24.17470
G1 X86.460 Y88.539 E24.18885
G1 X104.039 Y70.960 E24.91948
G1 X103.538 Y70.960 E24.93421
G1 X86.460 Y88.038 E25.64401
G1 X86.460 Y87.537 E25.65873
G1 X103.037 Y70.960 E26.34771
G1 X102.536 Y70.960 E26.36244
G1 X86.460 Y87.036 E27.03058
G1 X86.460 Y86.535 E27.04531
G1 X102.035 Y70.960 E27.69263
G1 X101.534 Y70.960 E27.70735
G1 X86.460 Y86.034 E28.33384
G1 X86.460 Y85.533 E28.34857
G1 X101.033 Y70.960 E28.95424
G1 X100.531 Y70.960 E28.96896
G1 X86.460 Y85.031 E29.55380
G1 X86.460 Y84.530 E29.56853
G1 X100.030 Y70.960 E30.13253
G1 X99.529 Y70.960 E30.14726
G1 X86.460 Y84.029 E30.69044
G1 X86.460 Y83.528 E30.70517
G1 X99.028 Y70.960 E31.22752
G1 X98.527 Y70.960 E31.24225
G1 X86.460 Y83.027 E31.74377
G1 X86.460 Y82.526 E31.75850
G1 X98.026 Y70.960 E32.23920
G1 X97.525 Y70.960 E32.25393
G1 X86.460 Y82.025 E32.71380
G1 X86.460 Y81.523 E32.72852
G1 X97.023 Y70.960 E33.16757
G1 X96.522 Y70.960 E33.18229
G1 X86.460 Y81.022 E33.60051
G1 X86.460 Y80.521 E33.61524
G1 X96.021 Y70.960 E34.01262
G1 X95.520 Y70.960 E34.02735
G1 X86.460 Y80.020 E34.40391
G1 X86.460 Y79.519 E34.41864
G1 X95.019 Y70.960 E34.77437
G1 X94.518 Y70.960 E34.78910
G1 X86.460 Y79.018 E35.12400
G1 X86.460 Y78.517 E35.13873
G1 X94.017 Y70.960 E35.45280
G1 X93.515 Y70.960 E35.46753
G1 X86.460 Y78.015 E35.76078
G1 X86.460 Y77.514 E35.77551
G1 X93.014 Y70.960 E36.04793
G1 X92.513 Y70.960 E36.06266
G1 X86.460 Y77.013 E36.31425
G1 X86.460 Y76.512 E36.32898
G1 X92.012 Y70.960 E36.55974
G1 X91.511 Y70.960 E36.57447
G1 X86.460 Y76.011 E36.78441
G1 X86.460 Y75.510 E36.79914
G1 X91.010 Y70.960 E36.98825
G1 X90.509 Y70.960 E37.00297
G1 X86.460 Y75.009 E37.17126
G1 X86.460 Y74.507 E37.18599
G1 X90.007 Y70.960 E37.33344
G1 X89.506 Y70.960 E37.34817
G1 X86.460 Y74.006 E37.47480
G1 X86.460 Y73.505 E37.48952
G1 X89.005 Y70.960 E37.59532
G1 X88.504 Y70.960 E37.61005
G1 X86.460 Y73.004 E37.69502
G1 X86.460 Y72.503 E37.70975
G1 X88.003 Y70.960 E37.77390
G1 X87.502 Y70.960 E37.78862
G1 X86.460 Y72.002 E37.83194
G1 X86.460 Y71.501 E37.84667
G1 X87.001 Y70.960 E37.86916
G1 X86.500 Y70.960 E37.88389
G1 X86.460 Y71.000 E37.88555
M106 S154
G1 F3000.000 E33.88555
G1 Z0.900 F7800.000
G92 E0
G1 X104.750 Y89.250 F7800.000
G1 Z0.600 F7800.000
G1 E4.00000 F3000.000
G1 X86.250 Y89.250 E4.46148 F1800.000
G1 X86.250 Y70.750 E4.92297
G1 X104.750 Y70.750 E5.38445
G1 X104.750 Y89.205 E5.84482
G1 X105.050 Y89.550 F7800.000
G1 X85.950 Y89.550 E6.32127 F1800.000
G1 X85.950 Y70.450 E6.79772
G1 X105.050 Y70.450 E7.27417
G1 X105.050 Y89.505 E7.74950
G1 X105.350 Y89.850 F7800.000
G1 X85.650 Y89.850 E8.24092 F900.000
G1 X85.650 Y70.150 E8.73234
G1 X105.350 Y70.150 E9.22375
G1 X105.350 Y89.805 E9.71405
G1 X105.090 Y89.700 F7800.000
G1 F3000.000 E5.71405
G1 Z0.900 F7800.000
G92 E0
G1 X86.500 Y89.040 F7800.000
G1 Z0.600 F7800.000
G1 E4.00000 F3000.000
G1 X86.460 Y89.000 E4.00166 F1800.000
G1 X86.460 Y88.499 E4.01639
G1 X87.001 Y89.040 E4.03888
G1 X87.502 Y89.040 E4.05361
G1 X86.460 Y87.998 E4.09692
G1 X86.460 Y87.497 E4.11165
G1 X88.003 Y89.040 E4.17580
G1 X88.504 Y89.040 E4.19052
G1 X86.460 Y86.996 E4.27550
G1 X86.460 Y86.495 E4.29022
G1 X89.005 Y89.040 E4.39603
G1 X89.506 Y89.040 E4.41075
G1 X86.460 Y85.994 E4.53738
G1 X86.460 Y85.493 E4.55211
G1 X90.007 Y89.040 E4.69956
G1 X90.509 Y89.040 E4.71429
G1 X86.460 Y84.991 E4.88257
G1 X86.460 Y84.490 E4.89730
G1 X91.010 Y89.040 E5.08641
G1 X91.511 Y89.040 E5.10114
G1 X86.460 Y83.989 E5.31108
G1 X86.460 Y83.488 E5.32581
G1 X92.012 Y89.040 E5.55657
G1 X92.513 Y89.040 E5.57130
G1 X86.460 Y82.987 E5.82289
G1 X86.460 Y82.486 E5.83762
G1 X93.014 Y89.040 E6.11004
G1 X93.515 Y89.040 E6.12477
G1 X86.460 Y81.985 E6.41802
G1 X86.460 Y81.483 E6.43275
G1 X94.017 Y89.040 E6.74682
G1 X94.518 Y89.040 E6.76155
G1 X86.460 Y80.982 E7.09645
G1 X86.460 Y80.481 E7.11118
G1 X95.019 Y89.040 E7.46691
G1 X95.520 Y89.040 E7.48164
G1 X86.460 Y79.980 E7.85820
G1 X86.460 Y79.479 E7.87293
G1 X96.021 Y89.040 E8.27031
G1 X96.522 Y89.040 E8.28504
G1 X86.460 Y78.978 E8.70326
G1 X86.460 Y78.477 E8.71798
G1 X97.023 Y89.040 E9.15703
G1 X97.525 Y89.040 E9.17175
G1 X86.460 Y77.975 E9.63162
G1 X86.460 Y77.474 E9.64635
G1 X98.026 Y89.040 E10.12705
G1 X98.527 Y89.040 E10.14178
G1 X86.460 Y76.973 E10.64330
G1 X86.460 Y76.472 E10.65803
G1 X99.028 Y89.040 E11.18038
G1 X99.529 Y89.040 E11.19511
G1 X86.460 Y75.971 E11.73829
G1 X86.460 Y75.470 E11.75302
G1 X100.030 Y89.040 E12.31702
G1 X100.531 Y89.040 E12.33175
G1 X86.460 Y74.969 E12.91659
G1 X86.460 Y74.467 E12.93131
G1 X101.033 Y89.040 E13.53698
G1 X101.534 Y89.040 E13.55170
G1 X86.460 Y73.966 E14.17820
G1 X86.460 Y73.465 E14.19292
G1 X102.035 Y89.040 E14.84024
G1 X102.536 Y89.040 E14.85497
G1 X86.460 Y72.964 E15.52311
G1 X86.460 Y72.463 E15.53784
G1 X103.037 Y89.040 E16.22682
G1 X103.538 Y89.040 E16.24154
G1 X86.460 Y71.962 E16.95134
G1 X86.460 Y71.461 E16.96607
G1 X104.039 Y89.040 E17.69670
G1 X104.520 Y89.020 E17.71085
G1 X86.480 Y70.980 E18.46065
G1 X86.961 Y70.960 E18.47480
G1 X104.540 Y88.539 E19.20543
G1 X104.540 Y88.038 E19.22015
G1 X87.462 Y70.960 E19.92996
G1 X87.963 Y70.960 E19.94468
G1 X104.540 Y87.537 E20.63366
G1 X104.540 Y87.036 E20.64838
G1 X88.464 Y70.960 E21.31653
G1 X88.965 Y70.960 E21.33126
G1 X104.540 Y86.535 E21.97858
G1 X104.540 Y86.034 E21.99330
G1 X89.466 Y70.960 E22.61979
G1 X89.967 Y70.960 E22.63452
G1 X104.540 Y85.533 E23.24018
G1 X104.540 Y85.031 E23.25491
G1 X90.469 Y70.960 E23.83975
G1 X90.970 Y70.960 E23.85447
G1 X104.540 Y84.530 E24.41848
G1 X104.540 Y84.029 E24.43321
G1 X91.471 Y70.960 E24.97639
G1 X91.972 Y70.960 E24.99112
G1 X104.540 Y83.528 E25.51347
G1 X104.540 Y83.027 E25.52820
G1 X92.473 Y70.960 E26.02972
G1 X92.974 Y70.960 E26.04445
G1 X104.540 Y82.526 E26.52515
G1 X104.540 Y82.025 E26.53987
G1 X93.475 Y70.960 E26.99974
G1 X93.977 Y70.960 E27.01447
G1 X104.540 Y81.523 E27.45351
G1 X104.540 Y81.022 E27.46824
G1 X94.478 Y70.960 E27.88646
G1 X94.979 Y70.960 E27.90118
G1 X104.540 Y80.521 E28.29857
G1 X104.540 Y80.020 E28.31330
G1 X95.480 Y70.960 E28.68986
G1 X95.981 Y70.960 E28.70458
G1 X104.541 Y79.519 E29.06032
G1 X104.541 Y79.018 E29.07504
G1 X96.482 Y70.960 E29.40995
G1 X96.983 Y70.960 E29.42467
G1 X104.541 Y78.517 E29.73875
G1 X104.541 Y78.015 E29.75348
G1 X97.485 Y70.960 E30.04673
G1 X97.986 Y70.960 E30.06146
G1 X104.541 Y77.514 E30.33388
G1 X104.541 Y77.013 E30.34860
G1 X98.487 Y70.960 E30.60020
G1 X98.988 Y70.960 E30.61493
G1 X104.541 Y76.512 E30.84569
G1 X104.541 Y76.011 E30.86042
G1 X99.489 Y70.960 E31.07036
