; generated by Slic3r 1.1.7 on 2014-11-27 at 17:31:31

; perimeters extrusion width = 0.40mm
; infill extrusion width = 0.67mm
; solid infill extrusion width = 0.67mm
; top infill extrusion width = 0.67mm

G21 ; set units to millimeters
M107
M190 S100 ; wait for bed temperature to be reached
M104 S250 ; set temperature
G28 ; home all axes
M109 S250 ; wait for temperature to be reached
G90 ; use absolute coordinates
G92 E0
M82 ; use absolute distances for extrusion
G1 F3000.000 E-4.00000
G1 Z0.500 F7800.000
G92 E0
G1 X86.718 Y86.497 F7800.000
G1 Z0.200 F7800.000
G1 E4.00000 F3000.000
G1 X88.382 Y85.481 E4.06484 F360.000
G1 X90.000 Y85.200 E4.11947
G1 X110.000 Y85.200 E4.78467
G1 X111.909 Y85.596 E4.84951
G1 X113.503 Y86.718 E4.91435 F360.000
G1 X114.519 Y88.382 E4.97918
G1 X114.800 Y90.000 E5.03382
G1 X114.800 Y110.000 E5.69902
G1 X114.404 Y111.909 E5.76386
G1 X113.282 Y113.503 E5.82869
G1 X111.618 Y114.519 E5.89353
G1 X110.000 Y114.800 E5.94816
G1 X90.000 Y114.800 E6.61337
G1 X88.091 Y114.404 E6.67820
G1 X86.497 Y113.282 E6.74304
G1 X85.481 Y111.618 E6.80787
G1 X85.200 Y110.000 E6.86251
G1 X85.200 Y90.000 E7.52771
G1 X85.596 Y88.091 E7.59255
G1 X86.684 Y86.546 E7.65539
G1 X87.059 Y86.751 F7800.000
G1 X87.111 Y86.682 E7.65828 F360.000
G1 X88.745 Y85.783 E7.72033
G1 X90.000 Y85.600 E7.76250
G1 X110.000 Y85.600 E8.42770
G1 X111.823 Y85.995 E8.48975
G1 X113.318 Y87.111 E8.55179 F360.000
G1 X114.217 Y88.745 E8.61384
G1 X114.400 Y90.000 E8.65601
G1 X114.400 Y110.000 E9.32121
G1 X114.005 Y111.823 E9.38326
G1 X112.889 Y113.318 E9.44530
G1 X111.255 Y114.217 E9.50735
G1 X110.000 Y114.400 E9.54952
G1 X90.000 Y114.400 E10.21472
G1 X88.177 Y114.005 E10.27677
G1 X86.682 Y112.889 E10.33881
G1 X85.783 Y111.255 E10.40086
G1 X85.600 Y110.000 E10.44303
G1 X85.600 Y90.000 E11.10823
G1 X85.995 Y88.177 E11.17028
G1 X87.023 Y86.799 E11.22743
G1 F3000.000 E7.22743
G1 Z0.500 F7800.000
G92 E0
G1 X89.800 Y89.917 F7800.000
G1 Z0.200 F7800.000
G1 E4.00000 F3000.000
G1 X89.917 Y89.800 E4.00551 F360.000
G1 X110.083 Y89.800 E4.67622
G1 X110.200 Y89.917 E4.68173
G1 X110.200 Y110.083 E5.35245
G1 X110.083 Y110.200 E5.35796
G1 X89.917 Y110.200 E6.02867
G1 X89.800 Y110.083 E6.03418
G1 X89.800 Y89.977 E6.70290
G1 F3000.000 E2.70290
G1 Z0.500 F7800.000
G92 E0
G1 X109.800 Y109.800 F7800.000
G1 Z0.200 F7800.000
G1 E4.00000 F3000.000
G1 X90.200 Y109.800 E4.65190 F270.000
G1 X90.200 Y90.200 E5.30380
G1 X109.800 Y90.200 E5.95570
G1 X109.800 Y109.740 E6.60560
G1 X109.454 Y109.600 F7800.000
G1 X109.400 Y109.400 F7800.000
G1 X90.600 Y109.400 E7.23089 F540.000
G1 X90.600 Y90.600 E7.85618
G1 X109.400 Y90.600 E8.48147
G1 X109.400 Y109.340 E9.10477
G1 X109.000 Y109.000 F7800.000
G1 X91.000 Y109.000 E9.70345 F540.000
G1 X91.000 Y91.000 E10.30213
G1 X109.000 Y91.000 E10.90081
G1 X109.000 Y108.940 E11.49750
G1 F3000.000 E7.49750
G1 Z0.500 F7800.000
G92 E0
G1 X108.690 Y91.270 F7800.000
G1 Z0.200 F7800.000
G1 E4.00000 F3000.000
G1 X108.730 Y91.310 E4.00188 F540.000
G1 X108.730 Y91.881 E4.02088
G1 X108.119 Y91.270 E4.04962
G1 X107.548 Y91.270 E4.06862
G1 X108.730 Y92.452 E4.12423
G1 X108.730 Y93.023 E4.14323
G1 X106.977 Y91.270 E4.22571
G1 X106.405 Y91.270 E4.24470
G1 X108.730 Y93.595 E4.35404
G1 X108.730 Y94.166 E4.37304
G1 X105.834 Y91.270 E4.50925
G1 X105.263 Y91.270 E4.52824
G1 X108.730 Y94.737 E4.69132
G1 X108.730 Y95.308 E4.71031
G1 X104.692 Y91.270 E4.90025
G1 X104.121 Y91.270 E4.91925
G1 X108.730 Y95.879 E5.13605
G1 X108.730 Y96.450 E5.15505
G1 X103.550 Y91.270 E5.39871
G1 X102.979 Y91.270 E5.41771
G1 X108.730 Y97.021 E5.68824
G1 X108.730 Y97.593 E5.70724
G1 X102.407 Y91.270 E6.00464
G1 X101.836 Y91.270 E6.02363
G1 X108.730 Y98.164 E6.34789
G1 X108.730 Y98.735 E6.36689
G1 X101.265 Y91.270 E6.71802
G1 X100.694 Y91.270 E6.73702
G1 X108.730 Y99.306 E7.11501
G1 X108.730 Y99.877 E7.13400
G1 X100.123 Y91.270 E7.53886
G1 X99.552 Y91.270 E7.55786
G1 X108.730 Y100.448 E7.98958
G1 X108.730 Y101.020 E8.00858
G1 X98.980 Y91.270 E8.46717
G1 X98.409 Y91.270 E8.48616
G1 X108.730 Y101.591 E8.97162
G1 X108.730 Y102.162 E8.99061
G1 X97.838 Y91.270 E9.50293
G1 X97.267 Y91.270 E9.52193
G1 X108.730 Y102.733 E10.06111
G1 X108.730 Y103.304 E10.08011
G1 X96.696 Y91.270 E10.64616
G1 X96.125 Y91.270 E10.66515
G1 X108.730 Y103.875 E11.25807
G1 X108.730 Y104.446 E11.27706
G1 X95.554 Y91.270 E11.89684
G1 X94.982 Y91.270 E11.91584
G1 X108.730 Y105.018 E12.56248
G1 X108.730 Y105.589 E12.58148
G1 X94.411 Y91.270 E13.25499
G1 X93.840 Y91.270 E13.27398
G1 X108.730 Y106.160 E13.97436
G1 X108.730 Y106.731 E13.99335
G1 X93.269 Y91.270 E14.72059
G1 X92.698 Y91.270 E14.73959
G1 X108.730 Y107.302 E15.49369
G1 X108.730 Y107.873 E15.51269
G1 X92.127 Y91.270 E16.29366
G1 X91.556 Y91.270 E16.31266
G1 X108.730 Y108.444 E17.12049
G1 X108.444 Y108.730 E17.13392
G1 X91.270 Y91.556 E17.94176
G1 X91.270 Y92.127 E17.96075
G1 X107.873 Y108.730 E18.74172
G1 X107.302 Y108.730 E18.76072
G1 X91.270 Y92.698 E19.51482
G1 X91.270 Y93.269 E19.53382
G1 X106.731 Y108.730 E20.26106
G1 X106.160 Y108.730 E20.28005
G1 X91.270 Y93.840 E20.98043
G1 X91.270 Y94.411 E20.99942
G1 X105.589 Y108.730 E21.67293
G1 X105.018 Y108.730 E21.69193
G1 X91.270 Y94.982 E22.33857
G1 X91.270 Y95.554 E22.35757
G1 X104.446 Y108.730 E22.97735
G1 X103.875 Y108.730 E22.99635
G1 X91.270 Y96.125 E23.58926
G1 X91.270 Y96.696 E23.60826
G1 X103.304 Y108.730 E24.17430
G1 X102.733 Y108.730 E24.19330
G1 X91.270 Y97.267 E24.73248
G1 X91.270 Y97.838 E24.75148
G1 X102.162 Y108.730 E25.26380
G1 X101.591 Y108.730 E25.28279
G1 X91.270 Y98.409 E25.76825
G1 X91.270 Y98.980 E25.78724
G1 X101.020 Y108.730 E26.24583
G1 X100.448 Y108.730 E26.26483
G1 X91.270 Y99.552 E26.69655
G1 X91.270 Y100.123 E26.71555
G1 X99.877 Y108.730 E27.12041
G1 X99.306 Y108.730 E27.13940
G1 X91.270 Y100.694 E27.51740
G1 X91.270 Y101.265 E27.53639
G1 X98.735 Y108.730 E27.88752
G1 X98.164 Y108.730 E27.90652
G1 X91.270 Y101.836 E28.23078
G1 X91.270 Y102.407 E28.24978
G1 X97.593 Y108.730 E28.54717
G1 X97.021 Y108.730 E28.56617
G1 X91.270 Y102.979 E28.83670
G1 X91.270 Y103.550 E28.85570
G1 X96.450 Y108.730 E29.09937
G1 X95.879 Y108.730 E29.11836
G1 X91.270 Y104.121 E29.33516
G1 X91.270 Y104.692 E29.35416
G1 X95.308 Y108.730 E29.54410
G1 X94.737 Y108.730 E29.56309
G1 X91.270 Y105.263 E29.72617
G1 X91.270 Y105.834 E29.74516
G1 X94.166 Y108.730 E29.88137
G1 X93.595 Y108.730 E29.90037
G1 X91.270 Y106.405 E30.00971
G1 X91.270 Y106.977 E30.02870
G1 X93.023 Y108.730 E30.11118
G1 X92.452 Y108.730 E30.13018
G1 X91.270 Y107.548 E30.18579
G1 X91.270 Y108.119 E30.20479
G1 X91.881 Y108.730 E30.23353
G1 X91.310 Y108.730 E30.25253
G1 X91.270 Y108.690 E30.25441
M106 S211
M104 S245 ; set temperature
M140 S90 ; set bed temperature
G1 F3000.000 E26.25441
G1 Z0.700 F7800.000
G92 E0
G1 X109.000 Y109.000 F7800.000
G1 Z0.400 F7800.000
G1 E4.00000 F3000.000
G1 X91.000 Y109.000 E4.59868 F1800.000
G1 X91.000 Y91.000 E5.19736
G1 X109.000 Y91.000 E5.79605
G1 X109.000 Y108.940 E6.39273
G1 X109.400 Y109.400 F7800.000
G1 X90.600 Y109.400 E7.01802 F1800.000
G1 X90.600 Y90.600 E7.64332
G1 X109.400 Y90.600 E8.26861
G1 X109.400 Y109.340 E8.89190
G1 X109.800 Y109.800 F7800.000
G1 X90.200 Y109.800 E9.54380 F900.000
G1 X90.200 Y90.200 E10.19570
G1 X109.800 Y90.200 E10.84760
G1 X109.800 Y109.740 E11.49750
G1 X109.454 Y109.600 F7800.000
G1 X108.679 Y108.639 F7800.000
G1 X108.639 Y108.679 E11.50046 F1800.000
G1 X107.727 Y108.679 E11.54807
G1 X108.679 Y107.727 E11.61837
G1 X108.679 Y106.816 E11.66599
G1 X106.816 Y108.679 E11.80363
G1 X105.904 Y108.679 E11.85125
G1 X108.679 Y105.904 E12.05623
G1 X108.679 Y104.993 E12.10385
G1 X104.993 Y108.679 E12.37617
G1 X104.081 Y108.679 E12.42379
G1 X108.679 Y104.081 E12.76345
G1 X108.679 Y103.170 E12.81107
G1 X103.170 Y108.679 E13.21808
G1 X102.259 Y108.679 E13.26569
G1 X108.679 Y102.259 E13.74004
G1 X108.679 Y101.347 E13.78766
G1 X101.347 Y108.679 E14.32935
G1 X100.436 Y108.679 E14.37697
G1 X108.679 Y100.436 E14.98600
G1 X108.679 Y99.524 E15.03362
G1 X99.524 Y108.679 E15.70999
G1 X98.613 Y108.679 E15.75761
G1 X108.679 Y98.613 E16.50133
G1 X108.679 Y97.701 E16.54895
G1 X97.701 Y108.679 E17.36001
G1 X96.790 Y108.679 E17.40762
G1 X108.679 Y96.790 E18.28602
G1 X108.679 Y95.879 E18.33364
G1 X95.879 Y108.679 E19.27938
G1 X94.967 Y108.679 E19.32700
G1 X108.679 Y94.967 E20.34009
G1 X108.679 Y94.056 E20.38770
G1 X94.056 Y108.679 E21.46813
G1 X93.144 Y108.679 E21.51575
G1 X108.679 Y93.144 E22.66352
G1 X108.679 Y92.233 E22.71113
G1 X92.233 Y108.679 E23.92624
G1 X91.341 Y108.659 E23.97283
G1 X108.659 Y91.341 E25.25232
G1 X107.767 Y91.321 E25.29891
G1 X91.321 Y107.767 E26.51402
G1 X91.321 Y106.856 E26.56164
G1 X106.856 Y91.321 E27.70941
G1 X105.944 Y91.321 E27.75702
G1 X91.321 Y105.944 E28.83745
G1 X91.321 Y105.033 E28.88507
G1 X105.033 Y91.321 E29.89815
G1 X104.121 Y91.321 E29.94577
G1 X91.321 Y104.121 E30.89151
G1 X91.321 Y103.210 E30.93913
G1 X103.210 Y91.321 E31.81753
G1 X102.299 Y91.321 E31.86515
G1 X91.321 Y102.299 E32.67621
G1 X91.321 Y101.387 E32.72382
G1 X101.387 Y91.321 E33.46754
G1 X100.476 Y91.321 E33.51516
G1 X91.321 Y100.476 E34.19153
G1 X91.321 Y99.564 E34.23915
G1 X99.564 Y91.321 E34.84818
G1 X98.653 Y91.321 E34.89580
G1 X91.321 Y98.653 E35.43749
G1 X91.321 Y97.741 E35.48511
G1 X97.741 Y91.321 E35.95946
G1 X96.830 Y91.321 E36.00708
G1 X91.321 Y96.830 E36.41408
G1 X91.321 Y95.919 E36.46170
G1 X95.919 Y91.321 E36.80137
G1 X95.007 Y91.321 E36.84899
G1 X91.321 Y95.007 E37.12131
G1 X91.321 Y94.096 E37.16893
G1 X94.096 Y91.321 E37.37391
G1 X93.184 Y91.321 E37.42153
G1 X91.321 Y93.184 E37.55916
G1 X91.321 Y92.273 E37.60678
G1 X92.273 Y91.321 E37.67708
G1 X91.361 Y91.321 E37.72470
G1 X91.321 Y91.361 E37.72765
M106 S211
G1 F3000.000 E33.72765
G1 Z0.900 F7800.000
G92 E0
G1 X109.000 Y109.000 F7800.000
G1 Z0.600 F7800.000
G1 E4.00000 F3000.000
G1 X91.000 Y109.000 E4.59868 F1800.000
G1 X91.000 Y91.000 E5.19736
G1 X109.000 Y91.000 E5.79605
G1 X109.000 Y108.940 E6.39273
G1 X109.400 Y109.400 F7800.000
G1 X90.600 Y109.400 E7.01802 F1800.000
G1 X90.600 Y90.600 E7.64332
G1 X109.400 Y90.600 E8.26861
G1 X109.400 Y109.340 E8.89190
G1 X109.800 Y109.800 F7800.000
G1 X90.200 Y109.800 E9.54380 F900.000
G1 X90.200 Y90.200 E10.19570
G1 X109.800 Y90.200 E10.84760
G1 X109.800 Y109.740 E11.49750
G1 X109.454 Y109.600 F7800.000
G1 F3000.000 E7.49750
G1 Z0.900 F7800.000
G92 E0
G1 X91.361 Y108.679 F7800.000
G1 Z0.600 F7800.000
G1 E4.00000 F3000.000
G1 X91.321 Y108.639 E4.00296 F1800.000
G1 X91.321 Y107.727 E4.05057
G1 X92.273 Y108.679 E4.12087
G1 X93.184 Y108.679 E4.16849
G1 X91.321 Y106.816 E4.30613
G1 X91.321 Y105.904 E4.35375
G1 X94.096 Y108.679 E4.55873
G1 X95.007 Y108.679 E4.60634
G1 X91.321 Y104.993 E4.87867
G1 X91.321 Y104.081 E4.92629
G1 X95.919 Y108.679 E5.26595
G1 X96.830 Y108.679 E5.31357
G1 X91.321 Y103.170 E5.72058
G1 X91.321 Y102.259 E5.76819
G1 X97.741 Y108.679 E6.24254
G1 X98.653 Y108.679 E6.29016
G1 X91.321 Y101.347 E6.83185
G1 X91.321 Y100.436 E6.87947
G1 X99.564 Y108.679 E7.48850
G1 X100.476 Y108.679 E7.53612
G1 X91.321 Y99.524 E8.21249
G1 X91.321 Y98.613 E8.26011
G1 X101.387 Y108.679 E9.00383
G1 X102.299 Y108.679 E9.05145
G1 X91.321 Y97.701 E9.86250
G1 X91.321 Y96.790 E9.91012
G1 X103.210 Y108.679 E10.78852
G1 X104.121 Y108.679 E10.83614
G1 X91.321 Y95.879 E11.78188
G1 X91.321 Y94.967 E11.82950
G1 X105.033 Y108.679 E12.84259
G1 X105.944 Y108.679 E12.89020
G1 X91.321 Y94.056 E13.97063
G1 X91.321 Y93.144 E14.01825
G1 X106.856 Y108.679 E15.16602
G1 X107.767 Y108.679 E15.21363
G1 X91.321 Y92.233 E16.42874
G1 X91.341 Y91.341 E16.47533
G1 X108.659 Y108.659 E17.75482
G1 X108.679 Y107.767 E17.80141
G1 X92.233 Y91.321 E19.01652
G1 X93.144 Y91.321 E19.06414
G1 X108.679 Y106.856 E20.21190
G1 X108.679 Y105.944 E20.25952
G1 X94.056 Y91.321 E21.33995
G1 X94.967 Y91.321 E21.38757
G1 X108.679 Y105.033 E22.40065
G1 X108.679 Y104.121 E22.44827
G1 X95.879 Y91.321 E23.39401
G1 X96.790 Y91.321 E23.44163
G1 X108.679 Y103.210 E24.32003
G1 X108.679 Y102.299 E24.36765
G1 X97.701 Y91.321 E25.17871
G1 X98.613 Y91.321 E25.22632
G1 X108.679 Y101.387 E25.97004
G1 X108.679 Y100.476 E26.01766
G1 X99.524 Y91.321 E26.69403
G1 X100.436 Y91.321 E26.74165
G1 X108.679 Y99.564 E27.35068
G1 X108.679 Y98.653 E27.39830
G1 X101.347 Y91.321 E27.93999
G1 X102.259 Y91.321 E27.98761
G1 X108.679 Y97.741 E28.46196
G1 X108.679 Y96.830 E28.50958
G1 X103.170 Y91.321 E28.91658
G1 X104.081 Y91.321 E28.96420
G1 X108.679 Y95.919 E29.30387
G1 X108.679 Y95.007 E29.35148
G1 X104.993 Y91.321 E29.62381
G1 X105.904 Y91.321 E29.67143
G1 X108.679 Y94.096 E29.87641
G1 X108.679 Y93.184 E29.92402
G1 X106.816 Y91.321 E30.06166
G1 X107.727 Y91.321 E30.10928
G1 X108.679 Y92.273 E30.17958
G1 X108.679 Y91.361 E30.22720
G1 X108.639 Y91.321 E30.23015
M106 S245
G1 F3000.000 E26.23015
G1 Z1.100 F7800.000
G92 E0
G1 X109.000 Y109.000 F7800.000
G1 Z0.800 F7800.000
G1 E4.00000 F3000.000
G1 X91.000 Y109.000 E4.59868 F1800.000
G1 X91.000 Y91.000 E5.19736
G1 X109.000 Y91.000 E5.79605
G1 X109.000 Y108.940 E6.39273
G1 X109.400 Y109.400 F7800.000
G1 X90.600 Y109.400 E7.01802 F1800.000
G1 X90.600 Y90.600 E7.64332
G1 X109.400 Y90.600 E8.26861
G1 X109.400 Y109.340 E8.89190
G1 X109.800 Y109.800 F7800.000
G1 X90.200 Y109.800 E9.54380 F900.000
G1 X90.200 Y90.200 E10.19570
G1 X109.800 Y90.200 E10.84760
G1 X109.800 Y109.740 E11.49750
G1 X109.454 Y109.600 F7800.000
G1 X108.679 Y108.569 F7800.000
G1 X108.569 Y108.679 E11.50561 F1800.000
G1 X106.347 Y108.679 E11.62167
G1 X108.679 Y106.347 E11.79391
G1 X108.679 Y104.126 E11.90997
G1 X104.126 Y108.679 E12.24635
G1 X101.905 Y108.679 E12.36240
G1 X108.679 Y101.905 E12.86291
G1 X108.679 Y99.683 E12.97897
G1 X99.683 Y108.679 E13.64361
G1 X97.462 Y108.679 E13.75967
G1 X108.679 Y97.462 E14.58844
G1 X108.679 Y95.240 E14.70450
G1 X95.240 Y108.679 E15.69740
G1 X93.019 Y108.679 E15.81346
G1 X108.679 Y93.019 E16.97049
G1 X108.155 Y91.321 E17.06331
G1 X91.321 Y108.155 E18.30704
G1 X91.321 Y105.933 E18.42310
G1 X105.933 Y91.321 E19.50270
G1 X103.712 Y91.321 E19.61876
G1 X91.321 Y103.712 E20.53423
G1 X91.321 Y101.490 E20.65029
G1 X101.490 Y91.321 E21.40163
G1 X99.269 Y91.321 E21.51768
G1 X91.321 Y99.269 E22.10489
G1 X91.321 Y97.047 E22.22095
G1 X97.047 Y91.321 E22.64402
G1 X94.826 Y91.321 E22.76008
G1 X91.321 Y94.826 E23.01902
G1 X91.321 Y92.605 E23.13508
G1 X92.605 Y91.321 E23.22989
M106 S245
G1 F3000.000 E19.22989
G1 Z1.300 F7800.000
G92 E0
G1 X109.000 Y109.000 F7800.000
G1 Z1.000 F7800.000
G1 E4.00000 F3000.000
G1 X91.000 Y109.000 E4.59868 F1800.000
G1 X91.000 Y91.000 E5.19736
G1 X109.000 Y91.000 E5.79605
G1 X109.000 Y108.940 E6.39273
G1 X109.400 Y109.400 F7800.000
G1 X90.600 Y109.400 E7.01802 F1800.000
G1 X90.600 Y90.600 E7.64332
G1 X109.400 Y90.600 E8.26861
G1 X109.400 Y109.340 E8.89190
G1 X109.800 Y109.800 F7800.000
G1 X90.200 Y109.800 E9.54380 F900.000
G1 X90.200 Y90.200 E10.19570
G1 X109.800 Y90.200 E10.84760
G1 X109.800 Y109.740 E11.49750
G1 X109.454 Y109.600 F7800.000
G1 F3000.000 E7.49750
G1 Z1.300 F7800.000
G92 E0
G1 X91.321 Y107.466 F7800.000
G1 Z1.000 F7800.000
G1 E4.00000 F3000.000
G1 X92.534 Y108.679 E4.08961 F1800.000
G1 X94.756 Y108.679 E4.20566
G1 X91.321 Y105.244 E4.45940
G1 X91.321 Y103.023 E4.57546
G1 X96.977 Y108.679 E4.99333
G1 X99.198 Y108.679 E5.10939
G1 X91.321 Y100.802 E5.69139
G1 X91.321 Y98.580 E5.80745
G1 X101.420 Y108.679 E6.55358
G1 X103.641 Y108.679 E6.66964
G1 X91.321 Y96.359 E7.57991
G1 X91.321 Y94.137 E7.69597
G1 X105.863 Y108.679 E8.77036
G1 X108.084 Y108.679 E8.88642
G1 X91.321 Y91.916 E10.12495
G1 X92.948 Y91.321 E10.21545
G1 X108.679 Y107.052 E11.37769
G1 X108.679 Y104.830 E11.49375
G1 X95.170 Y91.321 E12.49185
G1 X97.391 Y91.321 E12.60791
G1 X108.679 Y102.609 E13.44189
G1 X108.679 Y100.387 E13.55795
G1 X99.613 Y91.321 E14.22779
G1 X101.834 Y91.321 E14.34385
G1 X108.679 Y98.166 E14.84956
G1 X108.679 Y95.944 E14.96562
G1 X104.056 Y91.321 E15.30720
G1 X106.277 Y91.321 E15.42326
G1 X108.679 Y93.723 E15.60070
G1 X108.679 Y91.502 E15.71676
G1 X108.498 Y91.321 E15.73008
M106 S245
G1 F3000.000 E11.73008
G1 Z1.500 F7800.000
G92 E0
G1 X109.000 Y109.000 F7800.000
G1 Z1.200 F7800.000
G1 E4.00000 F3000.000
