; generated by Slic3r 1.1.7 on 2014-12-20 at 08:32:57

; perimeters extrusion width = 0.40mm
; infill extrusion width = 0.67mm
; solid infill extrusion width = 0.67mm
; top infill extrusion width = 0.67mm
; support material extrusion width = 0.40mm

G21 ; set units to millimeters
M190 S60 ; wait for bed temperature to be reached
M104 S186 ; set temperature
G28 ; home all axes Start of G Code Slic3r
 
M109 S186 ; wait for temperature to be reached
G90 ; use absolute coordinates
G92 E0
M82 ; use absolute distances for extrusion
G1 F1860.000 E-3.00000
G92 E0
G1 Z0.200 F6000.000
G1 X82.312 Y83.214 F6000.000
G1 E3.10000 F1860.000
G1 X84.069 Y81.712 E3.14202 F1200.000
G1 X86.230 Y80.892 E3.18404
G1 X87.500 Y80.771 E3.20723
G1 X112.500 Y80.771 E3.66170
G1 X114.777 Y81.168 E3.70373
G1 X116.786 Y82.312 E3.74575 F1200.000
G1 X118.288 Y84.069 E3.78777
G1 X119.108 Y86.230 E3.82979
G1 X119.229 Y87.500 E3.85298
G1 X119.229 Y112.500 E4.30745
G1 X118.832 Y114.777 E4.34947
G1 X117.688 Y116.786 E4.39149
G1 X115.931 Y118.288 E4.43351
G1 X113.770 Y119.108 E4.47553
G1 X112.500 Y119.229 E4.49872
G1 X87.500 Y119.229 E4.95320
G1 X85.223 Y118.832 E4.99522
G1 X83.214 Y117.688 E5.03724
G1 X81.712 Y115.931 E5.07926
G1 X80.892 Y113.770 E5.12128
G1 X80.771 Y112.500 E5.14447
G1 X80.771 Y87.500 E5.59894
G1 X81.168 Y85.223 E5.64096
G1 X82.283 Y83.267 E5.68189
G1 X82.532 Y83.342 F6000.000
G1 X82.553 Y83.305 E5.68267 F1200.000
G1 X84.301 Y81.858 E5.72392
G1 X87.500 Y81.014 E5.78407
G1 X112.500 Y81.014 E6.23854
G1 X114.734 Y81.411 E6.27979
G1 X116.695 Y82.553 E6.32104 F1200.000
G1 X118.142 Y84.301 E6.36229
G1 X118.986 Y87.500 E6.42244
G1 X118.986 Y112.500 E6.87691
G1 X118.589 Y114.734 E6.91816
G1 X117.447 Y116.695 E6.95941
G1 X115.699 Y118.142 E7.00066
G1 X112.500 Y118.986 E7.06081
G1 X87.500 Y118.986 E7.51528
G1 X85.266 Y118.589 E7.55653
G1 X83.305 Y117.447 E7.59778
G1 X81.858 Y115.699 E7.63903
G1 X81.014 Y112.500 E7.69918
G1 X81.014 Y87.500 E8.15365
G1 X81.411 Y85.266 E8.19490
G1 X82.502 Y83.394 E8.23429
G1 X82.750 Y83.472 F6000.000
G1 X82.794 Y83.398 E8.23585 F1200.000
G1 X84.532 Y82.008 E8.27632
G1 X87.500 Y81.257 E8.33197
G1 X112.500 Y81.257 E8.78645
G1 X114.690 Y81.654 E8.82691
G1 X116.602 Y82.794 E8.86737 F1200.000
G1 X117.992 Y84.532 E8.90784
G1 X118.743 Y87.500 E8.96349
G1 X118.743 Y112.500 E9.41797
G1 X118.346 Y114.690 E9.45843
G1 X117.206 Y116.602 E9.49889
G1 X115.468 Y117.992 E9.53936
G1 X112.500 Y118.743 E9.59501
G1 X87.500 Y118.743 E10.04949
G1 X85.310 Y118.346 E10.08995
G1 X83.398 Y117.206 E10.13041
G1 X82.008 Y115.468 E10.17088
G1 X81.257 Y112.500 E10.22653
G1 X81.257 Y87.500 E10.68100
G1 X81.654 Y85.310 E10.72147
G1 X82.719 Y83.524 E10.75927
G1 F1860.000 E7.75927
G92 E0
G1 X112.157 Y112.157 F6000.000
G1 E3.10000 F1860.000
G1 X87.843 Y112.157 E3.54201 F1200.000
G1 X87.843 Y87.843 E3.98402
G1 X112.157 Y87.843 E4.42602
G1 X112.157 Y112.097 E4.86694
G1 X112.400 Y112.400 F6000.000
G1 X87.600 Y112.400 E5.31778 F1200.000
G1 X87.600 Y87.600 E5.76862
G1 X112.400 Y87.600 E6.21946
G1 X112.400 Y112.340 E6.66921
G1 X112.054 Y112.200 F6000.000
G1 F1860.000 E3.66921
G92 E0
G1 X87.999 Y111.961 F6000.000
G1 E3.10000 F1860.000
G1 X88.039 Y112.001 E3.10103 F1200.000
G1 X88.384 Y112.001 E3.10730
G1 X87.999 Y111.616 E3.11719
G1 X87.999 Y111.271 E3.12346
G1 X88.729 Y112.001 E3.14221
G1 X89.073 Y112.001 E3.14848
G1 X87.999 Y110.927 E3.17610
G1 X87.999 Y110.582 E3.18237
G1 X89.418 Y112.001 E3.21885
G1 X89.763 Y112.001 E3.22512
G1 X87.999 Y110.237 E3.27047
G1 X87.999 Y109.892 E3.27673
G1 X90.108 Y112.001 E3.33095
G1 X90.452 Y112.001 E3.33721
G1 X87.999 Y109.548 E3.40029
G1 X87.999 Y109.203 E3.40656
G1 X90.797 Y112.001 E3.47850
G1 X91.142 Y112.001 E3.48476
G1 X87.999 Y108.858 E3.56557
G1 X87.999 Y108.513 E3.57183
G1 X91.487 Y112.001 E3.66150
G1 X91.832 Y112.001 E3.66777
G1 X87.999 Y108.168 E3.76630
G1 X87.999 Y107.824 E3.77257
G1 X92.176 Y112.001 E3.87996
G1 X92.521 Y112.001 E3.88623
G1 X87.999 Y107.479 E4.00249
G1 X87.999 Y107.134 E4.00876
G1 X92.866 Y112.001 E4.13388
G1 X93.211 Y112.001 E4.14015
G1 X87.999 Y106.789 E4.27413
G1 X87.999 Y106.445 E4.28040
G1 X93.555 Y112.001 E4.42325
G1 X93.900 Y112.001 E4.42952
G1 X87.999 Y106.100 E4.58123
G1 X87.999 Y105.755 E4.58750
G1 X94.245 Y112.001 E4.74808
G1 X94.590 Y112.001 E4.75435
G1 X87.999 Y105.410 E4.92379
G1 X87.999 Y105.065 E4.93006
G1 X94.935 Y112.001 E5.10836
G1 X95.279 Y112.001 E5.11463
G1 X87.999 Y104.721 E5.30180
G1 X87.999 Y104.376 E5.30807
G1 X95.624 Y112.001 E5.50410
G1 X95.969 Y112.001 E5.51037
G1 X87.999 Y104.031 E5.71526
G1 X87.999 Y103.686 E5.72153
G1 X96.314 Y112.001 E5.93529
G1 X96.658 Y112.001 E5.94156
G1 X87.999 Y103.342 E6.16419
G1 X87.999 Y102.997 E6.17045
G1 X97.003 Y112.001 E6.40194
G1 X97.348 Y112.001 E6.40821
G1 X87.999 Y102.652 E6.64856
G1 X87.999 Y102.307 E6.65483
G1 X97.693 Y112.001 E6.90405
G1 X98.038 Y112.001 E6.91031
G1 X87.999 Y101.962 E7.16839
G1 X87.999 Y101.618 E7.17466
G1 X98.382 Y112.001 E7.44161
G1 X98.727 Y112.001 E7.44787
G1 X87.999 Y101.273 E7.72368
G1 X87.999 Y100.928 E7.72995
G1 X99.072 Y112.001 E8.01462
G1 X99.417 Y112.001 E8.02089
G1 X87.999 Y100.583 E8.31443
G1 X87.999 Y100.239 E8.32069
G1 X99.761 Y112.001 E8.62309
G1 X100.106 Y112.001 E8.62936
G1 X87.999 Y99.894 E8.94062
G1 X87.999 Y99.549 E8.94689
G1 X100.451 Y112.001 E9.26702
G1 X100.796 Y112.001 E9.27329
G1 X87.999 Y99.204 E9.60228
G1 X87.999 Y98.859 E9.60855
G1 X101.141 Y112.001 E9.94640
G1 X101.485 Y112.001 E9.95267
G1 X87.999 Y98.515 E10.29939
G1 X87.999 Y98.170 E10.30566
G1 X101.830 Y112.001 E10.66124
G1 X102.175 Y112.001 E10.66751
G1 X87.999 Y97.825 E11.03195
G1 X87.999 Y97.480 E11.03822
G1 X102.520 Y112.001 E11.41153
G1 X102.864 Y112.001 E11.41780
G1 X87.999 Y97.136 E11.79997
G1 X87.999 Y96.791 E11.80624
G1 X103.209 Y112.001 E12.19728
G1 X103.554 Y112.001 E12.20355
G1 X87.999 Y96.446 E12.60345
G1 X87.999 Y96.101 E12.60972
G1 X103.899 Y112.001 E13.01848
G1 X104.244 Y112.001 E13.02475
G1 X87.999 Y95.756 E13.44238
G1 X87.999 Y95.412 E13.44865
G1 X104.588 Y112.001 E13.87514
G1 X104.933 Y112.001 E13.88141
G1 X87.999 Y95.067 E14.31677
G1 X87.999 Y94.722 E14.32304
G1 X105.278 Y112.001 E14.76726
G1 X105.623 Y112.001 E14.77353
G1 X87.999 Y94.377 E15.22661
G1 X87.999 Y94.033 E15.23288
G1 X105.967 Y112.001 E15.69483
G1 X106.312 Y112.001 E15.70110
G1 X87.999 Y93.688 E16.17191
G1 X87.999 Y93.343 E16.17818
G1 X106.657 Y112.001 E16.65785
G1 X107.002 Y112.001 E16.66412
G1 X87.999 Y92.998 E17.15266
G1 X87.999 Y92.653 E17.15893
G1 X107.347 Y112.001 E17.65634
G1 X107.691 Y112.001 E17.66260
G1 X87.999 Y92.309 E18.16887
G1 X87.999 Y91.964 E18.17514
G1 X108.036 Y112.001 E18.69027
G1 X108.381 Y112.001 E18.69654
G1 X87.999 Y91.619 E19.22054
G1 X87.999 Y91.274 E19.22680
G1 X108.726 Y112.001 E19.75966
G1 X109.070 Y112.001 E19.76593
G1 X87.999 Y90.930 E20.30766
G1 X87.999 Y90.585 E20.31392
G1 X109.415 Y112.001 E20.86451
G1 X109.760 Y112.001 E20.87078
G1 X87.999 Y90.240 E21.43023
G1 X87.999 Y89.895 E21.43650
G1 X110.105 Y112.001 E22.00481
G1 X110.449 Y112.001 E22.01108
G1 X87.999 Y89.551 E22.58826
G1 X87.999 Y89.206 E22.59453
G1 X110.794 Y112.001 E23.18057
G1 X111.139 Y112.001 E23.18684
G1 X87.999 Y88.861 E23.78175
G1 X87.999 Y88.516 E23.78802
G1 X111.484 Y112.001 E24.39179
G1 X111.829 Y112.001 E24.39805
G1 X87.999 Y88.171 E25.01069
G1 X88.171 Y87.999 E25.01512
G1 X112.001 Y111.829 E25.62776
G1 X112.001 Y111.484 E25.63402
G1 X88.516 Y87.999 E26.23780
G1 X88.861 Y87.999 E26.24406
G1 X112.001 Y111.139 E26.83897
G1 X112.001 Y110.794 E26.84524
G1 X89.206 Y87.999 E27.43128
G1 X89.551 Y87.999 E27.43755
G1 X112.001 Y110.449 E28.01473
G1 X112.001 Y110.105 E28.02100
G1 X89.895 Y87.999 E28.58931
G1 X90.240 Y87.999 E28.59558
G1 X112.001 Y109.760 E29.15503
G1 X112.001 Y109.415 E29.16130
G1 X90.585 Y87.999 E29.71189
G1 X90.930 Y87.999 E29.71816
G1 X112.001 Y109.070 E30.25988
G1 X112.001 Y108.726 E30.26615
G1 X91.274 Y87.999 E30.79901
G1 X91.619 Y87.999 E30.80528
G1 X112.001 Y108.381 E31.32927
G1 X112.001 Y108.036 E31.33554
G1 X91.964 Y87.999 E31.85067
G1 X92.309 Y87.999 E31.85694
G1 X112.001 Y107.691 E32.36321
G1 X112.001 Y107.347 E32.36948
G1 X92.653 Y87.999 E32.86688
G1 X92.998 Y87.999 E32.87315
G1 X112.001 Y107.002 E33.36169
G1 X112.001 Y106.657 E33.36796
G1 X93.343 Y87.999 E33.84763
G1 X93.688 Y87.999 E33.85390
G1 X112.001 Y106.312 E34.32472
G1 X112.001 Y105.967 E34.33098
G1 X94.033 Y87.999 E34.79293
G1 X94.377 Y87.999 E34.79920
G1 X112.001 Y105.623 E35.25229
G1 X112.001 Y105.278 E35.25855
G1 X94.722 Y87.999 E35.70277
G1 X95.067 Y87.999 E35.70904
G1 X112.001 Y104.933 E36.14440
G1 X112.001 Y104.588 E36.15067
G1 X95.412 Y87.999 E36.57716
G1 X95.756 Y87.999 E36.58343
G1 X112.001 Y104.244 E37.00106
G1 X112.001 Y103.899 E37.00733
G1 X96.101 Y87.999 E37.41609
G1 X96.446 Y87.999 E37.42236
G1 X112.001 Y103.554 E37.82226
G1 X112.001 Y103.209 E37.82853
G1 X96.791 Y87.999 E38.21957
G1 X97.136 Y87.999 E38.22584
G1 X112.001 Y102.864 E38.60801
G1 X112.001 Y102.520 E38.61428
G1 X97.480 Y87.999 E38.98759
G1 X97.825 Y87.999 E38.99386
G1 X112.001 Y102.175 E39.35830
G1 X112.001 Y101.830 E39.36457
G1 X98.170 Y87.999 E39.72016
G1 X98.515 Y87.999 E39.72642
G1 X112.001 Y101.485 E40.07314
G1 X112.001 Y101.141 E40.07941
G1 X98.859 Y87.999 E40.41727
G1 X99.204 Y87.999 E40.42353
G1 X112.001 Y100.796 E40.75252
G1 X112.001 Y100.451 E40.75879
G1 X99.549 Y87.999 E41.07892
G1 X99.894 Y87.999 E41.08519
G1 X112.001 Y100.106 E41.39645
G1 X112.001 Y99.761 E41.40272
G1 X100.239 Y87.999 E41.70512
G1 X100.583 Y87.999 E41.71139
G1 X112.001 Y99.417 E42.00492
G1 X112.001 Y99.072 E42.01119
G1 X100.928 Y87.999 E42.29586
G1 X101.273 Y87.999 E42.30213
G1 X112.001 Y98.727 E42.57794
G1 X112.001 Y98.382 E42.58421
G1 X101.618 Y87.999 E42.85115
G1 X101.962 Y87.999 E42.85742
G1 X112.001 Y98.038 E43.11550
G1 X112.001 Y97.693 E43.12177
G1 X102.307 Y87.999 E43.37098
G1 X102.652 Y87.999 E43.37725
G1 X112.001 Y97.348 E43.61760
G1 X112.001 Y97.003 E43.62387
G1 X102.997 Y87.999 E43.85536
G1 X103.342 Y87.999 E43.86163
G1 X112.001 Y96.658 E44.08425
G1 X112.001 Y96.314 E44.09052
G1 X103.686 Y87.999 E44.30428
G1 X104.031 Y87.999 E44.31055
G1 X112.001 Y95.969 E44.51545
G1 X112.001 Y95.624 E44.52171
G1 X104.376 Y87.999 E44.71775
G1 X104.721 Y87.999 E44.72401
G1 X112.001 Y95.279 E44.91118
G1 X112.001 Y94.935 E44.91745
G1 X105.065 Y87.999 E45.09576
G1 X105.410 Y87.999 E45.10202
G1 X112.001 Y94.590 E45.27147
G1 X112.001 Y94.245 E45.27773
G1 X105.755 Y87.999 E45.43831
G1 X106.100 Y87.999 E45.44458
G1 X112.001 Y93.900 E45.59629
G1 X112.001 Y93.555 E45.60256
G1 X106.445 Y87.999 E45.74541
G1 X106.789 Y87.999 E45.75168
G1 X112.001 Y93.211 E45.88567
G1 X112.001 Y92.866 E45.89193
G1 X107.134 Y87.999 E46.01706
G1 X107.479 Y87.999 E46.02332
G1 X112.001 Y92.521 E46.13958
G1 X112.001 Y92.176 E46.14585
G1 X107.824 Y87.999 E46.25325
G1 X108.168 Y87.999 E46.25951
G1 X112.001 Y91.832 E46.35804
G1 X112.001 Y91.487 E46.36431
G1 X108.513 Y87.999 E46.45398
G1 X108.858 Y87.999 E46.46025
G1 X112.001 Y91.142 E46.54105
G1 X112.001 Y90.797 E46.54732
G1 X109.203 Y87.999 E46.61926
G1 X109.548 Y87.999 E46.62552
G1 X112.001 Y90.452 E46.68860
G1 X112.001 Y90.108 E46.69487
G1 X109.892 Y87.999 E46.74908
G1 X110.237 Y87.999 E46.75535
G1 X112.001 Y89.763 E46.80069
G1 X112.001 Y89.418 E46.80696
G1 X110.582 Y87.999 E46.84345
G1 X110.927 Y87.999 E46.84971
G1 X112.001 Y89.073 E46.87733
G1 X112.001 Y88.729 E46.88360
G1 X111.271 Y87.999 E46.90236
G1 X111.616 Y87.999 E46.90863
G1 X112.001 Y88.384 E46.91852
G1 X112.001 Y88.039 E46.92479
G1 X111.961 Y87.999 E46.92581
M106 S209
M104 S180 ; set temperature
M140 S50 ; set bed temperature
G1 F1860.000 E43.92581
G92 E0
G1 Z0.400 F6000.000
G1 X111.900 Y111.900 F6000.000
G1 E3.10000 F1860.000
G1 X88.100 Y111.900 E3.81243 F2400.000
G1 X88.100 Y88.100 E4.52486
G1 X111.900 Y88.100 E5.23730
G1 X111.900 Y111.840 E5.94793
G1 X112.300 Y112.300 F6000.000
G1 X87.700 Y112.300 E6.68431 F1920.000
G1 X87.700 Y87.700 E7.42069
G1 X112.300 Y87.700 E8.15707
G1 X112.300 Y112.240 E8.89165
G1 X111.954 Y112.100 F6000.000
G1 X111.579 Y111.539 F6000.000
G1 X111.539 Y111.579 E8.89431 F2100.000
G1 X110.650 Y111.579 E8.93612
G1 X111.579 Y110.650 E8.99791
G1 X111.579 Y109.760 E9.03971
G1 X109.760 Y111.579 E9.16062
G1 X108.871 Y111.579 E9.20243
G1 X111.579 Y108.871 E9.38246
G1 X111.579 Y107.982 E9.42427
G1 X107.982 Y111.579 E9.66342
G1 X107.093 Y111.579 E9.70523
G1 X111.579 Y107.093 E10.00351
G1 X111.579 Y106.204 E10.04532
G1 X106.204 Y111.579 E10.40272
G1 X105.315 Y111.579 E10.44453
G1 X111.579 Y105.315 E10.86106
G1 X111.579 Y104.426 E10.90287
G1 X104.426 Y111.579 E11.37852
G1 X103.537 Y111.579 E11.42033
G1 X111.579 Y103.537 E11.95511
G1 X111.579 Y102.647 E11.99691
G1 X102.647 Y111.579 E12.59081
G1 X101.758 Y111.579 E12.63262
G1 X111.579 Y101.758 E13.28565
G1 X111.579 Y100.869 E13.32745
G1 X100.869 Y111.579 E14.03960
G1 X99.980 Y111.579 E14.08141
G1 X111.579 Y99.980 E14.85269
G1 X111.579 Y99.091 E14.89449
G1 X99.091 Y111.579 E15.72489
G1 X98.202 Y111.579 E15.76670
G1 X111.579 Y98.202 E16.65622
G1 X111.579 Y97.313 E16.69803
G1 X97.313 Y111.579 E17.64668
G1 X96.423 Y111.579 E17.68848
G1 X111.579 Y96.423 E18.69625
G1 X111.579 Y95.534 E18.73806
G1 X95.534 Y111.579 E19.80496
G1 X94.645 Y111.579 E19.84676
G1 X111.579 Y94.645 E20.97278
G1 X111.579 Y93.756 E21.01459
G1 X93.756 Y111.579 E22.19973
G1 X92.867 Y111.579 E22.24154
G1 X111.579 Y92.867 E23.48581
G1 X111.579 Y91.978 E23.52762
G1 X91.978 Y111.579 E24.83101
G1 X91.089 Y111.579 E24.87281
G1 X111.579 Y91.089 E26.23533
G1 X111.579 Y90.200 E26.27714
G1 X90.200 Y111.579 E27.69878
G1 X89.310 Y111.579 E27.74059
G1 X111.579 Y89.310 E29.22135
G1 X111.559 Y88.441 E29.26223
G1 X88.441 Y111.559 E30.79946
G1 X88.421 Y110.690 E30.84033
G1 X110.690 Y88.421 E32.32110
G1 X109.800 Y88.421 E32.36290
G1 X88.421 Y109.800 E33.78455
G1 X88.421 Y108.911 E33.82635
G1 X108.911 Y88.421 E35.18887
G1 X108.022 Y88.421 E35.23068
G1 X88.421 Y108.022 E36.53407
G1 X88.421 Y107.133 E36.57587
G1 X107.133 Y88.421 E37.82014
G1 X106.244 Y88.421 E37.86195
G1 X88.421 Y106.244 E39.04709
G1 X88.421 Y105.355 E39.08890
G1 X105.355 Y88.421 E40.21492
G1 X104.466 Y88.421 E40.25673
G1 X88.421 Y104.466 E41.32362
G1 X88.421 Y103.577 E41.36543
G1 X103.577 Y88.421 E42.37320
G1 X102.687 Y88.421 E42.41501
G1 X88.421 Y102.687 E43.36365
G1 X88.421 Y101.798 E43.40546
G1 X101.798 Y88.421 E44.29498
G1 X100.909 Y88.421 E44.33679
G1 X88.421 Y100.909 E45.16719
G1 X88.421 Y100.020 E45.20900
G1 X100.020 Y88.421 E45.98027
G1 X99.131 Y88.421 E46.02208
G1 X88.421 Y99.131 E46.73423
G1 X88.421 Y98.242 E46.77604
G1 X98.242 Y88.421 E47.42906
G1 X97.353 Y88.421 E47.47087
G1 X88.421 Y97.353 E48.06477
G1 X88.421 Y96.463 E48.10658
G1 X96.463 Y88.421 E48.64135
G1 X95.574 Y88.421 E48.68316
G1 X88.421 Y95.574 E49.15882
G1 X88.421 Y94.685 E49.20062
G1 X94.685 Y88.421 E49.61715
G1 X93.796 Y88.421 E49.65896
G1 X88.421 Y93.796 E50.01636
G1 X88.421 Y92.907 E50.05817
G1 X92.907 Y88.421 E50.35645
G1 X92.018 Y88.421 E50.39826
G1 X88.421 Y92.018 E50.63742
G1 X88.421 Y91.129 E50.67922
G1 X91.129 Y88.421 E50.85925
G1 X90.240 Y88.421 E50.90106
G1 X88.421 Y90.240 E51.02197
G1 X88.421 Y89.350 E51.06378
G1 X89.350 Y88.421 E51.12556
G1 X88.461 Y88.421 E51.16737
G1 X88.421 Y88.461 E51.17003
M106 S209
G1 F1860.000 E48.17003
G92 E0
G1 Z0.600 F6000.000
G1 X111.900 Y111.900 F6000.000
G1 E3.10000 F1860.000
G1 X88.100 Y111.900 E3.81243 F2400.000
G1 X88.100 Y88.100 E4.52486
G1 X111.900 Y88.100 E5.23730
G1 X111.900 Y111.840 E5.94793
G1 X112.300 Y112.300 F6000.000
G1 X87.700 Y112.300 E6.68431 F1920.000
G1 X87.700 Y87.700 E7.42069
G1 X112.300 Y87.700 E8.15707
G1 X112.300 Y112.240 E8.89165
G1 X111.954 Y112.100 F6000.000
G1 F1860.000 E5.89165
G92 E0
G1 X88.461 Y111.579 F6000.000
G1 E3.10000 F1860.000
G1 X88.421 Y111.539 E3.10266 F2100.000
G1 X88.421 Y110.650 E3.14447
G1 X89.350 Y111.579 E3.20625
G1 X90.240 Y111.579 E3.24806
G1 X88.421 Y109.760 E3.36897
G1 X88.421 Y108.871 E3.41077
G1 X91.129 Y111.579 E3.59081
G1 X92.018 Y111.579 E3.63261
G1 X88.421 Y107.982 E3.87177
G1 X88.421 Y107.093 E3.91358
G1 X92.907 Y111.579 E4.21186
G1 X93.796 Y111.579 E4.25366
