; generated by Slic3r 1.1.7 on 2015-01-02 at 19:58:56

; perimeters extrusion width = 0.40mm
; infill extrusion width = 0.44mm
; solid infill extrusion width = 0.44mm
; top infill extrusion width = 0.44mm

G21 ; set units to millimeters
M190 S110 ; wait for bed temperature to be reached
M104 S220 ; set temperature
G28 ; home all axes Start of G Code Slic3r
 
M109 S220 ; wait for temperature to be reached
G90 ; use absolute coordinates
G92 E0
M82 ; use absolute distances for extrusion
M106 S127
G1 F1860.000 E-3.00000
G92 E0
G1 Z0.294 F7800.000
G1 X81.950 Y83.081 F7800.000
G1 E3.10000 F1860.000
G1 X83.718 Y81.498 E3.24777 F1800.000
G1 X85.910 Y80.586 E3.39555
G1 X87.500 Y80.406 E3.49514
G1 X112.500 Y80.406 E5.05136
G1 X114.840 Y80.803 E5.19914
G1 X116.919 Y81.950 E5.34691 F1800.000
G1 X118.502 Y83.718 E5.49469
G1 X119.414 Y85.910 E5.64246
G1 X119.594 Y87.500 E5.74205
G1 X119.594 Y112.500 E7.29828
G1 X119.197 Y114.840 E7.44605
G1 X118.050 Y116.919 E7.59383
G1 X116.282 Y118.502 E7.74160
G1 X114.090 Y119.414 E7.88937
G1 X112.500 Y119.594 E7.98896
G1 X87.500 Y119.594 E9.54519
G1 X85.160 Y119.197 E9.69296
G1 X83.081 Y118.050 E9.84074
G1 X81.498 Y116.282 E9.98851
G1 X80.586 Y114.090 E10.13629
G1 X80.406 Y112.500 E10.23588
G1 X80.406 Y87.500 E11.79210
G1 X80.803 Y85.160 E11.93988
G1 X81.921 Y83.134 E12.08392
G1 X82.443 Y83.367 F7800.000
G1 X82.492 Y83.282 E12.09002 F1800.000
G1 X84.242 Y81.821 E12.23194
G1 X87.500 Y80.953 E12.44179
G1 X112.500 Y80.953 E13.99802
G1 X114.745 Y81.350 E14.13994
G1 X116.718 Y82.492 E14.28186 F1800.000
G1 X118.179 Y84.242 E14.42378
G1 X119.047 Y87.500 E14.63364
G1 X119.047 Y112.500 E16.18986
G1 X118.650 Y114.745 E16.33178
G1 X117.508 Y116.718 E16.47370
G1 X115.758 Y118.179 E16.61562
G1 X112.500 Y119.047 E16.82548
G1 X87.500 Y119.047 E18.38171
G1 X85.255 Y118.650 E18.52363
G1 X83.282 Y117.508 E18.66554
G1 X81.821 Y115.758 E18.80746
G1 X80.953 Y112.500 E19.01732
G1 X80.953 Y87.500 E20.57355
G1 X81.350 Y85.255 E20.71547
G1 X82.413 Y83.419 E20.84755
G1 F1860.000 E17.84755
G92 E0
G1 X112.206 Y112.206 F7800.000
G1 E3.10000 F1860.000
G1 X87.794 Y112.206 E4.61966 F441.000
G1 X87.794 Y87.794 E6.13932
G1 X112.206 Y87.794 E7.65898
G1 X112.206 Y112.146 E9.17491
G1 X111.860 Y112.006 F7800.000
G1 X111.659 Y111.659 F7800.000
G1 X88.341 Y111.659 E10.62645 F630.000
G1 X88.341 Y88.341 E12.07799
G1 X111.659 Y88.341 E13.52953
G1 X111.659 Y111.599 E14.97733
G1 X111.242 Y88.718 F7800.000
G1 X111.282 Y88.758 E14.98085 F1500.000
G1 X111.282 Y89.534 E15.02920
G1 X110.466 Y88.718 E15.10110
G1 X109.689 Y88.718 E15.14945
G1 X111.282 Y90.311 E15.28972
G1 X111.282 Y91.088 E15.33807
G1 X108.912 Y88.718 E15.54673
G1 X108.136 Y88.718 E15.59508
G1 X111.282 Y91.864 E15.87211
G1 X111.282 Y92.641 E15.92046
G1 X107.359 Y88.718 E16.26587
G1 X106.582 Y88.718 E16.31422
G1 X111.282 Y93.418 E16.72800
G1 X111.282 Y94.195 E16.77635
G1 X105.805 Y88.718 E17.25851
G1 X105.029 Y88.718 E17.30686
G1 X111.282 Y94.971 E17.85740
G1 X111.282 Y95.748 E17.90575
G1 X104.252 Y88.718 E18.52467
G1 X103.475 Y88.718 E18.57302
G1 X111.282 Y96.525 E19.26032
G1 X111.282 Y97.301 E19.30867
G1 X102.699 Y88.718 E20.06434
G1 X101.922 Y88.718 E20.11269
G1 X111.282 Y98.078 E20.93674
G1 X111.282 Y98.855 E20.98509
G1 X101.145 Y88.718 E21.87751
G1 X100.368 Y88.718 E21.92586
G1 X111.282 Y99.632 E22.88667
G1 X111.282 Y100.408 E22.93502
G1 X99.592 Y88.718 E23.96420
G1 X98.815 Y88.718 E24.01255
G1 X111.282 Y101.185 E25.11010
G1 X111.282 Y101.962 E25.15845
G1 X98.038 Y88.718 E26.32439
G1 X97.261 Y88.718 E26.37274
G1 X111.282 Y102.739 E27.60705
G1 X111.282 Y103.515 E27.65540
G1 X96.485 Y88.718 E28.95809
G1 X95.708 Y88.718 E29.00644
G1 X111.282 Y104.292 E30.37751
G1 X111.282 Y105.069 E30.42586
G1 X94.931 Y88.718 E31.86530
G1 X94.155 Y88.718 E31.91365
G1 X111.282 Y105.845 E33.42148
G1 X111.282 Y106.622 E33.46983
G1 X93.378 Y88.718 E35.04602
G1 X92.601 Y88.718 E35.09438
G1 X111.282 Y107.399 E36.73895
G1 X111.282 Y108.176 E36.78730
G1 X91.824 Y88.718 E38.50026
G1 X91.048 Y88.718 E38.54861
G1 X111.282 Y108.952 E40.32994
G1 X111.282 Y109.729 E40.37829
G1 X90.271 Y88.718 E42.22799
G1 X89.494 Y88.718 E42.27634
G1 X111.282 Y110.506 E44.19443
G1 X111.262 Y111.262 E44.24155
G1 X88.738 Y88.738 E46.22449
G1 X88.718 Y89.494 E46.27161
G1 X110.506 Y111.282 E48.18970
G1 X109.729 Y111.282 E48.23805
G1 X88.718 Y90.271 E50.08776
G1 X88.718 Y91.048 E50.13611
G1 X108.952 Y111.282 E51.91744
G1 X108.176 Y111.282 E51.96579
G1 X88.718 Y91.824 E53.67874
G1 X88.718 Y92.601 E53.72709
G1 X107.399 Y111.282 E55.37167
G1 X106.622 Y111.282 E55.42002
G1 X88.718 Y93.378 E56.99622
G1 X88.718 Y94.155 E57.04457
G1 X105.845 Y111.282 E58.55239
G1 X105.069 Y111.282 E58.60074
G1 X88.718 Y94.931 E60.04018
G1 X88.718 Y95.708 E60.08853
G1 X104.292 Y111.282 E61.45960
G1 X103.515 Y111.282 E61.50795
G1 X88.718 Y96.485 E62.81064
G1 X88.718 Y97.261 E62.85899
G1 X102.739 Y111.282 E64.09330
G1 X101.962 Y111.282 E64.14165
G1 X88.718 Y98.038 E65.30759
G1 X88.718 Y98.815 E65.35594
G1 X101.185 Y111.282 E66.45350
G1 X100.408 Y111.282 E66.50185
G1 X88.718 Y99.592 E67.53103
G1 X88.718 Y100.368 E67.57938
G1 X99.632 Y111.282 E68.54018
G1 X98.855 Y111.282 E68.58853
G1 X88.718 Y101.145 E69.48096
G1 X88.718 Y101.922 E69.52931
G1 X98.078 Y111.282 E70.35336
G1 X97.301 Y111.282 E70.40171
G1 X88.718 Y102.699 E71.15738
G1 X88.718 Y103.475 E71.20573
G1 X96.525 Y111.282 E71.89302
G1 X95.748 Y111.282 E71.94137
G1 X88.718 Y104.252 E72.56029
G1 X88.718 Y105.029 E72.60864
G1 X94.971 Y111.282 E73.15918
G1 X94.195 Y111.282 E73.20753
G1 X88.718 Y105.805 E73.68969
G1 X88.718 Y106.582 E73.73804
G1 X93.418 Y111.282 E74.15183
G1 X92.641 Y111.282 E74.20018
G1 X88.718 Y107.359 E74.54558
G1 X88.718 Y108.136 E74.59393
G1 X91.864 Y111.282 E74.87097
G1 X91.088 Y111.282 E74.91932
G1 X88.718 Y108.912 E75.12797
G1 X88.718 Y109.689 E75.17632
G1 X90.311 Y111.282 E75.31659
G1 X89.534 Y111.282 E75.36494
G1 X88.718 Y110.466 E75.43684
G1 X88.718 Y111.242 E75.48519
G1 X88.758 Y111.282 E75.48871
M106 S192
M104 S218 ; set temperature
M140 S108 ; set bed temperature
G1 F1860.000 E72.48871
G92 E0
G1 Z0.587 F7800.000
G1 X112.300 Y112.300 F7800.000
G1 E3.10000 F1860.000
G1 X87.700 Y112.300 E4.21942 F882.000
G1 X87.700 Y87.700 E5.33885
G1 X112.300 Y87.700 E6.45827
G1 X112.300 Y112.240 E7.57497
G1 X111.954 Y112.100 F7800.000
G1 X111.900 Y111.900 F7800.000
G1 X88.100 Y111.900 E8.65799 F1260.000
G1 X88.100 Y88.100 E9.74101
G1 X111.900 Y88.100 E10.82403
G1 X111.900 Y111.840 E11.90432
G1 X111.624 Y111.584 F7800.000
G1 X111.584 Y111.624 E11.90707 F3000.000
G1 X110.973 Y111.624 E11.93680
G1 X111.624 Y110.973 E11.98159
G1 X111.624 Y110.362 E12.01132
G1 X110.362 Y111.624 E12.09815
G1 X109.752 Y111.624 E12.12788
G1 X111.624 Y109.752 E12.25676
G1 X111.624 Y109.141 E12.28648
G1 X109.141 Y111.624 E12.45740
G1 X108.530 Y111.624 E12.48712
G1 X111.624 Y108.530 E12.70008
G1 X111.624 Y107.919 E12.72981
G1 X107.919 Y111.624 E12.98480
G1 X107.309 Y111.624 E13.01453
G1 X111.624 Y107.309 E13.31156
G1 X111.624 Y106.698 E13.34129
G1 X106.698 Y111.624 E13.68037
G1 X106.087 Y111.624 E13.71009
G1 X111.624 Y106.087 E14.09121
G1 X111.624 Y105.477 E14.12094
G1 X105.477 Y111.624 E14.54409
G1 X104.866 Y111.624 E14.57382
G1 X111.624 Y104.866 E15.03902
G1 X111.624 Y104.255 E15.06874
G1 X104.255 Y111.624 E15.57598
G1 X103.644 Y111.624 E15.60571
G1 X111.624 Y103.644 E16.15498
G1 X111.624 Y103.034 E16.18471
G1 X103.034 Y111.624 E16.77603
G1 X102.423 Y111.624 E16.80575
G1 X111.624 Y102.423 E17.43911
G1 X111.624 Y101.812 E17.46884
G1 X101.812 Y111.624 E18.14424
G1 X101.201 Y111.624 E18.17396
G1 X111.624 Y101.201 E18.89140
G1 X111.624 Y100.591 E18.92113
G1 X100.591 Y111.624 E19.68061
G1 X99.980 Y111.624 E19.71033
G1 X111.624 Y99.980 E20.51185
G1 X111.624 Y99.369 E20.54158
G1 X99.369 Y111.624 E21.38514
G1 X98.759 Y111.624 E21.41486
G1 X111.624 Y98.759 E22.30046
G1 X111.624 Y98.148 E22.33019
G1 X98.148 Y111.624 E23.25783
G1 X97.537 Y111.624 E23.28756
G1 X111.624 Y97.537 E24.25724
G1 X111.624 Y96.926 E24.28696
G1 X96.926 Y111.624 E25.29868
G1 X96.316 Y111.624 E25.32841
G1 X111.624 Y96.316 E26.38217
G1 X111.624 Y95.705 E26.41190
G1 X95.705 Y111.624 E27.50770
G1 X95.094 Y111.624 E27.53742
G1 X111.624 Y95.094 E28.67526
G1 X111.624 Y94.483 E28.70499
G1 X94.483 Y111.624 E29.88487
G1 X93.873 Y111.624 E29.91460
G1 X111.624 Y93.873 E31.13652
G1 X111.624 Y93.262 E31.16625
G1 X93.262 Y111.624 E32.43021
G1 X92.651 Y111.624 E32.45993
G1 X111.624 Y92.651 E33.76594
G1 X111.624 Y92.041 E33.79566
G1 X92.041 Y111.624 E35.14370
G1 X91.430 Y111.624 E35.17343
G1 X111.624 Y91.430 E36.56351
G1 X111.624 Y90.819 E36.59324
G1 X90.819 Y111.624 E38.02536
G1 X90.208 Y111.624 E38.05509
G1 X111.624 Y90.208 E39.52925
G1 X111.624 Y89.598 E39.55898
G1 X89.598 Y111.624 E41.07518
G1 X88.987 Y111.624 E41.10491
G1 X111.624 Y88.987 E42.66315
G1 X111.604 Y88.396 E42.69192
G1 X88.396 Y111.604 E44.28945
G1 X88.376 Y111.013 E44.31822
G1 X111.013 Y88.376 E45.87646
G1 X110.402 Y88.376 E45.90619
G1 X88.376 Y110.402 E47.42239
G1 X88.376 Y109.792 E47.45212
G1 X109.792 Y88.376 E48.92628
G1 X109.181 Y88.376 E48.95601
G1 X88.376 Y109.181 E50.38813
G1 X88.376 Y108.570 E50.41786
G1 X108.570 Y88.376 E51.80794
G1 X107.959 Y88.376 E51.83767
G1 X88.376 Y107.959 E53.18571
G1 X88.376 Y107.349 E53.21544
G1 X107.349 Y88.376 E54.52144
G1 X106.738 Y88.376 E54.55117
G1 X88.376 Y106.738 E55.81513
G1 X88.376 Y106.127 E55.84486
G1 X106.127 Y88.376 E57.06678
G1 X105.517 Y88.376 E57.09650
G1 X88.376 Y105.517 E58.27638
G1 X88.376 Y104.906 E58.30611
G1 X104.906 Y88.376 E59.44395
G1 X104.295 Y88.376 E59.47368
G1 X88.376 Y104.295 E60.56948
G1 X88.376 Y103.684 E60.59921
G1 X103.684 Y88.376 E61.65297
G1 X103.074 Y88.376 E61.68269
G1 X88.376 Y103.074 E62.69441
G1 X88.376 Y102.463 E62.72414
G1 X102.463 Y88.376 E63.69382
G1 X101.852 Y88.376 E63.72355
G1 X88.376 Y101.852 E64.65119
G1 X88.376 Y101.241 E64.68091
G1 X101.241 Y88.376 E65.56651
G1 X100.631 Y88.376 E65.59624
G1 X88.376 Y100.631 E66.43980
G1 X88.376 Y100.020 E66.46952
G1 X100.020 Y88.376 E67.27104
G1 X99.409 Y88.376 E67.30077
G1 X88.376 Y99.409 E68.06025
G1 X88.376 Y98.799 E68.08997
G1 X98.799 Y88.376 E68.80741
G1 X98.188 Y88.376 E68.83714
G1 X88.376 Y98.188 E69.51254
G1 X88.376 Y97.577 E69.54226
G1 X97.577 Y88.376 E70.17562
G1 X96.966 Y88.376 E70.20535
G1 X88.376 Y96.966 E70.79667
G1 X88.376 Y96.356 E70.82639
G1 X96.356 Y88.376 E71.37567
G1 X95.745 Y88.376 E71.40540
G1 X88.376 Y95.745 E71.91263
G1 X88.376 Y95.134 E71.94236
G1 X95.134 Y88.376 E72.40756
G1 X94.523 Y88.376 E72.43728
G1 X88.376 Y94.523 E72.86044
G1 X88.376 Y93.913 E72.89017
G1 X93.913 Y88.376 E73.27128
G1 X93.302 Y88.376 E73.30101
G1 X88.376 Y93.302 E73.64008
G1 X88.376 Y92.691 E73.66981
G1 X92.691 Y88.376 E73.96685
G1 X92.081 Y88.376 E73.99657
G1 X88.376 Y92.081 E74.25157
G1 X88.376 Y91.470 E74.28130
G1 X91.470 Y88.376 E74.49425
G1 X90.859 Y88.376 E74.52398
G1 X88.376 Y90.859 E74.69489
G1 X88.376 Y90.248 E74.72462
G1 X90.248 Y88.376 E74.85349
G1 X89.638 Y88.376 E74.88322
G1 X88.376 Y89.638 E74.97005
G1 X88.376 Y89.027 E74.99978
G1 X89.027 Y88.376 E75.04457
G1 X88.416 Y88.376 E75.07430
G1 X88.376 Y88.416 E75.07705
M106 S192
G1 F1860.000 E72.07705
G92 E0
G1 Z0.881 F7800.000
G1 X112.300 Y112.300 F7800.000
G1 E3.10000 F1860.000
G1 X87.700 Y112.300 E4.21942 F882.000
G1 X87.700 Y87.700 E5.33885
G1 X112.300 Y87.700 E6.45827
G1 X112.300 Y112.240 E7.57497
G1 X111.954 Y112.100 F7800.000
G1 X111.900 Y111.900 F7800.000
G1 X88.100 Y111.900 E8.65799 F1260.000
G1 X88.100 Y88.100 E9.74101
G1 X111.900 Y88.100 E10.82403
G1 X111.900 Y111.840 E11.90432
G1 X111.584 Y88.376 F7800.000
G1 X111.624 Y88.416 E11.90707 F3000.000
G1 X111.624 Y89.027 E11.93680
G1 X110.973 Y88.376 E11.98159
G1 X110.362 Y88.376 E12.01132
G1 X111.624 Y89.638 E12.09815
G1 X111.624 Y90.248 E12.12788
G1 X109.752 Y88.376 E12.25676
G1 X109.141 Y88.376 E12.28648
G1 X111.624 Y90.859 E12.45740
G1 X111.624 Y91.470 E12.48712
G1 X108.530 Y88.376 E12.70008
G1 X107.919 Y88.376 E12.72981
G1 X111.624 Y92.081 E12.98480
G1 X111.624 Y92.691 E13.01453
G1 X107.309 Y88.376 E13.31156
G1 X106.698 Y88.376 E13.34129
G1 X111.624 Y93.302 E13.68037
G1 X111.624 Y93.913 E13.71009
G1 X106.087 Y88.376 E14.09121
G1 X105.477 Y88.376 E14.12094
G1 X111.624 Y94.523 E14.54409
G1 X111.624 Y95.134 E14.57382
G1 X104.866 Y88.376 E15.03902
G1 X104.255 Y88.376 E15.06874
G1 X111.624 Y95.745 E15.57598
G1 X111.624 Y96.356 E15.60571
G1 X103.644 Y88.376 E16.15498
G1 X103.034 Y88.376 E16.18471
G1 X111.624 Y96.966 E16.77603
G1 X111.624 Y97.577 E16.80575
G1 X102.423 Y88.376 E17.43911
G1 X101.812 Y88.376 E17.46884
G1 X111.624 Y98.188 E18.14424
G1 X111.624 Y98.799 E18.17396
G1 X101.201 Y88.376 E18.89140
G1 X100.591 Y88.376 E18.92113
G1 X111.624 Y99.409 E19.68061
G1 X111.624 Y100.020 E19.71033
G1 X99.980 Y88.376 E20.51185
G1 X99.369 Y88.376 E20.54158
G1 X111.624 Y100.631 E21.38514
G1 X111.624 Y101.241 E21.41486
G1 X98.759 Y88.376 E22.30046
G1 X98.148 Y88.376 E22.33019
G1 X111.624 Y101.852 E23.25783
G1 X111.624 Y102.463 E23.28756
G1 X97.537 Y88.376 E24.25724
G1 X96.926 Y88.376 E24.28696
G1 X111.624 Y103.074 E25.29868
G1 X111.624 Y103.684 E25.32841
G1 X96.316 Y88.376 E26.38217
G1 X95.705 Y88.376 E26.41190
G1 X111.624 Y104.295 E27.50770
G1 X111.624 Y104.906 E27.53742
G1 X95.094 Y88.376 E28.67526
G1 X94.483 Y88.376 E28.70499
G1 X111.624 Y105.517 E29.88487
G1 X111.624 Y106.127 E29.91460
G1 X93.873 Y88.376 E31.13652
G1 X93.262 Y88.376 E31.16625
G1 X111.624 Y106.738 E32.43021
G1 X111.624 Y107.349 E32.45994
G1 X92.651 Y88.376 E33.76594
G1 X92.041 Y88.376 E33.79566
G1 X111.624 Y107.959 E35.14371
G1 X111.624 Y108.570 E35.17343
G1 X91.430 Y88.376 E36.56351
G1 X90.819 Y88.376 E36.59324
G1 X111.624 Y109.181 E38.02536
G1 X111.624 Y109.792 E38.05509
G1 X90.208 Y88.376 E39.52925
G1 X89.598 Y88.376 E39.55898
G1 X111.624 Y110.402 E41.07518
G1 X111.624 Y111.013 E41.10491
G1 X88.987 Y88.376 E42.66315
G1 X88.396 Y88.396 E42.69192
G1 X111.604 Y111.604 E44.28945
G1 X111.013 Y111.624 E44.31822
G1 X88.376 Y88.987 E45.87647
G1 X88.376 Y89.598 E45.90619
G1 X110.402 Y111.624 E47.42240
G1 X109.792 Y111.624 E47.45212
G1 X88.376 Y90.208 E48.92629
G1 X88.376 Y90.819 E48.95601
G1 X109.181 Y111.624 E50.38814
G1 X108.570 Y111.624 E50.41786
G1 X88.376 Y91.430 E51.80794
G1 X88.376 Y92.041 E51.83767
G1 X107.959 Y111.624 E53.18571
G1 X107.349 Y111.624 E53.21544
G1 X88.376 Y92.651 E54.52144
G1 X88.376 Y93.262 E54.55117
G1 X106.738 Y111.624 E55.81513
G1 X106.127 Y111.624 E55.84486
G1 X88.376 Y93.873 E57.06678
G1 X88.376 Y94.483 E57.09651
G1 X105.517 Y111.624 E58.27639
G1 X104.906 Y111.624 E58.30611
G1 X88.376 Y95.094 E59.44395
G1 X88.376 Y95.705 E59.47368
G1 X104.295 Y111.624 E60.56948
G1 X103.684 Y111.624 E60.59921
G1 X88.376 Y96.316 E61.65297
G1 X88.376 Y96.926 E61.68269
G1 X103.074 Y111.624 E62.69441
G1 X102.463 Y111.624 E62.72414
G1 X88.376 Y97.537 E63.69382
G1 X88.376 Y98.148 E63.72355
G1 X101.852 Y111.624 E64.65119
G1 X101.241 Y111.624 E64.68091
G1 X88.376 Y98.759 E65.56651
G1 X88.376 Y99.369 E65.59624
G1 X100.631 Y111.624 E66.43980
G1 X100.020 Y111.624 E66.46953
G1 X88.376 Y99.980 E67.27104
G1 X88.376 Y100.591 E67.30077
G1 X99.409 Y111.624 E68.06025
G1 X98.799 Y111.624 E68.08998
G1 X88.376 Y101.201 E68.80741
G1 X88.376 Y101.812 E68.83714
G1 X98.188 Y111.624 E69.51254
G1 X97.577 Y111.624 E69.54227
G1 X88.376 Y102.423 E70.17562
G1 X88.376 Y103.034 E70.20535
G1 X96.966 Y111.624 E70.79667
G1 X96.356 Y111.624 E70.82639
G1 X88.376 Y103.644 E71.37567
G1 X88.376 Y104.255 E71.40540
G1 X95.745 Y111.624 E71.91263
G1 X95.134 Y111.624 E71.94236
G1 X88.376 Y104.866 E72.40756
G1 X88.376 Y105.477 E72.43728
G1 X94.523 Y111.624 E72.86044
G1 X93.913 Y111.624 E72.89017
G1 X88.376 Y106.087 E73.27128
G1 X88.376 Y106.698 E73.30101
G1 X93.302 Y111.624 E73.64009
G1 X92.691 Y111.624 E73.66981
G1 X88.376 Y107.309 E73.96685
G1 X88.376 Y107.919 E73.99658
G1 X92.081 Y111.624 E74.25157
G1 X91.470 Y111.624 E74.28130
G1 X88.376 Y108.530 E74.49425
G1 X88.376 Y109.141 E74.52398
G1 X90.859 Y111.624 E74.69489
G1 X90.248 Y111.624 E74.72462
G1 X88.376 Y109.752 E74.85349
G1 X88.376 Y110.362 E74.88322
