; generated by Slic3r 1.1.7 on 2014-12-06 at 18:14:46

; perimeters extrusion width = 0.42mm
; infill extrusion width = 0.74mm
; solid infill extrusion width = 0.71mm
; top infill extrusion width = 0.71mm
; support material extrusion width = 0.42mm

G21 ; set units to millimeters
M190 S60 ; wait for bed temperature to be reached
M104 S186 ; set temperature
G28 ; home all axes
M109 S186 ; wait for temperature to be reached
G90 ; use absolute coordinates
G92 E0
M82 ; use absolute distances for extrusion
M106 S127
G1 F1860.000 E-3.00000
G92 E0
G1 Z0.200 F6000.000
G1 X66.290 Y45.296 F6000.000
G1 E3.10000 F1860.000
G1 X68.640 Y43.616 E3.15345 F1200.000
G1 X75.011 Y41.016 E3.28076
G1 X77.372 Y40.553 E3.32526
G1 X112.974 Y40.625 E3.98392
G1 X129.946 Y43.225 E4.30156 F1200.000
G1 X132.052 Y43.949 E4.34276
G1 X133.770 Y45.365 E4.38395
G1 X134.882 Y47.294 E4.42514
G1 X135.247 Y49.400 E4.46468
G1 X135.247 Y153.200 E6.38500
G1 X134.850 Y155.391 E6.42620
G1 X133.710 Y157.304 E6.46739
G1 X131.972 Y158.695 E6.50858
G1 X129.000 Y159.447 E6.56530
G1 X71.000 Y159.447 E7.63831
G1 X68.809 Y159.050 E7.67950
G1 X66.896 Y157.910 E7.72070
G1 X65.505 Y156.172 E7.76189
G1 X64.753 Y153.200 E7.81861
G1 X64.753 Y49.400 E9.73893
G1 X65.150 Y47.209 E9.78012
G1 X66.257 Y45.351 E9.82015
G1 F1860.000 E6.82015
G92 E0
G1 X126.089 Y137.135 F6000.000
G1 E3.10000 F1860.000
G1 X125.779 Y137.539 E3.10942 F1200.000
G1 X125.375 Y137.849 E3.11884
G1 X124.905 Y138.044 E3.12826
G1 X124.400 Y138.110 E3.13767
G1 X123.895 Y138.044 E3.14709
G1 X123.425 Y137.849 E3.15651
G1 X123.021 Y137.539 E3.16593
G1 X122.711 Y137.135 E3.17535
G1 X122.516 Y136.665 E3.18477
G1 X122.450 Y136.160 E3.19419
G1 X122.516 Y135.655 E3.20360
G1 X122.711 Y135.185 E3.21302
G1 X123.021 Y134.781 E3.22244
G1 X123.425 Y134.471 E3.23186
G1 X123.895 Y134.276 E3.24128
G1 X124.400 Y134.210 E3.25070
G1 X124.843 Y134.268 E3.25896
G1 X124.905 Y134.276 E3.26012 F1200.000
G1 X125.375 Y134.471 E3.26953
G1 X125.779 Y134.781 E3.27895
G1 X126.089 Y135.185 E3.28837
G1 X126.284 Y135.655 E3.29779
G1 X126.350 Y136.160 E3.30721
G1 X126.284 Y136.665 E3.31663
G1 X126.113 Y137.077 E3.32488
G1 X125.873 Y137.010 F6000.000
G1 X125.603 Y137.363 E3.33309 F1200.000
G1 X125.250 Y137.633 E3.34131
G1 X124.840 Y137.803 E3.34952
G1 X124.400 Y137.861 E3.35774
G1 X123.960 Y137.803 E3.36595
G1 X123.550 Y137.633 E3.37417
G1 X123.197 Y137.363 E3.38238
G1 X122.927 Y137.010 E3.39060
G1 X122.757 Y136.600 E3.39881
G1 X122.699 Y136.160 E3.40702
G1 X122.757 Y135.720 E3.41524
G1 X122.927 Y135.310 E3.42345
G1 X123.197 Y134.957 E3.43167
G1 X123.550 Y134.687 E3.43988
G1 X123.960 Y134.517 E3.44810
G1 X124.370 Y134.463 E3.45576
G1 X124.840 Y134.517 E3.46451 F1200.000
G1 X125.250 Y134.687 E3.47272
G1 X125.603 Y134.957 E3.48094
G1 X125.873 Y135.310 E3.48915
G1 X126.043 Y135.720 E3.49736
G1 X126.101 Y136.160 E3.50558
G1 X126.043 Y136.600 E3.51379
G1 X125.897 Y136.952 E3.52084
G1 F1860.000 E0.52084
G92 E0
G1 X124.310 Y134.047 F6000.000
G1 X77.550 Y137.100 F6000.000
G1 E3.10000 F1860.000
G1 X77.484 Y137.605 E3.10942 F1200.000
G1 X77.289 Y138.075 E3.11884
G1 X76.979 Y138.479 E3.12826
G1 X76.575 Y138.789 E3.13767
G1 X76.105 Y138.984 E3.14709
G1 X75.600 Y139.050 E3.15651
G1 X75.095 Y138.984 E3.16593
G1 X74.683 Y138.813 E3.17419
G1 X74.625 Y138.789 E3.17535
G1 X74.221 Y138.479 E3.18477
G1 X73.911 Y138.075 E3.19419
G1 X73.716 Y137.605 E3.20361
G1 X73.650 Y137.100 E3.21302
G1 X73.716 Y136.595 E3.22244
G1 X73.911 Y136.125 E3.23186
G1 X74.221 Y135.721 E3.24128
G1 X74.625 Y135.411 E3.25070
G1 X75.095 Y135.216 E3.26012
G1 X75.600 Y135.150 E3.26954
G1 X76.043 Y135.208 E3.27780
G1 X76.105 Y135.216 E3.27895 F1200.000
G1 X76.575 Y135.411 E3.28837
G1 X76.979 Y135.721 E3.29779
G1 X77.289 Y136.125 E3.30721
G1 X77.484 Y136.595 E3.31663
G1 X77.542 Y137.038 E3.32488
G1 X77.301 Y137.100 F6000.000
G1 X77.243 Y137.540 E3.33310 F1200.000
G1 X77.073 Y137.950 E3.34131
G1 X76.803 Y138.303 E3.34952
G1 X76.450 Y138.573 E3.35774
G1 X76.040 Y138.743 E3.36595
G1 X75.600 Y138.801 E3.37417
G1 X75.160 Y138.743 E3.38238
G1 X74.777 Y138.584 E3.39004
G1 X74.397 Y138.303 E3.39879
G1 X74.127 Y137.950 E3.40701
G1 X73.957 Y137.540 E3.41522
G1 X73.899 Y137.100 E3.42344
G1 X73.957 Y136.660 E3.43165
G1 X74.127 Y136.250 E3.43986
G1 X74.397 Y135.897 E3.44808
G1 X74.750 Y135.627 E3.45629
G1 X75.160 Y135.457 E3.46451
G1 X75.570 Y135.403 E3.47217
G1 X76.040 Y135.457 E3.48092 F1200.000
G1 X76.450 Y135.627 E3.48913
G1 X76.803 Y135.897 E3.49735
G1 X77.073 Y136.250 E3.50556
G1 X77.243 Y136.660 E3.51378
G1 X77.293 Y137.038 E3.52082
G1 F1860.000 E0.52082
G92 E0
G1 X75.474 Y134.994 F6000.000
G1 X75.600 Y55.950 F6000.000
G1 E3.10000 F1860.000
G1 X75.095 Y55.884 E3.10942 F1200.000
G1 X74.625 Y55.689 E3.11884
G1 X74.221 Y55.379 E3.12826
G1 X73.911 Y54.975 E3.13768
G1 X73.716 Y54.505 E3.14709
G1 X73.650 Y54.000 E3.15651
G1 X73.716 Y53.495 E3.16593
G1 X73.911 Y53.025 E3.17535
G1 X74.221 Y52.621 E3.18477
G1 X74.625 Y52.311 E3.19419
G1 X75.095 Y52.116 E3.20361
G1 X75.600 Y52.050 E3.21302
G1 X76.043 Y52.108 E3.22129
G1 X76.105 Y52.116 E3.22244 F1200.000
G1 X76.575 Y52.311 E3.23186
G1 X76.979 Y52.621 E3.24128
G1 X77.289 Y53.025 E3.25070
G1 X77.484 Y53.495 E3.26012
G1 X77.550 Y54.000 E3.26953
G1 X77.484 Y54.505 E3.27895
G1 X77.289 Y54.975 E3.28837
G1 X76.979 Y55.379 E3.29779
G1 X76.575 Y55.689 E3.30721
G1 X76.105 Y55.884 E3.31663
G1 X75.662 Y55.942 E3.32488
G1 X75.600 Y55.701 F6000.000
G1 X75.160 Y55.643 E3.33309 F1200.000
G1 X74.750 Y55.473 E3.34131
G1 X74.397 Y55.203 E3.34952
G1 X74.127 Y54.850 E3.35774
G1 X73.957 Y54.440 E3.36595
G1 X73.899 Y54.000 E3.37417
G1 X73.957 Y53.560 E3.38238
G1 X74.127 Y53.150 E3.39060
G1 X74.397 Y52.797 E3.39881
G1 X74.750 Y52.527 E3.40702
G1 X75.160 Y52.357 E3.41524
G1 X75.570 Y52.303 E3.42290
G1 X76.040 Y52.357 E3.43165 F1200.000
G1 X76.450 Y52.527 E3.43986
G1 X76.803 Y52.797 E3.44808
G1 X77.073 Y53.150 E3.45629
G1 X77.243 Y53.560 E3.46451
G1 X77.301 Y54.000 E3.47272
G1 X77.243 Y54.440 E3.48094
G1 X77.084 Y54.823 E3.48860
G1 X76.803 Y55.203 E3.49735
G1 X76.450 Y55.473 E3.50556
G1 X76.040 Y55.643 E3.51378
G1 X75.662 Y55.693 E3.52082
G1 F1860.000 E0.52082
G92 E0
G1 X75.583 Y51.883 F6000.000
G1 X122.450 Y60.800 F6000.000
G1 E3.10000 F1860.000
G1 X122.516 Y60.295 E3.10942 F1200.000
G1 X122.711 Y59.825 E3.11884
G1 X123.021 Y59.421 E3.12826
G1 X123.425 Y59.111 E3.13767
G1 X123.895 Y58.916 E3.14709
G1 X124.400 Y58.850 E3.15651
G1 X124.843 Y58.908 E3.16478
G1 X124.905 Y58.916 E3.16593 F1200.000
G1 X125.375 Y59.111 E3.17535
G1 X125.779 Y59.421 E3.18477
G1 X126.089 Y59.825 E3.19419
G1 X126.284 Y60.295 E3.20360
G1 X126.350 Y60.800 E3.21302
G1 X126.284 Y61.305 E3.22244
G1 X126.089 Y61.775 E3.23186
G1 X125.779 Y62.179 E3.24128
G1 X125.375 Y62.489 E3.25070
G1 X124.905 Y62.684 E3.26012
G1 X124.400 Y62.750 E3.26953
G1 X123.895 Y62.684 E3.27895
G1 X123.425 Y62.489 E3.28837
G1 X123.021 Y62.179 E3.29779
G1 X122.711 Y61.775 E3.30721
G1 X122.516 Y61.305 E3.31663
G1 X122.458 Y60.862 E3.32488
G1 X122.699 Y60.800 F6000.000
G1 X122.757 Y60.360 E3.33309 F1200.000
G1 X122.927 Y59.950 E3.34131
G1 X123.197 Y59.597 E3.34952
G1 X123.550 Y59.327 E3.35774
G1 X123.960 Y59.157 E3.36595
G1 X124.370 Y59.103 E3.37361
G1 X124.840 Y59.157 E3.38236 F1200.000
G1 X125.250 Y59.327 E3.39058
G1 X125.603 Y59.597 E3.39879
G1 X125.873 Y59.950 E3.40701
G1 X126.043 Y60.360 E3.41522
G1 X126.101 Y60.800 E3.42343
G1 X126.043 Y61.240 E3.43165
G1 X125.873 Y61.650 E3.43986
G1 X125.603 Y62.003 E3.44808
G1 X125.250 Y62.273 E3.45629
G1 X124.840 Y62.443 E3.46451
G1 X124.400 Y62.501 E3.47272
G1 X123.960 Y62.443 E3.48094
G1 X123.550 Y62.273 E3.48915
G1 X123.197 Y62.003 E3.49736
G1 X122.927 Y61.650 E3.50558
G1 X122.757 Y61.240 E3.51379
G1 X122.707 Y60.862 E3.52084
G1 F1860.000 E0.52084
G92 E0
G1 X124.491 Y58.701 F6000.000
G1 X125.847 Y58.351 F6000.000
G1 E3.10000 F1860.000
G1 X124.805 Y58.079 E3.11992 F1200.000
G1 X124.216 Y58.055 E3.13083
G1 X123.635 Y58.158 E3.14174
G1 X123.089 Y58.382 E3.15266
G1 X122.604 Y58.717 E3.16357
G1 X122.201 Y59.147 E3.17448
G1 X121.899 Y59.654 E3.18539
G1 X121.712 Y60.214 E3.19630
G1 X121.649 Y60.800 E3.20722
G1 X121.712 Y61.386 E3.21813
G1 X121.899 Y61.946 E3.22904
G1 X122.201 Y62.453 E3.23995
G1 X122.604 Y62.883 E3.25086
G1 X123.089 Y63.218 E3.26178
G1 X123.635 Y63.442 E3.27269
G1 X124.216 Y63.545 E3.28360
G1 X124.805 Y63.521 E3.29451
G1 X125.847 Y63.249 E3.31443
G1 X125.847 Y133.711 E4.61800
G1 X124.805 Y133.439 E4.63792
G1 X124.216 Y133.415 E4.64884
G1 X123.635 Y133.518 E4.65975
G1 X123.089 Y133.742 E4.67066
G1 X122.604 Y134.077 E4.68157
G1 X122.201 Y134.507 E4.69248
G1 X121.899 Y135.014 E4.70340
G1 X121.712 Y135.574 E4.71431
G1 X121.649 Y136.160 E4.72522
G1 X121.712 Y136.746 E4.73613
G1 X121.899 Y137.306 E4.74704
G1 X122.201 Y137.813 E4.75796
G1 X122.604 Y138.243 E4.76887
G1 X123.089 Y138.578 E4.77978
G1 X123.635 Y138.802 E4.79069
G1 X124.216 Y138.905 E4.80160
G1 X124.805 Y138.881 E4.81252
G1 X125.847 Y138.609 E4.83244
G1 X125.847 Y150.047 E5.04405
G1 X74.153 Y150.047 E6.00041
G1 X74.153 Y139.549 E6.19463
G1 X75.195 Y139.821 E6.21455
G1 X75.784 Y139.845 E6.22546
G1 X76.365 Y139.742 E6.23637
G1 X76.911 Y139.518 E6.24729
G1 X77.396 Y139.183 E6.25820
G1 X77.799 Y138.753 E6.26911
G1 X78.101 Y138.246 E6.28002
G1 X78.288 Y137.686 E6.29093
G1 X78.351 Y137.100 E6.30185
G1 X78.288 Y136.514 E6.31276
G1 X78.101 Y135.954 E6.32367
G1 X77.799 Y135.447 E6.33458
G1 X77.396 Y135.017 E6.34549
G1 X76.911 Y134.682 E6.35641
G1 X76.365 Y134.458 E6.36732
G1 X75.784 Y134.355 E6.37823
G1 X75.195 Y134.379 E6.38914
G1 X74.153 Y134.651 E6.40906
G1 X74.153 Y56.449 E7.85581
G1 X75.202 Y56.722 E7.87587
G1 X75.799 Y56.744 E7.88692
G1 X76.386 Y56.636 E7.89797
G1 X76.937 Y56.404 E7.90902
G1 X77.424 Y56.059 E7.92007
G1 X77.826 Y55.616 E7.93112
G1 X78.122 Y55.098 E7.94217
G1 X78.300 Y54.528 E7.95322
G1 X78.350 Y53.932 E7.96427
G1 X78.271 Y53.341 E7.97532
G1 X78.065 Y52.780 E7.98637
G1 X77.744 Y52.276 E7.99742
G1 X77.048 Y51.582 E8.01559
G1 X78.677 Y49.953 E8.05822
G1 X110.723 Y49.953 E8.65106
G1 X113.323 Y52.553 E8.71908
G1 X125.847 Y52.553 E8.95079
G1 X125.847 Y58.288 E9.05690
G1 X125.600 Y58.031 F6000.000
G1 X124.842 Y57.833 E9.07139 F1200.000
G1 X124.199 Y57.807 E9.08329
G1 X123.566 Y57.919 E9.09519
G1 X122.971 Y58.163 E9.10709
G1 X122.442 Y58.528 E9.11898
G1 X122.002 Y58.998 E9.13088
G1 X121.673 Y59.551 E9.14278
G1 X121.470 Y60.161 E9.15468
G1 X121.401 Y60.800 E9.16658
G1 X121.470 Y61.439 E9.17848
G1 X121.681 Y62.063 E9.19066
G1 X122.002 Y62.602 E9.20227
G1 X122.442 Y63.072 E9.21417
G1 X122.971 Y63.437 E9.22606
G1 X123.566 Y63.681 E9.23796
G1 X124.199 Y63.793 E9.24986
G1 X124.842 Y63.767 E9.26176
G1 X125.600 Y63.569 E9.27625
G1 X125.600 Y133.391 E10.56798
G1 X124.842 Y133.193 E10.58247
G1 X124.199 Y133.167 E10.59437
G1 X123.566 Y133.279 E10.60627
G1 X122.971 Y133.523 E10.61817
G1 X122.442 Y133.888 E10.63007
G1 X121.994 Y134.372 E10.64225
G1 X121.673 Y134.911 E10.65386
G1 X121.470 Y135.521 E10.66576
G1 X121.401 Y136.160 E10.67765
G1 X121.470 Y136.799 E10.68955
G1 X121.673 Y137.409 E10.70145
G1 X122.002 Y137.962 E10.71335
G1 X122.442 Y138.432 E10.72525
G1 X122.971 Y138.797 E10.73715
G1 X123.566 Y139.041 E10.74904
G1 X124.199 Y139.153 E10.76094
G1 X124.842 Y139.127 E10.77284
G1 X125.600 Y138.929 E10.78733
G1 X125.600 Y149.800 E10.98845
G1 X74.400 Y149.800 E11.93566
G1 X74.400 Y139.869 E12.11939
G1 X75.158 Y140.067 E12.13389
G1 X75.801 Y140.093 E12.14578
G1 X76.434 Y139.981 E12.15768
G1 X77.029 Y139.737 E12.16958
G1 X77.558 Y139.372 E12.18148
G1 X77.998 Y138.902 E12.19338
G1 X78.327 Y138.349 E12.20528
G1 X78.530 Y137.739 E12.21717
G1 X78.599 Y137.100 E12.22907
G1 X78.530 Y136.461 E12.24097
G1 X78.319 Y135.837 E12.25316
G1 X77.998 Y135.298 E12.26476
G1 X77.558 Y134.828 E12.27666
G1 X77.029 Y134.463 E12.28856
G1 X76.434 Y134.219 E12.30046
G1 X75.801 Y134.107 E12.31236
G1 X75.158 Y134.133 E12.32425
G1 X74.400 Y134.331 E12.33875
G1 X74.400 Y56.769 E13.77366
G1 X75.166 Y56.968 E13.78831
G1 X75.817 Y56.992 E13.80036
G1 X76.458 Y56.874 E13.81240
G1 X77.058 Y56.621 E13.82445
G1 X77.589 Y56.245 E13.83650
G1 X78.027 Y55.763 E13.84855
G1 X78.350 Y55.197 E13.86060
G1 X78.544 Y54.575 E13.87265
G1 X78.599 Y53.926 E13.88470
G1 X78.512 Y53.281 E13.89675
G1 X78.288 Y52.669 E13.90879
G1 X77.937 Y52.120 E13.92084
G1 X77.398 Y51.582 E13.93494
G1 X78.780 Y50.200 E13.97110
G1 X110.620 Y50.200 E14.56015
G1 X113.220 Y52.800 E14.62817
G1 X125.600 Y52.800 E14.85720
G1 X125.600 Y57.968 E14.95282
G1 X125.529 Y58.445 F6000.000
G1 F1860.000 E11.95282
G92 E0
G1 X128.653 Y49.747 F6000.000
G1 E3.10000 F1860.000
G1 X128.653 Y152.853 E5.00748 F1200.000
G1 X71.347 Y152.853 E6.06764
G1 X71.347 Y49.747 E7.97512
G1 X74.915 Y49.747 E8.04113
G1 X77.515 Y47.147 E8.10915
G1 X111.885 Y47.147 E8.74499
G1 X114.485 Y49.747 E8.81302
G1 X128.590 Y49.747 E9.07396
G1 X128.900 Y49.500 F6000.000
G1 X128.900 Y153.100 E10.99059 F1200.000
G1 X71.100 Y153.100 E12.05990
G1 X71.100 Y49.500 E13.97652
G1 X74.813 Y49.500 E14.04521
G1 X77.413 Y46.900 E14.11324
G1 X111.987 Y46.900 E14.75286
G1 X114.587 Y49.500 E14.82089
G1 X128.837 Y49.500 E15.08452
G1 X128.690 Y49.864 F6000.000
G1 X128.454 Y49.906 F6000.000
G1 X128.494 Y49.946 E15.08556 F1200.000
G1 X128.494 Y50.297 E15.09204
G1 X128.103 Y49.906 E15.10225
G1 X127.753 Y49.906 E15.10873
G1 X128.494 Y50.647 E15.12810
G1 X128.494 Y50.997 E15.13458
G1 X127.403 Y49.906 E15.16312
G1 X127.053 Y49.906 E15.16959
G1 X128.494 Y51.347 E15.20729
G1 X128.494 Y51.697 E15.21377
G1 X126.703 Y49.906 E15.26063
G1 X126.352 Y49.906 E15.26711
G1 X128.494 Y52.048 E15.32313
G1 X128.494 Y52.398 E15.32961
G1 X126.002 Y49.906 E15.39479
G1 X125.652 Y49.906 E15.40127
G1 X128.494 Y52.748 E15.47562
G1 X128.494 Y53.098 E15.48210
G1 X125.302 Y49.906 E15.56561
G1 X124.952 Y49.906 E15.57209
G1 X128.494 Y53.448 E15.66476
G1 X128.494 Y53.799 E15.67124
G1 X124.601 Y49.906 E15.77307
G1 X124.251 Y49.906 E15.77955
G1 X128.494 Y54.149 E15.89055
G1 X128.494 Y54.499 E15.89703
G1 X123.901 Y49.906 E16.01719
G1 X123.551 Y49.906 E16.02367
G1 X128.494 Y54.849 E16.15299
G1 X128.494 Y55.200 E16.15947
G1 X126.006 Y52.712 E16.22454
G1 X126.006 Y53.063 E16.23102
G1 X128.494 Y55.550 E16.29609
G1 X128.494 Y55.900 E16.30257
G1 X126.006 Y53.413 E16.36764
G1 X126.006 Y53.763 E16.37412
G1 X128.494 Y56.250 E16.43919
G1 X128.494 Y56.600 E16.44567
G1 X126.006 Y54.113 E16.51074
G1 X126.006 Y54.463 E16.51722
G1 X128.494 Y56.951 E16.58229
G1 X128.494 Y57.301 E16.58877
G1 X126.006 Y54.814 E16.65385
G1 X126.006 Y55.164 E16.66032
G1 X128.494 Y57.651 E16.72540
G1 X128.494 Y58.001 E16.73188
G1 X126.006 Y55.514 E16.79695
G1 X126.006 Y55.864 E16.80343
G1 X128.494 Y58.351 E16.86850
G1 X128.494 Y58.702 E16.87498
G1 X126.006 Y56.214 E16.94005
G1 X126.006 Y56.565 E16.94653
G1 X128.494 Y59.052 E17.01160
G1 X128.494 Y59.402 E17.01808
G1 X126.006 Y56.915 E17.08315
G1 X126.006 Y57.265 E17.08963
G1 X128.494 Y59.752 E17.15470
G1 X128.494 Y60.102 E17.16118
G1 X126.006 Y57.615 E17.22625
G1 X126.006 Y57.965 E17.23273
G1 X128.494 Y60.453 E17.29780
G1 X128.494 Y60.803 E17.30428
G1 X126.006 Y58.316 E17.36936
G1 X125.860 Y58.519 E17.37400
G1 X128.494 Y61.153 E17.44291
G1 X128.494 Y61.503 E17.44939
G1 X125.386 Y58.395 E17.53071
G1 X124.912 Y58.272 E17.53977
G1 X128.494 Y61.853 E17.63348
G1 X128.494 Y62.204 E17.63996
G1 X126.365 Y60.075 E17.69566
G1 X126.476 Y60.536 E17.70444
G1 X128.494 Y62.554 E17.75722
G1 X128.494 Y62.904 E17.76370
G1 X126.497 Y60.907 E17.81595
G1 X126.456 Y61.217 E17.82172
G1 X128.494 Y63.254 E17.87503
G1 X128.494 Y63.604 E17.88151
G1 X126.379 Y61.490 E17.93683
G1 X126.277 Y61.738 E17.94179
G1 X128.494 Y63.955 E17.99979
G1 X128.494 Y64.305 E18.00627
G1 X126.148 Y61.959 E18.06763
G1 X125.996 Y62.158 E18.07225
G1 X128.494 Y64.655 E18.13759
G1 X128.494 Y65.005 E18.14407
G1 X125.829 Y62.341 E18.21378
G1 X125.631 Y62.493 E18.21840
G1 X128.494 Y65.356 E18.29329
G1 X128.494 Y65.706 E18.29977
G1 X125.427 Y62.640 E18.37999
G1 X125.180 Y62.742 E18.38495
G1 X125.589 Y63.152 E18.39566
G1 X125.312 Y63.224 E18.40097
G1 X124.929 Y62.841 E18.41099
G1 X124.619 Y62.882 E18.41676
G1 X125.034 Y63.297 E18.42761
