; generated by Slic3r 1.1.7 on 2014-12-03 at 22:54:27

; perimeters extrusion width = 0.40mm
; infill extrusion width = 0.67mm
; solid infill extrusion width = 0.67mm
; top infill extrusion width = 0.67mm

G21 ; set units to millimeters
M107
M190 S60 ; wait for bed temperature to be reached
M104 S195 ; set temperature
G28 ; home all axes
M109 S195 ; wait for temperature to be reached
G90 ; use absolute coordinates
G92 E0
M82 ; use absolute distances for extrusion
G1 F3000.000 E-4.00000
G1 Z0.500 F7800.000
G92 E0
G1 X81.548 Y72.775 F7800.000
G1 Z0.200 F7800.000
G1 E4.00000 F3000.000
G1 X82.957 Y71.428 E4.06484 F360.000
G1 X85.499 Y70.699 E4.15281
G1 X94.502 Y70.699 E4.45221
G1 X95.933 Y70.918 E4.50038
G1 X112.350 Y76.069 E5.07266 F360.000
G1 X114.082 Y76.889 E5.13638
G1 X115.704 Y77.973 E5.20126
G1 X117.027 Y79.296 E5.26352
G1 X118.111 Y80.918 E5.32841
G1 X118.722 Y82.220 E5.37624
G1 X124.602 Y102.035 E6.06369
G1 X124.800 Y103.400 E6.10958
G1 X124.800 Y121.599 E6.71485
G1 X124.405 Y123.507 E6.77969
G1 X123.282 Y125.101 E6.84452
G1 X121.619 Y126.117 E6.90936
G1 X120.001 Y126.399 E6.96399
G1 X80.000 Y126.399 E8.29441
G1 X78.092 Y126.003 E8.35924
G1 X76.498 Y124.880 E8.42408
G1 X75.482 Y123.217 E8.48891
G1 X75.201 Y121.599 E8.54354
G1 X75.199 Y104.499 E9.11226
G1 X75.290 Y102.472 E9.17976
G1 X80.790 Y74.571 E10.12561
G1 X81.524 Y72.830 E10.18845
G1 X81.923 Y72.937 F7800.000
G1 X83.307 Y71.685 E10.25052 F360.000
G1 X85.499 Y71.099 E10.32601
G1 X94.502 Y71.099 E10.62542
G1 X95.814 Y71.300 E10.66957
G1 X112.196 Y76.438 E11.24062 F360.000
G1 X113.859 Y77.221 E11.30177
G1 X115.481 Y78.305 E11.36666
G1 X116.695 Y79.519 E11.42373
G1 X117.779 Y81.141 E11.48862
G1 X118.339 Y82.334 E11.53246
G1 X124.219 Y102.149 E12.21991
G1 X124.400 Y103.400 E12.26198
G1 X124.400 Y121.599 E12.86725
G1 X124.005 Y123.422 E12.92930
G1 X122.890 Y124.917 E12.99134
G1 X121.255 Y125.816 E13.05339
G1 X120.001 Y125.999 E13.09555
G1 X80.000 Y125.999 E14.42597
G1 X78.177 Y125.603 E14.48801
G1 X76.682 Y124.488 E14.55006
G1 X75.783 Y122.853 E14.61210
G1 X75.601 Y121.599 E14.65426
G1 X75.599 Y104.499 E15.22299
G1 X75.683 Y102.549 E15.28790
G1 X81.183 Y74.649 E16.23375
G1 X81.899 Y72.992 E16.29377
G1 F3000.000 E12.29377
G1 Z0.500 F7800.000
G92 E0
G1 X85.299 Y75.417 F7800.000
G1 Z0.200 F7800.000
G1 E4.00000 F3000.000
G1 X85.417 Y75.299 E4.00551 F360.000
G1 X94.584 Y75.299 E4.31043
G1 X94.702 Y75.417 E4.31594
G1 X94.702 Y80.064 E4.47052
G1 X94.936 Y80.299 E4.48154
G1 X110.584 Y80.299 E5.00201
G1 X110.805 Y80.519 E5.01239
G1 X110.910 Y80.575 E5.01634
G1 X111.509 Y80.702 E5.03672
G1 X113.192 Y81.836 E5.10421
G1 X114.313 Y83.527 E5.17169
G1 X114.701 Y85.480 E5.23790
G1 X114.313 Y87.471 E5.30537
G1 X113.192 Y89.162 E5.37285
G1 X111.509 Y90.296 E5.44033
G1 X110.910 Y90.423 E5.46072
G1 X110.805 Y90.479 E5.46466
G1 X110.584 Y90.699 E5.47504
G1 X94.936 Y90.699 E5.99551
G1 X94.702 Y90.934 E6.00654
G1 X94.702 Y95.582 E6.16115
G1 X94.584 Y95.699 E6.16666
G1 X85.417 Y95.699 E6.47158
G1 X85.299 Y95.582 E6.47709
G1 X85.299 Y75.477 E7.14581
G1 F3000.000 E3.14581
G1 Z0.500 F7800.000
G92 E0
G1 X79.917 Y103.200 F7800.000
G1 Z0.200 F7800.000
G1 E4.00000 F3000.000
G1 X120.083 Y103.200 E5.33595 F360.000
G1 X120.200 Y103.318 E5.34146
G1 X120.200 Y121.681 E5.95224
G1 X120.083 Y121.799 E5.95775
G1 X79.918 Y121.799 E7.29367
G1 X79.801 Y121.681 E7.29918
G1 X79.799 Y103.318 E7.90996
G1 X79.874 Y103.243 E7.91348
G1 F3000.000 E3.91348
G1 Z0.500 F7800.000
G92 E0
G1 X119.800 Y121.399 F7800.000
G1 Z0.200 F7800.000
G1 E4.00000 F3000.000
G1 X80.201 Y121.399 E5.31710 F270.000
G1 X80.199 Y104.299 E5.88582
G1 X80.199 Y103.600 E5.90907
G1 X119.800 Y103.600 E7.22620
G1 X119.800 Y121.339 E7.81617
G1 X119.454 Y121.199 F7800.000
G1 X119.400 Y120.999 F7800.000
G1 X80.601 Y120.999 E9.10667 F540.000
G1 X80.601 Y104.000 E9.67203
G1 X119.400 Y104.000 E10.96252
G1 X119.400 Y120.939 E11.52588
G1 X119.000 Y120.599 F7800.000
G1 X81.001 Y120.599 E12.78977 F540.000
G1 X81.001 Y104.400 E13.32852
G1 X119.000 Y104.400 E14.59240
G1 X119.000 Y120.539 E15.12916
G1 F3000.000 E11.12916
G1 Z0.500 F7800.000
G92 E0
G1 X114.703 Y117.701 F7800.000
G1 Z0.200 F7800.000
G1 E4.00000 F3000.000
G1 X85.298 Y117.701 E4.97801 F270.000
G1 X85.298 Y107.297 E5.32405
G1 X114.703 Y107.297 E6.30207
G1 X114.703 Y117.641 E6.64611
G1 X114.703 Y118.101 F7800.000
G1 X115.103 Y118.101 F7800.000
G1 X84.898 Y118.101 E7.65073 F540.000
G1 X84.898 Y106.897 E8.02338
G1 X115.103 Y106.897 E9.02800
G1 X115.103 Y118.041 E9.39865
G1 X115.504 Y118.501 F7800.000
G1 X84.498 Y118.501 E10.42988 F540.000
G1 X84.498 Y106.497 E10.82914
G1 X115.504 Y106.497 E11.86037
G1 X115.504 Y118.441 E12.25763
G1 F3000.000 E8.25763
G1 Z0.500 F7800.000
G92 E0
G1 X115.115 Y106.228 F7800.000
G1 Z0.200 F7800.000
G1 E4.00000 F3000.000
G1 X113.558 Y104.670 E4.07324 F540.000
G1 X112.987 Y104.670 E4.09221
G1 X114.545 Y106.228 E4.16545
G1 X113.974 Y106.228 E4.18442
G1 X112.417 Y104.670 E4.25766
G1 X111.847 Y104.670 E4.27663
G1 X113.404 Y106.228 E4.34987
G1 X112.834 Y106.228 E4.36884
G1 X111.277 Y104.670 E4.44208
G1 X110.706 Y104.670 E4.46105
G1 X112.263 Y106.228 E4.53429
G1 X111.693 Y106.228 E4.55326
G1 X110.136 Y104.670 E4.62650
G1 X109.566 Y104.670 E4.64547
G1 X111.123 Y106.228 E4.71871
G1 X110.552 Y106.228 E4.73768
G1 X108.995 Y104.670 E4.81092
G1 X108.425 Y104.670 E4.82989
G1 X109.982 Y106.228 E4.90313
G1 X109.412 Y106.228 E4.92210
G1 X107.855 Y104.670 E4.99534
G1 X107.284 Y104.670 E5.01431
G1 X108.842 Y106.228 E5.08755
G1 X108.271 Y106.228 E5.10652
G1 X106.714 Y104.670 E5.17976
G1 X106.144 Y104.670 E5.19873
G1 X107.701 Y106.228 E5.27197
G1 X107.131 Y106.228 E5.29093
G1 X105.574 Y104.670 E5.36418
G1 X105.003 Y104.670 E5.38314
G1 X106.560 Y106.228 E5.45639
G1 X105.990 Y106.228 E5.47535
G1 X104.433 Y104.670 E5.54860
G1 X103.863 Y104.670 E5.56756
G1 X105.420 Y106.228 E5.64080
G1 X104.849 Y106.228 E5.65977
G1 X103.292 Y104.670 E5.73301
G1 X102.722 Y104.670 E5.75198
G1 X104.279 Y106.228 E5.82522
G1 X103.709 Y106.228 E5.84419
G1 X102.152 Y104.670 E5.91743
G1 X101.581 Y104.670 E5.93640
G1 X103.139 Y106.228 E6.00964
G1 X102.568 Y106.228 E6.02861
G1 X101.011 Y104.670 E6.10185
G1 X100.441 Y104.670 E6.12082
G1 X101.998 Y106.228 E6.19406
G1 X101.428 Y106.228 E6.21303
G1 X99.871 Y104.670 E6.28627
G1 X99.300 Y104.670 E6.30524
G1 X100.857 Y106.228 E6.37848
G1 X100.287 Y106.228 E6.39745
G1 X98.730 Y104.670 E6.47069
G1 X98.160 Y104.670 E6.48966
G1 X99.717 Y106.228 E6.56290
G1 X99.146 Y106.228 E6.58187
G1 X97.589 Y104.670 E6.65511
G1 X97.019 Y104.670 E6.67408
G1 X98.576 Y106.228 E6.74732
G1 X98.006 Y106.228 E6.76629
G1 X96.449 Y104.670 E6.83953
G1 X95.878 Y104.670 E6.85850
G1 X97.435 Y106.228 E6.93174
G1 X96.865 Y106.228 E6.95071
G1 X95.308 Y104.670 E7.02395
G1 X94.738 Y104.670 E7.04292
G1 X96.295 Y106.228 E7.11616
G1 X95.725 Y106.228 E7.13513
G1 X94.167 Y104.670 E7.20837
G1 X93.597 Y104.670 E7.22733
G1 X95.154 Y106.228 E7.30058
G1 X94.584 Y106.228 E7.31954
G1 X93.027 Y104.670 E7.39279
G1 X92.457 Y104.670 E7.41175
G1 X94.014 Y106.228 E7.48499
G1 X93.443 Y106.228 E7.50396
G1 X91.886 Y104.670 E7.57720
G1 X91.316 Y104.670 E7.59617
G1 X92.873 Y106.228 E7.66941
G1 X92.303 Y106.228 E7.68838
G1 X90.746 Y104.670 E7.76162
G1 X90.175 Y104.670 E7.78059
G1 X91.732 Y106.228 E7.85383
G1 X91.162 Y106.228 E7.87280
G1 X89.605 Y104.670 E7.94604
G1 X89.035 Y104.670 E7.96501
G1 X90.592 Y106.228 E8.03825
G1 X90.022 Y106.228 E8.05722
G1 X88.464 Y104.670 E8.13046
G1 X87.894 Y104.670 E8.14943
G1 X89.451 Y106.228 E8.22267
G1 X88.881 Y106.228 E8.24164
G1 X87.324 Y104.670 E8.31488
G1 X86.754 Y104.670 E8.33385
G1 X88.311 Y106.228 E8.40709
G1 X87.740 Y106.228 E8.42606
G1 X86.183 Y104.670 E8.49930
G1 X85.613 Y104.670 E8.51827
G1 X87.170 Y106.228 E8.59151
G1 X86.600 Y106.228 E8.61048
G1 X85.043 Y104.670 E8.68372
G1 X84.472 Y104.670 E8.70269
G1 X86.029 Y106.228 E8.77593
G1 X85.459 Y106.228 E8.79489
G1 X83.902 Y104.670 E8.86814
G1 X83.332 Y104.670 E8.88710
G1 X84.889 Y106.228 E8.96034
G1 X84.319 Y106.228 E8.97931
G1 X82.761 Y104.670 E9.05255
G1 X82.191 Y104.670 E9.07152
G1 X84.229 Y106.708 E9.16736
G1 X84.229 Y107.278 E9.18632
G1 X81.621 Y104.670 E9.30898
G1 X81.270 Y104.890 E9.32274
G1 X84.229 Y107.848 E9.46188
G1 X84.229 Y108.419 E9.48085
G1 X81.270 Y105.461 E9.61998
G1 X81.270 Y106.031 E9.63895
G1 X84.229 Y108.989 E9.77809
G1 X84.229 Y109.559 E9.79706
G1 X81.270 Y106.601 E9.93619
G1 X81.270 Y107.172 E9.95516
G1 X84.229 Y110.130 E10.09430
G1 X84.229 Y110.700 E10.11327
G1 X81.270 Y107.742 E10.25240
G1 X81.270 Y108.312 E10.27137
G1 X84.229 Y111.270 E10.41051
G1 X84.229 Y111.841 E10.42948
G1 X81.270 Y108.883 E10.56861
G1 X81.270 Y109.453 E10.58758
G1 X84.229 Y112.411 E10.72672
G1 X84.229 Y112.981 E10.74569
G1 X81.270 Y110.023 E10.88482
G1 X81.270 Y110.593 E10.90379
G1 X84.229 Y113.551 E11.04293
G1 X84.229 Y114.122 E11.06190
G1 X81.270 Y111.164 E11.20103
G1 X81.270 Y111.734 E11.22000
G1 X84.229 Y114.692 E11.35914
G1 X84.229 Y115.262 E11.37811
G1 X81.270 Y112.304 E11.51724
G1 X81.270 Y112.875 E11.53621
G1 X84.229 Y115.833 E11.67535
G1 X84.229 Y116.403 E11.69432
G1 X81.270 Y113.445 E11.83345
G1 X81.270 Y114.015 E11.85242
G1 X84.229 Y116.973 E11.99156
G1 X84.229 Y117.544 E12.01053
G1 X81.270 Y114.586 E12.14967
G1 X81.270 Y115.156 E12.16863
G1 X84.229 Y118.114 E12.30777
G1 F3000.000 E8.30777
G1 Z0.500 F7800.000
G92 E0
G1 X81.270 Y120.289 F7800.000
G1 Z0.200 F7800.000
G1 E4.00000 F3000.000
G1 X81.310 Y120.329 E4.00188 F540.000
G1 X81.881 Y120.329 E4.02085
G1 X81.270 Y119.718 E4.04956
G1 X81.270 Y119.148 E4.06852
G1 X82.451 Y120.329 E4.12406
G1 X83.021 Y120.329 E4.14303
G1 X81.270 Y118.578 E4.22538
G1 X81.270 Y118.007 E4.24435
G1 X83.592 Y120.329 E4.35353
G1 X84.162 Y120.329 E4.37250
G1 X81.270 Y117.437 E4.50851
G1 X81.270 Y116.867 E4.52748
G1 X84.732 Y120.329 E4.69031
G1 X85.303 Y120.329 E4.70928
G1 X81.270 Y116.296 E4.89894
G1 X81.270 Y115.726 E4.91791
G1 X85.873 Y120.329 E5.13439
G1 X86.443 Y120.329 E5.15336
G1 X84.886 Y118.771 E5.22660
G1 X85.456 Y118.771 E5.24557
G1 X87.014 Y120.329 E5.31881
G1 X87.584 Y120.329 E5.33778
G1 X86.027 Y118.771 E5.41102
G1 X86.597 Y118.771 E5.42999
G1 X88.154 Y120.329 E5.50323
G1 X88.724 Y120.329 E5.52220
G1 X87.167 Y118.771 E5.59544
G1 X87.738 Y118.771 E5.61441
G1 X89.295 Y120.329 E5.68765
G1 X89.865 Y120.329 E5.70662
G1 X88.308 Y118.771 E5.77986
G1 X88.878 Y118.771 E5.79883
G1 X90.435 Y120.329 E5.87207
G1 X91.006 Y120.329 E5.89104
G1 X89.449 Y118.771 E5.96428
G1 X90.019 Y118.771 E5.98325
G1 X91.576 Y120.329 E6.05649
G1 X92.146 Y120.329 E6.07546
G1 X90.589 Y118.771 E6.14870
G1 X91.159 Y118.771 E6.16767
G1 X92.717 Y120.329 E6.24091
G1 X93.287 Y120.329 E6.25987
G1 X91.730 Y118.771 E6.33312
G1 X92.300 Y118.771 E6.35208
G1 X93.857 Y120.329 E6.42533
G1 X94.427 Y120.329 E6.44429
G1 X92.870 Y118.771 E6.51754
G1 X93.441 Y118.771 E6.53650
G1 X94.998 Y120.329 E6.60974
G1 X95.568 Y120.329 E6.62871
G1 X94.011 Y118.771 E6.70195
G1 X94.581 Y118.771 E6.72092
G1 X96.138 Y120.329 E6.79416
G1 X96.709 Y120.329 E6.81313
G1 X95.152 Y118.771 E6.88637
G1 X95.722 Y118.771 E6.90534
G1 X97.279 Y120.329 E6.97858
G1 X97.849 Y120.329 E6.99755
G1 X96.292 Y118.771 E7.07079
G1 X96.862 Y118.771 E7.08976
G1 X98.420 Y120.329 E7.16300
G1 X98.990 Y120.329 E7.18197
G1 X97.433 Y118.771 E7.25521
G1 X98.003 Y118.771 E7.27418
G1 X99.560 Y120.329 E7.34742
G1 X100.130 Y120.329 E7.36639
G1 X98.573 Y118.771 E7.43963
G1 X99.144 Y118.771 E7.45860
G1 X100.701 Y120.329 E7.53184
G1 X101.271 Y120.329 E7.55081
G1 X99.714 Y118.771 E7.62405
G1 X100.284 Y118.771 E7.64302
G1 X101.841 Y120.329 E7.71626
G1 X102.412 Y120.329 E7.73523
G1 X100.855 Y118.771 E7.80847
G1 X101.425 Y118.771 E7.82744
G1 X102.982 Y120.329 E7.90068
G1 X103.552 Y120.329 E7.91965
G1 X101.995 Y118.771 E7.99289
G1 X102.566 Y118.771 E8.01186
G1 X104.123 Y120.329 E8.08510
G1 X104.693 Y120.329 E8.10407
G1 X103.136 Y118.771 E8.17731
G1 X103.706 Y118.771 E8.19628
G1 X105.263 Y120.329 E8.26952
G1 X105.834 Y120.329 E8.28849
G1 X104.276 Y118.771 E8.36173
G1 X104.847 Y118.771 E8.38070
G1 X106.404 Y120.329 E8.45394
G1 X106.974 Y120.329 E8.47290
G1 X105.417 Y118.771 E8.54615
G1 X105.987 Y118.771 E8.56511
G1 X107.544 Y120.329 E8.63836
G1 X108.115 Y120.329 E8.65732
G1 X106.558 Y118.771 E8.73057
G1 X107.128 Y118.771 E8.74953
G1 X108.685 Y120.329 E8.82277
G1 X109.255 Y120.329 E8.84174
G1 X107.698 Y118.771 E8.91498
G1 X108.269 Y118.771 E8.93395
G1 X109.826 Y120.329 E9.00719
G1 X110.396 Y120.329 E9.02616
G1 X108.839 Y118.771 E9.09940
G1 X109.409 Y118.771 E9.11837
G1 X110.966 Y120.329 E9.19161
G1 X111.537 Y120.329 E9.21058
G1 X109.979 Y118.771 E9.28382
G1 X110.550 Y118.771 E9.30279
G1 X112.107 Y120.329 E9.37603
G1 X112.677 Y120.329 E9.39500
G1 X111.120 Y118.771 E9.46824
G1 X111.690 Y118.771 E9.48721
G1 X113.247 Y120.329 E9.56045
G1 X113.818 Y120.329 E9.57942
G1 X112.261 Y118.771 E9.65266
G1 X112.831 Y118.771 E9.67163
G1 X114.388 Y120.329 E9.74487
G1 X114.958 Y120.329 E9.76384
G1 X113.401 Y118.771 E9.83708
G1 X113.972 Y118.771 E9.85605
G1 X115.529 Y120.329 E9.92929
G1 X116.099 Y120.329 E9.94826
G1 X114.542 Y118.771 E10.02150
G1 X115.112 Y118.771 E10.04047
G1 X116.669 Y120.329 E10.11371
G1 X117.240 Y120.329 E10.13268
G1 X115.682 Y118.771 E10.20592
G1 X115.773 Y118.292 E10.22215
G1 X117.810 Y120.329 E10.31793
G1 X118.380 Y120.329 E10.33690
G1 X115.773 Y117.722 E10.45951
G1 X115.773 Y117.152 E10.47848
G1 X118.731 Y120.109 E10.61757
G1 X118.731 Y119.538 E10.63654
G1 X115.773 Y116.581 E10.77563
G1 X115.773 Y116.011 E10.79460
G1 X118.731 Y118.968 E10.93369
G1 X118.731 Y118.398 E10.95266
G1 X115.773 Y115.441 E11.09175
G1 X115.773 Y114.870 E11.11071
G1 X118.731 Y117.827 E11.24980
G1 X118.731 Y117.257 E11.26877
G1 X115.773 Y114.300 E11.40786
G1 X115.773 Y113.730 E11.42683
G1 X118.731 Y116.687 E11.56592
G1 X118.731 Y116.116 E11.58489
G1 X115.773 Y113.159 E11.72398
G1 X115.773 Y112.589 E11.74295
G1 X118.731 Y115.546 E11.88204
G1 X118.731 Y114.976 E11.90101
G1 X115.773 Y112.019 E12.04010
G1 X115.773 Y111.449 E12.05907
G1 X118.731 Y114.406 E12.19816
G1 X118.731 Y113.835 E12.21712
G1 X115.773 Y110.878 E12.35621
G1 X115.773 Y110.308 E12.37518
G1 X118.731 Y113.265 E12.51427
G1 X118.731 Y112.695 E12.53324
G1 X115.773 Y109.738 E12.67233
G1 X115.773 Y109.167 E12.69130
G1 X118.731 Y112.124 E12.83039
G1 X118.731 Y111.554 E12.84936
G1 X115.773 Y108.597 E12.98845
G1 X115.773 Y108.027 E13.00742
G1 X118.731 Y110.984 E13.14651
G1 X118.731 Y110.413 E13.16547
G1 X115.773 Y107.456 E13.30456
G1 X115.773 Y106.886 E13.32353
G1 X118.731 Y109.843 E13.46262
G1 X118.731 Y109.273 E13.48159
G1 X114.128 Y104.670 E13.69808
G1 X114.698 Y104.670 E13.71704
G1 X118.731 Y108.703 E13.90670
G1 X118.731 Y108.132 E13.92567
G1 X115.269 Y104.670 E14.08850
G1 X115.839 Y104.670 E14.10747
G1 X118.731 Y107.562 E14.24348
G1 X118.731 Y106.992 E14.26245
G1 X116.409 Y104.670 E14.37163
G1 X116.980 Y104.670 E14.39060
G1 X118.731 Y106.421 E14.47296
G1 X118.731 Y105.851 E14.49193
G1 X117.550 Y104.670 E14.54746
G1 X118.120 Y104.670 E14.56643
G1 X118.731 Y105.281 E14.59513
G1 X118.731 Y104.710 E14.61410
G1 X118.691 Y104.670 E14.61598
G1 F3000.000 E10.61598
G1 Z0.500 F7800.000
G92 E0
G1 X94.302 Y90.299 F7800.000
G1 Z0.200 F7800.000
G1 E4.00000 F3000.000
G1 X94.302 Y95.299 E4.16630 F270.000
G1 X85.699 Y95.299 E4.45240
G1 X85.699 Y75.699 E5.10430
G1 X94.302 Y75.699 E5.39041
G1 X94.302 Y80.699 E5.55668
G1 X110.302 Y80.699 E6.08884
G1 X110.302 Y80.862 E6.09427
G1 X111.336 Y81.068 E6.12937
G1 X112.892 Y82.108 E6.19161
G1 X113.932 Y83.664 E6.25385
G1 X114.297 Y85.499 E6.31611
G1 X113.932 Y87.334 E6.37833
G1 X112.892 Y88.890 E6.44057
G1 X111.336 Y89.930 E6.50281
G1 X110.302 Y90.136 E6.53791
G1 X110.302 Y90.299 E6.54334
G1 X94.362 Y90.299 E7.07351
G1 X93.902 Y90.299 F7800.000
G1 F3000.000 E3.07351
G1 Z0.500 F7800.000
G92 E0
G1 X109.519 Y89.611 F7800.000
G1 Z0.200 F7800.000
G1 E4.00000 F3000.000
G1 X109.902 Y89.535 E4.01296 F540.000
G1 X109.902 Y89.899 E4.02509
G1 X109.548 Y89.899 E4.03685
G1 X109.525 Y89.671 E4.04450
G1 F3000.000 E0.04450
G1 Z0.500 F7800.000
G92 E0
G1 X109.902 Y81.464 F7800.000
G1 Z0.200 F7800.000
G1 E4.00000 F3000.000
