; generated by Slic3r 1.1.7 on 2014-12-10 at 15:40:02

; perimeters extrusion width = 0.42mm
; infill extrusion width = 0.74mm
; solid infill extrusion width = 0.71mm
; top infill extrusion width = 0.71mm
; support material extrusion width = 0.42mm

G21 ; set units to millimeters
M190 S65 ; wait for bed temperature to be reached
M104 S186 ; set temperature
G28 ; home all axes
M109 S186 ; wait for temperature to be reached
G90 ; use absolute coordinates
G92 E0
M82 ; use absolute distances for extrusion
G1 F1860.000 E-1.00000
G92 E0
G1 Z0.200 F6000.000
G1 X50.295 Y58.052 F6000.000
G1 E1.10000 F1860.000
G1 X52.043 Y56.603 E1.14201 F1200.000
G1 X54.118 Y55.855 E1.18282
G1 X111.750 Y45.756 E2.26527
G1 X119.750 Y45.756 E2.41327
G1 X121.986 Y46.152 E2.45528
G1 X123.948 Y47.295 E2.49728 F1200.000
G1 X125.684 Y49.611 E2.55083
G1 X150.488 Y105.374 E3.67993
G1 X150.969 Y106.998 E3.71124
G1 X151.244 Y109.250 E3.75322
G1 X151.165 Y113.266 E3.82753
G1 X150.969 Y114.502 E3.85069
G1 X150.341 Y116.434 E3.88827
G1 X149.773 Y117.550 E3.91143
G1 X148.615 Y119.157 E3.94807
G1 X116.693 Y151.578 E4.78981
G1 X115.050 Y152.773 E4.82740
G1 X113.934 Y153.341 E4.85055
G1 X112.002 Y153.969 E4.88814
G1 X109.750 Y154.244 E4.93012
G1 X101.734 Y154.164 E5.07842
G1 X100.498 Y153.969 E5.10158
G1 X98.566 Y153.341 E5.13916
G1 X97.450 Y152.773 E5.16232
G1 X96.241 Y151.975 E5.18912
G1 X71.807 Y131.578 E5.77796
G1 X70.922 Y130.693 E5.80111
G1 X69.727 Y129.050 E5.83870
G1 X68.984 Y127.561 E5.86948
G1 X56.540 Y98.651 E6.45177
G1 X49.040 Y74.151 E6.92579
G1 X48.756 Y72.250 E6.96135
G1 X48.756 Y62.250 E7.14635
G1 X49.152 Y60.014 E7.18835
G1 X50.263 Y58.106 E7.22920
G1 X50.517 Y58.184 F6000.000
G1 X50.540 Y58.146 E7.23001 F1200.000
G1 X52.278 Y56.755 E7.27121
G1 X54.161 Y56.098 E7.30811
G1 X111.750 Y46.003 E8.38976
G1 X119.750 Y46.003 E8.53776
G1 X121.941 Y46.400 E8.57895
G1 X123.854 Y47.540 E8.62014 F1200.000
G1 X125.458 Y49.711 E8.67009
G1 X150.262 Y105.475 E9.79919
G1 X150.724 Y107.036 E9.82932
G1 X150.997 Y109.250 E9.87058
G1 X150.920 Y113.227 E9.94417
G1 X150.725 Y114.463 E9.96733
G1 X150.121 Y116.322 E10.00348
G1 X149.552 Y117.437 E10.02664
G1 X148.439 Y118.983 E10.06189
G1 X116.519 Y151.404 E10.90359
G1 X114.937 Y152.552 E10.93975
G1 X113.822 Y153.121 E10.96290
G1 X111.964 Y153.724 E10.99906
G1 X109.750 Y153.997 E11.04032
G1 X101.773 Y153.920 E11.18790
G1 X100.537 Y153.725 E11.21106
G1 X98.678 Y153.121 E11.24721
G1 X97.563 Y152.552 E11.27037
G1 X96.399 Y151.785 E11.29615
G1 X71.981 Y131.404 E11.88458
G1 X71.097 Y130.519 E11.90773
G1 X69.948 Y128.937 E11.94389
G1 X69.211 Y127.463 E11.97438
G1 X56.776 Y98.579 E12.55616
G1 X49.276 Y74.079 E13.03018
G1 X49.003 Y72.250 E13.06439
G1 X49.003 Y62.250 E13.24939
G1 X49.400 Y60.059 E13.29058
G1 X50.485 Y58.239 E13.32979
G1 F1860.000 E12.32979
G92 E0
G1 X74.850 Y96.350 F6000.000
G1 E1.10000 F1860.000
G1 X64.237 Y96.350 E1.29635 F1200.000
G1 X63.698 Y96.206 E1.30666
G1 X63.294 Y95.802 E1.31723
G1 X63.150 Y95.263 E1.32755
G1 X63.150 Y81.737 E1.57779
G1 X63.294 Y81.198 E1.58810
G1 X63.698 Y80.794 E1.59867
G1 X64.237 Y80.650 E1.60898
G1 X74.850 Y80.650 E1.80533
G1 X74.850 Y96.287 E2.09462
G1 F1860.000 E1.09462
G92 E0
G1 X70.641 Y90.050 F6000.000
G1 E1.10000 F1860.000
G1 X70.054 Y90.442 E1.11304 F1200.000
G1 X69.250 Y90.602 E1.12822
G1 X68.446 Y90.442 E1.14339
G1 X67.764 Y89.986 E1.15856
G1 X67.308 Y89.304 E1.17374
G1 X67.148 Y88.500 E1.18891
G1 X67.308 Y87.696 E1.20408
G1 X67.764 Y87.014 E1.21925
G1 X68.476 Y86.552 E1.23495
G1 X69.250 Y86.398 E1.24956 F1200.000
G1 X70.054 Y86.558 E1.26473
G1 X70.736 Y87.014 E1.27990
G1 X71.192 Y87.696 E1.29508
G1 X71.352 Y88.500 E1.31025
G1 X71.192 Y89.304 E1.32542
G1 X70.736 Y89.986 E1.34060
G1 X70.693 Y90.015 E1.34156
G1 F1860.000 E0.34156
G92 E0
G1 X68.342 Y86.154 F6000.000
G1 X74.281 Y69.054 F6000.000
G1 E1.10000 F1860.000
G1 X73.437 Y68.647 E1.11733 F1200.000
G1 X72.852 Y67.914 E1.13468
G1 X72.644 Y67.000 E1.15203
G1 X72.852 Y66.086 E1.16937
G1 X73.437 Y65.353 E1.18671
G1 X74.282 Y64.946 E1.20406
G1 X75.219 Y64.946 E1.22139
G1 X76.063 Y65.353 E1.23873
G1 X76.648 Y66.086 E1.25607 F1200.000
G1 X76.856 Y67.000 E1.27341
G1 X76.647 Y67.915 E1.29078
G1 X76.064 Y68.647 E1.30810
G1 X75.219 Y69.054 E1.32544
G1 X74.344 Y69.054 E1.34162
G1 X74.338 Y68.806 F6000.000
G1 X73.595 Y68.449 E1.35687 F1200.000
G1 X73.081 Y67.804 E1.37213
G1 X72.897 Y67.000 E1.38738
G1 X73.081 Y66.196 E1.40264
G1 X73.595 Y65.551 E1.41790
G1 X74.338 Y65.194 E1.43315
G1 X75.162 Y65.194 E1.44840 F1200.000
G1 X75.905 Y65.551 E1.46365
G1 X76.419 Y66.196 E1.47890
G1 X76.603 Y67.000 E1.49416
G1 X76.419 Y67.805 E1.50944
G1 X75.906 Y68.449 E1.52467
G1 X75.162 Y68.806 E1.53992
G1 X74.401 Y68.806 E1.55401
G1 F1860.000 E0.55401
G92 E0
G1 X74.307 Y64.775 F6000.000
G1 X87.644 Y67.000 F6000.000
G1 E1.10000 F1860.000
G1 X87.853 Y66.085 E1.11737 F1200.000
G1 X88.436 Y65.354 E1.13467
G1 X89.281 Y64.947 E1.15203
G1 X90.219 Y64.947 E1.16938
G1 X91.063 Y65.353 E1.18670
G1 X91.648 Y66.086 E1.20405 F1200.000
G1 X91.856 Y67.000 E1.22139
G1 X91.648 Y67.914 E1.23873
G1 X91.063 Y68.647 E1.25607
G1 X90.219 Y69.053 E1.27342
G1 X89.281 Y69.053 E1.29077
G1 X88.437 Y68.647 E1.30809
G1 X87.852 Y67.914 E1.32544
G1 X87.658 Y67.062 E1.34161
G1 X87.897 Y67.000 F6000.000
G1 X88.081 Y66.195 E1.35689 F1200.000
G1 X88.594 Y65.552 E1.37210
G1 X89.338 Y65.194 E1.38738
G1 X90.163 Y65.194 E1.40264 F1200.000
G1 X90.905 Y65.551 E1.41787
G1 X91.419 Y66.196 E1.43314
G1 X91.603 Y67.000 E1.44839
G1 X91.419 Y67.804 E1.46364
G1 X90.905 Y68.448 E1.47890
G1 X90.162 Y68.806 E1.49415
G1 X89.337 Y68.806 E1.50942
G1 X88.595 Y68.449 E1.52465
G1 X88.081 Y67.804 E1.53991
G1 X87.911 Y67.062 E1.55400
G1 F1860.000 E0.55400
G92 E0
G1 X89.400 Y64.779 F6000.000
G1 X133.103 Y109.437 F6000.000
G1 E1.10000 F1860.000
G1 X133.836 Y108.852 E1.11734 F1200.000
G1 X134.711 Y108.653 E1.13394
G1 X139.337 Y108.664 E1.21952
G1 X140.164 Y108.852 E1.23521 F1200.000
G1 X140.897 Y109.437 E1.25255
G1 X141.303 Y110.281 E1.26989
G1 X141.303 Y111.219 E1.28724
G1 X140.897 Y112.063 E1.30458
G1 X140.164 Y112.648 E1.32192
G1 X139.289 Y112.847 E1.33851
G1 X134.711 Y112.847 E1.42321
G1 X133.836 Y112.648 E1.43981
G1 X133.103 Y112.063 E1.45715
G1 X132.697 Y111.219 E1.47449
G1 X132.697 Y110.281 E1.49183
G1 X133.076 Y109.494 E1.50801
G1 X133.302 Y109.595 F6000.000
G1 X133.946 Y109.081 E1.52326 F1200.000
G1 X134.739 Y108.900 E1.53830
G1 X139.261 Y108.900 E1.62197 F1200.000
G1 X140.054 Y109.081 E1.63701
G1 X140.698 Y109.595 E1.65226
G1 X141.056 Y110.338 E1.66751
G1 X141.056 Y111.162 E1.68277
G1 X140.698 Y111.905 E1.69802
G1 X140.054 Y112.419 E1.71327
G1 X139.261 Y112.600 E1.72831
G1 X134.739 Y112.600 E1.81198
G1 X133.946 Y112.419 E1.82702
G1 X133.302 Y111.905 E1.84227
G1 X132.944 Y111.162 E1.85752
G1 X132.944 Y110.338 E1.87278
G1 X133.274 Y109.652 E1.88686
G1 X134.862 Y108.499 F6000.000
G1 F1860.000 E0.88686
G92 E0
G1 X117.097 Y85.847 F6000.000
G1 E1.10000 F1860.000
G1 X112.403 Y85.847 E1.18685 F1200.000
G1 X112.403 Y77.653 E1.33845
G1 X117.097 Y77.653 E1.42529
G1 X117.097 Y85.784 E1.57573
G1 X116.850 Y85.600 F6000.000
G1 X112.650 Y85.600 E1.65343 F1200.000
G1 X112.650 Y77.900 E1.79588
G1 X116.850 Y77.900 E1.87358
G1 X116.850 Y85.537 E2.01487
G1 X116.850 Y86.020 F6000.000
G1 F1860.000 E1.01487
G92 E0
G1 X107.097 Y77.403 F6000.000
G1 E1.10000 F1860.000
G1 X107.097 Y94.446 E1.41531 F1200.000
G1 X99.622 Y98.938 E1.57665
G1 X98.226 Y96.799 E1.62391
G1 X96.781 Y95.146 E1.66452
G1 X95.119 Y93.712 E1.70514
G1 X93.272 Y92.524 E1.74576
G1 X91.277 Y91.606 E1.78638
G1 X88.903 Y90.896 E1.83223
G1 X88.903 Y77.403 E2.08186
G1 X107.034 Y77.403 E2.41729
G1 X106.850 Y77.650 F6000.000
G1 X106.850 Y94.307 E2.72544 F1200.000
G1 X99.699 Y98.603 E2.87979
G1 X98.424 Y96.649 E2.92296
G1 X96.956 Y94.970 E2.96422
G1 X95.267 Y93.513 E3.00548
G1 X93.391 Y92.307 E3.04674
G1 X91.365 Y91.375 E3.08800
G1 X89.150 Y90.712 E3.13077
G1 X89.150 Y77.650 E3.37242
G1 X106.787 Y77.650 E3.69871
G1 X107.270 Y77.650 F6000.000
G1 F1860.000 E2.69871
G92 E0
G1 X106.850 Y108.653 F6000.000
G1 E1.10000 F1860.000
G1 X108.337 Y108.664 E1.12751 F1200.000
G1 X109.164 Y108.852 E1.14320 F1200.000
G1 X109.897 Y109.437 E1.16054
G1 X110.303 Y110.281 E1.17788
G1 X110.303 Y111.219 E1.19522
G1 X109.897 Y112.063 E1.21256
G1 X109.164 Y112.648 E1.22990
G1 X108.289 Y112.847 E1.24650
G1 X103.711 Y112.847 E1.33120
G1 X102.836 Y112.648 E1.34780
G1 X102.103 Y112.063 E1.36514
G1 X101.697 Y111.219 E1.38248
G1 X101.697 Y110.281 E1.39982
G1 X102.103 Y109.437 E1.41716
G1 X102.836 Y108.852 E1.43450
G1 X103.711 Y108.653 E1.45110
G1 X106.787 Y108.653 E1.50801
G1 X106.850 Y108.900 F6000.000
G1 X108.261 Y108.900 E1.53412 F1200.000
G1 X109.054 Y109.081 E1.54916
G1 X109.698 Y109.595 E1.56441
G1 X110.056 Y110.338 E1.57966
G1 X110.056 Y111.162 E1.59492
G1 X109.698 Y111.905 E1.61017
G1 X109.054 Y112.419 E1.62542
G1 X108.261 Y112.600 E1.64046
G1 X103.739 Y112.600 E1.72413
G1 X102.946 Y112.419 E1.73917
G1 X102.302 Y111.905 E1.75442
G1 X101.944 Y111.162 E1.76967
G1 X101.944 Y110.338 E1.78493
G1 X102.302 Y109.595 E1.80018
G1 X102.946 Y109.081 E1.81543
G1 X103.739 Y108.900 E1.83047
G1 X106.787 Y108.900 E1.88686 F1200.000
G1 F1860.000 E0.88686
G92 E0
G1 X103.739 Y108.480 F6000.000
G1 X106.850 Y139.653 F6000.000
G1 E1.10000 F1860.000
G1 X108.337 Y139.664 E1.12751 F1200.000
G1 X109.164 Y139.852 E1.14320 F1200.000
G1 X109.897 Y140.437 E1.16054
G1 X110.303 Y141.281 E1.17788
G1 X110.303 Y142.219 E1.19522
G1 X109.897 Y143.063 E1.21256
G1 X109.164 Y143.648 E1.22990
G1 X108.289 Y143.847 E1.24650
G1 X103.711 Y143.847 E1.33120
G1 X102.836 Y143.648 E1.34780
G1 X102.103 Y143.063 E1.36514
G1 X101.697 Y142.219 E1.38248
G1 X101.697 Y141.281 E1.39982
G1 X102.103 Y140.437 E1.41716
G1 X102.836 Y139.852 E1.43450
G1 X103.711 Y139.653 E1.45110
G1 X106.787 Y139.653 E1.50801
G1 X106.850 Y139.900 F6000.000
G1 X108.261 Y139.900 E1.53412 F1200.000
G1 X109.054 Y140.081 E1.54916
G1 X109.698 Y140.595 E1.56441
G1 X110.056 Y141.338 E1.57966
G1 X110.056 Y142.162 E1.59492
G1 X109.698 Y142.905 E1.61017
G1 X109.054 Y143.419 E1.62542
G1 X108.261 Y143.600 E1.64046
G1 X103.739 Y143.600 E1.72413
G1 X102.946 Y143.419 E1.73917
G1 X102.302 Y142.905 E1.75442
G1 X101.944 Y142.162 E1.76967
G1 X101.944 Y141.338 E1.78493
G1 X102.302 Y140.595 E1.80018
G1 X102.946 Y140.081 E1.81543
G1 X103.739 Y139.900 E1.83047
G1 X106.787 Y139.900 E1.88687 F1200.000
G1 F1860.000 E0.88687
G92 E0
G1 X103.739 Y139.480 F6000.000
G1 X119.403 Y105.597 F6000.000
G1 E1.10000 F1860.000
G1 X140.723 Y105.597 E1.49442 F1200.000
G1 X141.877 Y105.780 E1.51605
G1 X142.895 Y106.298 E1.53717
G1 X143.702 Y107.105 E1.55829
G1 X144.220 Y108.123 E1.57941
G1 X144.403 Y109.277 E1.60104
G1 X144.403 Y112.223 E1.65552
G1 X144.220 Y113.377 E1.67715
G1 X143.702 Y114.395 E1.69827
G1 X142.895 Y115.202 E1.71939
G1 X141.877 Y115.720 E1.74051
G1 X140.723 Y115.903 E1.76214
G1 X131.423 Y115.903 E1.93418
G1 X129.704 Y114.479 E1.97548
G1 X127.640 Y113.282 E2.01963
G1 X125.406 Y112.443 E2.06377
G1 X123.063 Y111.987 E2.10792
G1 X120.678 Y111.925 E2.15207
G1 X118.315 Y112.260 E2.19622
G1 X116.040 Y112.981 E2.24037
G1 X113.916 Y114.069 E2.28451
G1 X112.003 Y115.495 E2.32866
G1 X110.351 Y117.218 E2.37281
G1 X109.009 Y119.190 E2.41696
G1 X108.011 Y121.358 E2.46111
G1 X107.402 Y123.605 E2.50418
G1 X107.153 Y126.036 E2.54939
G1 X107.316 Y128.417 E2.59354
G1 X107.872 Y130.738 E2.63768
G1 X108.804 Y132.935 E2.68183
G1 X110.087 Y134.946 E2.72598
G1 X111.687 Y136.718 E2.77013
G1 X113.403 Y138.077 E2.81063
G1 X113.403 Y143.723 E2.91508
G1 X113.220 Y144.877 E2.93671
G1 X112.702 Y145.895 E2.95782
G1 X111.895 Y146.702 E2.97894
G1 X110.877 Y147.220 E3.00006
G1 X109.723 Y147.403 E3.02169
G1 X102.777 Y147.403 E3.15018
G1 X101.623 Y147.220 E3.17181
G1 X100.605 Y146.702 E3.19293
G1 X99.798 Y145.895 E3.21405
G1 X99.280 Y144.877 E3.23516
G1 X99.097 Y143.723 E3.25679
G1 X99.097 Y131.723 E3.47880
G1 X98.889 Y130.405 E3.50347
G1 X98.270 Y129.192 E3.52866
G1 X97.308 Y128.230 E3.55385
G1 X96.095 Y127.611 E3.57903
G1 X94.777 Y127.403 E3.60371
G1 X78.777 Y127.403 E3.89971
G1 X77.623 Y127.220 E3.92134
G1 X76.606 Y126.702 E3.94246
G1 X75.798 Y125.895 E3.96358
G1 X75.280 Y124.877 E3.98470
G1 X75.097 Y123.723 E4.00633
G1 X75.097 Y111.135 E4.23919
G1 X75.247 Y111.098 E4.24205
G1 X76.068 Y112.637 E4.27432
G1 X77.416 Y114.317 E4.31416
G1 X79.051 Y115.718 E4.35401
G1 X80.917 Y116.794 E4.39385
G1 X82.950 Y117.506 E4.43370
G1 X85.079 Y117.829 E4.47354
G1 X87.232 Y117.754 E4.51339
G1 X89.333 Y117.281 E4.55323
G1 X91.311 Y116.429 E4.59308
G1 X93.086 Y115.234 E4.63267
G1 X94.612 Y113.733 E4.67227
G1 X95.836 Y111.977 E4.71187
G1 X96.717 Y110.026 E4.75147
G1 X97.224 Y107.947 E4.79107
G1 X97.340 Y105.809 E4.83066
G1 X97.062 Y103.687 E4.87026
G1 X96.398 Y101.652 E4.90986
G1 X95.372 Y99.774 E4.94946
G1 X94.055 Y98.161 E4.98798
G1 X92.383 Y96.735 E5.02863
G1 X90.522 Y95.678 E5.06823
G1 X88.498 Y94.982 E5.10783
G1 X86.381 Y94.668 E5.14743
G1 X84.242 Y94.750 E5.18702
G1 X82.154 Y95.223 E5.22662
G1 X80.190 Y96.071 E5.26620
G1 X78.530 Y97.173 E5.30306
G1 X77.084 Y98.542 E5.33991
G1 X75.893 Y100.138 E5.37675
G1 X75.249 Y101.408 E5.40309
G1 X75.097 Y101.372 E5.40598
G1 X75.097 Y79.403 E5.81241
G1 X68.894 Y79.403 E5.92717
G1 X65.097 Y75.606 E6.02650
G1 X65.097 Y64.097 E6.23942
G1 X94.606 Y64.097 E6.78534
G1 X98.403 Y67.894 E6.88467
G1 X98.403 Y73.597 E6.99019
G1 X112.097 Y73.597 E7.24354
G1 X112.097 Y52.597 E7.63204
G1 X119.403 Y52.597 E7.76720
G1 X119.403 Y105.534 E8.74654
G1 F1860.000 E7.74654
G92 E0
G1 X71.466 Y89.418 F6000.000
G1 E1.10000 F1860.000
G1 X70.946 Y90.196 E1.11731 F1200.000
G1 X70.168 Y90.716 E1.13462
G1 X69.250 Y90.898 E1.15193
G1 X68.332 Y90.716 E1.16924
G1 X67.554 Y90.196 E1.18655
G1 X67.034 Y89.418 E1.20386
G1 X66.852 Y88.500 E1.22117
G1 X67.034 Y87.582 E1.23848
G1 X67.554 Y86.804 E1.25579
G1 X68.332 Y86.285 E1.27310
G1 X69.250 Y86.102 E1.29041 F1200.000
G1 X70.168 Y86.284 E1.30772
G1 X70.946 Y86.804 E1.32503
G1 X71.466 Y87.582 E1.34234
G1 X71.648 Y88.500 E1.35965
G1 X71.478 Y89.356 E1.37580
G1 F1860.000 E0.37580
G92 E0
G1 X63.097 Y81.046 F6000.000
G1 E1.10000 F1860.000
G1 X63.097 Y80.597 E1.10830 F1200.000
G1 X63.546 Y80.597 E1.11660
G1 X63.142 Y81.001 E1.12716
G1 F1860.000 E0.12716
G92 E0
G1 X56.046 Y71.903 F6000.000
G1 E1.10000 F1860.000
G1 X55.597 Y71.903 E1.10830 F1200.000
G1 X55.597 Y71.454 E1.11660
G1 X56.001 Y71.858 E1.12716
G1 F1860.000 E0.12716
G92 E0
G1 X55.597 Y63.046 F6000.000
G1 E1.10000 F1860.000
G1 X55.597 Y62.597 E1.10830 F1200.000
G1 X56.046 Y62.597 E1.11660
G1 X55.642 Y63.001 E1.12716
G1 F1860.000 E0.12716
G92 E0
G1 X63.097 Y95.954 F6000.000
G1 E1.10000 F1860.000
G1 X63.546 Y96.403 E1.11173 F1200.000
G1 X63.097 Y96.403 E1.12003
G1 X63.097 Y96.017 E1.12716
G1 F1860.000 E0.12716
G92 E0
G1 X74.850 Y96.650 F6000.000
G1 E1.10000 F1860.000
G1 X62.850 Y96.650 E1.32200 F1200.000
G1 X62.850 Y80.350 E1.62356
G1 X74.850 Y80.350 E1.84556
G1 X74.850 Y79.650 E1.85851
G1 X68.791 Y79.650 E1.97059
G1 X64.850 Y75.709 E2.07371
G1 X64.850 Y72.150 E2.13955
G1 X55.350 Y72.150 E2.31530
G1 X55.350 Y62.350 E2.49660
G1 X64.650 Y62.350 E2.66865
G1 X64.650 Y62.650 E2.67421
G1 X56.737 Y62.650 E2.82060
G1 X56.198 Y62.794 E2.83092
G1 X55.794 Y63.198 E2.84148
G1 X55.650 Y63.737 E2.85180
G1 X55.650 Y70.763 E2.98179
G1 X55.794 Y71.302 E2.99210
G1 X56.198 Y71.706 E3.00267
G1 X56.737 Y71.850 E3.01299
G1 X64.850 Y71.850 E3.16308
G1 X64.850 Y63.850 E3.31108
G1 X94.709 Y63.850 E3.86347
G1 X98.650 Y67.791 E3.96659
G1 X98.650 Y73.350 E4.06943
G1 X111.850 Y73.350 E4.31363
G1 X111.850 Y52.350 E4.70214
G1 X119.650 Y52.350 E4.84644
G1 X119.650 Y105.350 E5.82695
G1 X140.742 Y105.350 E6.21716
G1 X141.955 Y105.542 E6.23987
G1 X143.042 Y106.096 E6.26244
G1 X143.904 Y106.958 E6.28501
G1 X144.458 Y108.045 E6.30757
G1 X144.650 Y109.258 E6.33029
G1 X144.650 Y112.242 E6.38550
G1 X144.458 Y113.455 E6.40821
G1 X143.904 Y114.542 E6.43078
G1 X143.042 Y115.404 E6.45334
G1 X141.955 Y115.958 E6.47591
G1 X140.742 Y116.150 E6.49862
G1 X131.334 Y116.150 E6.67268
G1 X129.562 Y114.682 E6.71524
G1 X127.534 Y113.506 E6.75862
G1 X125.338 Y112.682 E6.80201
