; generated by Slic3r 1.1.7 on 2014-12-05 at 10:40:16

; perimeters extrusion width = 0.42mm
; infill extrusion width = 0.74mm
; solid infill extrusion width = 0.71mm
; top infill extrusion width = 0.71mm

G21 ; set units to millimeters
M190 S60 ; wait for bed temperature to be reached
M104 S186 ; set temperature
G28 ; home all axes
M109 S186 ; wait for temperature to be reached
G90 ; use absolute coordinates
G92 E0
M82 ; use absolute distances for extrusion
M106 S251
G1 F1860.000 E-3.00000
G92 E0
G1 Z0.200 F6000.000
G1 X80.317 Y98.416 F6000.000
G1 E3.10000 F1860.000
G1 X82.520 Y97.470 E3.14436 F1200.000
G1 X84.235 Y97.264 E3.17631
G1 X87.868 Y97.264 E3.24352
G1 X90.232 Y97.661 E3.28787
G1 X92.337 Y98.809 E3.33223 F1200.000
G1 X93.952 Y100.582 E3.37659
G1 X94.898 Y102.785 E3.42095
G1 X95.104 Y104.500 E3.45290
G1 X95.104 Y107.500 E3.50840
G1 X94.707 Y109.865 E3.55276
G1 X93.559 Y111.969 E3.59711
G1 X91.786 Y113.584 E3.64147
G1 X89.583 Y114.530 E3.68583
G1 X87.868 Y114.736 E3.71778
G1 X84.235 Y114.736 E3.78499
G1 X81.871 Y114.339 E3.82934
G1 X79.766 Y113.191 E3.87370
G1 X78.152 Y111.418 E3.91806
G1 X77.205 Y109.215 E3.96242
G1 X76.999 Y107.500 E3.99437
G1 X76.999 Y104.500 E4.04987
G1 X77.396 Y102.136 E4.09422
G1 X78.544 Y100.031 E4.13858
G1 X80.271 Y98.459 E4.18177
G1 X80.492 Y98.614 F6000.000
G1 X80.555 Y98.559 E4.18332 F1200.000
G1 X82.738 Y97.673 E4.22691
G1 X84.235 Y97.511 E4.25477
G1 X87.868 Y97.511 E4.32197
G1 X90.190 Y97.908 E4.36556
G1 X92.249 Y99.055 E4.40915 F1200.000
G1 X93.809 Y100.820 E4.45273
G1 X94.695 Y103.003 E4.49632
G1 X94.857 Y104.500 E4.52418
G1 X94.857 Y107.500 E4.57968
G1 X94.460 Y109.822 E4.62327
G1 X93.313 Y111.881 E4.66685
G1 X91.548 Y113.441 E4.71044
G1 X89.365 Y114.327 E4.75403
G1 X87.868 Y114.489 E4.78188
G1 X84.235 Y114.489 E4.84909
G1 X81.913 Y114.092 E4.89268
G1 X79.855 Y112.945 E4.93626
G1 X78.294 Y111.180 E4.97985
G1 X77.409 Y108.997 E5.02344
G1 X77.246 Y107.500 E5.05129
G1 X77.246 Y104.500 E5.10679
G1 X77.644 Y102.178 E5.15038
G1 X78.790 Y100.119 E5.19397
G1 X80.445 Y98.656 E5.23484
G1 X80.664 Y98.814 F6000.000
G1 X80.792 Y98.704 E5.23797 F1200.000
G1 X82.954 Y97.881 E5.28077
G1 X84.235 Y97.758 E5.30458
G1 X87.868 Y97.758 E5.37179
G1 X90.147 Y98.155 E5.41459
G1 X92.158 Y99.300 E5.45739 F1200.000
G1 X93.664 Y101.057 E5.50020
G1 X94.487 Y103.219 E5.54300
G1 X94.610 Y104.500 E5.56681
G1 X94.610 Y107.500 E5.62231
G1 X94.213 Y109.779 E5.66511
G1 X93.068 Y111.790 E5.70792
G1 X91.311 Y113.296 E5.75072
G1 X89.149 Y114.119 E5.79353
G1 X87.868 Y114.242 E5.81734
G1 X84.235 Y114.242 E5.88454
G1 X81.956 Y113.845 E5.92734
G1 X79.945 Y112.700 E5.97015
G1 X78.439 Y110.943 E6.01295
G1 X77.617 Y108.781 E6.05576
G1 X77.494 Y107.500 E6.07956
G1 X77.494 Y104.500 E6.13506
G1 X77.891 Y102.221 E6.17787
G1 X79.035 Y100.210 E6.22067
G1 X80.616 Y98.855 E6.25919
G1 X80.831 Y99.016 F6000.000
G1 X81.028 Y98.853 E6.26392 F1200.000
G1 X84.235 Y98.006 E6.32529
G1 X87.868 Y98.006 E6.39249
G1 X90.104 Y98.402 E6.43450
G1 X92.066 Y99.545 E6.47651 F1200.000
G1 X93.515 Y101.293 E6.51851
G1 X94.362 Y104.500 E6.57988
G1 X94.362 Y107.500 E6.63538
G1 X93.965 Y109.736 E6.67739
G1 X92.823 Y111.698 E6.71940
G1 X91.075 Y113.147 E6.76140
G1 X87.868 Y113.994 E6.82277
G1 X84.235 Y113.994 E6.88998
G1 X82.000 Y113.598 E6.93199
G1 X80.037 Y112.455 E6.97399
G1 X78.588 Y110.707 E7.01600
G1 X77.741 Y107.500 E7.07737
G1 X77.741 Y104.500 E7.13287
G1 X78.138 Y102.264 E7.17487
G1 X79.280 Y100.302 E7.21688
G1 X80.783 Y99.056 E7.25299
G1 X80.994 Y99.220 F6000.000
G1 X81.263 Y99.005 E7.25936 F1200.000
G1 X84.235 Y98.253 E7.31608
G1 X87.868 Y98.253 E7.38328
G1 X90.059 Y98.650 E7.42448
G1 X91.972 Y99.790 E7.46567 F1200.000
G1 X93.363 Y101.528 E7.50686
G1 X94.115 Y104.500 E7.56358
G1 X94.115 Y107.500 E7.61908
G1 X93.718 Y109.691 E7.66027
G1 X92.578 Y111.604 E7.70146
G1 X90.840 Y112.995 E7.74266
G1 X87.868 Y113.747 E7.79937
G1 X84.235 Y113.747 E7.86658
G1 X82.044 Y113.350 E7.90777
G1 X80.132 Y112.210 E7.94896
G1 X78.740 Y110.472 E7.99016
G1 X77.988 Y107.500 E8.04687
G1 X77.988 Y104.500 E8.10237
G1 X78.385 Y102.309 E8.14357
G1 X79.525 Y100.396 E8.18476
G1 X80.945 Y99.260 E8.21842
G1 F1860.000 E5.21842
G92 E0
G1 X87.521 Y107.153 F6000.000
G1 E3.10000 F1860.000
G1 X84.583 Y107.153 E3.15436 F1200.000
G1 X84.583 Y104.847 E3.19701
G1 X87.521 Y104.847 E3.25137
G1 X87.521 Y107.090 E3.29286
G1 X87.768 Y107.400 F6000.000
G1 X84.335 Y107.400 E3.35636 F1200.000
G1 X84.335 Y104.600 E3.40816
G1 X87.768 Y104.600 E3.47167
G1 X87.768 Y107.337 E3.52230
G1 X87.404 Y107.190 F6000.000
G1 F1860.000 E0.52230
G92 E0
G1 X87.322 Y105.006 F6000.000
G1 E3.10000 F1860.000
G1 X87.362 Y105.046 E3.10105 F1200.000
G1 X87.362 Y105.424 E3.10803
G1 X86.944 Y105.006 E3.11894
G1 X86.567 Y105.006 E3.12592
G1 X87.362 Y105.801 E3.14671
G1 X87.362 Y106.178 E3.15369
G1 X86.190 Y105.006 E3.18434
G1 X85.813 Y105.006 E3.19132
G1 X87.362 Y106.555 E3.23185
G1 X87.362 Y106.933 E3.23883
G1 X85.435 Y105.006 E3.28922
G1 X85.058 Y105.006 E3.29620
G1 X87.045 Y106.994 E3.34819
G1 X86.668 Y106.994 E3.35517
G1 X84.742 Y105.067 E3.40557
G1 X84.742 Y105.445 E3.41255
G1 X86.291 Y106.994 E3.45308
G1 X85.913 Y106.994 E3.46005
G1 X84.742 Y105.822 E3.49071
G1 X84.742 Y106.199 E3.49769
G1 X85.536 Y106.994 E3.51848
G1 X85.159 Y106.994 E3.52546
G1 X84.742 Y106.576 E3.53637
G1 X84.742 Y106.954 E3.54335
G1 X84.782 Y106.994 E3.54440
M106 S255
M140 S50 ; set bed temperature
G1 F1860.000 E0.54440
G92 E0
G1 Z0.400 F6000.000
G1 X89.809 Y106.870 F6000.000
G1 E3.10000 F1860.000
M106 S255
G1 X88.078 Y106.870 E3.19245 F600.000
M106 S255
G1 X84.025 Y106.870 E3.31983 F664.138
M106 S255
G1 X83.388 Y106.870 E3.35383 F600.000
G1 X83.388 Y105.130 E3.44674
G1 X84.025 Y105.130 E3.48074
M106 S255
G1 X88.078 Y105.130 E3.60812 F664.138
M106 S255
G1 X89.809 Y105.130 E3.70057 F600.000
G1 X89.809 Y106.807 E3.79011
M106 S255
G1 X90.229 Y107.290 F6000.000
M106 S255
G1 X88.078 Y107.290 E3.90499 F600.000
M106 S255
G1 X84.025 Y107.290 E4.03237 F664.138
M106 S255
G1 X82.968 Y107.290 E4.08880 F600.000
G1 X82.968 Y104.710 E4.22656
G1 X84.025 Y104.710 E4.28298
M106 S255
G1 X88.078 Y104.710 E4.41036 F664.138
M106 S255
G1 X90.229 Y104.710 E4.52524 F600.000
G1 X90.229 Y107.227 E4.65963
M106 S255
G1 X89.444 Y105.496 F6000.000
M106 S255
G1 X89.444 Y106.504 E4.71347 F600.000
G1 X88.926 Y106.504 E4.74109
G1 X88.926 Y105.496 E4.79493
G1 X88.409 Y105.496 E4.82254
G1 X88.409 Y106.504 E4.87638
G1 X87.892 Y106.504 E4.90400
G1 X87.892 Y105.496 E4.95784
G1 X87.375 Y105.496 E4.98546
G1 X87.375 Y106.504 E5.03929
G1 X86.858 Y106.504 E5.06691
G1 X86.858 Y105.496 E5.12075
G1 X86.340 Y105.496 E5.14837
G1 X86.340 Y106.504 E5.20221
G1 X85.823 Y106.504 E5.22982
G1 X85.823 Y105.496 E5.28366
G1 X85.306 Y105.496 E5.31128
G1 X85.306 Y106.504 E5.36512
G1 X84.789 Y106.504 E5.39273
G1 X84.789 Y105.496 E5.44657
G1 X84.272 Y105.496 E5.47419
G1 X84.272 Y106.504 E5.52803
G1 X83.754 Y106.504 E5.55564
G1 X83.754 Y105.496 E5.60948
M106 S255
G1 F1860.000 E2.60948
G92 E0
G1 Z0.600 F6000.000
G1 X91.338 Y106.870 F6000.000
G1 E3.10000 F1860.000
M106 S255
G1 X90.649 Y106.870 E3.13676 F600.000
M106 S255
G1 X82.548 Y106.870 E3.39137 F600.000
M106 S255
G1 X82.322 Y106.870 E3.40345 F600.000
G1 X82.322 Y105.130 E3.49636
G1 X82.548 Y105.130 E3.50844
M106 S255
G1 X90.649 Y105.130 E3.76306 F600.000
M106 S255
G1 X91.338 Y105.130 E3.79982 F600.000
G1 X91.338 Y106.807 E3.88936
M106 S255
G1 X91.758 Y107.290 F6000.000
M106 S255
G1 X90.649 Y107.290 E3.94854 F600.000
M106 S255
G1 X82.548 Y107.290 E4.20316 F600.000
M106 S255
G1 X81.902 Y107.290 E4.23767 F600.000
G1 X81.902 Y104.710 E4.37543
G1 X82.548 Y104.710 E4.40993
M106 S255
G1 X90.649 Y104.710 E4.66455 F600.000
M106 S255
G1 X91.758 Y104.710 E4.72373 F600.000
G1 X91.758 Y107.227 E4.85813
M106 S255
G1 F1860.000 E1.85813
G92 E0
G1 X89.406 Y105.476 F6000.000
G1 E3.10000 F1860.000
G1 X89.446 Y105.516 E3.10284 F600.000
G1 X89.446 Y106.467 E3.15063
G1 X88.454 Y105.476 E3.22106
G1 X87.502 Y105.476 E3.26885
G1 X88.551 Y106.524 E3.34331
G1 X87.599 Y106.524 E3.39110
G1 X86.551 Y105.476 E3.46555
G1 X85.599 Y105.476 E3.51335
G1 X86.647 Y106.524 E3.58780
G1 X85.696 Y106.524 E3.63559
G1 X84.647 Y105.476 E3.71005
G1 X83.752 Y105.533 E3.75508
G1 X84.744 Y106.524 E3.82551
G1 X83.792 Y106.524 E3.87330
G1 X83.752 Y106.484 E3.87614
G1 F1860.000 E0.87614
G92 E0
G1 X89.737 Y106.504 F6000.000
G1 E3.10000 F1860.000
M106 S255
G1 X89.737 Y105.496 E3.15384 F600.000
G1 X90.355 Y105.496 E3.18680
G1 X90.355 Y106.504 E3.24064
G1 X90.972 Y106.504 E3.27360
G1 X90.972 Y105.496 E3.32744
M106 S255
G1 F1860.000 E0.32744
G92 E0
G1 X83.461 Y105.496 F6000.000
G1 E3.10000 F1860.000
M106 S255
G1 X83.461 Y106.504 E3.15384 F600.000
G1 X82.688 Y106.504 E3.19509
G1 X82.688 Y105.496 E3.24893
M106 S255
G1 F1860.000 E0.24893
G92 E0
G1 Z0.800 F6000.000
G1 X81.570 Y106.870 F6000.000
G1 E3.10000 F1860.000
G1 X81.570 Y105.130 E3.15469 F600.000
G1 X92.178 Y105.130 E3.48809
M106 S255
G1 X92.310 Y105.130 E3.49516 F600.000
G1 X92.310 Y106.870 E3.58807
G1 X92.178 Y106.870 E3.59513
M106 S255
G1 X81.633 Y106.870 E3.92655 F600.000
G1 X81.150 Y107.290 F6000.000
M106 S255
G1 X81.150 Y104.710 E4.06431 F600.000
G1 X81.482 Y104.710 E4.08204
M106 S255
G1 F1860.000 E1.08204
G92 E0
G1 X92.178 Y107.290 F6000.000
G1 E3.10000 F1860.000
G1 X81.482 Y107.290 E3.43617 F600.000
G1 F1860.000 E0.43617
G92 E0
G1 X81.482 Y104.710 F6000.000
G1 E3.10000 F1860.000
G1 X92.178 Y104.710 E3.43617 F600.000
M106 S255
G1 X92.730 Y104.710 E3.46566 F600.000
G1 X92.730 Y107.290 E3.60342
G1 X92.178 Y107.290 E3.63291
M106 S255
G1 F1860.000 E0.63291
G92 E0
G1 X81.482 Y107.290 F6000.000
G1 E3.10000 F1860.000
M106 S255
G1 X81.213 Y107.290 E3.11436 F600.000
M106 S255
G1 X81.956 Y105.476 F6000.000
G1 X81.916 Y105.516 E3.11721 F600.000
G1 X81.933 Y106.501 E3.16667
G1 X82.958 Y105.476 E3.23947
G1 X83.959 Y105.476 E3.28976
G1 X82.911 Y106.524 E3.36422
G1 X83.912 Y106.524 E3.41451
G1 X84.961 Y105.476 E3.48897
G1 X85.962 Y105.476 E3.53926
G1 X84.914 Y106.524 E3.61372
G1 X85.915 Y106.524 E3.66401
G1 X86.964 Y105.476 E3.73847
G1 X87.965 Y105.476 E3.78876
G1 X86.917 Y106.524 E3.86321
G1 X87.918 Y106.524 E3.91351
G1 X88.967 Y105.476 E3.98796
G1 X89.968 Y105.476 E4.03826
G1 X88.920 Y106.524 E4.11271
G1 X89.921 Y106.524 E4.16301
G1 X90.970 Y105.476 E4.23746
G1 X91.948 Y105.499 E4.28660
G1 X90.923 Y106.524 E4.35939
G1 X91.924 Y106.524 E4.40969
G1 X91.964 Y106.484 E4.41253
G1 F1860.000 E1.41253
G92 E0
G1 Z1.000 F6000.000
G1 X80.874 Y106.870 F6000.000
G1 E3.10000 F1860.000
G1 X80.874 Y105.130 E3.15469 F600.000
G1 X93.110 Y105.130 E3.53926
G1 X93.110 Y106.870 E3.59395
G1 X80.937 Y106.870 E3.97655
G1 X80.454 Y107.290 F6000.000
M106 S255
G1 X80.454 Y104.710 E4.11431 F600.000
G1 X80.730 Y104.710 E4.12905
M106 S255
G1 F1860.000 E1.12905
G92 E0
G1 X93.150 Y107.290 F6000.000
G1 E3.10000 F1860.000
G1 X80.730 Y107.290 E3.49037 F600.000
G1 F1860.000 E0.49037
G92 E0
G1 X80.730 Y104.710 F6000.000
G1 E3.10000 F1860.000
G1 X93.150 Y104.710 E3.49037 F600.000
M106 S255
G1 X93.530 Y104.710 E3.51064 F600.000
G1 X93.530 Y107.290 E3.64840
G1 X93.150 Y107.290 E3.66867
M106 S255
G1 F1860.000 E0.66867
G92 E0
G1 X80.730 Y107.290 F6000.000
G1 E3.10000 F1860.000
M106 S255
G1 X80.517 Y107.290 E3.11138 F600.000
M106 S255
G1 X81.220 Y106.484 F6000.000
G1 X81.260 Y106.524 E3.11422 F600.000
G1 X82.222 Y106.524 E3.16255
G1 X81.220 Y105.522 E3.23375
G1 X82.137 Y105.476 E3.27984
G1 X83.185 Y106.524 E3.35430
G1 X84.147 Y106.524 E3.40263
G1 X83.099 Y105.476 E3.47709
G1 X84.062 Y105.476 E3.52543
G1 X85.110 Y106.524 E3.59988
G1 X86.072 Y106.524 E3.64822
G1 X85.024 Y105.476 E3.72267
G1 X85.987 Y105.476 E3.77101
G1 X87.035 Y106.524 E3.84546
G1 X87.997 Y106.524 E3.89379
G1 X86.949 Y105.476 E3.96825
G1 X87.912 Y105.476 E4.01658
G1 X88.960 Y106.524 E4.09104
G1 X89.922 Y106.524 E4.13937
G1 X88.874 Y105.476 E4.21383
G1 X89.836 Y105.476 E4.26216
G1 X90.885 Y106.524 E4.33662
G1 X91.847 Y106.524 E4.38495
G1 X90.799 Y105.476 E4.45941
G1 X91.761 Y105.476 E4.50774
G1 X92.764 Y106.478 E4.57894
G1 X92.764 Y105.516 E4.62728
G1 X92.724 Y105.476 E4.63012
G1 F1860.000 E1.63012
G92 E0
G1 Z1.200 F6000.000
G1 X80.295 Y106.870 F6000.000
G1 E3.10000 F1860.000
G1 X80.295 Y105.130 E3.15469 F600.000
G1 X93.782 Y105.130 E3.57859
G1 X93.782 Y106.870 E3.63328
G1 X80.358 Y106.870 E4.05520
G1 X79.875 Y107.290 F6000.000
M106 S255
G1 X79.875 Y104.710 E4.19296 F600.000
G1 X80.034 Y104.710 E4.20145
M106 S255
G1 F1860.000 E1.20145
G92 E0
G1 X93.950 Y107.290 F6000.000
G1 E3.10000 F1860.000
G1 X80.034 Y107.290 E3.53738 F600.000
G1 F1860.000 E0.53738
G92 E0
G1 X80.034 Y104.710 F6000.000
G1 E3.10000 F1860.000
G1 X93.950 Y104.710 E3.53738 F600.000
M106 S255
G1 X94.202 Y104.710 E3.55085 F600.000
G1 X94.202 Y107.290 E3.68861
G1 X93.950 Y107.290 E3.70207
M106 S255
G1 F1860.000 E0.70207
G92 E0
G1 X80.034 Y107.290 F6000.000
G1 E3.10000 F1860.000
M106 S255
G1 X79.938 Y107.290 E3.10512 F600.000
M106 S255
G1 F1860.000 E0.10512
G92 E0
G1 X87.860 Y105.476 F6000.000
G1 E3.10000 F1860.000
G1 X87.820 Y105.516 E3.10284 F600.000
G1 X87.909 Y106.524 E3.15368
G1 X88.957 Y105.476 E3.22813
G1 X89.006 Y106.524 E3.28083
G1 X90.055 Y105.476 E3.35529
G1 X90.104 Y106.524 E3.40799
G1 X91.152 Y105.476 E3.48244
G1 X91.201 Y106.524 E3.53515
G1 X92.250 Y105.476 E3.60960
G1 X92.299 Y106.524 E3.66231
G1 X93.347 Y105.476 E3.73676
G1 X93.396 Y106.524 E3.78947
G1 X93.436 Y106.484 E3.79231
G1 F1860.000 E0.79231
G92 E0
G1 X85.840 Y106.484 F6000.000
G1 E3.10000 F1860.000
G1 X85.800 Y106.524 E3.10284 F600.000
G1 X84.772 Y106.524 E3.15446
G1 X85.811 Y105.486 E3.22819
G1 X84.793 Y105.476 E3.27931
G1 X83.744 Y106.524 E3.35376
G1 X82.717 Y106.524 E3.40539
G1 X83.765 Y105.476 E3.47984
G1 X82.737 Y105.476 E3.53146
G1 X81.689 Y106.524 E3.60592
G1 X80.671 Y106.514 E3.65703
G1 X81.709 Y105.476 E3.73076
G1 X80.681 Y105.476 E3.78238
G1 X80.641 Y105.516 E3.78523
G1 F1860.000 E0.78523
G92 E0
G1 Z1.400 F6000.000
G1 X79.721 Y106.870 F6000.000
G1 E3.10000 F1860.000
G1 X79.721 Y105.130 E3.15469 F600.000
G1 X94.290 Y105.130 E3.61260
G1 X94.290 Y106.870 E3.66729
G1 X79.784 Y106.870 E4.12322
G1 X79.301 Y107.290 F6000.000
M106 S255
G1 X79.301 Y104.710 E4.26098 F600.000
G1 X79.455 Y104.710 E4.26920
M106 S255
G1 F1860.000 E1.26920
G92 E0
G1 X94.622 Y107.290 F6000.000
G1 E3.10000 F1860.000
G1 X79.455 Y107.290 E3.57670 F600.000
G1 F1860.000 E0.57670
G92 E0
G1 X79.455 Y104.710 F6000.000
G1 E3.10000 F1860.000
G1 X94.622 Y104.710 E3.57670 F600.000
M106 S255
G1 X94.710 Y104.710 E3.58141 F600.000
G1 X94.710 Y107.290 E3.71917
G1 X94.622 Y107.290 E3.72388
M106 S255
G1 F1860.000 E0.72388
G92 E0
G1 X79.455 Y107.290 F6000.000
G1 E3.10000 F1860.000
M106 S255
G1 X79.364 Y107.290 E3.10486 F600.000
M106 S255
G1 F1860.000 E0.10486
G92 E0
G1 X85.752 Y105.476 F6000.000
G1 E3.10000 F1860.000
G1 X86.801 Y106.524 E3.17685 F600.000
G1 F1860.000 E0.17685
G92 E0
G1 X85.048 Y105.476 F6000.000
G1 E3.10000 F1860.000
G1 X85.088 Y105.516 E3.10284 F600.000
G1 X85.073 Y106.499 E3.15223
G1 X84.050 Y105.476 E3.22490
G1 X83.052 Y105.476 E3.27504
G1 X84.100 Y106.524 E3.34949
G1 X83.102 Y106.524 E3.39962
G1 X82.054 Y105.476 E3.47408
G1 X81.055 Y105.476 E3.52421
G1 X82.104 Y106.524 E3.59866
G1 X81.105 Y106.524 E3.64880
G1 X80.082 Y105.501 E3.72147
G1 X80.067 Y106.484 E3.77086
G1 X80.107 Y106.524 E3.77370
G1 F1860.000 E0.77370
G92 E0
G1 X88.832 Y106.524 F6000.000
G1 E3.10000 F1860.000
G1 X88.792 Y106.484 E3.10284 F600.000
G1 X88.818 Y105.490 E3.15279
G1 X89.852 Y106.524 E3.22624
G1 X90.872 Y106.524 E3.27747
G1 X89.824 Y105.476 E3.35192
G1 X90.844 Y105.476 E3.40315
G1 X91.892 Y106.524 E3.47760
G1 X92.912 Y106.524 E3.52883
G1 X91.864 Y105.476 E3.60329
G1 X92.884 Y105.476 E3.65452
G1 X93.918 Y106.510 E3.72797
G1 X93.944 Y105.516 E3.77792
G1 X93.904 Y105.476 E3.78076
G1 F1860.000 E0.78076
G92 E0
G1 Z1.600 F6000.000
G1 X79.253 Y106.870 F6000.000
G1 E3.10000 F1860.000
G1 X79.253 Y105.130 E3.15469 F600.000
G1 X94.782 Y105.130 E3.64278
G1 X94.782 Y106.870 E3.69747
G1 X79.316 Y106.870 E4.18358
G1 X78.833 Y107.290 F6000.000
M106 S255
G1 X78.833 Y104.710 E4.32134 F600.000
G1 X78.881 Y104.710 E4.32393
M106 S255
