; generated by Slic3r 1.1.7 on 2015-03-25 at 05:20:11

; perimeters extrusion width = 0.40mm
; infill extrusion width = 0.42mm
; solid infill extrusion width = 0.42mm
; top infill extrusion width = 0.42mm
; support material extrusion width = 0.40mm

G21 ; set units to millimeters
M190 S60 ; wait for bed temperature to be reached
M104 S215 ; set temperature
M106 S255; Turn on Fan fully
G28 ; home all axes Start of G Code Slic3r
G29 ; AutoBed leveing
G1 X205 Y20 F4000
G1 Z4
 
  
M109 S215 ; wait for temperature to be reached
G90 ; use absolute coordinates
G92 E0
M82 ; use absolute distances for extrusion
G1 F1980.000 E-4.00000
G92 E0
G1 Z0.300 F6000.000
G1 X82.398 Y83.246 F6000.000
G1 E4.00000 F1980.000
G1 X84.151 Y81.763 E4.09532 F1650.000
G1 X86.305 Y80.966 E4.19064
G1 X87.500 Y80.857 E4.24046
G1 X112.500 Y80.857 E5.27809
G1 X114.762 Y81.254 E5.37341
G1 X116.754 Y82.398 E5.46873 F1650.000
G1 X118.237 Y84.151 E5.56405
G1 X119.034 Y86.305 E5.65937
G1 X119.143 Y87.500 E5.70919
G1 X119.143 Y112.500 E6.74681
G1 X118.746 Y114.762 E6.84213
G1 X117.602 Y116.754 E6.93746
G1 X115.849 Y118.237 E7.03278
G1 X113.695 Y119.034 E7.12810
G1 X112.500 Y119.143 E7.17791
G1 X87.500 Y119.143 E8.21554
G1 X85.238 Y118.746 E8.31086
G1 X83.246 Y117.602 E8.40618
G1 X81.763 Y115.849 E8.50150
G1 X80.966 Y113.695 E8.59682
G1 X80.857 Y112.500 E8.64664
G1 X80.857 Y87.500 E9.68427
G1 X81.254 Y85.238 E9.77959
G1 X82.368 Y83.298 E9.87242
G1 F1980.000 E5.87242
G92 E0
G1 X82.687 Y83.417 F6000.000
G1 E4.00000 F1980.000
G1 X82.716 Y83.368 E4.00239 F1650.000
G1 X84.457 Y81.959 E4.09536
G1 X87.500 Y81.179 E4.22573
G1 X112.500 Y81.179 E5.26336
G1 X114.704 Y81.575 E5.35633
G1 X116.632 Y82.716 E5.44929 F1650.000
G1 X118.041 Y84.457 E5.54226
G1 X118.821 Y87.500 E5.67263
G1 X118.821 Y112.500 E6.71026
G1 X118.425 Y114.704 E6.80323
G1 X117.284 Y116.632 E6.89620
G1 X115.543 Y118.041 E6.98916
G1 X112.500 Y118.821 E7.11954
G1 X87.500 Y118.821 E8.15716
G1 X85.296 Y118.425 E8.25013
G1 X83.368 Y117.284 E8.34310
G1 X81.959 Y115.543 E8.43607
G1 X81.179 Y112.500 E8.56644
G1 X81.179 Y87.500 E9.60407
G1 X81.575 Y85.296 E9.69703
G1 X82.656 Y83.469 E9.78512
G1 F1980.000 E5.78512
G92 E0
G1 X111.707 Y111.707 F6000.000
G1 E4.00000 F1980.000
G1 X88.293 Y111.707 E4.97181 F900.000
G1 X88.293 Y88.293 E5.94362
G1 X111.707 Y88.293 E6.91542
G1 X111.707 Y111.647 E7.88474
G1 F1980.000 E3.88474
G92 E0
G1 X112.029 Y112.029 F6000.000
G1 E4.00000 F1980.000
G1 X87.971 Y112.029 E4.99849 F900.000
G1 X87.971 Y87.971 E5.99698
G1 X112.029 Y87.971 E6.99548
G1 X112.029 Y111.969 E7.99148
G1 F1980.000 E3.99148
G92 E0
G1 X112.350 Y112.350 F6000.000
G1 E4.00000 F1980.000
G1 X87.650 Y112.350 E5.02518 F720.000
G1 X87.650 Y87.650 E6.05035
G1 X112.350 Y87.650 E7.07553
G1 X112.350 Y112.290 E8.09822
G1 F1980.000 E4.09822
G92 E0
G1 X112.004 Y112.150 F6000.000
G1 X88.546 Y111.494 F6000.000
G1 E4.00000 F1980.000
G1 X88.506 Y111.454 E4.00235 F900.000
G1 X88.506 Y110.995 E4.02140
G1 X89.005 Y111.494 E4.05068
G1 X89.464 Y111.494 E4.06973
G1 X88.506 Y110.536 E4.12596
G1 X88.506 Y110.077 E4.14501
G1 X89.923 Y111.494 E4.22818
G1 X90.382 Y111.494 E4.24723
G1 X88.506 Y109.618 E4.35733
G1 X88.506 Y109.159 E4.37638
G1 X90.841 Y111.494 E4.51343
G1 X91.300 Y111.494 E4.53248
G1 X88.506 Y108.700 E4.69646
G1 X88.506 Y108.241 E4.71551
G1 X91.759 Y111.494 E4.90644
G1 X92.218 Y111.494 E4.92549
G1 X88.506 Y107.782 E5.14335
G1 X88.506 Y107.323 E5.16240
G1 X92.677 Y111.494 E5.40721
G1 X93.136 Y111.494 E5.42626
G1 X88.506 Y106.864 E5.69800
G1 X88.506 Y106.405 E5.71705
G1 X93.595 Y111.494 E6.01574
G1 X94.053 Y111.494 E6.03479
G1 X88.506 Y105.947 E6.36041
G1 X88.506 Y105.488 E6.37946
G1 X94.512 Y111.494 E6.73203
G1 X94.971 Y111.494 E6.75107
G1 X88.506 Y105.029 E7.13058
G1 X88.506 Y104.570 E7.14963
G1 X95.430 Y111.494 E7.55607
G1 X95.889 Y111.494 E7.57512
G1 X88.506 Y104.111 E8.00850
G1 X88.506 Y103.652 E8.02755
G1 X96.348 Y111.494 E8.48788
G1 X96.807 Y111.494 E8.50693
G1 X88.506 Y103.193 E8.99419
G1 X88.506 Y102.734 E9.01324
G1 X97.266 Y111.494 E9.52744
G1 X97.725 Y111.494 E9.54649
G1 X88.506 Y102.275 E10.08763
G1 X88.506 Y101.816 E10.10668
G1 X98.184 Y111.494 E10.67476
G1 X98.643 Y111.494 E10.69381
G1 X88.506 Y101.357 E11.28883
G1 X88.506 Y100.898 E11.30788
G1 X99.102 Y111.494 E11.92985
G1 X99.561 Y111.494 E11.94889
G1 X88.506 Y100.439 E12.59780
G1 X88.506 Y99.980 E12.61684
G1 X100.020 Y111.494 E13.29269
G1 X100.479 Y111.494 E13.31173
G1 X88.506 Y99.521 E14.01452
G1 X88.506 Y99.062 E14.03356
G1 X100.938 Y111.494 E14.76329
G1 X101.397 Y111.494 E14.78233
G1 X88.506 Y98.603 E15.53899
G1 X88.506 Y98.144 E15.55804
G1 X101.856 Y111.494 E16.34164
G1 X102.315 Y111.494 E16.36069
G1 X88.506 Y97.685 E17.17123
G1 X88.506 Y97.226 E17.19028
G1 X102.774 Y111.494 E18.02776
G1 X103.233 Y111.494 E18.04681
G1 X88.506 Y96.767 E18.91123
G1 X88.506 Y96.308 E18.93028
G1 X103.692 Y111.494 E19.82164
G1 X104.151 Y111.494 E19.84069
G1 X88.506 Y95.849 E20.75898
G1 X88.506 Y95.390 E20.77803
G1 X104.610 Y111.494 E21.72327
G1 X105.069 Y111.494 E21.74232
G1 X88.506 Y94.931 E22.71450
G1 X88.506 Y94.472 E22.73355
G1 X105.528 Y111.494 E23.73267
G1 X105.987 Y111.494 E23.75172
G1 X88.506 Y94.013 E24.77777
G1 X88.506 Y93.555 E24.79682
G1 X106.445 Y111.494 E25.84982
G1 X106.904 Y111.494 E25.86887
G1 X88.506 Y93.096 E26.94880
G1 X88.506 Y92.637 E26.96785
G1 X107.363 Y111.494 E28.07473
G1 X107.822 Y111.494 E28.09378
G1 X88.506 Y92.178 E29.22760
G1 X88.506 Y91.719 E29.24665
G1 X108.281 Y111.494 E30.40740
G1 X108.740 Y111.494 E30.42645
G1 X88.506 Y91.260 E31.61415
G1 X88.506 Y90.801 E31.63320
G1 X109.199 Y111.494 E32.84783
G1 X109.658 Y111.494 E32.86688
G1 X88.506 Y90.342 E34.10846
G1 X88.506 Y89.883 E34.12750
G1 X110.117 Y111.494 E35.39602
G1 X110.576 Y111.494 E35.41507
G1 X88.506 Y89.424 E36.71052
G1 X88.506 Y88.965 E36.72957
G1 X111.035 Y111.494 E38.05197
G1 X111.474 Y111.474 E38.07020
G1 X88.526 Y88.526 E39.41719
G1 X88.965 Y88.506 E39.43543
G1 X111.494 Y111.035 E40.75782
G1 X111.494 Y110.576 E40.77687
G1 X89.424 Y88.506 E42.07233
G1 X89.883 Y88.506 E42.09138
G1 X111.494 Y110.117 E43.35989
G1 X111.494 Y109.658 E43.37894
G1 X90.342 Y88.506 E44.62052
G1 X90.801 Y88.506 E44.63956
G1 X111.494 Y109.199 E45.85420
G1 X111.494 Y108.740 E45.87325
G1 X91.260 Y88.506 E47.06094
G1 X91.719 Y88.506 E47.07999
G1 X111.494 Y108.281 E48.24075
G1 X111.494 Y107.822 E48.25980
G1 X92.178 Y88.506 E49.39362
G1 X92.637 Y88.506 E49.41266
G1 X111.494 Y107.363 E50.51954
G1 X111.494 Y106.904 E50.53859
G1 X93.096 Y88.506 E51.61853
G1 X93.555 Y88.506 E51.63758
G1 X111.494 Y106.445 E52.69057
G1 X111.494 Y105.987 E52.70962
G1 X94.013 Y88.506 E53.73568
G1 X94.472 Y88.506 E53.75473
G1 X111.494 Y105.528 E54.75385
G1 X111.494 Y105.069 E54.77290
G1 X94.931 Y88.506 E55.74507
G1 X95.390 Y88.506 E55.76412
G1 X111.494 Y104.610 E56.70936
G1 X111.494 Y104.151 E56.72841
G1 X95.849 Y88.506 E57.64671
G1 X96.308 Y88.506 E57.66576
G1 X111.494 Y103.692 E58.55712
G1 X111.494 Y103.233 E58.57617
G1 X96.767 Y88.506 E59.44059
G1 X97.226 Y88.506 E59.45963
G1 X111.494 Y102.774 E60.29711
G1 X111.494 Y102.315 E60.31616
G1 X97.685 Y88.506 E61.12670
G1 X98.144 Y88.506 E61.14575
G1 X111.494 Y101.856 E61.92935
G1 X111.494 Y101.397 E61.94840
G1 X98.603 Y88.506 E62.70506
G1 X99.062 Y88.506 E62.72411
G1 X111.494 Y100.938 E63.45383
G1 X111.494 Y100.479 E63.47288
G1 X99.521 Y88.506 E64.17566
G1 X99.980 Y88.506 E64.19471
G1 X111.494 Y100.020 E64.87055
G1 X111.494 Y99.561 E64.88960
G1 X100.439 Y88.506 E65.53850
G1 X100.898 Y88.506 E65.55755
G1 X111.494 Y99.102 E66.17951
G1 X111.494 Y98.643 E66.19856
G1 X101.357 Y88.506 E66.79358
G1 X101.816 Y88.506 E66.81263
G1 X111.494 Y98.184 E67.38071
G1 X111.494 Y97.725 E67.39976
G1 X102.275 Y88.506 E67.94091
G1 X102.734 Y88.506 E67.95996
G1 X111.494 Y97.266 E68.47416
G1 X111.494 Y96.807 E68.49321
G1 X103.193 Y88.506 E68.98047
G1 X103.652 Y88.506 E68.99952
G1 X111.494 Y96.348 E69.45984
G1 X111.494 Y95.889 E69.47889
G1 X104.111 Y88.506 E69.91228
G1 X104.570 Y88.506 E69.93132
G1 X111.494 Y95.430 E70.33777
G1 X111.494 Y94.971 E70.35682
G1 X105.029 Y88.506 E70.73632
G1 X105.488 Y88.506 E70.75537
G1 X111.494 Y94.512 E71.10794
G1 X111.494 Y94.053 E71.12698
G1 X105.947 Y88.506 E71.45261
G1 X106.405 Y88.506 E71.47166
G1 X111.494 Y93.595 E71.77034
G1 X111.494 Y93.136 E71.78939
G1 X106.864 Y88.506 E72.06114
G1 X107.323 Y88.506 E72.08019
G1 X111.494 Y92.677 E72.32499
G1 X111.494 Y92.218 E72.34404
G1 X107.782 Y88.506 E72.56191
G1 X108.241 Y88.506 E72.58096
G1 X111.494 Y91.759 E72.77188
G1 X111.494 Y91.300 E72.79093
G1 X108.700 Y88.506 E72.95492
G1 X109.159 Y88.506 E72.97397
G1 X111.494 Y90.841 E73.11101
G1 X111.494 Y90.382 E73.13006
G1 X109.618 Y88.506 E73.24017
G1 X110.077 Y88.506 E73.25922
G1 X111.494 Y89.923 E73.34239
G1 X111.494 Y89.464 E73.36144
G1 X110.536 Y88.506 E73.41766
G1 X110.995 Y88.506 E73.43671
G1 X111.494 Y89.005 E73.46600
G1 X111.494 Y88.546 E73.48505
G1 X111.454 Y88.506 E73.48740
M106 S151
M104 S210 ; set temperature
M140 S50 ; set bed temperature
G1 F1980.000 E69.48740
G92 E0
G1 Z0.600 F6000.000
G1 X111.500 Y111.500 F6000.000
G1 E4.00000 F1980.000
G1 X88.500 Y111.500 E5.18785 F1800.000
G1 X88.500 Y88.500 E6.37570
G1 X111.500 Y88.500 E7.56356
G1 X111.500 Y111.440 E8.74831
G1 F1980.000 E4.74831
G92 E0
G1 X111.900 Y111.900 F6000.000
G1 E4.00000 F1980.000
G1 X88.100 Y111.900 E5.22917 F1800.000
G1 X88.100 Y88.100 E6.45834
G1 X111.900 Y88.100 E7.68751
G1 X111.900 Y111.840 E8.91358
G1 F1980.000 E4.91358
G92 E0
G1 X112.300 Y112.300 F6000.000
G1 E4.00000 F1980.000
G1 X87.700 Y112.300 E5.27049 F1440.000
G1 X87.700 Y87.700 E6.54097
G1 X112.300 Y87.700 E7.81146
G1 X112.300 Y112.240 E9.07884
G1 F1980.000 E5.07884
G92 E0
G1 X111.954 Y112.100 F6000.000
G1 X111.226 Y111.186 F6000.000
G1 E4.00000 F1980.000
G1 X111.186 Y111.226 E4.00306 F1800.000
G1 X110.588 Y111.226 E4.03538
G1 X111.226 Y110.588 E4.08415
G1 X111.226 Y109.990 E4.11647
G1 X109.990 Y111.226 E4.21096
G1 X109.393 Y111.226 E4.24328
G1 X111.226 Y109.393 E4.38347
G1 X111.226 Y108.795 E4.41579
G1 X108.795 Y111.226 E4.60169
G1 X108.198 Y111.226 E4.63402
G1 X111.226 Y108.198 E4.86563
G1 X111.226 Y107.600 E4.89795
G1 X107.600 Y111.226 E5.17528
G1 X107.002 Y111.226 E5.20760
G1 X111.226 Y107.002 E5.53063
G1 X111.226 Y106.405 E5.56296
G1 X106.405 Y111.226 E5.93170
G1 X105.807 Y111.226 E5.96403
G1 X111.226 Y105.807 E6.37848
G1 X111.226 Y105.209 E6.41080
G1 X105.209 Y111.226 E6.87097
G1 X104.612 Y111.226 E6.90329
G1 X111.226 Y104.612 E7.40917
G1 X111.226 Y104.014 E7.44149
G1 X104.014 Y111.226 E7.99308
G1 X103.416 Y111.226 E8.02541
G1 X111.226 Y103.416 E8.62271
G1 X111.226 Y102.819 E8.65503
G1 X102.819 Y111.226 E9.29804
G1 X102.221 Y111.226 E9.33036
G1 X111.226 Y102.221 E10.01908
G1 X111.226 Y101.624 E10.05140
G1 X101.624 Y111.226 E10.78584
G1 X101.026 Y111.226 E10.81816
G1 X111.226 Y101.026 E11.59830
G1 X111.226 Y100.428 E11.63062
G1 X100.428 Y111.226 E12.45648
G1 X99.831 Y111.226 E12.48880
G1 X111.226 Y99.831 E13.36036
G1 X111.226 Y99.233 E13.39269
G1 X99.233 Y111.226 E14.30996
G1 X98.635 Y111.226 E14.34228
G1 X111.226 Y98.635 E15.30527
G1 X111.226 Y98.038 E15.33759
G1 X98.038 Y111.226 E16.34629
G1 X97.440 Y111.226 E16.37861
G1 X111.226 Y97.440 E17.43302
G1 X111.226 Y96.842 E17.46534
G1 X96.842 Y111.226 E18.56546
G1 X96.245 Y111.226 E18.59778
G1 X111.226 Y96.245 E19.74361
G1 X111.226 Y95.647 E19.77593
G1 X95.647 Y111.226 E20.96747
G1 X95.049 Y111.226 E20.99979
G1 X111.226 Y95.049 E22.23704
G1 X111.226 Y94.452 E22.26937
G1 X94.452 Y111.226 E23.55233
G1 X93.854 Y111.226 E23.58465
G1 X111.226 Y93.854 E24.91332
G1 X111.226 Y93.257 E24.94564
G1 X93.257 Y111.226 E26.32003
G1 X92.659 Y111.226 E26.35235
G1 X111.226 Y92.659 E27.77244
G1 X111.226 Y92.061 E27.80477
G1 X92.061 Y111.226 E29.27057
G1 X91.464 Y111.226 E29.30289
G1 X111.226 Y91.464 E30.81441
G1 X111.226 Y90.866 E30.84673
G1 X90.866 Y111.226 E32.40396
G1 X90.268 Y111.226 E32.43628
G1 X111.226 Y90.268 E34.03921
G1 X111.226 Y89.671 E34.07154
G1 X89.671 Y111.226 E35.72018
G1 X89.073 Y111.226 E35.75251
G1 X111.226 Y89.073 E37.44687
G1 X110.927 Y88.774 E37.46972
G1 X88.774 Y110.927 E39.16408
G1 X88.774 Y110.329 E39.19640
G1 X110.329 Y88.774 E40.84505
G1 X109.732 Y88.774 E40.87737
G1 X88.774 Y109.732 E42.48031
G1 X88.774 Y109.134 E42.51263
G1 X109.134 Y88.774 E44.06986
G1 X108.536 Y88.774 E44.10218
G1 X88.774 Y108.536 E45.61369
G1 X88.774 Y107.939 E45.64602
G1 X107.939 Y88.774 E47.11182
G1 X107.341 Y88.774 E47.14414
G1 X88.774 Y107.341 E48.56424
G1 X88.774 Y106.743 E48.59656
G1 X106.743 Y88.774 E49.97094
G1 X106.146 Y88.774 E50.00326
G1 X88.774 Y106.146 E51.33194
G1 X88.774 Y105.548 E51.36426
G1 X105.548 Y88.774 E52.64722
G1 X104.951 Y88.774 E52.67954
G1 X88.774 Y104.951 E53.91679
G1 X88.774 Y104.353 E53.94912
G1 X104.353 Y88.774 E55.14066
G1 X103.755 Y88.774 E55.17298
G1 X88.774 Y103.755 E56.31881
G1 X88.774 Y103.158 E56.35113
G1 X103.158 Y88.774 E57.45125
G1 X102.560 Y88.774 E57.48357
G1 X88.774 Y102.560 E58.53798
G1 X88.774 Y101.962 E58.57030
G1 X101.962 Y88.774 E59.57900
G1 X101.365 Y88.774 E59.61132
G1 X88.774 Y101.365 E60.57430
G1 X88.774 Y100.767 E60.60663
G1 X100.767 Y88.774 E61.52390
G1 X100.169 Y88.774 E61.55622
G1 X88.774 Y100.169 E62.42779
G1 X88.774 Y99.572 E62.46011
G1 X99.572 Y88.774 E63.28596
G1 X98.974 Y88.774 E63.31829
G1 X88.774 Y98.974 E64.09843
G1 X88.774 Y98.376 E64.13075
G1 X98.376 Y88.774 E64.86518
G1 X97.779 Y88.774 E64.89751
G1 X88.774 Y97.779 E65.58623
G1 X88.774 Y97.181 E65.61855
G1 X97.181 Y88.774 E66.26156
G1 X96.584 Y88.774 E66.29388
G1 X88.774 Y96.584 E66.89118
G1 X88.774 Y95.986 E66.92350
G1 X95.986 Y88.774 E67.47509
G1 X95.388 Y88.774 E67.50742
G1 X88.774 Y95.388 E68.01329
G1 X88.774 Y94.791 E68.04562
G1 X94.791 Y88.774 E68.50578
G1 X94.193 Y88.774 E68.53811
G1 X88.774 Y94.193 E68.95256
G1 X88.774 Y93.595 E68.98488
G1 X93.595 Y88.774 E69.35363
G1 X92.998 Y88.774 E69.38595
G1 X88.774 Y92.998 E69.70899
G1 X88.774 Y92.400 E69.74131
G1 X92.400 Y88.774 E70.01863
G1 X91.802 Y88.774 E70.05096
G1 X88.774 Y91.802 E70.28257
G1 X88.774 Y91.205 E70.31489
G1 X91.205 Y88.774 E70.50079
G1 X90.607 Y88.774 E70.53312
G1 X88.774 Y90.607 E70.67331
G1 X88.774 Y90.010 E70.70563
G1 X90.010 Y88.774 E70.80011
G1 X89.412 Y88.774 E70.83243
G1 X88.774 Y89.412 E70.88120
G1 X88.774 Y88.814 E70.91353
G1 X88.814 Y88.774 E70.91659
M106 S151
G1 F1980.000 E66.91659
G92 E0
G1 Z0.900 F6000.000
G1 X111.500 Y111.500 F6000.000
G1 E4.00000 F1980.000
G1 X88.500 Y111.500 E5.18785 F1800.000
G1 X88.500 Y88.500 E6.37570
G1 X111.500 Y88.500 E7.56356
G1 X111.500 Y111.440 E8.74831
G1 F1980.000 E4.74831
G92 E0
G1 X111.900 Y111.900 F6000.000
G1 E4.00000 F1980.000
G1 X88.100 Y111.900 E5.22917 F1800.000
G1 X88.100 Y88.100 E6.45834
G1 X111.900 Y88.100 E7.68751
G1 X111.900 Y111.840 E8.91358
G1 F1980.000 E4.91358
G92 E0
G1 X112.300 Y112.300 F6000.000
G1 E4.00000 F1980.000
G1 X87.700 Y112.300 E5.27049 F1440.000
G1 X87.700 Y87.700 E6.54097
G1 X112.300 Y87.700 E7.81146
G1 X112.300 Y112.240 E9.07884
G1 F1980.000 E5.07884
G92 E0
G1 X111.954 Y112.100 F6000.000
G1 X88.774 Y111.186 F6000.000
G1 E4.00000 F1980.000
G1 X88.814 Y111.226 E4.00306 F1800.000
G1 X89.412 Y111.226 E4.03538
G1 X88.774 Y110.588 E4.08415
G1 X88.774 Y109.990 E4.11647
G1 X90.010 Y111.226 E4.21096
G1 X90.607 Y111.226 E4.24328
G1 X88.774 Y109.393 E4.38347
G1 X88.774 Y108.795 E4.41579
G1 X91.205 Y111.226 E4.60169
G1 X91.802 Y111.226 E4.63402
G1 X88.774 Y108.198 E4.86563
G1 X88.774 Y107.600 E4.89795
G1 X92.400 Y111.226 E5.17528
G1 X92.998 Y111.226 E5.20760
G1 X88.774 Y107.002 E5.53063
G1 X88.774 Y106.405 E5.56296
G1 X93.595 Y111.226 E5.93170
G1 X94.193 Y111.226 E5.96402
G1 X88.774 Y105.807 E6.37848
G1 X88.774 Y105.209 E6.41080
G1 X94.791 Y111.226 E6.87097
G1 X95.388 Y111.226 E6.90329
G1 X88.774 Y104.612 E7.40917
G1 X88.774 Y104.014 E7.44149
G1 X95.986 Y111.226 E7.99308
G1 X96.584 Y111.226 E8.02540
G1 X88.774 Y103.416 E8.62270
G1 X88.774 Y102.819 E8.65503
G1 X97.181 Y111.226 E9.29804
G1 X97.779 Y111.226 E9.33036
G1 X88.774 Y102.221 E10.01908
G1 X88.774 Y101.624 E10.05140
G1 X98.376 Y111.226 E10.78583
G1 X98.974 Y111.226 E10.81816
G1 X88.774 Y101.026 E11.59830
