; generated by Slic3r 1.1.7 on 2015-02-12 at 20:45:52

; perimeters extrusion width = 0.40mm
; infill extrusion width = 0.44mm
; solid infill extrusion width = 0.44mm
; top infill extrusion width = 0.44mm
; support material extrusion width = 0.40mm

G21 ; set units to millimeters
M190 S60 ; wait for bed temperature to be reached
M104 S230 ; set temperature
G28 ; home all axes Start of G Code Slic3r
 
 
M109 S230 ; wait for temperature to be reached
G90 ; use absolute coordinates
G92 E0
M82 ; use absolute distances for extrusion
G1 F4200.000 E-3.00000
G92 E0
G1 Z0.294 F7800.000
G1 X81.950 Y83.081 F7800.000
G1 E3.00000 F4200.000
G1 X83.718 Y81.498 E3.16808 F1800.000
G1 X85.910 Y80.586 E3.33616
G1 X87.500 Y80.406 E3.44943
G1 X112.500 Y80.406 E5.21950
G1 X114.840 Y80.803 E5.38758
G1 X116.919 Y81.950 E5.55566 F1800.000
G1 X118.502 Y83.718 E5.72374
G1 X119.414 Y85.910 E5.89182
G1 X119.594 Y87.500 E6.00509
G1 X119.594 Y112.500 E7.77516
G1 X119.197 Y114.840 E7.94324
G1 X118.050 Y116.919 E8.11132
G1 X116.282 Y118.502 E8.27940
G1 X114.090 Y119.414 E8.44748
G1 X112.500 Y119.594 E8.56075
G1 X87.500 Y119.594 E10.33081
G1 X85.160 Y119.197 E10.49889
G1 X83.081 Y118.050 E10.66697
G1 X81.498 Y116.282 E10.83505
G1 X80.586 Y114.090 E11.00313
G1 X80.406 Y112.500 E11.11641
G1 X80.406 Y87.500 E12.88647
G1 X80.803 Y85.160 E13.05455
G1 X81.921 Y83.134 E13.21838
G1 X82.443 Y83.367 F7800.000
G1 X82.492 Y83.282 E13.22532 F1800.000
G1 X84.242 Y81.821 E13.38674
G1 X87.500 Y80.953 E13.62544
G1 X112.500 Y80.953 E15.39550
G1 X114.745 Y81.350 E15.55692
G1 X116.718 Y82.492 E15.71834 F1800.000
G1 X118.179 Y84.242 E15.87976
G1 X119.047 Y87.500 E16.11846
G1 X119.047 Y112.500 E17.88852
G1 X118.650 Y114.745 E18.04994
G1 X117.508 Y116.718 E18.21136
G1 X115.758 Y118.179 E18.37278
G1 X112.500 Y119.047 E18.61148
G1 X87.500 Y119.047 E20.38155
G1 X85.255 Y118.650 E20.54297
G1 X83.282 Y117.508 E20.70439
G1 X81.821 Y115.758 E20.86581
G1 X80.953 Y112.500 E21.10450
G1 X80.953 Y87.500 E22.87457
G1 X81.350 Y85.255 E23.03599
G1 X82.413 Y83.419 E23.18622
G1 F4200.000 E20.18622
G92 E0
G1 X85.297 Y86.221 F7800.000
G1 E3.00000 F4200.000
G1 X86.480 Y85.038 E3.11846 F1800.000
G1 X113.520 Y85.038 E5.03295
G1 X114.962 Y86.480 E5.17737
G1 X114.962 Y113.520 E7.09187 F1800.000
G1 X113.520 Y114.962 E7.23629
G1 X86.480 Y114.962 E9.15079
G1 X85.038 Y113.520 E9.29521
G1 X85.038 Y86.480 E11.20971
G1 X85.255 Y86.263 E11.23143
G1 X85.684 Y86.608 F7800.000
G1 X86.707 Y85.585 E11.33384 F1800.000
G1 X113.293 Y85.585 E13.21624
G1 X114.415 Y86.707 E13.32857 F1800.000
G1 X114.415 Y113.293 E15.21097
G1 X113.293 Y114.415 E15.32330
G1 X86.707 Y114.415 E17.20570
G1 X85.585 Y113.293 E17.31803
G1 X85.585 Y86.707 E19.20043
G1 X85.642 Y86.650 E19.20610
G1 X86.132 Y86.933 F7800.000
G1 X86.933 Y86.132 E19.28634 F1800.000
G1 X113.067 Y86.132 E21.13664
G1 X113.868 Y86.933 E21.21688
G1 X113.868 Y113.067 E23.06718 F1800.000
G1 X113.067 Y113.868 E23.14742
G1 X86.933 Y113.868 E24.99772
G1 X86.132 Y113.067 E25.07796
G1 X86.132 Y86.993 E26.92401
G1 X86.679 Y87.160 F7800.000
G1 X87.160 Y86.679 E26.97216 F1800.000
G1 X112.840 Y86.679 E28.79036
G1 X113.321 Y87.160 E28.83851 F1800.000
G1 X113.321 Y112.840 E30.65671
G1 X112.840 Y113.321 E30.70486
G1 X87.160 Y113.321 E32.52306
G1 X86.679 Y112.840 E32.57121
G1 X86.679 Y87.220 E34.38517
G1 X87.226 Y87.387 F7800.000
G1 X87.387 Y87.226 E34.40121 F1800.000
G1 X112.613 Y87.226 E36.18733
G1 X112.774 Y87.387 E36.20337
G1 X112.774 Y112.613 E37.98949
G1 X112.613 Y112.774 E38.00553
G1 X87.387 Y112.774 E39.79165
G1 X87.226 Y112.613 E39.80770
G1 X87.226 Y87.447 E41.58956
G1 F4200.000 E38.58956
G92 E0
G1 X112.206 Y112.206 F7800.000
G1 E3.00000 F4200.000
G1 X87.794 Y112.206 E4.72848 F441.000
G1 X87.794 Y87.794 E6.45695
G1 X112.206 Y87.794 E8.18543
G1 X112.206 Y112.146 E9.90966
G1 X111.860 Y112.006 F7800.000
G1 X111.659 Y111.659 F7800.000
G1 X88.341 Y111.659 E11.56065 F630.000
G1 X88.341 Y88.341 E13.21164
G1 X111.659 Y88.341 E14.86263
G1 X111.659 Y111.599 E16.50938
G1 X111.242 Y88.718 F7800.000
G1 X111.282 Y88.758 E16.51338 F1500.000
G1 X111.282 Y89.534 E16.56838
G1 X110.466 Y88.718 E16.65015
G1 X109.689 Y88.718 E16.70515
G1 X111.282 Y90.311 E16.86470
G1 X111.282 Y91.088 E16.91969
G1 X108.912 Y88.718 E17.15702
G1 X108.136 Y88.718 E17.21201
G1 X111.282 Y91.864 E17.52711
G1 X111.282 Y92.641 E17.58210
G1 X107.359 Y88.718 E17.97497
G1 X106.582 Y88.718 E18.02996
G1 X111.282 Y93.418 E18.50061
G1 X111.282 Y94.195 E18.55560
G1 X105.805 Y88.718 E19.10402
G1 X105.029 Y88.718 E19.15901
G1 X111.282 Y94.971 E19.78520
G1 X111.282 Y95.748 E19.84019
G1 X104.252 Y88.718 E20.54415
G1 X103.475 Y88.718 E20.59915
G1 X111.282 Y96.525 E21.38088
G1 X111.282 Y97.301 E21.43588
G1 X102.699 Y88.718 E22.29538
G1 X101.922 Y88.718 E22.35038
G1 X111.282 Y98.078 E23.28766
G1 X111.282 Y98.855 E23.34265
G1 X101.145 Y88.718 E24.35771
G1 X100.368 Y88.718 E24.41270
G1 X111.282 Y99.632 E25.50553
G1 X111.282 Y100.408 E25.56052
G1 X99.592 Y88.718 E26.73112
G1 X98.815 Y88.718 E26.78611
G1 X111.282 Y101.185 E28.03448
G1 X111.282 Y101.962 E28.08948
G1 X98.038 Y88.718 E29.41562
G1 X97.261 Y88.718 E29.47062
G1 X111.282 Y102.739 E30.87453
G1 X111.282 Y103.515 E30.92953
G1 X96.485 Y88.718 E32.41122
G1 X95.708 Y88.718 E32.46621
G1 X111.282 Y104.292 E34.02568
G1 X111.282 Y105.069 E34.08067
G1 X94.931 Y88.718 E35.71791
G1 X94.155 Y88.718 E35.77290
G1 X111.282 Y105.845 E37.48791
G1 X111.282 Y106.622 E37.54290
G1 X93.378 Y88.718 E39.33569
G1 X92.601 Y88.718 E39.39068
G1 X111.282 Y107.399 E41.26124
G1 X111.282 Y108.176 E41.31623
G1 X91.824 Y88.718 E43.26456
G1 X91.048 Y88.718 E43.31955
G1 X111.282 Y108.952 E45.34565
G1 X111.282 Y109.729 E45.40065
G1 X90.271 Y88.718 E47.50452
G1 X89.494 Y88.718 E47.55951
G1 X111.282 Y110.506 E49.74116
G1 X111.262 Y111.262 E49.79476
G1 X88.738 Y88.738 E52.05017
G1 X88.718 Y89.494 E52.10377
G1 X110.506 Y111.282 E54.28542
G1 X109.729 Y111.282 E54.34041
G1 X88.718 Y90.271 E56.44428
G1 X88.718 Y91.048 E56.49928
G1 X108.952 Y111.282 E58.52538
G1 X108.176 Y111.282 E58.58037
G1 X88.718 Y91.824 E60.52870
G1 X88.718 Y92.601 E60.58370
G1 X107.399 Y111.282 E62.45425
G1 X106.622 Y111.282 E62.50924
G1 X88.718 Y93.378 E64.30203
G1 X88.718 Y94.155 E64.35702
G1 X105.845 Y111.282 E66.07203
G1 X105.069 Y111.282 E66.12702
G1 X88.718 Y94.931 E67.76426
G1 X88.718 Y95.708 E67.81925
G1 X104.292 Y111.282 E69.37872
G1 X103.515 Y111.282 E69.43371
G1 X88.718 Y96.485 E70.91540
G1 X88.718 Y97.261 E70.97040
G1 X102.739 Y111.282 E72.37431
G1 X101.962 Y111.282 E72.42931
G1 X88.718 Y98.038 E73.75545
G1 X88.718 Y98.815 E73.81045
G1 X101.185 Y111.282 E75.05882
G1 X100.408 Y111.282 E75.11381
G1 X88.718 Y99.592 E76.28441
G1 X88.718 Y100.368 E76.33941
G1 X99.632 Y111.282 E77.43223
G1 X98.855 Y111.282 E77.48723
G1 X88.718 Y101.145 E78.50228
G1 X88.718 Y101.922 E78.55727
G1 X98.078 Y111.282 E79.49455
G1 X97.301 Y111.282 E79.54955
G1 X88.718 Y102.699 E80.40905
G1 X88.718 Y103.475 E80.46405
G1 X96.525 Y111.282 E81.24578
G1 X95.748 Y111.282 E81.30078
G1 X88.718 Y104.252 E82.00474
G1 X88.718 Y105.029 E82.05973
G1 X94.971 Y111.282 E82.68592
G1 X94.195 Y111.282 E82.74091
G1 X88.718 Y105.805 E83.28933
G1 X88.718 Y106.582 E83.34432
G1 X93.418 Y111.282 E83.81497
G1 X92.641 Y111.282 E83.86996
G1 X88.718 Y107.359 E84.26283
G1 X88.718 Y108.136 E84.31782
G1 X91.864 Y111.282 E84.63292
G1 X91.088 Y111.282 E84.68791
G1 X88.718 Y108.912 E84.92524
G1 X88.718 Y109.689 E84.98023
G1 X90.311 Y111.282 E85.13978
G1 X89.534 Y111.282 E85.19478
G1 X88.718 Y110.466 E85.27655
G1 X88.718 Y111.242 E85.33155
G1 X88.758 Y111.282 E85.33555
M106 S158
M140 S50 ; set bed temperature
G1 F4200.000 E82.33555
G92 E0
G1 Z0.587 F7800.000
G1 X112.300 Y112.300 F7800.000
G1 E3.00000 F4200.000
G1 X87.700 Y112.300 E4.27324 F882.000
G1 X87.700 Y87.700 E5.54649
G1 X112.300 Y87.700 E6.81973
G1 X112.300 Y112.240 E8.08987
G1 X111.954 Y112.100 F7800.000
G1 X111.900 Y111.900 F7800.000
G1 X88.100 Y111.900 E9.32170 F1260.000
G1 X88.100 Y88.100 E10.55354
G1 X111.900 Y88.100 E11.78538
G1 X111.900 Y111.840 E13.01411
G1 X111.624 Y111.584 F7800.000
G1 X111.584 Y111.624 E13.01724 F3000.000
G1 X110.973 Y111.624 E13.05105
G1 X111.624 Y110.973 E13.10200
G1 X111.624 Y110.362 E13.13581
G1 X110.362 Y111.624 E13.23458
G1 X109.752 Y111.624 E13.26839
G1 X111.624 Y109.752 E13.41497
G1 X111.624 Y109.141 E13.44879
G1 X109.141 Y111.624 E13.64318
G1 X108.530 Y111.624 E13.67700
G1 X111.624 Y108.530 E13.91921
G1 X111.624 Y107.919 E13.95302
G1 X107.919 Y111.624 E14.24306
G1 X107.309 Y111.624 E14.27687
G1 X111.624 Y107.309 E14.61472
G1 X111.624 Y106.698 E14.64853
G1 X106.698 Y111.624 E15.03420
G1 X106.087 Y111.624 E15.06801
G1 X111.624 Y106.087 E15.50150
G1 X111.624 Y105.477 E15.53531
G1 X105.477 Y111.624 E16.01661
G1 X104.866 Y111.624 E16.05042
G1 X111.624 Y104.866 E16.57954
G1 X111.624 Y104.255 E16.61335
G1 X104.255 Y111.624 E17.19029
G1 X103.644 Y111.624 E17.22410
G1 X111.624 Y103.644 E17.84885
G1 X111.624 Y103.034 E17.88266
G1 X103.034 Y111.624 E18.55523
G1 X102.423 Y111.624 E18.58904
G1 X111.624 Y102.423 E19.30943
G1 X111.624 Y101.812 E19.34324
G1 X101.812 Y111.624 E20.11144
G1 X101.201 Y111.624 E20.14526
G1 X111.624 Y101.201 E20.96128
G1 X111.624 Y100.591 E20.99509
G1 X100.591 Y111.624 E21.85893
G1 X99.980 Y111.624 E21.89274
G1 X111.624 Y99.980 E22.80439
G1 X111.624 Y99.369 E22.83820
G1 X99.369 Y111.624 E23.79767
G1 X98.759 Y111.624 E23.83149
G1 X111.624 Y98.759 E24.83877
G1 X111.624 Y98.148 E24.87258
G1 X98.148 Y111.624 E25.92769
G1 X97.537 Y111.624 E25.96150
G1 X111.624 Y97.537 E27.06442
G1 X111.624 Y96.926 E27.09823
G1 X96.926 Y111.624 E28.24897
G1 X96.316 Y111.624 E28.28279
G1 X111.624 Y96.316 E29.48134
G1 X111.624 Y95.705 E29.51515
G1 X95.705 Y111.624 E30.76153
G1 X95.094 Y111.624 E30.79534
G1 X111.624 Y95.094 E32.08953
G1 X111.624 Y94.483 E32.12334
G1 X94.483 Y111.624 E33.46535
G1 X93.873 Y111.624 E33.49916
G1 X111.624 Y93.873 E34.88898
G1 X111.624 Y93.262 E34.92279
G1 X93.262 Y111.624 E36.36043
G1 X92.651 Y111.624 E36.39424
G1 X111.624 Y92.651 E37.87970
G1 X111.624 Y92.041 E37.91351
G1 X92.041 Y111.624 E39.44679
G1 X91.430 Y111.624 E39.48060
G1 X111.624 Y91.430 E41.06169
G1 X111.624 Y90.819 E41.09550
G1 X90.819 Y111.624 E42.72441
G1 X90.208 Y111.624 E42.75822
G1 X111.624 Y90.208 E44.43495
G1 X111.624 Y89.598 E44.46876
G1 X89.598 Y111.624 E46.19330
G1 X88.987 Y111.624 E46.22711
G1 X111.624 Y88.987 E47.99947
G1 X111.604 Y88.396 E48.03220
G1 X88.396 Y111.604 E49.84924
G1 X88.376 Y111.013 E49.88196
G1 X111.013 Y88.376 E51.65432
G1 X110.402 Y88.376 E51.68813
G1 X88.376 Y110.402 E53.41268
G1 X88.376 Y109.792 E53.44649
G1 X109.792 Y88.376 E55.12321
G1 X109.181 Y88.376 E55.15703
G1 X88.376 Y109.181 E56.78593
G1 X88.376 Y108.570 E56.81975
G1 X108.570 Y88.376 E58.40084
G1 X107.959 Y88.376 E58.43465
G1 X88.376 Y107.959 E59.96792
G1 X88.376 Y107.349 E60.00174
G1 X107.349 Y88.376 E61.48719
G1 X106.738 Y88.376 E61.52100
G1 X88.376 Y106.738 E62.95864
G1 X88.376 Y106.127 E62.99246
G1 X106.127 Y88.376 E64.38228
G1 X105.517 Y88.376 E64.41609
G1 X88.376 Y105.517 E65.75810
G1 X88.376 Y104.906 E65.79191
G1 X104.906 Y88.376 E67.08610
G1 X104.295 Y88.376 E67.11991
G1 X88.376 Y104.295 E68.36628
G1 X88.376 Y103.684 E68.40010
G1 X103.684 Y88.376 E69.59865
G1 X103.074 Y88.376 E69.63246
G1 X88.376 Y103.074 E70.78320
G1 X88.376 Y102.463 E70.81701
G1 X102.463 Y88.376 E71.91994
G1 X101.852 Y88.376 E71.95375
G1 X88.376 Y101.852 E73.00885
G1 X88.376 Y101.241 E73.04266
G1 X101.241 Y88.376 E74.04995
G1 X100.631 Y88.376 E74.08376
G1 X88.376 Y100.631 E75.04324
G1 X88.376 Y100.020 E75.07705
G1 X100.020 Y88.376 E75.98870
G1 X99.409 Y88.376 E76.02251
G1 X88.376 Y99.409 E76.88635
G1 X88.376 Y98.799 E76.92016
G1 X98.799 Y88.376 E77.73618
G1 X98.188 Y88.376 E77.76999
G1 X88.376 Y98.188 E78.53820
G1 X88.376 Y97.577 E78.57201
G1 X97.577 Y88.376 E79.29239
G1 X96.966 Y88.376 E79.32621
G1 X88.376 Y96.966 E79.99878
G1 X88.376 Y96.356 E80.03259
G1 X96.356 Y88.376 E80.65734
G1 X95.745 Y88.376 E80.69115
G1 X88.376 Y95.745 E81.26809
G1 X88.376 Y95.134 E81.30190
G1 X95.134 Y88.376 E81.83102
G1 X94.523 Y88.376 E81.86483
G1 X88.376 Y94.523 E82.34613
G1 X88.376 Y93.913 E82.37994
G1 X93.913 Y88.376 E82.81343
G1 X93.302 Y88.376 E82.84724
G1 X88.376 Y93.302 E83.23290
G1 X88.376 Y92.691 E83.26672
G1 X92.691 Y88.376 E83.60457
G1 X92.081 Y88.376 E83.63838
G1 X88.376 Y92.081 E83.92841
G1 X88.376 Y91.470 E83.96222
G1 X91.470 Y88.376 E84.20444
G1 X90.859 Y88.376 E84.23825
G1 X88.376 Y90.859 E84.43265
G1 X88.376 Y90.248 E84.46646
G1 X90.248 Y88.376 E84.61305
G1 X89.638 Y88.376 E84.64686
G1 X88.376 Y89.638 E84.74562
G1 X88.376 Y89.027 E84.77943
G1 X89.027 Y88.376 E84.83038
G1 X88.416 Y88.376 E84.86420
G1 X88.376 Y88.416 E84.86733
M106 S158
G1 F4200.000 E81.86733
G92 E0
G1 Z0.881 F7800.000
G1 X112.300 Y112.300 F7800.000
G1 E3.00000 F4200.000
G1 X87.700 Y112.300 E4.27324 F882.000
G1 X87.700 Y87.700 E5.54649
G1 X112.300 Y87.700 E6.81973
G1 X112.300 Y112.240 E8.08987
G1 X111.954 Y112.100 F7800.000
G1 X111.900 Y111.900 F7800.000
G1 X88.100 Y111.900 E9.32170 F1260.000
G1 X88.100 Y88.100 E10.55354
G1 X111.900 Y88.100 E11.78538
G1 X111.900 Y111.840 E13.01411
G1 X111.584 Y88.376 F7800.000
G1 X111.624 Y88.416 E13.01724 F3000.000
G1 X111.624 Y89.027 E13.05105
G1 X110.973 Y88.376 E13.10200
G1 X110.362 Y88.376 E13.13581
G1 X111.624 Y89.638 E13.23458
G1 X111.624 Y90.248 E13.26839
G1 X109.752 Y88.376 E13.41497
G1 X109.141 Y88.376 E13.44878
G1 X111.624 Y90.859 E13.64318
G1 X111.624 Y91.470 E13.67700
G1 X108.530 Y88.376 E13.91921
G1 X107.919 Y88.376 E13.95302
G1 X111.624 Y92.081 E14.24306
G1 X111.624 Y92.691 E14.27687
G1 X107.309 Y88.376 E14.61472
G1 X106.698 Y88.376 E14.64853
G1 X111.624 Y93.302 E15.03420
G1 X111.624 Y93.913 E15.06801
G1 X106.087 Y88.376 E15.50150
G1 X105.477 Y88.376 E15.53531
G1 X111.624 Y94.523 E16.01661
G1 X111.624 Y95.134 E16.05042
G1 X104.866 Y88.376 E16.57954
G1 X104.255 Y88.376 E16.61335
G1 X111.624 Y95.745 E17.19029
G1 X111.624 Y96.356 E17.22410
G1 X103.644 Y88.376 E17.84885
G1 X103.034 Y88.376 E17.88266
G1 X111.624 Y96.966 E18.55523
G1 X111.624 Y97.577 E18.58904
G1 X102.423 Y88.376 E19.30943
G1 X101.812 Y88.376 E19.34324
G1 X111.624 Y98.188 E20.11144
G1 X111.624 Y98.799 E20.14526
G1 X101.201 Y88.376 E20.96128
G1 X100.591 Y88.376 E20.99509
G1 X111.624 Y99.409 E21.85893
G1 X111.624 Y100.020 E21.89274
G1 X99.980 Y88.376 E22.80439
G1 X99.369 Y88.376 E22.83820
G1 X111.624 Y100.631 E23.79767
G1 X111.624 Y101.241 E23.83149
G1 X98.759 Y88.376 E24.83877
G1 X98.148 Y88.376 E24.87259
G1 X111.624 Y101.852 E25.92769
G1 X111.624 Y102.463 E25.96150
G1 X97.537 Y88.376 E27.06442
G1 X96.926 Y88.376 E27.09824
G1 X111.624 Y103.074 E28.24897
G1 X111.624 Y103.684 E28.28279
G1 X96.316 Y88.376 E29.48134
G1 X95.705 Y88.376 E29.51515
G1 X111.624 Y104.295 E30.76153
G1 X111.624 Y104.906 E30.79534
G1 X95.094 Y88.376 E32.08953
G1 X94.483 Y88.376 E32.12334
G1 X111.624 Y105.517 E33.46535
G1 X111.624 Y106.127 E33.49916
G1 X93.873 Y88.376 E34.88898
G1 X93.262 Y88.376 E34.92279
G1 X111.624 Y106.738 E36.36043
G1 X111.624 Y107.349 E36.39425
G1 X92.651 Y88.376 E37.87970
G1 X92.041 Y88.376 E37.91351
G1 X111.624 Y107.959 E39.44679
G1 X111.624 Y108.570 E39.48060
G1 X91.430 Y88.376 E41.06169
G1 X90.819 Y88.376 E41.09550
G1 X111.624 Y109.181 E42.72441
G1 X111.624 Y109.792 E42.75822
G1 X90.208 Y88.376 E44.43495
G1 X89.598 Y88.376 E44.46876
G1 X111.624 Y110.402 E46.19330
G1 X111.624 Y111.013 E46.22712
G1 X88.987 Y88.376 E47.99947
G1 X88.396 Y88.396 E48.03220
G1 X111.604 Y111.604 E49.84924
G1 X111.013 Y111.624 E49.88197
G1 X88.376 Y88.987 E51.65432
G1 X88.376 Y89.598 E51.68814
G1 X110.402 Y111.624 E53.41268
G1 X109.792 Y111.624 E53.44649
G1 X88.376 Y90.208 E55.12322
G1 X88.376 Y90.819 E55.15703
G1 X109.181 Y111.624 E56.78594
G1 X108.570 Y111.624 E56.81975
G1 X88.376 Y91.430 E58.40084
G1 X88.376 Y92.041 E58.43465
G1 X107.959 Y111.624 E59.96793
G1 X107.349 Y111.624 E60.00174
G1 X88.376 Y92.651 E61.48719
G1 X88.376 Y93.262 E61.52101
G1 X106.738 Y111.624 E62.95865
G1 X106.127 Y111.624 E62.99246
G1 X88.376 Y93.873 E64.38228
G1 X88.376 Y94.483 E64.41609
G1 X105.517 Y111.624 E65.75810
