; generated by Slic3r 1.1.7 on 2015-03-06 at 20:13:21

; perimeters extrusion width = 0.40mm
; infill extrusion width = 0.42mm
; solid infill extrusion width = 0.42mm
; top infill extrusion width = 0.42mm
; support material extrusion width = 0.40mm

G21 ; set units to millimeters
M190 S60 ; wait for bed temperature to be reached
M104 S215 ; set temperature
M106 S255; Turn on Fan fully
G28 ; home all axes Start of G Code Slic3r
 
  
M109 S215 ; wait for temperature to be reached
G90 ; use absolute coordinates
G92 E0
M82 ; use absolute distances for extrusion
G1 F1980.000 E-4.00000
G92 E0
G1 Z0.300 F6000.000
G1 X82.398 Y83.246 F6000.000
G1 E4.00000 F1980.000
G1 X84.151 Y81.763 E4.08579 F1650.000
G1 X86.305 Y80.966 E4.17158
G1 X87.500 Y80.857 E4.21641
G1 X112.500 Y80.857 E5.15028
G1 X114.762 Y81.254 E5.23607
G1 X116.754 Y82.398 E5.32185 F1650.000
G1 X118.237 Y84.151 E5.40764
G1 X119.034 Y86.305 E5.49343
G1 X119.143 Y87.500 E5.53827
G1 X119.143 Y112.500 E6.47213
G1 X118.746 Y114.762 E6.55792
G1 X117.602 Y116.754 E6.64371
G1 X115.849 Y118.237 E6.72950
G1 X113.695 Y119.034 E6.81529
G1 X112.500 Y119.143 E6.86012
G1 X87.500 Y119.143 E7.79399
G1 X85.238 Y118.746 E7.87978
G1 X83.246 Y117.602 E7.96556
G1 X81.763 Y115.849 E8.05135
G1 X80.966 Y113.695 E8.13714
G1 X80.857 Y112.500 E8.18198
G1 X80.857 Y87.500 E9.11584
G1 X81.254 Y85.238 E9.20163
G1 X82.368 Y83.298 E9.28518
G1 F1980.000 E5.28518
G92 E0
G1 X82.687 Y83.417 F6000.000
G1 E4.00000 F1980.000
G1 X82.716 Y83.368 E4.00215 F1650.000
G1 X84.457 Y81.959 E4.08582
G1 X87.500 Y81.179 E4.20316
G1 X112.500 Y81.179 E5.13702
G1 X114.704 Y81.575 E5.22069
G1 X116.632 Y82.716 E5.30436 F1650.000
G1 X118.041 Y84.457 E5.38803
G1 X118.821 Y87.500 E5.50537
G1 X118.821 Y112.500 E6.43924
G1 X118.425 Y114.704 E6.52291
G1 X117.284 Y116.632 E6.60658
G1 X115.543 Y118.041 E6.69025
G1 X112.500 Y118.821 E6.80758
G1 X87.500 Y118.821 E7.74145
G1 X85.296 Y118.425 E7.82512
G1 X83.368 Y117.284 E7.90879
G1 X81.959 Y115.543 E7.99246
G1 X81.179 Y112.500 E8.10979
G1 X81.179 Y87.500 E9.04366
G1 X81.575 Y85.296 E9.12733
G1 X82.656 Y83.469 E9.20661
G1 F1980.000 E5.20661
G92 E0
G1 X112.029 Y112.029 F6000.000
G1 E4.00000 F1980.000
G1 X87.971 Y112.029 E4.89864 F900.000
G1 X87.971 Y87.971 E5.79729
G1 X112.029 Y87.971 E6.69593
G1 X112.029 Y111.969 E7.59233
G1 F1980.000 E3.59233
G92 E0
G1 X112.350 Y112.350 F6000.000
G1 E4.00000 F1980.000
G1 X87.650 Y112.350 E4.92266 F720.000
G1 X87.650 Y87.650 E5.84532
G1 X112.350 Y87.650 E6.76798
G1 X112.350 Y112.290 E7.68839
G1 F1980.000 E3.68839
G92 E0
G1 X112.004 Y112.150 F6000.000
G1 X88.184 Y111.776 F6000.000
G1 E4.00000 F1980.000
G1 X88.224 Y111.816 E4.00211 F900.000
G1 X88.683 Y111.816 E4.01922
G1 X88.184 Y111.317 E4.04554
G1 X88.184 Y110.859 E4.06265
G1 X89.141 Y111.816 E4.11316
G1 X89.599 Y111.816 E4.13027
G1 X88.184 Y110.401 E4.20498
G1 X88.184 Y109.943 E4.22209
G1 X90.057 Y111.816 E4.32100
G1 X90.515 Y111.816 E4.33811
G1 X88.184 Y109.485 E4.46122
G1 X88.184 Y109.027 E4.47833
G1 X90.973 Y111.816 E4.62564
G1 X91.431 Y111.816 E4.64275
G1 X88.184 Y108.569 E4.81426
G1 X88.184 Y108.111 E4.83137
G1 X91.889 Y111.816 E5.02707
G1 X92.347 Y111.816 E5.04419
G1 X88.184 Y107.653 E5.26409
G1 X88.184 Y107.195 E5.28120
G1 X92.805 Y111.816 E5.52530
G1 X93.263 Y111.816 E5.54242
G1 X88.184 Y106.737 E5.81072
G1 X88.184 Y106.279 E5.82783
G1 X93.721 Y111.816 E6.12033
G1 X94.180 Y111.816 E6.13744
G1 X88.184 Y105.820 E6.45414
G1 X88.184 Y105.362 E6.47126
G1 X94.638 Y111.816 E6.81215
G1 X95.096 Y111.816 E6.82927
G1 X88.184 Y104.904 E7.19437
G1 X88.184 Y104.446 E7.21148
G1 X95.554 Y111.816 E7.60077
G1 X96.012 Y111.816 E7.61789
G1 X88.184 Y103.988 E8.03138
G1 X88.184 Y103.530 E8.04849
G1 X96.470 Y111.816 E8.48619
G1 X96.928 Y111.816 E8.50330
G1 X88.184 Y103.072 E8.96520
G1 X88.184 Y102.614 E8.98231
G1 X97.386 Y111.816 E9.46840
G1 X97.844 Y111.816 E9.48551
G1 X88.184 Y102.156 E9.99581
G1 X88.184 Y101.698 E10.01292
G1 X98.302 Y111.816 E10.54741
G1 X98.760 Y111.816 E10.56452
G1 X88.184 Y101.240 E11.12321
G1 X88.184 Y100.782 E11.14032
G1 X99.218 Y111.816 E11.72321
G1 X99.676 Y111.816 E11.74033
G1 X88.184 Y100.324 E12.34742
G1 X88.184 Y99.865 E12.36453
G1 X100.135 Y111.816 E12.99581
G1 X100.593 Y111.816 E13.01293
G1 X88.184 Y99.407 E13.66841
G1 X88.184 Y98.949 E13.68553
G1 X101.051 Y111.816 E14.36521
G1 X101.509 Y111.816 E14.38232
G1 X88.184 Y98.491 E15.08621
G1 X88.184 Y98.033 E15.10332
G1 X101.967 Y111.816 E15.83140
G1 X102.425 Y111.816 E15.84852
G1 X88.184 Y97.575 E16.60080
G1 X88.184 Y97.117 E16.61791
G1 X102.883 Y111.816 E17.39439
G1 X103.341 Y111.816 E17.41151
G1 X88.184 Y96.659 E18.21219
G1 X88.184 Y96.201 E18.22930
G1 X103.799 Y111.816 E19.05418
G1 X104.257 Y111.816 E19.07129
G1 X88.184 Y95.743 E19.92037
G1 X88.184 Y95.285 E19.93748
G1 X104.715 Y111.816 E20.81076
G1 X105.173 Y111.816 E20.82787
G1 X88.184 Y94.827 E21.72535
G1 X88.184 Y94.369 E21.74246
G1 X105.631 Y111.816 E22.66414
G1 X106.090 Y111.816 E22.68125
G1 X88.184 Y93.910 E23.62713
G1 X88.184 Y93.452 E23.64424
G1 X106.548 Y111.816 E24.61431
G1 X107.006 Y111.816 E24.63142
G1 X88.184 Y92.994 E25.62570
G1 X88.184 Y92.536 E25.64281
G1 X107.464 Y111.816 E26.66128
G1 X107.922 Y111.816 E26.67839
G1 X88.184 Y92.078 E27.72107
G1 X88.184 Y91.620 E27.73818
G1 X108.380 Y111.816 E28.80505
G1 X108.838 Y111.816 E28.82216
G1 X88.184 Y91.162 E29.91323
G1 X88.184 Y90.704 E29.93034
G1 X109.296 Y111.816 E31.04561
G1 X109.754 Y111.816 E31.06272
G1 X88.184 Y90.246 E32.20219
G1 X88.184 Y89.788 E32.21930
G1 X110.212 Y111.816 E33.38297
G1 X110.670 Y111.816 E33.40008
G1 X88.184 Y89.330 E34.58795
G1 X88.184 Y88.872 E34.60506
G1 X111.128 Y111.816 E35.81713
G1 X111.586 Y111.816 E35.83424
G1 X88.184 Y88.414 E37.07050
G1 X88.414 Y88.184 E37.08260
G1 X111.816 Y111.586 E38.31887
G1 X111.816 Y111.128 E38.33598
G1 X88.872 Y88.184 E39.54804
G1 X89.330 Y88.184 E39.56516
G1 X111.816 Y110.670 E40.75302
G1 X111.816 Y110.212 E40.77013
G1 X89.788 Y88.184 E41.93380
G1 X90.246 Y88.184 E41.95091
G1 X111.816 Y109.754 E43.09038
G1 X111.816 Y109.296 E43.10749
G1 X90.704 Y88.184 E44.22276
G1 X91.162 Y88.184 E44.23987
G1 X111.816 Y108.838 E45.33094
G1 X111.816 Y108.380 E45.34806
G1 X91.620 Y88.184 E46.41493
G1 X92.078 Y88.184 E46.43204
G1 X111.816 Y107.922 E47.47471
G1 X111.816 Y107.464 E47.49182
G1 X92.536 Y88.184 E48.51029
G1 X92.994 Y88.184 E48.52741
G1 X111.816 Y107.006 E49.52168
G1 X111.816 Y106.548 E49.53879
G1 X93.452 Y88.184 E50.50887
G1 X93.910 Y88.184 E50.52598
G1 X111.816 Y106.090 E51.47185
G1 X111.816 Y105.631 E51.48897
G1 X94.369 Y88.184 E52.41064
G1 X94.827 Y88.184 E52.42775
G1 X111.816 Y105.173 E53.32523
G1 X111.816 Y104.715 E53.34234
G1 X95.285 Y88.184 E54.21562
G1 X95.743 Y88.184 E54.23273
G1 X111.816 Y104.257 E55.08181
G1 X111.816 Y103.799 E55.09893
G1 X96.201 Y88.184 E55.92381
G1 X96.659 Y88.184 E55.94092
G1 X111.816 Y103.341 E56.74160
G1 X111.816 Y102.883 E56.75871
G1 X97.117 Y88.184 E57.53519
G1 X97.575 Y88.184 E57.55231
G1 X111.816 Y102.425 E58.30459
G1 X111.816 Y101.967 E58.32170
G1 X98.033 Y88.184 E59.04979
G1 X98.491 Y88.184 E59.06690
G1 X111.816 Y101.509 E59.77078
G1 X111.816 Y101.051 E59.78789
G1 X98.949 Y88.184 E60.46758
G1 X99.407 Y88.184 E60.48469
G1 X111.816 Y100.593 E61.14018
G1 X111.816 Y100.135 E61.15729
G1 X99.865 Y88.184 E61.78858
G1 X100.324 Y88.184 E61.80569
G1 X111.816 Y99.676 E62.41278
G1 X111.816 Y99.218 E62.42989
G1 X100.782 Y88.184 E63.01278
G1 X101.240 Y88.184 E63.02989
G1 X111.816 Y98.760 E63.58858
G1 X111.816 Y98.302 E63.60570
G1 X101.698 Y88.184 E64.14019
G1 X102.156 Y88.184 E64.15730
G1 X111.816 Y97.844 E64.66759
G1 X111.816 Y97.386 E64.68470
G1 X102.614 Y88.184 E65.17080
G1 X103.072 Y88.184 E65.18791
G1 X111.816 Y96.928 E65.64980
G1 X111.816 Y96.470 E65.66692
G1 X103.530 Y88.184 E66.10461
G1 X103.988 Y88.184 E66.12172
G1 X111.816 Y96.012 E66.53522
G1 X111.816 Y95.554 E66.55233
G1 X104.446 Y88.184 E66.94163
G1 X104.904 Y88.184 E66.95874
G1 X111.816 Y95.096 E67.32384
G1 X111.816 Y94.638 E67.34095
G1 X105.362 Y88.184 E67.68185
G1 X105.820 Y88.184 E67.69896
G1 X111.816 Y94.180 E68.01566
G1 X111.816 Y93.721 E68.03277
G1 X106.279 Y88.184 E68.32528
G1 X106.737 Y88.184 E68.34239
G1 X111.816 Y93.263 E68.61069
G1 X111.816 Y92.805 E68.62780
G1 X107.195 Y88.184 E68.87190
G1 X107.653 Y88.184 E68.88902
G1 X111.816 Y92.347 E69.10892
G1 X111.816 Y91.889 E69.12603
G1 X108.111 Y88.184 E69.32174
G1 X108.569 Y88.184 E69.33885
G1 X111.816 Y91.431 E69.51036
G1 X111.816 Y90.973 E69.52747
G1 X109.027 Y88.184 E69.67477
G1 X109.485 Y88.184 E69.69189
G1 X111.816 Y90.515 E69.81499
G1 X111.816 Y90.057 E69.83211
G1 X109.943 Y88.184 E69.93101
G1 X110.401 Y88.184 E69.94813
G1 X111.816 Y89.599 E70.02284
G1 X111.816 Y89.141 E70.03995
G1 X110.859 Y88.184 E70.09046
G1 X111.317 Y88.184 E70.10757
G1 X111.816 Y88.683 E70.13388
G1 X111.816 Y88.224 E70.15099
G1 X111.776 Y88.184 E70.15311
M106 S151
M104 S210 ; set temperature
M140 S50 ; set bed temperature
G1 F1980.000 E66.15311
G92 E0
G1 Z0.600 F6000.000
G1 X111.900 Y111.900 F6000.000
G1 E4.00000 F1980.000
G1 X88.100 Y111.900 E5.10625 F1800.000
G1 X88.100 Y88.100 E6.21250
G1 X111.900 Y88.100 E7.31876
G1 X111.900 Y111.840 E8.42222
G1 F1980.000 E4.42222
G92 E0
G1 X112.300 Y112.300 F6000.000
G1 E4.00000 F1980.000
G1 X87.700 Y112.300 E5.14344 F1440.000
G1 X87.700 Y87.700 E6.28687
G1 X112.300 Y87.700 E7.43031
G1 X112.300 Y112.240 E8.57096
G1 F1980.000 E4.57096
G92 E0
G1 X111.954 Y112.100 F6000.000
G1 X111.626 Y111.586 F6000.000
G1 E4.00000 F1980.000
G1 X111.586 Y111.626 E4.00275 F1800.000
G1 X110.991 Y111.626 E4.03172
G1 X111.626 Y110.991 E4.07545
G1 X111.626 Y110.395 E4.10442
G1 X110.395 Y111.626 E4.18911
G1 X109.800 Y111.626 E4.21808
G1 X111.626 Y109.800 E4.34374
G1 X111.626 Y109.205 E4.37271
G1 X109.205 Y111.626 E4.53934
G1 X108.610 Y111.626 E4.56831
G1 X111.626 Y108.610 E4.77591
G1 X111.626 Y108.015 E4.80488
G1 X108.015 Y111.626 E5.05345
G1 X107.420 Y111.626 E5.08242
G1 X111.626 Y107.420 E5.37196
G1 X111.626 Y106.824 E5.40093
G1 X106.824 Y111.626 E5.73144
G1 X106.229 Y111.626 E5.76041
G1 X111.626 Y106.229 E6.13189
G1 X111.626 Y105.634 E6.16086
G1 X105.634 Y111.626 E6.57331
G1 X105.039 Y111.626 E6.60228
G1 X111.626 Y105.039 E7.05569
G1 X111.626 Y104.444 E7.08466
G1 X104.444 Y111.626 E7.57905
G1 X103.849 Y111.626 E7.60802
G1 X111.626 Y103.849 E8.14338
G1 X111.626 Y103.253 E8.17235
G1 X103.253 Y111.626 E8.74867
G1 X102.658 Y111.626 E8.77764
G1 X111.626 Y102.658 E9.39494
G1 X111.626 Y102.063 E9.42391
G1 X102.063 Y111.626 E10.08217
G1 X101.468 Y111.626 E10.11114
G1 X111.626 Y101.468 E10.81037
G1 X111.626 Y100.873 E10.83934
G1 X100.873 Y111.626 E11.57955
G1 X100.278 Y111.626 E11.60852
G1 X111.626 Y100.278 E12.38969
G1 X111.626 Y99.682 E12.41866
G1 X99.682 Y111.626 E13.24080
G1 X99.087 Y111.626 E13.26977
G1 X111.626 Y99.087 E14.13288
G1 X111.626 Y98.492 E14.16185
G1 X98.492 Y111.626 E15.06593
G1 X97.897 Y111.626 E15.09490
G1 X111.626 Y97.897 E16.03995
G1 X111.626 Y97.302 E16.06892
G1 X97.302 Y111.626 E17.05494
G1 X96.707 Y111.626 E17.08391
G1 X111.626 Y96.707 E18.11090
G1 X111.626 Y96.111 E18.13987
G1 X96.111 Y111.626 E19.20783
G1 X95.516 Y111.626 E19.23680
G1 X111.626 Y95.516 E20.34573
G1 X111.626 Y94.921 E20.37470
G1 X94.921 Y111.626 E21.52460
G1 X94.326 Y111.626 E21.55357
G1 X111.626 Y94.326 E22.74444
G1 X111.626 Y93.731 E22.77341
G1 X93.731 Y111.626 E24.00524
G1 X93.136 Y111.626 E24.03421
G1 X111.626 Y93.136 E25.30702
G1 X111.626 Y92.540 E25.33599
G1 X92.540 Y111.626 E26.64976
G1 X91.945 Y111.626 E26.67873
G1 X111.626 Y91.945 E28.03348
G1 X111.626 Y91.350 E28.06245
G1 X91.350 Y111.626 E29.45816
G1 X90.755 Y111.626 E29.48713
G1 X111.626 Y90.755 E30.92382
G1 X111.626 Y90.160 E30.95279
G1 X90.160 Y111.626 E32.43044
G1 X89.565 Y111.626 E32.45941
G1 X111.626 Y89.565 E33.97803
G1 X111.626 Y88.969 E34.00700
G1 X88.969 Y111.626 E35.56659
G1 X88.394 Y111.606 E35.59461
G1 X111.606 Y88.394 E37.19242
G1 X111.031 Y88.374 E37.22043
G1 X88.374 Y111.031 E38.78002
G1 X88.374 Y110.435 E38.80899
G1 X110.435 Y88.374 E40.32761
G1 X109.840 Y88.374 E40.35658
G1 X88.374 Y109.840 E41.83424
G1 X88.374 Y109.245 E41.86321
G1 X109.245 Y88.374 E43.29989
G1 X108.650 Y88.374 E43.32886
G1 X88.374 Y108.650 E44.72457
G1 X88.374 Y108.055 E44.75354
G1 X108.055 Y88.374 E46.10829
G1 X107.460 Y88.374 E46.13726
G1 X88.374 Y107.460 E47.45104
G1 X88.374 Y106.864 E47.48001
G1 X106.864 Y88.374 E48.75281
G1 X106.269 Y88.374 E48.78178
G1 X88.374 Y106.269 E50.01362
G1 X88.374 Y105.674 E50.04259
G1 X105.674 Y88.374 E51.23346
G1 X105.079 Y88.374 E51.26242
G1 X88.374 Y105.079 E52.41232
G1 X88.374 Y104.484 E52.44129
G1 X104.484 Y88.374 E53.55022
G1 X103.889 Y88.374 E53.57919
G1 X88.374 Y103.889 E54.64715
G1 X88.374 Y103.293 E54.67612
G1 X103.293 Y88.374 E55.70311
G1 X102.698 Y88.374 E55.73208
G1 X88.374 Y102.698 E56.71810
G1 X88.374 Y102.103 E56.74707
G1 X102.103 Y88.374 E57.69212
G1 X101.508 Y88.374 E57.72109
G1 X88.374 Y101.508 E58.62517
G1 X88.374 Y100.913 E58.65414
G1 X100.913 Y88.374 E59.51725
G1 X100.318 Y88.374 E59.54622
G1 X88.374 Y100.318 E60.36836
G1 X88.374 Y99.722 E60.39733
G1 X99.722 Y88.374 E61.17851
G1 X99.127 Y88.374 E61.20748
G1 X88.374 Y99.127 E61.94768
G1 X88.374 Y98.532 E61.97665
G1 X98.532 Y88.374 E62.67588
G1 X97.937 Y88.374 E62.70485
G1 X88.374 Y97.937 E63.36312
G1 X88.374 Y97.342 E63.39209
G1 X97.342 Y88.374 E64.00938
G1 X96.747 Y88.374 E64.03835
G1 X88.374 Y96.747 E64.61468
G1 X88.374 Y96.151 E64.64365
G1 X96.151 Y88.374 E65.17900
G1 X95.556 Y88.374 E65.20797
G1 X88.374 Y95.556 E65.70236
G1 X88.374 Y94.961 E65.73133
G1 X94.961 Y88.374 E66.18475
G1 X94.366 Y88.374 E66.21372
G1 X88.374 Y94.366 E66.62617
G1 X88.374 Y93.771 E66.65514
G1 X93.771 Y88.374 E67.02661
G1 X93.176 Y88.374 E67.05558
G1 X88.374 Y93.176 E67.38609
G1 X88.374 Y92.580 E67.41506
G1 X92.580 Y88.374 E67.70460
G1 X91.985 Y88.374 E67.73357
G1 X88.374 Y91.985 E67.98214
G1 X88.374 Y91.390 E68.01111
G1 X91.390 Y88.374 E68.21871
G1 X90.795 Y88.374 E68.24768
G1 X88.374 Y90.795 E68.41431
G1 X88.374 Y90.200 E68.44328
G1 X90.200 Y88.374 E68.56895
G1 X89.605 Y88.374 E68.59792
G1 X88.374 Y89.605 E68.68261
G1 X88.374 Y89.009 E68.71158
G1 X89.009 Y88.374 E68.75530
G1 X88.414 Y88.374 E68.78427
G1 X88.374 Y88.414 E68.78702
M106 S151
G1 F1980.000 E64.78702
G92 E0
G1 Z0.900 F6000.000
G1 X111.900 Y111.900 F6000.000
G1 E4.00000 F1980.000
G1 X88.100 Y111.900 E5.10625 F1800.000
G1 X88.100 Y88.100 E6.21250
G1 X111.900 Y88.100 E7.31876
G1 X111.900 Y111.840 E8.42222
G1 F1980.000 E4.42222
G92 E0
G1 X112.300 Y112.300 F6000.000
G1 E4.00000 F1980.000
G1 X87.700 Y112.300 E5.14344 F1440.000
G1 X87.700 Y87.700 E6.28687
G1 X112.300 Y87.700 E7.43031
G1 X112.300 Y112.240 E8.57096
G1 F1980.000 E4.57096
G92 E0
G1 X111.954 Y112.100 F6000.000
G1 X88.414 Y111.626 F6000.000
G1 E4.00000 F1980.000
G1 X88.374 Y111.586 E4.00275 F1800.000
G1 X88.374 Y110.991 E4.03172
G1 X89.009 Y111.626 E4.07545
G1 X89.605 Y111.626 E4.10442
G1 X88.374 Y110.395 E4.18911
G1 X88.374 Y109.800 E4.21808
G1 X90.200 Y111.626 E4.34374
G1 X90.795 Y111.626 E4.37271
G1 X88.374 Y109.205 E4.53934
G1 X88.374 Y108.610 E4.56831
G1 X91.390 Y111.626 E4.77591
G1 X91.985 Y111.626 E4.80488
G1 X88.374 Y108.015 E5.05345
G1 X88.374 Y107.420 E5.08242
G1 X92.580 Y111.626 E5.37196
G1 X93.176 Y111.626 E5.40093
G1 X88.374 Y106.824 E5.73144
G1 X88.374 Y106.229 E5.76041
G1 X93.771 Y111.626 E6.13189
G1 X94.366 Y111.626 E6.16086
G1 X88.374 Y105.634 E6.57330
G1 X88.374 Y105.039 E6.60227
G1 X94.961 Y111.626 E7.05569
G1 X95.556 Y111.626 E7.08466
G1 X88.374 Y104.444 E7.57905
G1 X88.374 Y103.849 E7.60802
G1 X96.151 Y111.626 E8.14337
G1 X96.747 Y111.626 E8.17234
G1 X88.374 Y103.253 E8.74867
G1 X88.374 Y102.658 E8.77764
G1 X97.342 Y111.626 E9.39493
G1 X97.937 Y111.626 E9.42390
G1 X88.374 Y102.063 E10.08217
G1 X88.374 Y101.468 E10.11114
G1 X98.532 Y111.626 E10.81037
G1 X99.127 Y111.626 E10.83934
G1 X88.374 Y100.873 E11.57955
G1 X88.374 Y100.278 E11.60852
G1 X99.722 Y111.626 E12.38969
G1 X100.318 Y111.626 E12.41866
G1 X88.374 Y99.682 E13.24080
G1 X88.374 Y99.087 E13.26977
G1 X100.913 Y111.626 E14.13288
G1 X101.508 Y111.626 E14.16185
G1 X88.374 Y98.492 E15.06593
