; generated by Slic3r 1.1.7 on 2014-12-10 at 14:51:07

; perimeters extrusion width = 0.50mm
; infill extrusion width = 0.52mm
; solid infill extrusion width = 0.52mm
; top infill extrusion width = 0.52mm

G21 ; set units to millimeters
M107
M104 S200 ; set temperature
G28 ; home all axes
G1 Z5 F5000 ; lift nozzle

M109 S200 ; wait for temperature to be reached
G90 ; use absolute coordinates
G92 E0
M82 ; use absolute distances for extrusion
G1 F1800.000 E-1.00000
G92 E0
G1 Z0.350 F7800.000
G1 X80.634 Y72.571 F7800.000
G1 E1.00000 F1800.000
G1 X82.387 Y71.084 E1.07480 F1080.000
G1 X84.542 Y70.283 E1.14960
G1 X85.750 Y70.173 E1.18906
G1 X93.768 Y70.173 E1.44991
G1 X106.268 Y70.206 E1.85661 F1080.000
G1 X108.531 Y70.609 E1.93141
G1 X110.523 Y71.758 E2.00621
G1 X112.004 Y73.516 E2.08101
G1 X112.547 Y74.702 E2.12344
G1 X120.547 Y98.009 E2.92517
G1 X120.907 Y100.170 E2.99646
G1 X120.907 Y120.170 E3.64716
G1 X120.510 Y122.435 E3.72197
G1 X119.366 Y124.429 E3.79677
G1 X116.587 Y126.404 E3.90767
G1 X108.587 Y129.404 E4.18566
G1 X106.250 Y129.827 E4.26295
G1 X85.750 Y129.827 E4.92992
G1 X83.485 Y129.430 E5.00472
G1 X81.491 Y128.287 E5.07952
G1 X80.005 Y126.533 E5.15432
G1 X79.203 Y124.378 E5.22912
G1 X79.093 Y123.170 E5.26857
G1 X79.093 Y76.830 E6.77628
G1 X79.490 Y74.565 E6.85108
G1 X80.596 Y72.636 E6.92344
G1 F1800.000 E5.92344
G92 E0
G1 X110.600 Y106.770 F7800.000
G1 E1.00000 F1800.000
G1 X106.900 Y106.770 E1.12038 F378.000
G1 X106.900 Y104.570 E1.19196
G1 X110.600 Y104.570 E1.31234
G1 X110.600 Y106.695 E1.38148
G1 X110.600 Y107.270 F7800.000
G1 X111.914 Y112.756 F7800.000
G1 X111.914 Y117.585 E1.53857 F540.000
G1 X105.586 Y117.585 E1.74446
G1 X105.586 Y112.756 E1.90155
G1 X111.839 Y112.756 E2.10500
G1 X111.257 Y113.413 F7800.000
G1 X111.257 Y116.927 E2.21934 F540.000
G1 X106.243 Y116.927 E2.38247
G1 X106.243 Y113.413 E2.49681
G1 X111.182 Y113.413 E2.65750
G1 X110.600 Y114.070 F7800.000
G1 X110.600 Y116.270 E2.72908 F378.000
G1 X106.900 Y116.270 E2.84946
G1 X106.900 Y114.070 E2.92104
G1 X110.525 Y114.070 E3.03898
G1 X111.100 Y114.070 F7800.000
G1 X111.914 Y108.085 F7800.000
G1 X111.914 Y103.256 E3.19607 F540.000
G1 X105.586 Y103.256 E3.40196
G1 X105.586 Y104.125 E3.43023
G1 X105.196 Y104.229 E3.44335
G1 X104.861 Y103.648 E3.46518
G1 X99.914 Y103.648 E3.62612
G1 X99.914 Y96.885 E3.84616
G1 X104.861 Y96.885 E4.00710
G1 X105.654 Y95.512 E4.05869
G1 X112.586 Y100.977 E4.34590
G1 X112.586 Y118.506 E4.91620
G1 X104.586 Y118.506 E5.17648
G1 X104.586 Y121.506 E5.27409
G1 X99.914 Y121.506 E5.42608
G1 X99.914 Y112.692 E5.71284
G1 X104.861 Y112.692 E5.87378
G1 X107.521 Y108.085 E6.04689
G1 X111.839 Y108.085 E6.18738
G1 X111.257 Y107.427 F7800.000
G1 X111.257 Y103.913 E6.30171 F540.000
G1 X106.243 Y103.913 E6.46485
G1 X106.243 Y106.577 E6.55152
G1 X105.853 Y106.682 E6.56464
G1 X104.481 Y104.305 E6.65391
G1 X100.019 Y104.305 E6.79911
G1 X99.647 Y104.950 E6.82331
G1 X99.257 Y104.845 E6.83643
G1 X99.257 Y95.688 E7.13436
G1 X99.647 Y95.584 E7.14748
G1 X100.019 Y96.228 E7.17168
G1 X104.481 Y96.228 E7.31688
G1 X105.464 Y94.526 E7.38082
G1 X113.243 Y100.659 E7.70311
G1 X113.243 Y119.163 E8.30516
G1 X105.243 Y119.163 E8.56544
G1 X105.243 Y122.163 E8.66304
G1 X99.257 Y122.163 E8.85779
G1 X99.257 Y111.496 E9.20487
G1 X99.647 Y111.391 E9.21799
G1 X100.019 Y112.035 E9.24219
G1 X104.481 Y112.035 E9.38739
G1 X106.713 Y108.170 E9.53259
G1 X106.284 Y107.427 E9.56050
G1 X111.182 Y107.427 E9.71986
G1 X105.954 Y108.170 F7800.000
G1 X104.102 Y104.962 E9.84038 F378.000
G1 X100.398 Y104.962 E9.96089
G1 X98.990 Y107.402 E10.05253
G1 X98.600 Y107.297 E10.06566
G1 X98.600 Y93.236 E10.52315
G1 X98.990 Y93.132 E10.53627
G1 X100.398 Y95.571 E10.62791
G1 X104.102 Y95.571 E10.74843
G1 X105.510 Y93.132 E10.84007
G1 X105.900 Y93.236 E10.85319
G1 X105.900 Y94.033 E10.87911
G1 X113.900 Y100.340 E11.21056
G1 X113.900 Y119.820 E11.84436
G1 X105.900 Y119.820 E12.10464
G1 X105.900 Y122.820 E12.20224
G1 X98.600 Y122.820 E12.43975
G1 X98.600 Y109.043 E12.88799
G1 X98.990 Y108.939 E12.90111
G1 X100.398 Y111.378 E12.99275
G1 X104.102 Y111.378 E13.11327
G1 X105.917 Y108.235 E13.23134
G1 X106.337 Y107.849 F7800.000
G1 F1800.000 E12.23134
G92 E0
G1 X104.586 Y87.841 F7800.000
G1 E1.00000 F1800.000
G1 X99.914 Y87.841 E1.15199 F540.000
G1 X99.914 Y78.527 E1.45502
G1 X104.586 Y78.527 E1.60701
G1 X104.586 Y87.766 E1.90760
G1 X104.481 Y88.498 F7800.000
G1 X100.019 Y88.498 E2.05280 F540.000
G1 X99.647 Y89.142 E2.07700
G1 X99.257 Y89.038 E2.09012
G1 X99.257 Y77.870 E2.45347
G1 X105.243 Y77.870 E2.64822
G1 X105.243 Y89.038 E3.01156
G1 X104.853 Y89.142 E3.02468
G1 X104.519 Y88.563 E3.04644
G1 X105.510 Y91.594 F7800.000
G1 X104.102 Y89.155 E3.13808 F378.000
G1 X100.398 Y89.155 E3.25859
G1 X98.990 Y91.594 E3.35023
G1 X98.600 Y91.490 E3.36336
G1 X98.600 Y77.213 E3.82786
G1 X105.900 Y77.213 E4.06537
G1 X105.900 Y91.490 E4.52988
G1 X105.583 Y91.575 E4.54056
G1 X105.554 Y91.096 F7800.000
G1 F1800.000 E3.54056
G92 E0
G1 X105.089 Y113.149 F7800.000
G1 E1.00000 F1800.000
G1 X105.129 Y113.189 E1.00184 F1080.000
G1 X105.129 Y114.156 E1.03332
G1 X104.122 Y113.149 E1.07969
G1 X103.154 Y113.149 E1.11117
G1 X105.129 Y115.124 E1.20207
G1 X105.129 Y116.092 E1.23355
G1 X102.186 Y113.149 E1.36897
G1 X101.219 Y113.149 E1.40045
G1 X105.129 Y117.060 E1.58039
G1 X105.129 Y118.027 E1.61188
G1 X100.371 Y113.268 E1.83084
G1 X100.371 Y114.236 E1.86233
G1 X104.184 Y118.050 E2.03781
G1 X104.129 Y118.963 E2.06756
G1 X100.371 Y115.204 E2.24052
G1 X100.371 Y116.171 E2.27200
G1 X104.129 Y119.930 E2.44496
G1 X104.129 Y120.898 E2.47644
G1 X100.371 Y117.139 E2.64940
G1 X100.371 Y118.107 E2.68088
G1 X103.314 Y121.050 E2.81630
G1 X102.346 Y121.050 E2.84778
G1 X100.371 Y119.074 E2.93868
G1 X100.371 Y120.042 E2.97016
G1 X101.378 Y121.050 E3.01653
G1 X100.411 Y121.050 E3.04801
G1 X100.371 Y121.010 E3.04985
G1 X105.669 Y112.300 F7800.000
G1 X105.634 Y112.265 E3.05144 F1080.000
G1 X106.007 Y111.620 E3.07569
G1 X106.687 Y112.300 E3.10698
G1 X107.705 Y112.300 E3.14010
G1 X106.380 Y110.974 E3.20108
G1 X106.752 Y110.329 E3.22532
G1 X108.723 Y112.300 E3.31600
G1 X109.741 Y112.300 E3.34911
G1 X107.125 Y109.684 E3.46948
G1 X107.497 Y109.038 E3.49373
G1 X110.759 Y112.300 E3.64379
G1 X111.777 Y112.300 E3.67691
G1 X108.018 Y108.541 E3.84986
G1 X109.036 Y108.541 E3.88298
G1 X112.129 Y111.635 E4.02533
G1 X112.129 Y110.617 E4.05845
G1 X110.054 Y108.541 E4.15397
G1 X111.072 Y108.541 E4.18709
G1 X112.129 Y109.599 E4.23576
G1 X112.129 Y108.581 E4.26888
G1 X112.089 Y108.541 E4.27072
G1 X111.989 Y101.088 F7800.000
G1 X112.129 Y101.229 E4.27718 F1080.000
G1 X112.129 Y102.206 E4.30898
G1 X107.370 Y97.446 E4.52798
G1 X105.550 Y96.604 F7800.000
G1 X111.746 Y102.800 E4.81308 F1080.000
G1 X110.769 Y102.800 E4.84487
G1 X105.192 Y97.223 E5.10146
G1 X104.333 Y97.341 E5.12968
G1 X109.792 Y102.800 E5.38083
G1 X108.814 Y102.800 E5.41263
G1 X103.356 Y97.341 E5.66379
G1 X102.378 Y97.341 E5.69558
G1 X107.837 Y102.800 E5.94674
G1 X106.860 Y102.800 E5.97854
G1 X101.401 Y97.341 E6.22969
G1 X100.424 Y97.341 E6.26149
G1 X105.882 Y102.800 E6.51265
G1 X105.129 Y103.024 E6.53820
G1 X100.371 Y98.265 E6.75717
G1 X100.371 Y99.243 E6.78897
G1 X104.320 Y103.192 E6.97068
G1 X103.342 Y103.192 E7.00248
G1 X100.371 Y100.220 E7.13922
G1 X100.371 Y101.197 E7.17102
G1 X102.365 Y103.192 E7.26280
G1 X101.388 Y103.192 E7.29459
G1 X100.371 Y102.175 E7.34140
G1 X100.371 Y103.152 E7.37320
G1 X100.411 Y103.192 E7.37504
G1 F1800.000 E6.37504
G92 E0
G1 X100.411 Y87.385 F7800.000
G1 E1.00000 F1800.000
G1 X100.371 Y87.345 E1.00184 F1080.000
G1 X100.371 Y86.338 E1.03459
G1 X101.417 Y87.385 E1.08275
G1 X102.424 Y87.385 E1.11550
G1 X100.371 Y85.331 E1.20998
G1 X100.371 Y84.325 E1.24273
G1 X103.431 Y87.385 E1.38353
G1 X104.129 Y87.077 E1.40838
G1 X100.371 Y83.318 E1.58133
G1 X100.371 Y82.311 E1.61409
G1 X104.129 Y86.070 E1.78704
G1 X104.129 Y85.063 E1.81979
G1 X100.371 Y81.304 E1.99275
G1 X100.371 Y80.298 E2.02550
G1 X104.129 Y84.057 E2.19846
G1 X104.129 Y83.050 E2.23121
G1 X100.371 Y79.291 E2.40417
G1 X101.069 Y78.983 E2.42901
G1 X104.129 Y82.043 E2.56981
G1 X104.129 Y81.037 E2.60256
G1 X102.076 Y78.983 E2.69704
G1 X103.083 Y78.983 E2.72979
G1 X104.129 Y80.030 E2.77795
G1 X104.129 Y79.023 E2.81070
G1 X104.089 Y78.983 E2.81254
G1 F1800.000 E1.81254
G92 E0
G1 X92.086 Y112.111 F7800.000
G1 E1.00000 F1800.000
G1 X92.086 Y121.506 E1.30569 F540.000
G1 X87.414 Y121.506 E1.45768
G1 X87.414 Y112.111 E1.76337
G1 X88.003 Y112.389 E1.78455
G1 X88.424 Y112.540 E1.79912
G1 X88.859 Y112.649 E1.81371
G1 X89.302 Y112.715 E1.82828
G1 X89.750 Y112.737 E1.84286
G1 X90.198 Y112.715 E1.85745
G1 X90.641 Y112.649 E1.87202
G1 X91.075 Y112.540 E1.88660
G1 X91.497 Y112.389 E1.90118
G1 X92.018 Y112.143 E1.91992
G1 X92.743 Y110.726 F7800.000
G1 X92.743 Y122.163 E2.29203 F540.000
G1 X86.757 Y122.163 E2.48678
G1 X86.757 Y110.726 E2.85889
G1 X87.271 Y111.192 E2.88144
G1 X87.579 Y111.420 E2.89392
G1 X87.908 Y111.617 E2.90640
G1 X88.254 Y111.781 E2.91888
G1 X88.615 Y111.910 E2.93135
G1 X88.988 Y112.004 E2.94383
G1 X89.367 Y112.060 E2.95631
G1 X89.750 Y112.079 E2.96879
G1 X90.133 Y112.060 E2.98127
G1 X90.513 Y112.004 E2.99375
G1 X90.884 Y111.910 E3.00623
G1 X91.246 Y111.781 E3.01871
G1 X91.592 Y111.617 E3.03118
G1 X91.921 Y111.420 E3.04366
G1 X92.229 Y111.192 E3.05614
G1 X92.687 Y110.776 E3.07625
G1 X92.939 Y108.802 F7800.000
G1 X93.400 Y108.858 E3.09137 F378.000
G1 X93.400 Y122.820 E3.54562
G1 X86.100 Y122.820 E3.78313
G1 X86.100 Y108.858 E4.23738
G1 X86.561 Y108.802 E4.25251
G1 X86.640 Y109.114 E4.26298
G1 X86.747 Y109.414 E4.27336
G1 X86.883 Y109.703 E4.28374
G1 X87.047 Y109.976 E4.29411
G1 X87.237 Y110.232 E4.30449
G1 X87.452 Y110.469 E4.31487
G1 X87.688 Y110.683 E4.32525
G1 X87.944 Y110.873 E4.33563
G1 X88.218 Y111.037 E4.34601
G1 X88.506 Y111.173 E4.35638
G1 X88.806 Y111.281 E4.36676
G1 X89.116 Y111.358 E4.37714
G1 X89.431 Y111.405 E4.38752
G1 X89.750 Y111.421 E4.39790
G1 X90.069 Y111.405 E4.40827
G1 X90.384 Y111.358 E4.41865
G1 X90.694 Y111.281 E4.42903
G1 X90.994 Y111.173 E4.43941
G1 X91.282 Y111.037 E4.44979
G1 X91.556 Y110.873 E4.46016
G1 X91.812 Y110.683 E4.47054
G1 X92.048 Y110.469 E4.48092
G1 X92.263 Y110.232 E4.49130
G1 X92.453 Y109.976 E4.50168
G1 X92.617 Y109.703 E4.51205
G1 X92.753 Y109.414 E4.52244
G1 X92.860 Y109.114 E4.53281
G1 X92.920 Y108.874 E4.54085
G1 X93.298 Y109.096 F7800.000
G1 X92.086 Y104.230 F7800.000
G1 X91.497 Y103.952 E4.56203 F540.000
G1 X91.075 Y103.801 E4.57661
G1 X90.641 Y103.692 E4.59118
G1 X90.198 Y103.626 E4.60576
G1 X89.750 Y103.604 E4.62035
G1 X89.302 Y103.626 E4.63493
G1 X88.859 Y103.692 E4.64950
G1 X88.424 Y103.801 E4.66408
G1 X88.003 Y103.952 E4.67866
G1 X87.414 Y104.230 E4.69984
G1 X87.414 Y96.270 E4.95882
G1 X88.003 Y96.548 E4.98000
G1 X88.424 Y96.699 E4.99458
G1 X88.859 Y96.808 E5.00916
G1 X89.302 Y96.874 E5.02374
G1 X89.750 Y96.896 E5.03832
G1 X90.198 Y96.874 E5.05290
G1 X90.641 Y96.808 E5.06748
G1 X91.075 Y96.699 E5.08205
G1 X91.497 Y96.548 E5.09664
G1 X92.086 Y96.270 E5.11781
G1 X92.086 Y104.155 E5.37436
G1 X92.743 Y105.615 F7800.000
G1 X92.229 Y105.149 E5.39691 F540.000
G1 X91.921 Y104.921 E5.40939
G1 X91.592 Y104.724 E5.42186
G1 X91.246 Y104.560 E5.43434
G1 X90.884 Y104.430 E5.44682
G1 X90.513 Y104.337 E5.45930
G1 X90.133 Y104.281 E5.47178
G1 X89.750 Y104.262 E5.48426
G1 X89.367 Y104.281 E5.49674
G1 X88.988 Y104.337 E5.50921
G1 X88.615 Y104.430 E5.52169
G1 X88.254 Y104.560 E5.53417
G1 X87.908 Y104.724 E5.54665
G1 X87.579 Y104.921 E5.55913
G1 X87.271 Y105.149 E5.57160
G1 X86.757 Y105.615 E5.59416
G1 X86.757 Y94.885 E5.94323
G1 X87.271 Y95.351 E5.96579
G1 X87.579 Y95.579 E5.97826
G1 X87.908 Y95.776 E5.99074
G1 X88.254 Y95.940 E6.00322
G1 X88.615 Y96.070 E6.01570
G1 X88.988 Y96.163 E6.02818
G1 X89.367 Y96.219 E6.04065
G1 X89.750 Y96.238 E6.05313
G1 X90.133 Y96.219 E6.06561
G1 X90.513 Y96.163 E6.07809
G1 X90.884 Y96.070 E6.09057
G1 X91.246 Y95.940 E6.10305
G1 X91.592 Y95.776 E6.11553
G1 X91.921 Y95.579 E6.12800
G1 X92.229 Y95.351 E6.14048
G1 X92.743 Y94.885 E6.16303
G1 X92.743 Y105.540 E6.50967
G1 X92.939 Y107.539 F7800.000
G1 X92.860 Y107.227 E6.52015 F378.000
G1 X92.753 Y106.927 E6.53053
G1 X92.617 Y106.638 E6.54091
G1 X92.453 Y106.365 E6.55128
G1 X92.263 Y106.108 E6.56166
G1 X92.048 Y105.872 E6.57204
G1 X91.812 Y105.658 E6.58242
G1 X91.556 Y105.468 E6.59280
G1 X91.282 Y105.304 E6.60317
G1 X90.994 Y105.167 E6.61355
G1 X90.694 Y105.060 E6.62393
G1 X90.384 Y104.982 E6.63431
G1 X90.069 Y104.936 E6.64469
G1 X89.750 Y104.920 E6.65507
G1 X89.431 Y104.936 E6.66544
G1 X89.116 Y104.982 E6.67582
G1 X88.806 Y105.060 E6.68620
G1 X88.506 Y105.167 E6.69658
G1 X88.218 Y105.304 E6.70695
G1 X87.944 Y105.468 E6.71733
G1 X87.688 Y105.658 E6.72771
G1 X87.452 Y105.872 E6.73809
G1 X87.237 Y106.108 E6.74847
G1 X87.047 Y106.365 E6.75885
G1 X86.883 Y106.638 E6.76922
G1 X86.747 Y106.926 E6.77960
G1 X86.640 Y107.227 E6.78998
G1 X86.561 Y107.539 E6.80046
G1 X86.100 Y107.482 E6.81558
G1 X86.100 Y93.018 E7.28618
G1 X86.561 Y92.961 E7.30130
G1 X86.640 Y93.273 E7.31178
G1 X86.747 Y93.574 E7.32216
G1 X86.883 Y93.862 E7.33253
G1 X87.047 Y94.135 E7.34291
G1 X87.237 Y94.392 E7.35329
G1 X87.452 Y94.628 E7.36367
G1 X87.688 Y94.842 E7.37405
G1 X87.944 Y95.032 E7.38442
G1 X88.218 Y95.196 E7.39480
G1 X88.506 Y95.333 E7.40518
G1 X88.806 Y95.440 E7.41556
G1 X89.116 Y95.518 E7.42594
G1 X89.431 Y95.564 E7.43631
G1 X89.750 Y95.580 E7.44669
G1 X90.069 Y95.564 E7.45707
G1 X90.343 Y95.524 E7.46608
G1 X90.694 Y95.440 E7.47782
G1 X90.994 Y95.333 E7.48820
G1 X91.244 Y95.214 E7.49721
G1 X91.556 Y95.032 E7.50895
G1 X91.812 Y94.842 E7.51933
G1 X92.048 Y94.628 E7.52971
G1 X92.263 Y94.392 E7.54008
G1 X92.453 Y94.135 E7.55046
G1 X92.617 Y93.862 E7.56084
G1 X92.753 Y93.574 E7.57122
G1 X92.860 Y93.273 E7.58160
G1 X92.939 Y92.961 E7.59207
G1 X93.400 Y93.018 E7.60720
G1 X93.400 Y107.482 E8.07780
G1 X93.013 Y107.530 E8.09048
G1 X93.040 Y107.233 F7800.000
G1 F1800.000 E7.09048
G92 E0
G1 X92.086 Y88.389 F7800.000
G1 E1.00000 F1800.000
G1 X91.497 Y88.111 E1.02118 F540.000
G1 X91.075 Y87.960 E1.03576
G1 X90.641 Y87.851 E1.05033
G1 X90.198 Y87.785 E1.06492
G1 X89.750 Y87.763 E1.07950
G1 X89.302 Y87.785 E1.09408
G1 X88.859 Y87.851 E1.10865
G1 X88.424 Y87.960 E1.12324
G1 X88.003 Y88.111 E1.13781
G1 X87.414 Y88.389 E1.15899
G1 X87.414 Y78.494 E1.48094
G1 X92.086 Y78.494 E1.63294
G1 X92.086 Y88.314 E1.95245
G1 X92.743 Y89.774 F7800.000
G1 X92.229 Y89.308 E1.97500 F540.000
G1 X91.921 Y89.080 E1.98748
G1 X91.592 Y88.883 E1.99996
G1 X91.246 Y88.719 E2.01244
G1 X90.884 Y88.590 E2.02492
G1 X90.513 Y88.496 E2.03739
G1 X90.133 Y88.440 E2.04987
G1 X89.750 Y88.421 E2.06235
G1 X89.367 Y88.440 E2.07483
G1 X88.988 Y88.496 E2.08731
G1 X88.615 Y88.590 E2.09979
G1 X88.254 Y88.719 E2.11227
G1 X87.908 Y88.883 E2.12474
G1 X87.579 Y89.080 E2.13722
G1 X87.271 Y89.308 E2.14970
G1 X86.757 Y89.774 E2.17225
G1 X86.757 Y77.837 E2.56063
G1 X92.743 Y77.837 E2.75538
G1 X92.743 Y89.699 E3.14132
G1 X92.939 Y91.698 F7800.000
G1 X92.860 Y91.386 E3.15180 F378.000
G1 X92.753 Y91.086 E3.16217
G1 X92.617 Y90.797 E3.17255
G1 X92.453 Y90.524 E3.18293
G1 X92.263 Y90.268 E3.19331
G1 X92.048 Y90.031 E3.20369
G1 X91.812 Y89.817 E3.21407
G1 X91.556 Y89.627 E3.22444
G1 X91.282 Y89.463 E3.23482
G1 X90.994 Y89.327 E3.24520
G1 X90.694 Y89.219 E3.25558
G1 X90.384 Y89.142 E3.26596
G1 X90.069 Y89.095 E3.27633
G1 X89.750 Y89.079 E3.28671
G1 X89.431 Y89.095 E3.29709
G1 X89.116 Y89.142 E3.30747
G1 X88.806 Y89.219 E3.31785
G1 X88.506 Y89.327 E3.32823
G1 X88.218 Y89.463 E3.33860
G1 X87.944 Y89.627 E3.34898
G1 X87.688 Y89.817 E3.35936
G1 X87.452 Y90.031 E3.36974
G1 X87.237 Y90.268 E3.38012
G1 X87.047 Y90.524 E3.39049
G1 X86.883 Y90.797 E3.40087
G1 X86.747 Y91.086 E3.41125
G1 X86.640 Y91.386 E3.42163
G1 X86.561 Y91.698 E3.43210
G1 X86.100 Y91.642 E3.44723
G1 X86.100 Y77.180 E3.91775
G1 X93.400 Y77.180 E4.15525
G1 X93.400 Y91.642 E4.62577
G1 X93.013 Y91.689 E4.63845
G1 X93.040 Y91.393 F7800.000
G1 X91.594 Y96.998 F7800.000
G1 X91.629 Y97.034 E4.64009 F1080.000
G1 X90.812 Y97.236 E4.66749
G1 X91.629 Y98.053 E4.70510
G1 X91.629 Y99.072 E4.73826
G1 X89.902 Y97.345 E4.81772
