; generated by Slic3r 1.1.7 on 2014-12-12 at 17:51:19

; perimeters extrusion width = 0.42mm
; infill extrusion width = 0.74mm
; solid infill extrusion width = 0.71mm
; top infill extrusion width = 0.71mm
; support material extrusion width = 0.42mm

G21 ; set units to millimeters
M190 S57 ; wait for bed temperature to be reached
M104 S186 ; set temperature
G28 ; home all axes Start of G Code Slic3r
 
M109 S186 ; wait for temperature to be reached
G90 ; use absolute coordinates
G92 E0
M82 ; use absolute distances for extrusion
G1 F1860.000 E-3.00000
G92 E0
G1 Z0.200 F6000.000
G1 X41.603 Y63.632 F6000.000
G1 E3.10000 F1860.000
G1 X41.794 Y63.507 E3.10423 F1200.000
G1 X44.343 Y62.986 E3.15236
G1 X156.155 Y62.986 E5.22091
G1 X158.391 Y63.382 E5.26291 F1200.000
G1 X160.353 Y64.525 E5.30492
G1 X161.803 Y66.273 E5.34693
G1 X162.345 Y67.513 E5.37197
G1 X162.709 Y68.660 E5.39424
G1 X163.012 Y70.458 E5.42796
G1 X163.494 Y89.000 E5.77111
G1 X163.494 Y129.000 E6.51112
G1 X163.098 Y131.236 E6.55313
G1 X161.955 Y133.198 E6.59514
G1 X160.207 Y134.647 E6.63714
G1 X157.369 Y135.484 E6.69189
G1 X130.260 Y137.014 E7.19421
G1 X126.383 Y137.013 E7.26592
G1 X42.882 Y135.493 E8.81098
G1 X40.654 Y135.056 E8.85298
G1 X38.713 Y133.878 E8.89499
G1 X37.295 Y132.104 E8.93700
G1 X36.506 Y129.000 E8.99625
G1 X36.508 Y88.825 E9.73950
G1 X36.988 Y71.027 E10.06888
G1 X37.674 Y68.292 E10.12105
G1 X38.537 Y66.570 E10.15668
G1 X39.894 Y64.749 E10.19869
G1 X41.550 Y63.666 E10.23531
G1 X41.741 Y63.848 F6000.000
G1 X41.971 Y63.701 E10.24035 F1200.000
G1 X44.343 Y63.233 E10.28509
G1 X156.155 Y63.233 E12.35364
G1 X158.346 Y63.630 E12.39483 F1200.000
G1 X160.259 Y64.770 E12.43602
G1 X161.650 Y66.508 E12.47721
G1 X162.109 Y67.588 E12.49892
G1 X162.474 Y68.735 E12.52119
G1 X162.765 Y70.464 E12.55363
G1 X163.247 Y89.000 E12.89666
G1 X163.247 Y129.000 E13.63667
G1 X162.850 Y131.191 E13.67787
G1 X161.710 Y133.104 E13.71906
G1 X159.972 Y134.495 E13.76025
G1 X157.355 Y135.237 E13.81058
G1 X130.260 Y136.767 E14.31264
G1 X126.388 Y136.766 E14.38427
G1 X42.886 Y135.246 E15.92933
G1 X40.703 Y134.810 E15.97052
G1 X38.811 Y133.635 E16.01171
G1 X37.452 Y131.872 E16.05290
G1 X36.753 Y129.000 E16.10758
G1 X36.755 Y88.832 E16.85070
G1 X37.235 Y71.034 E17.18009
G1 X37.895 Y68.403 E17.23027
G1 X38.758 Y66.681 E17.26590
G1 X40.095 Y64.900 E17.30710
G1 X41.688 Y63.882 E17.34208
G1 F1860.000 E14.34208
G92 E0
G1 X152.847 Y126.347 F6000.000
G1 E3.10000 F1860.000
G1 X152.847 Y89.347 E3.78451 F1200.000
G1 X156.653 Y89.347 E3.85491
G1 X156.653 Y128.653 E4.58207
G1 X43.347 Y128.653 E6.67825
G1 X43.347 Y89.347 E7.40541
G1 X47.153 Y89.347 E7.47582
G1 X47.153 Y126.347 E8.16032
G1 X152.784 Y126.347 E10.11453
G1 X152.600 Y126.100 F6000.000
G1 X152.600 Y89.100 E10.79904 F1200.000
G1 X156.900 Y89.100 E10.87859
G1 X156.900 Y128.900 E11.61490
G1 X43.100 Y128.900 E13.72022
G1 X43.100 Y89.100 E14.45653
G1 X47.400 Y89.100 E14.53608
G1 X47.400 Y126.100 E15.22059
G1 X152.537 Y126.100 E17.16565
G1 X153.020 Y126.100 F6000.000
G1 F1860.000 E14.16565
G92 E0
G1 X156.454 Y89.506 F6000.000
G1 E3.10000 F1860.000
G1 X156.494 Y89.546 E3.10105 F1200.000
G1 X156.494 Y89.896 E3.10752
G1 X156.104 Y89.506 E3.11772
G1 X155.754 Y89.506 E3.12420
G1 X156.494 Y90.246 E3.14356
G1 X156.494 Y90.596 E3.15003
G1 X155.404 Y89.506 E3.17855
G1 X155.054 Y89.506 E3.18503
G1 X156.494 Y90.946 E3.22270
G1 X156.494 Y91.296 E3.22917
G1 X154.704 Y89.506 E3.27601
G1 X154.354 Y89.506 E3.28248
G1 X156.494 Y91.646 E3.33847
G1 X156.494 Y91.996 E3.34494
G1 X154.004 Y89.506 E3.41009
G1 X153.654 Y89.506 E3.41656
G1 X156.494 Y92.346 E3.49086
G1 X156.494 Y92.696 E3.49734
G1 X153.304 Y89.506 E3.58079
G1 X153.006 Y89.559 E3.58638
G1 X156.494 Y93.046 E3.67762
G1 X156.494 Y93.396 E3.68409
G1 X153.006 Y89.909 E3.77533
G1 X153.006 Y90.259 E3.78180
G1 X156.494 Y93.746 E3.87304
G1 X156.494 Y94.096 E3.87951
G1 X153.006 Y90.609 E3.97075
G1 X153.006 Y90.959 E3.97722
G1 X156.494 Y94.446 E4.06846
G1 X156.494 Y94.796 E4.07493
G1 X153.006 Y91.309 E4.16617
G1 X153.006 Y91.659 E4.17264
G1 X156.494 Y95.146 E4.26388
G1 X156.494 Y95.496 E4.27035
G1 X153.006 Y92.009 E4.36159
G1 X153.006 Y92.359 E4.36806
G1 X156.494 Y95.846 E4.45930
G1 X156.494 Y96.196 E4.46577
G1 X153.006 Y92.709 E4.55701
G1 X153.006 Y93.059 E4.56348
G1 X156.494 Y96.546 E4.65472
G1 X156.494 Y96.896 E4.66119
G1 X153.006 Y93.409 E4.75243
G1 X153.006 Y93.759 E4.75890
G1 X156.494 Y97.246 E4.85014
G1 X156.494 Y97.596 E4.85661
G1 X153.006 Y94.109 E4.94785
G1 X153.006 Y94.459 E4.95432
G1 X156.494 Y97.946 E5.04556
G1 X156.494 Y98.296 E5.05203
G1 X153.006 Y94.809 E5.14327
G1 X153.006 Y95.159 E5.14974
G1 X156.494 Y98.646 E5.24098
G1 X156.494 Y98.996 E5.24746
G1 X153.006 Y95.509 E5.33869
G1 X153.006 Y95.859 E5.34517
G1 X156.494 Y99.346 E5.43640
G1 X156.494 Y99.696 E5.44288
G1 X153.006 Y96.209 E5.53411
G1 X153.006 Y96.559 E5.54059
G1 X156.494 Y100.046 E5.63182
G1 X156.494 Y100.396 E5.63830
G1 X153.006 Y96.909 E5.72953
G1 X153.006 Y97.259 E5.73601
G1 X156.494 Y100.746 E5.82724
G1 X156.494 Y101.096 E5.83372
G1 X153.006 Y97.609 E5.92495
G1 X153.006 Y97.959 E5.93143
G1 X156.494 Y101.446 E6.02266
G1 X156.494 Y101.796 E6.02914
G1 X153.006 Y98.309 E6.12037
G1 X153.006 Y98.659 E6.12685
G1 X156.494 Y102.146 E6.21808
G1 X156.494 Y102.496 E6.22456
G1 X153.006 Y99.009 E6.31579
G1 X153.006 Y99.359 E6.32227
G1 X156.494 Y102.846 E6.41350
G1 X156.494 Y103.196 E6.41998
G1 X153.006 Y99.709 E6.51121
G1 X153.006 Y100.059 E6.51769
G1 X156.494 Y103.546 E6.60892
G1 X156.494 Y103.896 E6.61540
G1 X153.006 Y100.409 E6.70663
G1 X153.006 Y100.759 E6.71311
G1 X156.494 Y104.246 E6.80434
G1 X156.494 Y104.596 E6.81082
G1 X153.006 Y101.109 E6.90205
G1 X153.006 Y101.459 E6.90853
G1 X156.494 Y104.946 E6.99977
G1 X156.494 Y105.296 E7.00624
G1 X153.006 Y101.809 E7.09748
G1 X153.006 Y102.159 E7.10395
G1 X156.494 Y105.646 E7.19519
G1 X156.494 Y105.996 E7.20166
G1 X153.006 Y102.509 E7.29290
G1 X153.006 Y102.859 E7.29937
G1 X156.494 Y106.346 E7.39061
G1 X156.494 Y106.696 E7.39708
G1 X153.006 Y103.209 E7.48832
G1 X153.006 Y103.559 E7.49479
G1 X156.494 Y107.046 E7.58603
G1 X156.494 Y107.396 E7.59250
G1 X153.006 Y103.909 E7.68374
G1 X153.006 Y104.259 E7.69021
G1 X156.494 Y107.746 E7.78145
G1 X156.494 Y108.096 E7.78792
G1 X153.006 Y104.609 E7.87916
G1 X153.006 Y104.959 E7.88563
G1 X156.494 Y108.446 E7.97687
G1 X156.494 Y108.796 E7.98334
G1 X153.006 Y105.309 E8.07458
G1 X153.006 Y105.659 E8.08105
G1 X156.494 Y109.146 E8.17229
G1 X156.494 Y109.496 E8.17876
G1 X153.006 Y106.009 E8.27000
G1 X153.006 Y106.359 E8.27647
G1 X156.494 Y109.846 E8.36771
G1 X156.494 Y110.196 E8.37418
G1 X153.006 Y106.708 E8.46542
G1 X153.006 Y107.058 E8.47189
G1 X156.494 Y110.546 E8.56313
G1 X156.494 Y110.896 E8.56960
G1 X153.006 Y107.408 E8.66084
G1 X153.006 Y107.758 E8.66731
G1 X156.494 Y111.246 E8.75855
G1 X156.494 Y111.596 E8.76502
G1 X153.006 Y108.108 E8.85626
G1 X153.006 Y108.458 E8.86273
G1 X156.494 Y111.946 E8.95397
G1 X156.494 Y112.296 E8.96044
G1 X153.006 Y108.808 E9.05168
G1 X153.006 Y109.158 E9.05816
G1 X156.494 Y112.646 E9.14939
G1 X156.494 Y112.996 E9.15587
G1 X153.006 Y109.508 E9.24710
G1 X153.006 Y109.858 E9.25358
G1 X156.494 Y113.346 E9.34481
G1 X156.494 Y113.696 E9.35129
G1 X153.006 Y110.208 E9.44252
G1 X153.006 Y110.558 E9.44900
G1 X156.494 Y114.046 E9.54023
G1 X156.494 Y114.395 E9.54671
G1 X153.006 Y110.908 E9.63794
G1 X153.006 Y111.258 E9.64442
G1 X156.494 Y114.745 E9.73565
G1 X156.494 Y115.095 E9.74213
G1 X153.006 Y111.608 E9.83336
G1 X153.006 Y111.958 E9.83984
G1 X156.494 Y115.445 E9.93107
G1 X156.494 Y115.795 E9.93755
G1 X153.006 Y112.308 E10.02878
G1 X153.006 Y112.658 E10.03526
G1 X156.494 Y116.145 E10.12649
G1 X156.494 Y116.495 E10.13297
G1 X153.006 Y113.008 E10.22420
G1 X153.006 Y113.358 E10.23068
G1 X156.494 Y116.845 E10.32191
G1 X156.494 Y117.195 E10.32839
G1 X153.006 Y113.708 E10.41962
G1 X153.006 Y114.058 E10.42610
G1 X156.494 Y117.545 E10.51733
G1 X156.494 Y117.895 E10.52381
G1 X153.006 Y114.408 E10.61504
G1 X153.006 Y114.758 E10.62152
G1 X156.494 Y118.245 E10.71275
G1 X156.494 Y118.595 E10.71923
G1 X153.006 Y115.108 E10.81046
G1 X153.006 Y115.458 E10.81694
G1 X156.494 Y118.945 E10.90817
G1 X156.494 Y119.295 E10.91465
G1 X153.006 Y115.808 E11.00589
G1 X153.006 Y116.158 E11.01236
G1 X156.494 Y119.645 E11.10360
G1 X156.494 Y119.995 E11.11007
G1 X153.006 Y116.508 E11.20131
G1 X153.006 Y116.858 E11.20778
G1 X156.494 Y120.345 E11.29902
G1 X156.494 Y120.695 E11.30549
G1 X153.006 Y117.208 E11.39673
G1 X153.006 Y117.558 E11.40320
G1 X156.494 Y121.045 E11.49444
G1 X156.494 Y121.395 E11.50091
G1 X153.006 Y117.908 E11.59215
G1 X153.006 Y118.258 E11.59862
G1 X156.494 Y121.745 E11.68986
G1 X156.494 Y122.095 E11.69633
G1 X153.006 Y118.608 E11.78757
G1 X153.006 Y118.958 E11.79404
G1 X156.494 Y122.445 E11.88528
G1 X156.494 Y122.795 E11.89175
G1 X153.006 Y119.308 E11.98299
G1 X153.006 Y119.658 E11.98946
G1 X156.494 Y123.145 E12.08070
G1 X156.494 Y123.495 E12.08717
G1 X153.006 Y120.008 E12.17841
G1 X153.006 Y120.358 E12.18488
G1 X156.494 Y123.845 E12.27612
G1 X156.494 Y124.195 E12.28259
G1 X153.006 Y120.708 E12.37383
G1 X153.006 Y121.058 E12.38030
G1 X156.494 Y124.545 E12.47154
G1 X156.494 Y124.895 E12.47801
G1 X153.006 Y121.408 E12.56925
G1 X153.006 Y121.758 E12.57572
G1 X156.494 Y125.245 E12.66696
G1 X156.494 Y125.595 E12.67343
G1 X153.006 Y122.108 E12.76467
G1 X153.006 Y122.458 E12.77114
G1 X156.494 Y125.945 E12.86238
G1 X156.494 Y126.295 E12.86885
G1 X153.006 Y122.808 E12.96009
G1 X153.006 Y123.158 E12.96656
G1 X156.494 Y126.645 E13.05780
G1 X156.494 Y126.995 E13.06427
G1 X153.006 Y123.508 E13.15551
G1 X153.006 Y123.858 E13.16198
G1 X156.494 Y127.345 E13.25322
G1 X156.494 Y127.695 E13.25970
G1 X153.006 Y124.208 E13.35093
G1 X153.006 Y124.558 E13.35741
G1 X156.494 Y128.045 E13.44864
G1 X156.494 Y128.395 E13.45512
G1 X153.006 Y124.908 E13.54635
G1 X153.006 Y125.258 E13.55283
G1 X156.242 Y128.494 E13.63748
G1 X155.892 Y128.494 E13.64396
G1 X153.006 Y125.608 E13.71946
G1 X153.006 Y125.958 E13.72594
G1 X155.542 Y128.494 E13.79228
G1 X155.192 Y128.494 E13.79876
G1 X153.006 Y126.308 E13.85594
G1 X152.855 Y126.506 E13.86056
G1 X154.842 Y128.494 E13.91255
G1 X154.492 Y128.494 E13.91903
G1 X152.505 Y126.506 E13.97102
G1 X152.155 Y126.506 E13.97749
G1 X154.142 Y128.494 E14.02949
G1 X153.792 Y128.494 E14.03596
G1 X151.805 Y126.506 E14.08795
G1 X151.455 Y126.506 E14.09443
G1 X153.442 Y128.494 E14.14642
G1 X153.092 Y128.494 E14.15289
G1 X151.105 Y126.506 E14.20488
G1 X150.755 Y126.506 E14.21136
G1 X152.742 Y128.494 E14.26335
G1 X152.392 Y128.494 E14.26982
G1 X150.405 Y126.506 E14.32181
G1 X150.055 Y126.506 E14.32829
G1 X152.042 Y128.494 E14.38028
G1 X151.692 Y128.494 E14.38675
G1 X149.705 Y126.506 E14.43874
G1 X149.355 Y126.506 E14.44522
G1 X151.342 Y128.494 E14.49721
G1 X150.992 Y128.494 E14.50368
G1 X149.005 Y126.506 E14.55567
G1 X148.655 Y126.506 E14.56215
G1 X150.642 Y128.494 E14.61414
G1 X150.292 Y128.494 E14.62061
G1 X148.305 Y126.506 E14.67260
G1 X147.955 Y126.506 E14.67908
G1 X149.942 Y128.494 E14.73107
G1 X149.592 Y128.494 E14.73754
G1 X147.605 Y126.506 E14.78954
G1 X147.255 Y126.506 E14.79601
G1 X149.242 Y128.494 E14.84800
G1 X148.892 Y128.494 E14.85448
G1 X146.905 Y126.506 E14.90647
G1 X146.555 Y126.506 E14.91294
G1 X148.542 Y128.494 E14.96493
G1 X148.193 Y128.494 E14.97141
G1 X146.205 Y126.506 E15.02340
G1 X145.855 Y126.506 E15.02987
G1 X147.843 Y128.494 E15.08186
G1 X147.493 Y128.494 E15.08834
G1 X145.505 Y126.506 E15.14033
G1 X145.155 Y126.506 E15.14680
G1 X147.143 Y128.494 E15.19879
G1 X146.793 Y128.494 E15.20527
G1 X144.805 Y126.506 E15.25726
G1 X144.455 Y126.506 E15.26373
G1 X146.443 Y128.494 E15.31572
G1 X146.093 Y128.494 E15.32220
G1 X144.105 Y126.506 E15.37419
G1 X143.755 Y126.506 E15.38066
G1 X145.743 Y128.494 E15.43265
G1 X145.393 Y128.494 E15.43913
G1 X143.405 Y126.506 E15.49112
G1 X143.055 Y126.506 E15.49759
G1 X145.043 Y128.494 E15.54959
G1 X144.693 Y128.494 E15.55606
G1 X142.705 Y126.506 E15.60805
G1 X142.355 Y126.506 E15.61453
G1 X144.343 Y128.494 E15.66652
G1 X143.993 Y128.494 E15.67299
G1 X142.006 Y126.506 E15.72498
G1 X141.656 Y126.506 E15.73146
G1 X143.643 Y128.494 E15.78345
G1 X143.293 Y128.494 E15.78992
G1 X141.306 Y126.506 E15.84191
G1 X140.956 Y126.506 E15.84839
G1 X142.943 Y128.494 E15.90038
G1 X142.593 Y128.494 E15.90685
G1 X140.606 Y126.506 E15.95884
G1 X140.256 Y126.506 E15.96532
G1 X142.243 Y128.494 E16.01731
G1 X141.893 Y128.494 E16.02378
G1 X139.906 Y126.506 E16.07577
G1 X139.556 Y126.506 E16.08225
G1 X141.543 Y128.494 E16.13424
G1 X141.193 Y128.494 E16.14071
G1 X139.206 Y126.506 E16.19270
G1 X138.856 Y126.506 E16.19918
G1 X140.843 Y128.494 E16.25117
G1 X140.493 Y128.494 E16.25764
G1 X138.506 Y126.506 E16.30964
G1 X138.156 Y126.506 E16.31611
G1 X140.143 Y128.494 E16.36810
G1 X139.793 Y128.494 E16.37458
G1 X137.806 Y126.506 E16.42657
G1 X137.456 Y126.506 E16.43304
G1 X139.443 Y128.494 E16.48503
G1 X139.093 Y128.494 E16.49151
G1 X137.106 Y126.506 E16.54350
G1 X136.756 Y126.506 E16.54997
G1 X138.743 Y128.494 E16.60196
G1 X138.393 Y128.494 E16.60844
G1 X136.406 Y126.506 E16.66043
G1 X136.056 Y126.506 E16.66690
G1 X138.043 Y128.494 E16.71889
G1 X137.693 Y128.494 E16.72537
G1 X135.706 Y126.506 E16.77736
G1 X135.356 Y126.506 E16.78383
G1 X137.343 Y128.494 E16.83582
G1 X136.993 Y128.494 E16.84230
G1 X135.006 Y126.506 E16.89429
G1 X134.656 Y126.506 E16.90076
G1 X136.643 Y128.494 E16.95275
G1 X136.293 Y128.494 E16.95923
G1 X134.306 Y126.506 E17.01122
G1 X133.956 Y126.506 E17.01769
G1 X135.943 Y128.494 E17.06969
G1 X135.593 Y128.494 E17.07616
G1 X133.606 Y126.506 E17.12815
G1 X133.256 Y126.506 E17.13463
G1 X135.243 Y128.494 E17.18662
G1 X134.893 Y128.494 E17.19309
G1 X132.906 Y126.506 E17.24508
G1 X132.556 Y126.506 E17.25156
G1 X134.543 Y128.494 E17.30355
G1 X134.193 Y128.494 E17.31002
G1 X132.206 Y126.506 E17.36201
G1 X131.856 Y126.506 E17.36849
G1 X133.843 Y128.494 E17.42048
G1 X133.493 Y128.494 E17.42695
G1 X131.506 Y126.506 E17.47894
G1 X131.156 Y126.506 E17.48542
G1 X133.143 Y128.494 E17.53741
G1 X132.793 Y128.494 E17.54388
G1 X130.806 Y126.506 E17.59587
G1 X130.456 Y126.506 E17.60235
G1 X132.443 Y128.494 E17.65434
G1 X132.093 Y128.494 E17.66081
G1 X130.106 Y126.506 E17.71280
G1 X129.756 Y126.506 E17.71928
G1 X131.743 Y128.494 E17.77127
G1 X131.393 Y128.494 E17.77774
G1 X129.406 Y126.506 E17.82974
G1 X129.056 Y126.506 E17.83621
G1 X131.043 Y128.494 E17.88820
G1 X130.693 Y128.494 E17.89468
G1 X128.706 Y126.506 E17.94667
G1 X128.356 Y126.506 E17.95314
G1 X130.343 Y128.494 E18.00513
G1 X129.993 Y128.494 E18.01161
G1 X128.006 Y126.506 E18.06360
G1 X127.656 Y126.506 E18.07007
G1 X129.643 Y128.494 E18.12206
G1 X129.293 Y128.494 E18.12854
G1 X127.306 Y126.506 E18.18053
G1 X126.956 Y126.506 E18.18700
G1 X128.943 Y128.494 E18.23899
G1 X128.593 Y128.494 E18.24547
G1 X126.606 Y126.506 E18.29746
G1 X126.256 Y126.506 E18.30393
G1 X128.243 Y128.494 E18.35592
G1 X127.893 Y128.494 E18.36240
G1 X125.906 Y126.506 E18.41439
G1 X125.556 Y126.506 E18.42086
G1 X127.543 Y128.494 E18.47285
G1 X127.193 Y128.494 E18.47933
G1 X125.206 Y126.506 E18.53132
G1 X124.856 Y126.506 E18.53779
G1 X126.843 Y128.494 E18.58979
G1 X126.493 Y128.494 E18.59626
G1 X124.506 Y126.506 E18.64825
G1 X124.156 Y126.506 E18.65473
G1 X126.143 Y128.494 E18.70672
G1 X125.793 Y128.494 E18.71319
G1 X123.806 Y126.506 E18.76518
G1 X123.456 Y126.506 E18.77166
G1 X125.443 Y128.494 E18.82365
G1 X125.093 Y128.494 E18.83012
G1 X123.106 Y126.506 E18.88211
G1 X122.756 Y126.506 E18.88859
G1 X124.743 Y128.494 E18.94058
G1 X124.393 Y128.494 E18.94705
G1 X122.406 Y126.506 E18.99904
G1 X122.056 Y126.506 E19.00552
G1 X124.043 Y128.494 E19.05751
G1 X123.693 Y128.494 E19.06398
G1 X121.706 Y126.506 E19.11597
G1 X121.356 Y126.506 E19.12245
G1 X123.343 Y128.494 E19.17444
G1 X122.993 Y128.494 E19.18091
G1 X121.006 Y126.506 E19.23290
G1 X120.656 Y126.506 E19.23938
G1 X122.643 Y128.494 E19.29137
G1 X122.293 Y128.494 E19.29784
G1 X120.306 Y126.506 E19.34983
G1 X119.956 Y126.506 E19.35631
G1 X121.943 Y128.494 E19.40830
G1 X121.594 Y128.494 E19.41478
G1 X119.606 Y126.506 E19.46677
