; generated by Slic3r 1.1.7 on 2015-01-28 at 13:06:34

; perimeters extrusion width = 0.40mm
; infill extrusion width = 0.44mm
; solid infill extrusion width = 0.44mm
; top infill extrusion width = 0.44mm

G21 ; set units to millimeters
M190 S110 ; wait for bed temperature to be reached
M104 S220 ; set temperature
G28 ; home all axes Start of G Code Slic3r
 
M109 S220 ; wait for temperature to be reached
G90 ; use absolute coordinates
G92 E0
M82 ; use absolute distances for extrusion
M106 S127
G1 F1860.000 E-3.00000
G92 E0
G1 Z0.294 F7800.000
G1 X82.437 Y82.246 F7800.000
G1 E3.10000 F1860.000
G1 X83.746 Y80.937 E3.21529 F1800.000
G1 X87.681 Y77.917 E3.52404
G1 X89.285 Y76.991 E3.63933
G1 X93.868 Y75.093 E3.94808
G1 X95.656 Y74.614 E4.06337
G1 X100.574 Y73.966 E4.37212
G1 X102.426 Y73.966 E4.48741
G1 X107.344 Y74.614 E4.79616
G1 X109.132 Y75.093 E4.91145 F1800.000
G1 X113.715 Y76.991 E5.22020
G1 X115.319 Y77.917 E5.33549
G1 X119.254 Y80.937 E5.64424
G1 X120.563 Y82.246 E5.75953
G1 X123.583 Y86.181 E6.06828
G1 X124.509 Y87.785 E6.18357
G1 X125.942 Y91.246 E6.41676
G1 X126.407 Y92.368 E6.49232
G1 X126.886 Y94.156 E6.60761
G1 X127.534 Y99.074 E6.91636
G1 X127.534 Y100.926 E7.03165
G1 X126.886 Y105.844 E7.34040
G1 X126.407 Y107.632 E7.45569
G1 X124.509 Y112.215 E7.76445
G1 X123.583 Y113.819 E7.87973
G1 X120.563 Y117.754 E8.18849
G1 X119.254 Y119.063 E8.30377
G1 X115.319 Y122.083 E8.61253
G1 X113.715 Y123.009 E8.72781
G1 X109.132 Y124.907 E9.03657
G1 X107.344 Y125.386 E9.15185
G1 X102.426 Y126.034 E9.46061
G1 X100.574 Y126.034 E9.57589
G1 X95.656 Y125.386 E9.88465
G1 X93.868 Y124.907 E9.99993
G1 X89.285 Y123.009 E10.30869
G1 X87.681 Y122.083 E10.42397
G1 X83.746 Y119.063 E10.73273
G1 X82.437 Y117.754 E10.84801
G1 X80.156 Y114.782 E11.08120
G1 X78.919 Y113.077 E11.21237
G1 X73.373 Y103.577 E11.89711
G1 X72.536 Y101.355 E12.04489
G1 X72.479 Y98.982 E12.19266
G1 X73.373 Y96.423 E12.36135
G1 X79.417 Y86.181 E13.10166
G1 X82.400 Y82.294 E13.40668
G1 X82.871 Y82.579 F7800.000
G1 X84.079 Y81.371 E13.51307 F1800.000
G1 X88.014 Y78.351 E13.82183
G1 X89.494 Y77.497 E13.92822
G1 X94.077 Y75.599 E14.23698
G1 X95.728 Y75.156 E14.34337
G1 X100.645 Y74.509 E14.65213
G1 X102.355 Y74.509 E14.75852
G1 X107.272 Y75.156 E15.06727
G1 X108.923 Y75.599 E15.17367 F1800.000
G1 X113.506 Y77.497 E15.48242
G1 X114.986 Y78.351 E15.58882
G1 X118.921 Y81.371 E15.89757
G1 X120.129 Y82.579 E16.00396
G1 X123.149 Y86.514 E16.31272
G1 X124.003 Y87.994 E16.41911
G1 X125.437 Y91.455 E16.65230
G1 X125.901 Y92.577 E16.72787
G1 X126.344 Y94.228 E16.83426
G1 X126.991 Y99.145 E17.14302
G1 X126.991 Y100.855 E17.24941
G1 X126.344 Y105.772 E17.55817
G1 X125.901 Y107.423 E17.66456
G1 X124.003 Y112.006 E17.97331
G1 X123.149 Y113.486 E18.07971
G1 X120.129 Y117.421 E18.38846
G1 X118.921 Y118.629 E18.49486
G1 X114.986 Y121.649 E18.80361
G1 X113.506 Y122.503 E18.91000
G1 X108.923 Y124.401 E19.21876
G1 X107.272 Y124.844 E19.32515
G1 X102.355 Y125.491 E19.63391
G1 X100.645 Y125.491 E19.74030
G1 X95.728 Y124.844 E20.04906
G1 X94.077 Y124.401 E20.15545
G1 X89.494 Y122.503 E20.46421
G1 X88.014 Y121.649 E20.57060
G1 X84.079 Y118.629 E20.87935
G1 X82.871 Y117.421 E20.98575
G1 X80.590 Y114.449 E21.21894
G1 X79.391 Y112.801 E21.34581
G1 X73.846 Y103.301 E22.03056
G1 X73.057 Y101.162 E22.17248
G1 X73.049 Y98.882 E22.31439
G1 X73.846 Y96.699 E22.45902
G1 X79.851 Y86.514 E23.19504
G1 X82.834 Y82.627 E23.50006
G1 F1860.000 E20.50006
G92 E0
G1 X104.600 Y98.668 F7800.000
G1 E3.10000 F1860.000
G1 X104.698 Y99.184 E3.13267 F441.000
G1 X104.749 Y100.033 E3.18559
G1 X104.698 Y100.816 E3.23445
G1 X104.600 Y101.332 E3.26711
G1 F1860.000 E0.26711
G92 E0
G1 X79.915 Y100.000 F7800.000
G1 E3.10000 F1860.000
G1 X83.233 Y96.682 E3.39206 F441.000
G1 X83.434 Y95.159 E3.48770
G1 X85.302 Y90.648 E3.79164
G1 X88.274 Y86.774 E4.09559
G1 X92.148 Y83.802 E4.39953
G1 X96.659 Y81.934 E4.70347
G1 X101.500 Y81.296 E5.00741
G1 X106.341 Y81.934 E5.31135
G1 X110.852 Y83.802 E5.61529
G1 X114.726 Y86.774 E5.91923
G1 X117.698 Y90.648 E6.22317
G1 X119.566 Y95.159 E6.52711
G1 X120.204 Y100.000 E6.83106
G1 X119.566 Y104.841 E7.13500
G1 X117.698 Y109.352 E7.43894
G1 X114.726 Y113.226 E7.74288
G1 X110.852 Y116.198 E8.04682
G1 X106.341 Y118.066 E8.35076
G1 X101.500 Y118.704 E8.65470
G1 X96.659 Y118.066 E8.95864
G1 X92.148 Y116.198 E9.26258
G1 X88.274 Y113.226 E9.56653
G1 X85.302 Y109.352 E9.87047
G1 X83.434 Y104.841 E10.17441
G1 X83.233 Y103.318 E10.27005
G1 X79.958 Y100.042 E10.55838
G1 X80.302 Y99.896 F7800.000
G1 X80.689 Y100.000 F7800.000
G1 X83.751 Y96.938 E10.82794 F630.000
G1 X83.967 Y95.302 E10.93066
G1 X85.780 Y90.924 E11.22563
G1 X88.665 Y87.165 E11.52060
G1 X92.424 Y84.280 E11.81558
G1 X96.802 Y82.467 E12.11055
G1 X101.500 Y81.848 E12.40552
G1 X106.198 Y82.467 E12.70049
G1 X110.576 Y84.280 E12.99547
G1 X114.335 Y87.165 E13.29044
G1 X117.220 Y90.924 E13.58541
G1 X119.033 Y95.302 E13.88038
G1 X119.652 Y100.000 E14.17536
G1 X119.033 Y104.698 E14.47033
G1 X117.220 Y109.076 E14.76530
G1 X114.335 Y112.835 E15.06027
G1 X110.576 Y115.720 E15.35525
G1 X106.198 Y117.533 E15.65022
G1 X101.500 Y118.152 E15.94519
G1 X96.802 Y117.533 E16.24016
G1 X92.424 Y115.720 E16.53514
G1 X88.665 Y112.835 E16.83011
G1 X85.780 Y109.076 E17.12508
G1 X83.967 Y104.698 E17.42005
G1 X83.751 Y103.062 E17.52277
G1 X80.732 Y100.042 E17.78860
G1 F1860.000 E14.78860
G92 E0
G1 X102.206 Y104.611 F7800.000
G1 E3.10000 F1860.000
G1 X102.717 Y104.543 E3.13209 F441.000
G1 X103.852 Y104.074 E3.20853
G1 X104.261 Y103.760 E3.24062
G1 X110.337 Y109.836 E3.77549
G1 X108.148 Y111.515 E3.94721
G1 X104.941 Y112.843 E4.16328
G1 X102.206 Y113.203 E4.33500
G1 X102.206 Y104.671 E4.86614
G1 X102.171 Y104.212 F7800.000
G1 X104.409 Y101.577 F7800.000
G1 X103.831 Y102.331 E4.92529 F441.000
G1 X103.148 Y102.855 E4.97886
G1 X102.353 Y103.184 E5.03242
G1 X101.500 Y103.296 E5.08599
G1 X100.647 Y103.184 E5.13955
G1 X99.852 Y102.855 E5.19312
G1 X99.169 Y102.331 E5.24668
G1 X98.645 Y101.648 E5.30025
G1 X98.316 Y100.853 E5.35381
G1 X98.204 Y100.000 E5.40738
G1 X98.316 Y99.147 E5.46094
G1 X98.645 Y98.352 E5.51451
G1 X99.169 Y97.669 E5.56807
G1 X99.852 Y97.145 E5.62164
G1 X100.647 Y96.816 E5.67520
G1 X101.500 Y96.704 E5.72877
G1 X102.353 Y96.816 E5.78233
G1 X103.148 Y97.145 E5.83589
G1 X103.831 Y97.669 E5.88946
G1 X104.409 Y98.423 E5.94861
G1 X104.706 Y98.322 E5.96814
G1 X104.706 Y96.848 E6.05988
G1 X107.794 Y96.848 E6.25207
G1 X107.794 Y103.152 E6.64444
G1 X104.706 Y103.152 E6.83662
G1 X104.706 Y101.678 E6.92837
G1 X104.466 Y101.596 E6.94416
G1 X104.067 Y101.369 F7800.000
G1 F1860.000 E3.94416
G92 E0
G1 X104.261 Y96.240 F7800.000
G1 E3.10000 F1860.000
G1 X103.852 Y95.926 E3.13209 F441.000
G1 X102.717 Y95.457 E3.20853
G1 X102.206 Y95.389 E3.24062
G1 X102.206 Y86.797 E3.77549
G1 X104.941 Y87.157 E3.94721
G1 X108.148 Y88.485 E4.16328
G1 X110.337 Y90.164 E4.33500
G1 X104.303 Y96.198 E4.86614
G1 X104.124 Y95.864 F7800.000
G1 X100.794 Y95.389 F7800.000
G1 X100.283 Y95.457 E4.89823 F441.000
G1 X99.148 Y95.926 E4.97467
G1 X98.739 Y96.240 E5.00676
G1 X92.663 Y90.164 E5.54163
G1 X94.852 Y88.485 E5.71336
G1 X98.059 Y87.157 E5.92942
G1 X100.794 Y86.797 E6.10114
G1 X100.794 Y95.329 E6.63228
G1 X100.431 Y95.220 F7800.000
G1 X97.740 Y97.239 F7800.000
G1 X97.426 Y97.648 E6.66437 F441.000
G1 X96.957 Y98.783 E6.74081
G1 X96.889 Y99.294 E6.77290
G1 X88.297 Y99.294 E7.30778
G1 X88.657 Y96.559 E7.47950
G1 X89.985 Y93.352 E7.69556
G1 X91.664 Y91.163 E7.86729
G1 X97.698 Y97.197 E8.39842
G1 X97.364 Y97.376 F7800.000
G1 X96.889 Y100.706 F7800.000
G1 X96.957 Y101.217 E8.43052 F441.000
G1 X97.426 Y102.352 E8.50695
G1 X97.740 Y102.761 E8.53904
G1 X91.664 Y108.837 E9.07392
G1 X89.985 Y106.648 E9.24564
G1 X88.657 Y103.441 E9.46171
G1 X88.297 Y100.706 E9.63343
G1 X96.829 Y100.706 E10.16457
G1 X96.720 Y101.069 F7800.000
G1 X98.739 Y103.760 F7800.000
G1 X99.148 Y104.074 E10.19666 F441.000
G1 X100.283 Y104.543 E10.27309
G1 X100.794 Y104.611 E10.30519
G1 X100.794 Y113.203 E10.84006
G1 X98.059 Y112.843 E11.01178
G1 X94.852 Y111.515 E11.22785
G1 X92.663 Y109.836 E11.39957
G1 X98.697 Y103.802 E11.93071
G1 X98.876 Y104.136 F7800.000
G1 X104.974 Y103.699 F7800.000
G1 X111.165 Y109.890 E12.47573 F630.000
G1 X108.424 Y111.993 E12.69077
G1 X105.084 Y113.376 E12.91581
G1 X101.500 Y113.848 E13.14084
G1 X97.916 Y113.376 E13.36588
G1 X94.576 Y111.993 E13.59092
G1 X91.708 Y109.792 E13.81595
G1 X89.507 Y106.924 E14.04099
G1 X88.124 Y103.584 E14.26602
G1 X87.652 Y100.000 E14.49106
G1 X88.124 Y96.416 E14.71609
G1 X89.507 Y93.076 E14.94113
G1 X91.708 Y90.208 E15.16617
G1 X94.576 Y88.007 E15.39120
G1 X97.916 Y86.624 E15.61624
G1 X101.500 Y86.152 E15.84128
G1 X105.084 Y86.624 E16.06631
G1 X108.424 Y88.007 E16.29135
G1 X111.165 Y90.110 E16.50639
G1 X104.974 Y96.301 E17.05141
G1 X108.341 Y96.301 E17.26101
G1 X108.341 Y103.699 E17.72150
G1 X105.034 Y103.699 E17.92737
G1 F1860.000 E14.92737
G92 E0
G1 X105.969 Y95.839 F7800.000
G1 E3.10000 F1860.000
G1 X106.054 Y95.925 E3.10753 F1500.000
G1 X106.839 Y95.925 E3.15637
G1 X106.361 Y95.447 E3.19844
G1 X106.753 Y95.054 E3.23297
G1 X107.623 Y95.925 E3.30957
G1 X108.408 Y95.925 E3.35840
G1 X107.146 Y94.662 E3.46953
G1 X107.538 Y94.270 E3.50406
G1 X118.432 Y105.165 E4.46316
G1 X118.203 Y105.719 E4.50053
G1 X108.718 Y96.234 E5.33553
G1 X108.718 Y97.019 E5.38437
G1 X117.973 Y106.274 E6.19914
G1 X117.743 Y106.829 E6.23652
G1 X108.718 Y97.803 E7.03107
G1 X108.718 Y98.588 E7.07990
G1 X117.513 Y107.384 E7.85422
G1 X117.283 Y107.938 E7.89160
G1 X108.718 Y99.372 E8.64568
G1 X108.718 Y100.157 E8.69452
G1 X117.054 Y108.493 E9.42838
G1 X116.792 Y109.015 E9.46476
G1 X108.718 Y100.941 E10.17555
G1 X108.718 Y101.726 E10.22438
G1 X116.451 Y109.459 E10.90518
G1 X116.110 Y109.903 E10.94001
G1 X108.718 Y102.510 E11.59083
G1 X108.718 Y103.295 E11.63966
G1 X115.770 Y110.347 E12.26049
G1 X115.429 Y110.791 E12.29532
G1 X108.714 Y104.075 E12.88652
G1 X107.929 Y104.075 E12.93535
G1 X115.089 Y111.235 E13.56563
G1 X114.748 Y111.679 E13.60046
G1 X107.145 Y104.075 E14.26981
G1 X106.360 Y104.075 E14.31865
G1 X114.407 Y112.123 E15.02708
G1 X111.561 Y110.061 F7800.000
G1 X114.052 Y112.552 E15.24642 F1500.000
G1 X113.623 Y112.907 E15.28111
G1 X111.117 Y110.401 E15.50171
G1 X110.673 Y110.742 E15.53654
G1 X113.179 Y113.248 E15.75714
G1 X112.735 Y113.589 E15.79197
G1 X110.229 Y111.083 E16.01257
G1 X109.785 Y111.423 E16.04740
G1 X112.291 Y113.929 E16.26800
G1 X111.847 Y114.270 E16.30283
G1 X109.341 Y111.764 E16.52344
G1 X108.897 Y112.104 E16.55827
G1 X111.403 Y114.610 E16.77887
G1 X110.959 Y114.951 E16.81370
G1 X108.413 Y112.405 E17.03783
G1 X107.859 Y112.635 E17.07521
G1 X110.515 Y115.292 E17.30909
G1 X109.993 Y115.554 E17.34548
G1 X107.304 Y112.865 E17.58221
G1 X106.749 Y113.094 E17.61959
G1 X109.438 Y115.783 E17.85632
G1 X108.884 Y116.013 E17.89370
G1 X106.194 Y113.324 E18.13044
G1 X105.640 Y113.554 E18.16781
G1 X108.329 Y116.243 E18.40455
G1 X107.774 Y116.473 E18.44192
G1 X105.061 Y113.759 E18.68080
G1 X104.367 Y113.851 E18.72433
G1 X107.219 Y116.703 E18.97540
G1 X106.665 Y116.932 E19.01278
G1 X103.674 Y113.942 E19.27605
G1 X102.981 Y114.033 E19.31958
G1 X106.110 Y117.162 E19.59504
G1 X105.419 Y117.256 E19.63843
G1 X102.287 Y114.124 E19.91411
G1 X101.594 Y114.216 E19.95764
G1 X104.726 Y117.347 E20.23332
G1 X104.033 Y117.439 E20.27685
G1 X100.719 Y114.125 E20.56852
G1 X99.816 Y114.006 E20.62525
G1 X103.339 Y117.530 E20.93543
G1 X102.646 Y117.621 E20.97895
G1 X98.912 Y113.887 E21.30764
G1 X98.009 Y113.768 E21.36436
G1 X101.953 Y117.712 E21.71155
G1 X101.187 Y117.731 E21.75926
G1 X96.762 Y113.306 E22.14877
G1 X95.423 Y112.751 F7800.000
G1 X100.283 Y117.612 E22.57665 F1500.000
G1 X99.380 Y117.493 E22.63338
G1 X93.624 Y111.738 E23.14003
G1 X92.428 Y115.248 F7800.000
G1 X86.252 Y109.072 E23.68370 F1500.000
G1 X85.585 Y107.621 F7800.000
G1 X93.879 Y115.915 E24.41387 F1500.000
G1 X95.219 Y116.470 F7800.000
G1 X85.030 Y106.281 E25.31079 F1500.000
G1 X84.126 Y103.024 F7800.000
G1 X98.476 Y117.374 E26.57407 F1500.000
G1 X97.573 Y117.255 E26.63080
G1 X84.245 Y103.927 E27.80408
G1 X84.475 Y104.942 E27.86886
G1 X96.558 Y117.025 E28.93251
G1 X89.056 Y112.661 F7800.000
G1 X88.839 Y112.444 E28.95159 F1500.000
G1 X89.762 Y107.876 F7800.000
G1 X81.554 Y99.668 E29.67417 F1500.000
G1 X81.947 Y99.275 E29.70870
G1 X88.749 Y106.077 E30.30751
G1 X88.194 Y104.738 F7800.000
G1 X82.339 Y98.883 E30.82294 F1500.000
G1 X82.731 Y98.491 E30.85748
G1 X87.732 Y103.491 E31.29767
G1 X87.613 Y102.588 E31.35440
G1 X83.123 Y98.098 E31.74959
G1 X83.516 Y97.706 E31.78412
G1 X87.494 Y101.684 E32.13432
G1 X87.375 Y100.781 E32.19104
G1 X83.908 Y97.314 E32.49623
G1 X84.153 Y96.774 E32.53312
G1 X87.284 Y99.906 E32.80881
G1 X87.376 Y99.213 E32.85233
G1 X84.244 Y96.081 E33.12802
G1 X84.338 Y95.390 E33.17141
G1 X87.467 Y98.519 E33.44687
G1 X87.558 Y97.826 E33.49040
G1 X84.568 Y94.835 E33.75366
G1 X84.797 Y94.281 E33.79104
G1 X87.649 Y97.133 E34.04211
G1 X87.741 Y96.439 E34.08564
G1 X85.027 Y93.726 E34.32452
G1 X85.257 Y93.171 E34.36190
G1 X87.946 Y95.860 E34.59863
G1 X88.176 Y95.306 E34.63601
G1 X85.487 Y92.616 E34.87274
G1 X85.717 Y92.062 E34.91012
G1 X88.406 Y94.751 E35.14685
G1 X88.635 Y94.196 E35.18423
G1 X85.946 Y91.507 E35.42097
G1 X86.208 Y90.985 E35.45735
G1 X88.865 Y93.641 E35.69124
G1 X89.095 Y93.087 E35.72861
G1 X86.549 Y90.541 E35.95275
G1 X86.890 Y90.097 E35.98758
G1 X89.396 Y92.603 E36.20818
G1 X89.736 Y92.159 E36.24301
G1 X87.230 Y89.653 E36.46361
G1 X87.571 Y89.209 E36.49844
G1 X90.077 Y91.715 E36.71904
G1 X90.417 Y91.271 E36.75387
G1 X87.911 Y88.765 E36.97447
G1 X88.252 Y88.321 E37.00930
G1 X90.758 Y90.827 E37.22990
G1 X91.099 Y90.383 E37.26473
G1 X88.593 Y87.877 E37.48533
G1 X88.948 Y87.448 E37.52002
G1 X91.439 Y89.939 E37.73937
G1 X91.883 Y89.599 E37.77420
G1 X89.377 Y87.093 E37.99480
G1 X89.821 Y86.752 E38.02963
G1 X92.327 Y89.258 E38.25023
G1 X92.771 Y88.917 E38.28506
G1 X90.265 Y86.411 E38.50566
G1 X90.709 Y86.071 E38.54049
G1 X93.215 Y88.577 E38.76109
G1 X93.659 Y88.236 E38.79592
G1 X91.153 Y85.730 E39.01652
G1 X91.597 Y85.390 E39.05135
G1 X94.103 Y87.896 E39.27195
G1 X94.587 Y87.595 E39.30742
G1 X92.041 Y85.049 E39.53155
G1 X92.485 Y84.708 E39.56638
G1 X95.141 Y87.365 E39.80027
G1 X95.696 Y87.135 E39.83765
G1 X93.007 Y84.446 E40.07438
G1 X93.562 Y84.217 E40.11176
G1 X96.251 Y86.906 E40.34849
G1 X96.806 Y86.676 E40.38587
G1 X94.116 Y83.987 E40.62260
G1 X94.671 Y83.757 E40.65998
G1 X97.360 Y86.446 E40.89671
G1 X97.939 Y86.241 E40.93496
G1 X95.226 Y83.527 E41.17384
G1 X95.781 Y83.297 E41.21122
G1 X98.633 Y86.149 E41.46229
G1 X99.326 Y86.058 E41.50582
G1 X96.335 Y83.068 E41.76909
G1 X96.890 Y82.838 E41.80646
G1 X100.019 Y85.967 E42.08193
G1 X100.713 Y85.876 E42.12545
G1 X97.581 Y82.744 E42.40114
G1 X98.274 Y82.653 E42.44466
G1 X101.406 Y85.784 E42.72035
G1 X102.281 Y85.875 E42.77510
G1 X98.967 Y82.561 E43.06677
G1 X99.661 Y82.470 E43.11030
G1 X103.184 Y85.994 E43.42047
G1 X104.088 Y86.113 E43.47720
G1 X100.354 Y82.379 E43.80588
G1 X101.047 Y82.288 E43.84941
G1 X104.991 Y86.232 E44.19660
G1 X106.238 Y86.694 F7800.000
G1 X101.813 Y82.269 E44.58611 F1500.000
G1 X102.717 Y82.388 E44.64284
G1 X107.577 Y87.249 E45.07071
G1 X109.376 Y88.262 F7800.000
G1 X103.620 Y82.507 E45.57737 F1500.000
G1 X104.524 Y82.626 E45.63409
G1 X118.874 Y96.976 E46.89738
G1 X118.993 Y97.880 E46.95410
G1 X111.460 Y90.347 E47.61720
G1 X114.161 Y87.556 F7800.000
G1 X113.944 Y87.339 E47.63628 F1500.000
G1 X110.572 Y84.752 F7800.000
G1 X116.748 Y90.928 E48.17995 F1500.000
G1 X117.415 Y92.379 F7800.000
G1 X109.121 Y84.085 E48.91013 F1500.000
G1 X107.781 Y83.530 F7800.000
G1 X117.970 Y93.719 E49.80704 F1500.000
G1 X118.525 Y95.058 F7800.000
G1 X106.442 Y82.975 E50.87070 F1500.000
G1 X105.427 Y82.745 E50.93548
G1 X118.755 Y96.073 E52.10876
G1 X119.112 Y98.783 F7800.000
G1 X111.068 Y90.740 E52.81686 F1500.000
G1 X110.676 Y91.132 E52.85140
G1 X119.231 Y99.687 E53.60450
G1 X119.212 Y100.453 E53.65221
G1 X110.284 Y91.524 E54.43824
G1 X109.891 Y91.916 E54.47277
G1 X119.121 Y101.146 E55.28529
G1 X119.030 Y101.839 E55.32882
G1 X109.499 Y92.309 E56.16784
