; generated by Slic3r 1.1.7 on 2014-12-10 at 15:20:43

; perimeters extrusion width = 0.42mm
; infill extrusion width = 0.74mm
; solid infill extrusion width = 0.71mm
; top infill extrusion width = 0.71mm
; support material extrusion width = 0.42mm

G21 ; set units to millimeters
M190 S65 ; wait for bed temperature to be reached
M104 S186 ; set temperature
G28 ; home all axes
M109 S186 ; wait for temperature to be reached
G90 ; use absolute coordinates
G92 E0
M82 ; use absolute distances for extrusion
G1 F1860.000 E-1.00000
G92 E0
G1 Z0.200 F6000.000
G1 X82.631 Y82.638 F6000.000
G1 E1.10000 F1860.000
G1 X83.482 Y81.787 E1.12224 F1200.000
G1 X83.896 Y81.470 E1.13190
G1 X85.420 Y80.590 E1.16446
G1 X85.903 Y80.390 E1.17413
G1 X87.602 Y79.934 E1.20668
G1 X89.000 Y79.808 E1.23264
G1 X119.880 Y79.866 E1.80393
G1 X120.398 Y79.934 E1.81359 F1200.000
G1 X122.097 Y80.390 E1.84614
G1 X122.580 Y80.589 E1.85580
G1 X124.104 Y81.470 E1.88837
G1 X124.518 Y81.787 E1.89803
G1 X125.762 Y83.031 E1.93057
G1 X126.080 Y83.445 E1.94023
G1 X126.961 Y84.970 E1.97280
G1 X127.399 Y86.129 E1.99572
G1 X131.967 Y101.646 E2.29498
G1 X132.242 Y103.550 E2.33057
G1 X132.242 Y113.050 E2.50632
G1 X131.845 Y115.329 E2.54912
G1 X130.700 Y117.340 E2.59193
G1 X128.943 Y118.846 E2.63473
G1 X126.781 Y119.669 E2.67753
G1 X125.564 Y119.791 E2.70017
G1 X83.222 Y120.192 E3.48354
G1 X78.778 Y120.192 E3.56574
G1 X76.499 Y119.795 E3.60855
G1 X74.488 Y118.650 E3.65135
G1 X72.982 Y116.893 E3.69415
G1 X72.160 Y114.731 E3.73696
G1 X72.037 Y113.450 E3.76077
G1 X72.037 Y103.150 E3.95132
G1 X72.857 Y99.927 E4.01284
G1 X81.920 Y83.446 E4.36081
G1 X82.238 Y83.031 E4.37047
G1 X82.587 Y82.682 E4.37961
G1 X82.805 Y82.811 F6000.000
G1 X83.632 Y81.984 E4.40126 F1200.000
G1 X84.046 Y81.666 E4.41092
G1 X85.514 Y80.818 E4.44228
G1 X85.997 Y80.618 E4.45195
G1 X87.635 Y80.179 E4.48331
G1 X89.000 Y80.056 E4.50867
G1 X119.848 Y80.111 E5.07936
G1 X120.365 Y80.179 E5.08902 F1200.000
G1 X122.003 Y80.618 E5.12038
G1 X122.485 Y80.818 E5.13004
G1 X123.954 Y81.666 E5.16141
G1 X124.368 Y81.983 E5.17107
G1 X125.566 Y83.182 E5.20242
G1 X125.884 Y83.596 E5.21208
G1 X126.732 Y85.065 E5.24346
G1 X127.162 Y86.198 E5.26589
G1 X131.730 Y101.716 E5.56515
G1 X131.994 Y103.550 E5.59943
G1 X131.994 Y113.050 E5.77518
G1 X131.598 Y115.286 E5.81718
G1 X130.455 Y117.248 E5.85919
G1 X128.707 Y118.697 E5.90120
G1 X125.561 Y119.544 E5.96147
G1 X83.222 Y119.944 E6.74480
G1 X78.778 Y119.944 E6.82700
G1 X76.543 Y119.547 E6.86901
G1 X74.580 Y118.405 E6.91101
G1 X73.131 Y116.657 E6.95302
G1 X72.284 Y113.450 E7.01439
G1 X72.284 Y103.150 E7.20494
G1 X73.074 Y100.046 E7.26420
G1 X82.116 Y83.596 E7.61147
G1 X82.434 Y83.182 E7.62113
G1 X82.760 Y82.855 E7.62967
G1 X82.978 Y82.984 F6000.000
G1 X83.783 Y82.180 E7.65072 F1200.000
G1 X84.197 Y81.862 E7.66038
G1 X85.609 Y81.046 E7.69055
G1 X86.092 Y80.846 E7.70022
G1 X87.667 Y80.424 E7.73038
G1 X89.000 Y80.303 E7.75515
G1 X119.815 Y80.356 E8.32524
G1 X120.333 Y80.424 E8.33490 F1200.000
G1 X121.908 Y80.846 E8.36507
G1 X122.391 Y81.046 E8.37473
G1 X123.803 Y81.862 E8.40490
G1 X124.217 Y82.180 E8.41456
G1 X125.370 Y83.332 E8.44472
G1 X125.688 Y83.746 E8.45438
G1 X126.504 Y85.159 E8.48456
G1 X126.925 Y86.268 E8.50650
G1 X131.493 Y101.786 E8.80576
G1 X131.747 Y103.550 E8.83874
G1 X131.747 Y113.050 E9.01449
G1 X131.350 Y115.241 E9.05568
G1 X130.210 Y117.154 E9.09688
G1 X128.472 Y118.545 E9.13807
G1 X125.559 Y119.297 E9.19373
G1 X83.222 Y119.697 E9.97701
G1 X78.778 Y119.697 E10.05921
G1 X76.587 Y119.300 E10.10041
G1 X74.675 Y118.160 E10.14160
G1 X73.283 Y116.422 E10.18279
G1 X72.531 Y113.450 E10.23951
G1 X72.531 Y103.150 E10.43006
G1 X73.291 Y100.164 E10.48707
G1 X82.312 Y83.747 E10.83362
G1 X82.630 Y83.332 E10.84328
G1 X82.933 Y83.029 E10.85122
G1 F1860.000 E9.85122
G92 E0
G1 X117.847 Y111.897 F6000.000
G1 E1.10000 F1860.000
G1 X117.847 Y104.703 E1.23310 F1200.000
G1 X83.212 Y104.703 E1.87385
G1 X82.500 Y104.740 E1.88705
G1 X81.788 Y104.703 E1.90025
G1 X79.126 Y104.703 E1.94949
G1 X79.126 Y103.497 E1.97180
G1 X82.874 Y103.497 E2.04115
G1 X82.874 Y103.897 E2.04855
G1 X125.153 Y103.897 E2.83071
G1 X125.153 Y112.703 E2.99361
G1 X82.874 Y112.703 E3.77577
G1 X82.874 Y113.103 E3.78317
G1 X79.126 Y113.103 E3.85253
G1 X79.126 Y111.897 E3.87483
G1 X81.788 Y111.897 E3.92408
G1 X82.500 Y111.860 E3.93728
G1 X83.212 Y111.897 E3.95047
G1 X117.784 Y111.897 E4.59006
G1 X117.600 Y111.650 F6000.000
G1 X117.600 Y104.950 E4.71401 F1200.000
G1 X83.219 Y104.950 E5.35007
G1 X82.500 Y104.988 E5.36339
G1 X81.781 Y104.950 E5.37671
G1 X78.878 Y104.950 E5.43041
G1 X78.878 Y103.250 E5.46186
G1 X83.122 Y103.250 E5.54036
G1 X83.122 Y103.650 E5.54776
G1 X125.400 Y103.650 E6.32992
G1 X125.400 Y112.950 E6.50197
G1 X83.122 Y112.950 E7.28413
G1 X83.122 Y113.350 E7.29153
G1 X78.878 Y113.350 E7.37003
G1 X78.878 Y111.650 E7.40148
G1 X81.781 Y111.650 E7.45518
G1 X82.500 Y111.612 E7.46850
G1 X83.219 Y111.650 E7.48182
G1 X117.537 Y111.650 E8.11671
G1 X118.020 Y111.650 F6000.000
G1 F1860.000 E7.11671
G92 E0
G1 X118.006 Y104.847 F6000.000
G1 E1.10000 F1860.000
G1 X124.994 Y111.834 E1.28281 F1200.000
G1 X124.994 Y112.186 E1.28931
G1 X118.006 Y105.199 E1.47212
G1 X118.006 Y105.550 E1.47863
G1 X124.977 Y112.521 E1.66099
G1 X124.648 Y112.544 E1.66709
G1 X118.006 Y105.902 E1.84085
G1 X118.006 Y106.254 E1.84735
G1 X124.296 Y112.544 E2.01191
G1 X123.944 Y112.544 E2.01842
G1 X118.006 Y106.606 E2.17378
G1 X118.006 Y106.957 E2.18028
G1 X123.593 Y112.544 E2.32644
G1 X123.241 Y112.544 E2.33295
G1 X118.006 Y107.309 E2.46990
G1 X118.006 Y107.661 E2.47641
G1 X122.889 Y112.544 E2.60416
G1 X122.538 Y112.544 E2.61066
G1 X118.006 Y108.012 E2.72921
G1 X118.006 Y108.364 E2.73572
G1 X122.186 Y112.544 E2.84507
G1 X121.834 Y112.544 E2.85157
G1 X118.006 Y108.716 E2.95172
G1 X118.006 Y109.068 E2.95823
G1 X121.482 Y112.544 E3.04917
G1 X121.131 Y112.544 E3.05568
G1 X118.006 Y109.419 E3.13742
G1 X118.006 Y109.771 E3.14392
G1 X120.779 Y112.544 E3.21646
G1 X120.427 Y112.544 E3.22297
G1 X118.006 Y110.123 E3.28631
G1 X118.006 Y110.474 E3.29281
G1 X120.076 Y112.544 E3.34695
G1 X119.724 Y112.544 E3.35346
G1 X118.006 Y110.826 E3.39839
G1 X118.006 Y111.178 E3.40490
G1 X119.372 Y112.544 E3.44063
G1 X119.020 Y112.544 E3.44713
G1 X118.006 Y111.530 E3.47366
G1 X118.006 Y111.881 E3.48017
G1 X118.669 Y112.544 E3.49750
G1 X118.317 Y112.544 E3.50400
G1 X117.830 Y112.056 E3.51675
G1 X117.478 Y112.056 E3.52325
G1 X117.965 Y112.544 E3.53600
G1 X117.614 Y112.544 E3.54251
G1 X117.126 Y112.056 E3.55525
G1 X116.775 Y112.056 E3.56176
G1 X117.262 Y112.544 E3.57451
G1 X116.910 Y112.544 E3.58101
G1 X116.423 Y112.056 E3.59376
G1 X116.071 Y112.056 E3.60026
G1 X116.558 Y112.544 E3.61301
G1 X116.207 Y112.544 E3.61952
G1 X115.720 Y112.056 E3.63226
G1 X115.368 Y112.056 E3.63877
G1 X115.855 Y112.544 E3.65152
G1 X115.503 Y112.544 E3.65802
G1 X115.016 Y112.056 E3.67077
G1 X114.664 Y112.056 E3.67727
G1 X115.152 Y112.544 E3.69002
G1 X114.800 Y112.544 E3.69653
G1 X114.313 Y112.056 E3.70927
G1 X113.961 Y112.056 E3.71578
G1 X114.448 Y112.544 E3.72853
G1 X114.096 Y112.544 E3.73503
G1 X113.609 Y112.056 E3.74778
G1 X113.258 Y112.056 E3.75428
G1 X113.745 Y112.544 E3.76703
G1 X113.393 Y112.544 E3.77354
G1 X112.906 Y112.056 E3.78628
G1 X112.554 Y112.056 E3.79279
G1 X113.041 Y112.544 E3.80553
G1 X112.690 Y112.544 E3.81204
G1 X112.202 Y112.056 E3.82479
G1 X111.851 Y112.056 E3.83129
G1 X112.338 Y112.544 E3.84404
G1 X111.986 Y112.544 E3.85055
G1 X111.499 Y112.056 E3.86329
G1 X111.147 Y112.056 E3.86980
G1 X111.634 Y112.544 E3.88254
G1 X111.283 Y112.544 E3.88905
G1 X110.796 Y112.056 E3.90180
G1 X110.444 Y112.056 E3.90830
G1 X110.931 Y112.544 E3.92105
G1 X110.579 Y112.544 E3.92756
G1 X110.092 Y112.056 E3.94030
G1 X109.740 Y112.056 E3.94681
G1 X110.228 Y112.544 E3.95955
G1 X109.876 Y112.544 E3.96606
G1 X109.389 Y112.056 E3.97881
G1 X109.037 Y112.056 E3.98531
G1 X109.524 Y112.544 E3.99806
G1 X109.172 Y112.544 E4.00457
G1 X108.685 Y112.056 E4.01731
G1 X108.333 Y112.056 E4.02382
G1 X108.821 Y112.544 E4.03656
G1 X108.469 Y112.544 E4.04307
G1 X107.982 Y112.056 E4.05582
G1 X107.630 Y112.056 E4.06232
G1 X108.117 Y112.544 E4.07507
G1 X107.766 Y112.544 E4.08158
G1 X107.278 Y112.056 E4.09432
G1 X106.927 Y112.056 E4.10083
G1 X107.414 Y112.544 E4.11357
G1 X107.062 Y112.544 E4.12008
G1 X106.575 Y112.056 E4.13283
G1 X106.223 Y112.056 E4.13933
G1 X106.710 Y112.544 E4.15208
G1 X106.359 Y112.544 E4.15859
G1 X105.871 Y112.056 E4.17133
G1 X105.520 Y112.056 E4.17784
G1 X106.007 Y112.544 E4.19058
G1 X105.655 Y112.544 E4.19709
G1 X105.168 Y112.056 E4.20984
G1 X104.816 Y112.056 E4.21634
G1 X105.303 Y112.544 E4.22909
G1 X104.952 Y112.544 E4.23560
G1 X104.465 Y112.056 E4.24834
G1 X104.113 Y112.056 E4.25485
G1 X104.600 Y112.544 E4.26759
G1 X104.248 Y112.544 E4.27410
G1 X103.761 Y112.056 E4.28685
G1 X103.409 Y112.056 E4.29335
G1 X103.897 Y112.544 E4.30610
G1 X103.545 Y112.544 E4.31261
G1 X103.058 Y112.056 E4.32535
G1 X102.706 Y112.056 E4.33186
G1 X103.193 Y112.544 E4.34460
G1 X102.841 Y112.544 E4.35111
G1 X102.354 Y112.056 E4.36386
G1 X102.003 Y112.056 E4.37036
G1 X102.490 Y112.544 E4.38311
G1 X102.138 Y112.544 E4.38962
G1 X101.651 Y112.056 E4.40236
G1 X101.299 Y112.056 E4.40887
G1 X101.786 Y112.544 E4.42161
G1 X101.435 Y112.544 E4.42812
G1 X100.947 Y112.056 E4.44087
G1 X100.596 Y112.056 E4.44737
G1 X101.083 Y112.544 E4.46012
G1 X100.731 Y112.544 E4.46663
G1 X100.244 Y112.056 E4.47937
G1 X99.892 Y112.056 E4.48588
G1 X100.379 Y112.544 E4.49862
G1 X100.028 Y112.544 E4.50513
G1 X99.541 Y112.056 E4.51788
G1 X99.189 Y112.056 E4.52438
G1 X99.676 Y112.544 E4.53713
G1 X99.324 Y112.544 E4.54364
G1 X98.837 Y112.056 E4.55638
G1 X98.485 Y112.056 E4.56289
G1 X98.973 Y112.544 E4.57563
G1 X98.621 Y112.544 E4.58214
G1 X98.134 Y112.056 E4.59489
G1 X97.782 Y112.056 E4.60139
G1 X98.269 Y112.544 E4.61414
G1 X97.917 Y112.544 E4.62064
G1 X97.430 Y112.056 E4.63339
G1 X97.079 Y112.056 E4.63990
G1 X97.566 Y112.544 E4.65264
G1 X97.214 Y112.544 E4.65915
G1 X96.727 Y112.056 E4.67190
G1 X96.375 Y112.056 E4.67840
G1 X96.862 Y112.544 E4.69115
G1 X96.511 Y112.544 E4.69765
G1 X96.023 Y112.056 E4.71040
G1 X95.672 Y112.056 E4.71691
G1 X96.159 Y112.544 E4.72965
G1 X95.807 Y112.544 E4.73616
G1 X95.320 Y112.056 E4.74891
G1 X94.968 Y112.056 E4.75541
G1 X95.455 Y112.544 E4.76816
G1 X95.104 Y112.544 E4.77466
G1 X94.617 Y112.056 E4.78741
G1 X94.265 Y112.056 E4.79392
G1 X94.752 Y112.544 E4.80666
G1 X94.400 Y112.544 E4.81317
G1 X93.913 Y112.056 E4.82592
G1 X93.561 Y112.056 E4.83242
G1 X94.049 Y112.544 E4.84517
G1 X93.697 Y112.544 E4.85167
G1 X93.210 Y112.056 E4.86442
G1 X92.858 Y112.056 E4.87093
G1 X93.345 Y112.544 E4.88367
G1 X92.993 Y112.544 E4.89018
G1 X92.506 Y112.056 E4.90293
G1 X92.155 Y112.056 E4.90943
G1 X92.642 Y112.544 E4.92218
G1 X92.290 Y112.544 E4.92868
G1 X91.803 Y112.056 E4.94143
G1 X91.451 Y112.056 E4.94794
G1 X91.938 Y112.544 E4.96068
G1 X91.587 Y112.544 E4.96719
G1 X91.099 Y112.056 E4.97994
G1 X90.748 Y112.056 E4.98644
G1 X91.235 Y112.544 E4.99919
G1 X90.883 Y112.544 E5.00569
G1 X90.396 Y112.056 E5.01844
G1 X90.044 Y112.056 E5.02495
G1 X90.531 Y112.544 E5.03769
G1 X90.180 Y112.544 E5.04420
G1 X89.693 Y112.056 E5.05695
G1 X89.341 Y112.056 E5.06345
G1 X89.828 Y112.544 E5.07620
G1 X89.476 Y112.544 E5.08270
G1 X88.989 Y112.056 E5.09545
G1 X88.637 Y112.056 E5.10196
G1 X89.125 Y112.544 E5.11470
G1 X88.773 Y112.544 E5.12121
G1 X88.286 Y112.056 E5.13396
G1 X87.934 Y112.056 E5.14046
G1 X88.421 Y112.544 E5.15321
G1 X88.069 Y112.544 E5.15971
G1 X87.582 Y112.056 E5.17246
G1 X87.231 Y112.056 E5.17897
G1 X87.718 Y112.544 E5.19171
G1 X87.366 Y112.544 E5.19822
G1 X86.879 Y112.056 E5.21097
G1 X86.527 Y112.056 E5.21747
G1 X87.014 Y112.544 E5.23022
G1 X86.663 Y112.544 E5.23672
G1 X86.175 Y112.056 E5.24947
G1 X85.824 Y112.056 E5.25598
G1 X86.311 Y112.544 E5.26872
G1 X85.959 Y112.544 E5.27523
G1 X85.472 Y112.056 E5.28797
G1 X85.120 Y112.056 E5.29448
G1 X85.607 Y112.544 E5.30723
G1 X85.256 Y112.544 E5.31373
G1 X84.769 Y112.056 E5.32648
G1 X84.417 Y112.056 E5.33299
G1 X84.904 Y112.544 E5.34573
G1 X84.552 Y112.544 E5.35224
G1 X84.065 Y112.056 E5.36498
G1 X83.713 Y112.056 E5.37149
G1 X84.201 Y112.544 E5.38424
G1 X83.849 Y112.544 E5.39074
G1 X83.362 Y112.056 E5.40349
G1 X82.999 Y112.045 E5.41020
G1 X83.497 Y112.544 E5.42324
G1 X83.145 Y112.544 E5.42974
G1 X82.628 Y112.026 E5.44329
G1 X82.281 Y112.031 E5.44971
G1 X82.794 Y112.544 E5.46313
G1 X82.715 Y112.817 E5.46839
G1 X81.947 Y112.048 E5.48849
G1 X81.603 Y112.056 E5.49485
G1 X82.490 Y112.944 E5.51806
G1 X82.139 Y112.944 E5.52457
G1 X81.251 Y112.056 E5.54778
G1 X80.900 Y112.056 E5.55429
G1 X81.787 Y112.944 E5.57750
G1 X81.435 Y112.944 E5.58400
G1 X80.548 Y112.056 E5.60721
G1 X80.196 Y112.056 E5.61372
G1 X81.083 Y112.944 E5.63693
G1 X80.732 Y112.944 E5.64344
G1 X79.845 Y112.056 E5.66665
G1 X79.493 Y112.056 F6000.000
G1 X80.380 Y112.944 E5.68986 F1200.000
G1 X80.028 Y112.944 E5.69637
G1 X79.285 Y112.200 E5.71582
G1 X79.285 Y112.552 E5.72232
G1 X79.677 Y112.944 E5.73257
G1 X79.325 Y112.944 E5.73908
G1 X79.285 Y112.904 E5.74013
G1 F1860.000 E4.74013
G92 E0
G1 X79.366 Y104.544 F6000.000
G1 E1.10000 F1860.000
G1 X79.285 Y104.462 E1.10212 F1200.000
G1 X79.285 Y104.111 E1.10863
G1 X79.718 Y104.544 E1.11996
G1 X80.069 Y104.544 E1.12646
G1 X79.285 Y103.759 E1.14699
G1 X79.534 Y103.656 E1.15198
G1 X80.421 Y104.544 E1.17519
G1 X80.773 Y104.544 E1.18169
G1 X79.886 Y103.656 E1.20491
G1 X80.237 Y103.656 E1.21141
G1 X81.125 Y104.544 E1.23462
G1 X81.476 Y104.544 E1.24113
G1 X80.589 Y103.656 E1.26434
G1 X80.941 Y103.656 E1.27085
G1 X81.830 Y104.546 E1.29411
G1 X82.201 Y104.565 E1.30099
G1 X81.293 Y103.656 E1.32476
G1 X81.644 Y103.656 E1.33127
G1 X82.565 Y104.577 E1.35537
G1 X82.699 Y103.656 F6000.000
G1 X82.715 Y103.672 E1.35578 F1200.000
G1 X82.715 Y104.024 E1.36229
G1 X82.348 Y103.656 E1.37190
G1 X81.996 Y103.656 E1.37841
G1 X82.899 Y104.560 E1.40204
G1 X83.235 Y104.544 E1.40826
G1 X82.748 Y104.056 E1.42100
G1 X83.099 Y104.056 E1.42751
G1 X83.587 Y104.544 E1.44026
G1 X83.938 Y104.544 E1.44676
G1 X83.451 Y104.056 E1.45951
G1 X83.803 Y104.056 E1.46602
G1 X84.290 Y104.544 E1.47876
G1 X84.642 Y104.544 E1.48527
G1 X84.155 Y104.056 E1.49801
G1 X84.506 Y104.056 E1.50452
G1 X84.993 Y104.544 E1.51727
G1 X85.345 Y104.544 E1.52377
G1 X84.858 Y104.056 E1.53652
G1 X85.210 Y104.056 E1.54302
G1 X85.697 Y104.544 E1.55577
G1 X86.049 Y104.544 E1.56228
G1 X85.561 Y104.056 E1.57502
G1 X85.913 Y104.056 E1.58153
G1 X86.400 Y104.544 E1.59428
G1 X86.752 Y104.544 E1.60078
G1 X86.265 Y104.056 E1.61353
G1 X86.617 Y104.056 E1.62003
G1 X87.104 Y104.544 E1.63278
G1 X87.455 Y104.544 E1.63929
G1 X86.968 Y104.056 E1.65203
G1 X87.320 Y104.056 E1.65854
G1 X87.807 Y104.544 E1.67129
G1 X88.159 Y104.544 E1.67779
G1 X87.672 Y104.056 E1.69054
G1 X88.023 Y104.056 E1.69704
G1 X88.511 Y104.544 E1.70979
G1 X88.862 Y104.544 E1.71630
G1 X88.375 Y104.056 E1.72904
G1 X88.727 Y104.056 E1.73555
G1 X89.214 Y104.544 E1.74829
G1 X89.566 Y104.544 E1.75480
G1 X89.079 Y104.056 E1.76755
G1 X89.430 Y104.056 E1.77405
G1 X89.917 Y104.544 E1.78680
G1 X90.269 Y104.544 E1.79331
G1 X89.782 Y104.056 E1.80605
G1 X90.134 Y104.056 E1.81256
G1 X90.621 Y104.544 E1.82530
G1 X90.973 Y104.544 E1.83181
G1 X90.485 Y104.056 E1.84456
G1 X90.837 Y104.056 E1.85106
G1 X91.324 Y104.544 E1.86381
G1 X91.676 Y104.544 E1.87032
G1 X91.189 Y104.056 E1.88306
G1 X91.541 Y104.056 E1.88957
G1 X92.028 Y104.544 E1.90231
G1 X92.379 Y104.544 E1.90882
G1 X91.892 Y104.056 E1.92157
G1 X92.244 Y104.056 E1.92807
G1 X92.731 Y104.544 E1.94082
G1 X93.083 Y104.544 E1.94733
G1 X92.596 Y104.056 E1.96007
G1 X92.947 Y104.056 E1.96658
G1 X93.435 Y104.544 E1.97932
G1 X93.786 Y104.544 E1.98583
G1 X93.299 Y104.056 E1.99858
G1 X93.651 Y104.056 E2.00508
G1 X94.138 Y104.544 E2.01783
G1 X94.490 Y104.544 E2.02434
G1 X94.003 Y104.056 E2.03708
G1 X94.354 Y104.056 E2.04359
G1 X94.841 Y104.544 E2.05633
G1 X95.193 Y104.544 E2.06284
G1 X94.706 Y104.056 E2.07559
G1 X95.058 Y104.056 E2.08209
G1 X95.545 Y104.544 E2.09484
G1 X95.897 Y104.544 E2.10135
G1 X95.409 Y104.056 E2.11409
G1 X95.761 Y104.056 E2.12060
G1 X96.248 Y104.544 E2.13334
