; generated by Slic3r 1.1.7 on 2014-12-15 at 17:29:01

; perimeters extrusion width = 0.42mm
; infill extrusion width = 0.74mm
; solid infill extrusion width = 0.71mm
; top infill extrusion width = 0.71mm
; support material extrusion width = 0.42mm

G21 ; set units to millimeters
M190 S57 ; wait for bed temperature to be reached
M104 S186 ; set temperature
G28 ; home all axes Start of G Code Slic3r
 
M109 S186 ; wait for temperature to be reached
G90 ; use absolute coordinates
G92 E0
M82 ; use absolute distances for extrusion
G1 F1860.000 E-3.00000
G92 E0
G1 Z0.200 F6000.000
G1 X44.911 Y58.530 F6000.000
G1 E3.10000 F1860.000
G1 X48.335 Y55.903 E3.17983 F1200.000
G1 X49.803 Y55.055 E3.21119
G1 X57.038 Y52.058 E3.35608
G1 X58.676 Y51.620 E3.38744
G1 X61.911 Y51.194 E3.44781
G1 X63.406 Y51.053 E3.47559
G1 X63.641 Y51.057 E3.47993
G1 X126.405 Y53.375 E4.64188 F1200.000
G1 X128.340 Y53.682 E4.67811
G1 X129.350 Y53.923 E4.69733
G1 X154.888 Y62.305 E5.19459
G1 X156.651 Y63.203 E5.23120
G1 X158.295 Y64.397 E5.26878
G1 X159.694 Y65.797 E5.30539
G1 X160.888 Y67.440 E5.34297
G1 X161.786 Y69.203 E5.37957
G1 X162.414 Y71.135 E5.41716
G1 X162.708 Y72.991 E5.45193
G1 X162.803 Y74.105 E5.47260
G1 X162.723 Y100.983 E5.96986
G1 X162.414 Y102.937 E6.00646
G1 X161.786 Y104.869 E6.04404
G1 X160.888 Y106.632 E6.08065
G1 X159.694 Y108.276 E6.11824
G1 X158.295 Y109.675 E6.15484
G1 X157.204 Y110.553 E6.18074
G1 X112.002 Y139.486 E7.17363
G1 X109.946 Y140.348 E7.21487
G1 X108.254 Y140.734 E7.24698
G1 X105.986 Y140.845 E7.28899
G1 X104.455 Y140.455 E7.31822
G1 X57.038 Y122.014 E8.25944
G1 X49.803 Y119.017 E8.40433
G1 X48.335 Y118.169 E8.43569
G1 X42.121 Y113.402 E8.58058
G1 X40.923 Y112.203 E8.61194
G1 X38.539 Y109.096 E8.68439
G1 X37.493 Y107.081 E8.72639
G1 X37.197 Y105.143 E8.76267
G1 X37.197 Y68.930 E9.43262
G1 X37.594 Y66.694 E9.47462
G1 X38.539 Y64.976 E9.51090
G1 X40.923 Y61.869 E9.58334
G1 X42.121 Y60.671 E9.61471
G1 X44.861 Y58.568 E9.67860
G1 X45.062 Y58.726 F6000.000
G1 X48.485 Y56.099 E9.75843 F1200.000
G1 X49.897 Y55.284 E9.78860
G1 X57.133 Y52.287 E9.93348
G1 X58.708 Y51.865 E9.96365
G1 X61.943 Y51.439 E10.02402
G1 X63.406 Y51.300 E10.05120
G1 X63.632 Y51.304 E10.05538
G1 X126.366 Y53.620 E11.21677 F1200.000
G1 X128.301 Y53.926 E11.25301
G1 X129.273 Y54.158 E11.27151
G1 X154.776 Y62.525 E11.76805
G1 X156.539 Y63.423 E11.80466
G1 X158.120 Y64.572 E11.84081
G1 X159.519 Y65.971 E11.87742
G1 X160.668 Y67.552 E11.91357
G1 X161.566 Y69.315 E11.95017
G1 X162.170 Y71.174 E11.98633
G1 X162.464 Y73.030 E12.02110
G1 X162.556 Y74.105 E12.04106
G1 X162.479 Y100.945 E12.53760
G1 X162.170 Y102.899 E12.57420
G1 X161.566 Y104.757 E12.61035
G1 X160.668 Y106.520 E12.64696
G1 X159.519 Y108.101 E12.68312
G1 X158.120 Y109.500 E12.71972
G1 X157.070 Y110.344 E12.74463
G1 X111.868 Y139.278 E13.73752
G1 X109.891 Y140.107 E13.77719
G1 X108.199 Y140.493 E13.80930
G1 X105.974 Y140.594 E13.85049
G1 X104.544 Y140.225 E13.87782
G1 X57.133 Y121.786 E14.81894
G1 X49.897 Y118.789 E14.96383
G1 X48.485 Y117.973 E14.99400
G1 X42.272 Y113.206 E15.13888
G1 X41.119 Y112.052 E15.16906
G1 X38.735 Y108.946 E15.24150
G1 X37.716 Y106.966 E15.28269
G1 X37.444 Y105.143 E15.31680
G1 X37.444 Y68.930 E15.98675
G1 X37.841 Y66.739 E16.02794
G1 X38.735 Y65.126 E16.06205
G1 X41.119 Y62.020 E16.13449
G1 X42.272 Y60.867 E16.16466
G1 X45.012 Y58.764 E16.22855
G1 F1860.000 E13.22855
G92 E0
G1 X75.314 Y95.062 F6000.000
G1 E3.10000 F1860.000
G1 X72.963 Y96.866 E3.15482 F1200.000
G1 X70.226 Y98.000 E3.20963
G1 X67.288 Y98.386 E3.26445
G1 X64.350 Y98.000 E3.31926
G1 X61.613 Y96.866 E3.37408
G1 X59.262 Y95.062 E3.42890
G1 X57.459 Y92.711 E3.48371
G1 X56.325 Y89.974 E3.53853
G1 X55.938 Y87.036 E3.59335
G1 X56.325 Y84.098 E3.64816
G1 X57.459 Y81.361 E3.70298
G1 X59.262 Y79.010 E3.75779
G1 X61.613 Y77.207 E3.81261
G1 X64.351 Y76.073 E3.86743
G1 X67.288 Y75.686 E3.92224
G1 X70.140 Y76.061 E3.97545
G1 X70.226 Y76.073 E3.97706 F1200.000
G1 X72.963 Y77.207 E4.03187
G1 X75.314 Y79.010 E4.08669
G1 X77.118 Y81.361 E4.14151
G1 X78.252 Y84.098 E4.19632
G1 X78.638 Y87.036 E4.25114
G1 X78.252 Y89.974 E4.30595
G1 X77.118 Y92.711 E4.36077
G1 X75.352 Y95.012 E4.41442
G1 X75.138 Y94.886 F6000.000
G1 X72.839 Y96.650 E4.46803 F1200.000
G1 X70.161 Y97.759 E4.52165
G1 X67.288 Y98.137 E4.57526
G1 X64.469 Y97.766 E4.62787
G1 X64.415 Y97.759 E4.62887
G1 X61.738 Y96.650 E4.68248
G1 X59.439 Y94.886 E4.73609
G1 X57.675 Y92.587 E4.78970
G1 X56.566 Y89.909 E4.84332
G1 X56.187 Y87.036 E4.89693
G1 X56.566 Y84.163 E4.95054
G1 X57.675 Y81.486 E5.00415
G1 X59.439 Y79.187 E5.05776
G1 X61.738 Y77.423 E5.11138
G1 X64.415 Y76.314 E5.16499
G1 X67.234 Y75.942 E5.21760
G1 X67.288 Y75.935 E5.21860 F1200.000
G1 X70.161 Y76.314 E5.27221
G1 X72.839 Y77.422 E5.32582
G1 X75.138 Y79.187 E5.37944
G1 X76.902 Y81.486 E5.43305
G1 X78.011 Y84.163 E5.48666
G1 X78.389 Y87.036 E5.54027
G1 X78.011 Y89.909 E5.59388
G1 X76.902 Y92.587 E5.64750
G1 X75.176 Y94.836 E5.69994
G1 F1860.000 E2.69994
G92 E0
G1 X67.220 Y75.890 F6000.000
G1 X94.535 Y98.071 F6000.000
G1 E3.10000 F1860.000
G1 X78.395 Y98.071 E3.39861 F1200.000
G1 X75.113 Y100.589 E3.47513
G1 X71.187 Y102.216 E3.55375
G1 X63.220 Y116.150 E3.85071
G1 X59.614 Y115.676 E3.91799
G1 X52.463 Y112.714 E4.06119
G1 X46.323 Y108.002 E4.20438
G1 X44.108 Y105.115 E4.27169
G1 X52.178 Y91.137 E4.57029
G1 X51.638 Y87.036 E4.64682
G1 X52.178 Y82.935 E4.72334
G1 X44.108 Y68.957 E5.02195
G1 X46.323 Y66.071 E5.08925
G1 X52.463 Y61.359 E5.23245
G1 X59.614 Y58.397 E5.37564
G1 X63.221 Y57.922 E5.44295
G1 X71.292 Y71.900 E5.74156
G1 X75.113 Y73.483 E5.81808
G1 X78.395 Y76.001 E5.89460
G1 X94.535 Y76.001 E6.19321
G1 X95.928 Y79.362 E6.26052
G1 X96.938 Y87.036 E6.40371
G1 X95.928 Y94.710 E6.54691
G1 X94.560 Y98.013 E6.61304
G1 X94.701 Y98.318 F6000.000
G1 X78.479 Y98.318 E6.91316 F1200.000
G1 X75.238 Y100.805 E6.98873
G1 X71.359 Y102.412 E7.06639
G1 X63.352 Y116.417 E7.36485
G1 X59.550 Y115.916 E7.43581
G1 X52.339 Y112.930 E7.58021
G1 X46.146 Y108.178 E7.72460
G1 X43.811 Y105.135 E7.79557
G1 X51.922 Y91.086 E8.09568
G1 X51.389 Y87.036 E8.17125
G1 X51.922 Y82.986 E8.24683
G1 X43.811 Y68.937 E8.54694
G1 X46.146 Y65.894 E8.61790
G1 X52.339 Y61.143 E8.76230
G1 X59.550 Y58.156 E8.90670
G1 X63.353 Y57.655 E8.97766
G1 X71.464 Y71.704 E9.27777
G1 X75.238 Y73.267 E9.35335
G1 X78.479 Y75.754 E9.42892
G1 X94.701 Y75.754 E9.72903
G1 X96.168 Y79.298 E9.79999
G1 X97.187 Y87.036 E9.94439
G1 X96.168 Y94.775 E10.08879
G1 X94.725 Y98.260 E10.15859
G1 X94.367 Y98.063 F6000.000
G1 X94.039 Y97.912 F6000.000
G1 X76.758 Y80.630 E10.61074 F1200.000
G1 X77.398 Y81.621 F6000.000
G1 X93.689 Y97.912 E11.03695 F1200.000
G1 X93.338 Y97.912 E11.04345
G1 X77.646 Y82.220 E11.45399
G1 X77.894 Y82.819 F6000.000
G1 X92.987 Y97.912 E11.84886 F1200.000
G1 X92.636 Y97.912 E11.85535
G1 X78.142 Y83.419 E12.23454
G1 X78.390 Y84.018 F6000.000
G1 X92.285 Y97.912 E12.59807 F1200.000
G1 X91.934 Y97.912 E12.60456
G1 X78.456 Y84.435 E12.95717
G1 X78.510 Y84.839 E12.96471
G1 X91.583 Y97.912 E13.30676
G1 X91.232 Y97.912 E13.31325
G1 X78.563 Y85.243 E13.64472
G1 X78.616 Y85.647 E13.65226
G1 X90.881 Y97.912 E13.97315
G1 X90.530 Y97.912 E13.97964
G1 X78.669 Y86.051 E14.28997
G1 X78.722 Y86.455 E14.29751
G1 X90.179 Y97.912 E14.59725
G1 X89.828 Y97.912 E14.60375
G1 X78.776 Y86.859 E14.89292
G1 X78.776 Y87.211 E14.89942
G1 X89.477 Y97.912 E15.17941
G1 X89.127 Y97.912 E15.18590
G1 X78.735 Y87.521 E15.45777
G1 X78.694 Y87.831 E15.46356
G1 X88.776 Y97.912 E15.72732
G1 X88.425 Y97.912 E15.73381
G1 X78.654 Y88.141 E15.98945
G1 X78.613 Y88.451 E15.99524
G1 X88.074 Y97.912 E16.24277
G1 X87.723 Y97.912 E16.24927
G1 X78.572 Y88.761 E16.48869
G1 X78.531 Y89.071 E16.49447
G1 X87.372 Y97.912 E16.72578
G1 X87.021 Y97.912 E16.73227
G1 X78.490 Y89.381 E16.95546
G1 X78.449 Y89.691 E16.96125
G1 X86.670 Y97.912 E17.17633
G1 X86.319 Y97.912 E17.18282
G1 X78.409 Y90.001 E17.38979
G1 X78.309 Y90.252 E17.39479
G1 X85.968 Y97.912 E17.59519
G1 X85.617 Y97.912 E17.60168
G1 X78.206 Y90.500 E17.79559
G1 X78.103 Y90.749 E17.80056
G1 X85.266 Y97.912 E17.98798
G1 X84.915 Y97.912 E17.99447
G1 X78.000 Y90.997 E18.17540
G1 X77.897 Y91.245 E18.18037
G1 X84.565 Y97.912 E18.35480
G1 X84.214 Y97.912 E18.36129
G1 X77.795 Y91.493 E18.52924
G1 X77.692 Y91.741 E18.53420
G1 X83.863 Y97.912 E18.69565
G1 X83.512 Y97.912 E18.70215
G1 X77.589 Y91.989 E18.85710
G1 X77.486 Y92.237 E18.86207
G1 X83.161 Y97.912 E19.01054
G1 X82.810 Y97.912 E19.01703
G1 X77.384 Y92.486 E19.15900
G1 X77.281 Y92.734 E19.16397
G1 X82.459 Y97.912 E19.29945
G1 X82.108 Y97.912 E19.30595
G1 X77.140 Y92.944 E19.43593
G1 X76.988 Y93.142 E19.44056
G1 X81.757 Y97.912 E19.56535
G1 X81.406 Y97.912 E19.57184
G1 X76.835 Y93.341 E19.69144
G1 X76.683 Y93.539 E19.69607
G1 X81.055 Y97.912 E19.81047
G1 X80.704 Y97.912 E19.81696
G1 X76.531 Y93.738 E19.92616
G1 X76.378 Y93.937 E19.93079
G1 X80.354 Y97.912 E20.03480
G1 X80.003 Y97.912 E20.04129
G1 X76.226 Y94.135 E20.14011
G1 X76.073 Y94.334 E20.14474
G1 X79.652 Y97.912 E20.23836
G1 X79.301 Y97.912 E20.24485
G1 X75.921 Y94.532 E20.33327
G1 X75.769 Y94.731 E20.33790
G1 X78.950 Y97.912 E20.42113
G1 X78.599 Y97.912 E20.42763
G1 X75.616 Y94.929 E20.50566
G1 X75.464 Y95.128 E20.51029
G1 X78.288 Y97.952 E20.58418
G1 X78.090 Y98.105 E20.58881
G1 X75.276 Y95.291 E20.66241
G1 X75.078 Y95.444 E20.66704
G1 X77.891 Y98.257 E20.74064
G1 X77.693 Y98.409 E20.74527
G1 X74.879 Y95.596 E20.81888
G1 X74.681 Y95.748 E20.82351
G1 X77.494 Y98.562 E20.89711
G1 X77.295 Y98.714 E20.90174
G1 X74.482 Y95.901 E20.97534
G1 X74.284 Y96.053 E20.97997
G1 X77.097 Y98.866 E21.05357
G1 X76.898 Y99.019 E21.05820
G1 X74.085 Y96.206 E21.13180
G1 X73.887 Y96.358 E21.13643
G1 X76.700 Y99.171 E21.21003
G1 X76.501 Y99.323 E21.21466
G1 X73.688 Y96.510 E21.28827
G1 X73.489 Y96.663 E21.29290
G1 X76.303 Y99.476 E21.36650
G1 X76.104 Y99.628 E21.37113
G1 X73.291 Y96.815 E21.44473
G1 X73.092 Y96.967 E21.44936
G1 X75.905 Y99.781 E21.52296
G1 X75.707 Y99.933 E21.52759
G1 X72.856 Y97.082 E21.60217
G1 X72.608 Y97.185 E21.60714
G1 X75.508 Y100.085 E21.68302
G1 X75.310 Y100.238 E21.68765
G1 X72.360 Y97.288 E21.76482
G1 X72.112 Y97.391 E21.76979
G1 X75.111 Y100.390 E21.84826
G1 X74.883 Y100.512 E21.85306
G1 X71.864 Y97.493 E21.93204
G1 X71.616 Y97.596 E21.93701
G1 X74.635 Y100.615 E22.01600
G1 X74.386 Y100.718 E22.02097
G1 X71.368 Y97.699 E22.09995
G1 X71.119 Y97.802 E22.10492
G1 X74.138 Y100.821 E22.18390
G1 X73.890 Y100.923 E22.18887
G1 X70.871 Y97.905 E22.26786
G1 X70.623 Y98.007 E22.27282
G1 X73.642 Y101.026 E22.35181
G1 X73.394 Y101.129 E22.35678
G1 X70.375 Y98.110 E22.43576
G1 X70.092 Y98.178 E22.44115
G1 X73.146 Y101.232 E22.52105
G1 X72.898 Y101.335 E22.52602
G1 X69.782 Y98.219 E22.60754
G1 X69.472 Y98.259 E22.61333
G1 X72.649 Y101.437 E22.69647
G1 X72.401 Y101.540 E22.70144
G1 X69.161 Y98.300 E22.78621
G1 X68.851 Y98.341 E22.79199
G1 X72.153 Y101.643 E22.87838
G1 X71.905 Y101.746 E22.88335
G1 X68.541 Y98.382 E22.97136
G1 X68.231 Y98.423 E22.97714
G1 X71.657 Y101.848 E23.06677
G1 X71.409 Y101.951 E23.07174
G1 X67.921 Y98.464 E23.16299
G1 X67.611 Y98.504 E23.16878
G1 X71.161 Y102.054 E23.26165
G1 X70.992 Y102.236 E23.26624
G1 X67.301 Y98.545 E23.36280
G1 X66.901 Y98.496 E23.37026
G1 X70.864 Y102.459 E23.47396
G1 X70.736 Y102.683 E23.47872
G1 X66.497 Y98.443 E23.58964
G1 X66.092 Y98.389 E23.59719
G1 X70.609 Y102.906 E23.71535
G1 X70.481 Y103.129 E23.72011
G1 X65.688 Y98.336 E23.84550
G1 X65.284 Y98.283 E23.85304
G1 X70.353 Y103.352 E23.98567
G1 X70.226 Y103.576 E23.99043
G1 X64.880 Y98.230 E24.13029
G1 X64.476 Y98.177 E24.13783
G1 X70.098 Y103.799 E24.28493
G1 X69.970 Y104.022 E24.28969
G1 X63.957 Y98.009 E24.44701
G1 X63.358 Y97.761 F6000.000
G1 X69.843 Y104.245 E24.61666 F1200.000
G1 X69.715 Y104.469 E24.62142
G1 X62.759 Y97.513 E24.80341
G1 X62.160 Y97.265 F6000.000
G1 X69.588 Y104.692 E24.99774 F1200.000
G1 X69.460 Y104.915 E25.00249
G1 X61.561 Y97.017 E25.20915
G1 X60.096 Y95.902 F6000.000
G1 X69.332 Y105.139 E25.45080 F1200.000
G1 X69.205 Y105.362 E25.45556
G1 X51.938 Y88.096 E25.90730
G1 X51.885 Y87.692 E25.91484
G1 X58.422 Y94.228 E26.08586
G1 X57.308 Y92.763 F6000.000
G1 X51.832 Y87.287 E26.22913 F1200.000
G1 X51.814 Y86.919 E26.23595
G1 X57.060 Y92.164 E26.37319
G1 X56.811 Y91.565 F6000.000
G1 X51.855 Y86.609 E26.50286 F1200.000
G1 X51.896 Y86.299 E26.50864
G1 X56.563 Y90.966 E26.63076
G1 X56.315 Y90.367 F6000.000
G1 X51.937 Y85.989 E26.74531 F1200.000
G1 X51.978 Y85.678 E26.75109
G1 X56.148 Y89.848 E26.86019
G1 X56.094 Y89.444 E26.86773
G1 X52.019 Y85.368 E26.97437
G1 X52.059 Y85.058 E26.98016
G1 X56.041 Y89.040 E27.08434
G1 X55.988 Y88.636 E27.09188
G1 X52.100 Y84.748 E27.19360
G1 X52.141 Y84.438 E27.19938
G1 X55.935 Y88.232 E27.29864
G1 X55.882 Y87.828 E27.30618
G1 X52.182 Y84.128 E27.40298
G1 X52.223 Y83.818 E27.40877
G1 X55.828 Y87.424 E27.50310
G1 X55.779 Y87.023 E27.51057
G1 X52.263 Y83.508 E27.60254
G1 X52.304 Y83.198 E27.60833
G1 X55.820 Y86.713 E27.70031
G1 X55.861 Y86.403 E27.70610
G1 X52.320 Y82.863 E27.79872
G1 X51.841 Y82.033 F6000.000
G1 X55.902 Y86.093 E27.90496 F1200.000
G1 X55.942 Y85.783 E27.91075
G1 X51.362 Y81.202 E28.03059
G1 X50.882 Y80.372 F6000.000
G1 X55.983 Y85.473 E28.16405 F1200.000
G1 X56.024 Y85.163 E28.16984
G1 X50.403 Y79.542 E28.31690
G1 X49.924 Y78.711 F6000.000
G1 X56.065 Y84.853 E28.47758 F1200.000
G1 X56.106 Y84.543 E28.48336
G1 X49.444 Y77.881 E28.65765
G1 X48.965 Y77.051 F6000.000
G1 X56.146 Y84.233 E28.84555 F1200.000
G1 X56.214 Y83.949 E28.85093
G1 X48.485 Y76.221 E29.05314
G1 X48.006 Y75.390 F6000.000
G1 X56.317 Y83.701 E29.27058 F1200.000
G1 X56.420 Y83.453 E29.27555
G1 X47.527 Y74.560 E29.50822
G1 X47.047 Y73.730 F6000.000
G1 X56.523 Y83.205 E29.75613 F1200.000
G1 X56.625 Y82.957 E29.76110
G1 X46.568 Y72.899 E30.02423
G1 X46.089 Y72.069 F6000.000
G1 X56.728 Y82.709 E30.30259 F1200.000
G1 X56.831 Y82.460 E30.30756
G1 X45.609 Y71.239 E30.60116
G1 X45.130 Y70.409 F6000.000
G1 X56.934 Y82.212 E30.90998 F1200.000
G1 X57.036 Y81.964 E30.91495
G1 X44.650 Y69.578 E31.23901
G1 X44.340 Y68.916 F6000.000
G1 X57.139 Y81.716 E31.57389 F1200.000
G1 X57.242 Y81.468 E31.57886
G1 X44.492 Y68.718 E31.91244
G1 X44.644 Y68.519 E31.91707
G1 X57.357 Y81.232 E32.24967
G1 X57.509 Y81.033 E32.25430
G1 X44.797 Y68.321 E32.58691
G1 X44.949 Y68.122 E32.59154
G1 X57.662 Y80.835 E32.92414
G1 X57.814 Y80.636 E32.92877
G1 X45.101 Y67.924 E33.26138
G1 X45.254 Y67.725 E33.26601
G1 X57.966 Y80.438 E33.59861
G1 X58.119 Y80.239 E33.60324
G1 X45.406 Y67.526 E33.93585
G1 X45.558 Y67.328 E33.94048
G1 X58.271 Y80.041 E34.27308
G1 X58.423 Y79.842 E34.27771
G1 X45.711 Y67.129 E34.61032
G1 X45.863 Y66.931 E34.61495
G1 X58.576 Y79.643 E34.94755
G1 X58.728 Y79.445 E34.95218
G1 X46.016 Y66.732 E35.28479
G1 X46.168 Y66.534 E35.28942
G1 X58.881 Y79.246 E35.62202
G1 X59.033 Y79.048 E35.62665
G1 X46.320 Y66.335 E35.95926
G1 X46.492 Y66.156 E35.96385
G1 X59.196 Y78.860 E36.29622
G1 X59.395 Y78.708 E36.30085
G1 X46.682 Y65.995 E36.63346
G1 X46.881 Y65.843 E36.63809
G1 X59.593 Y78.556 E36.97069
G1 X59.792 Y78.403 E36.97532
G1 X47.079 Y65.691 E37.30793
G1 X47.278 Y65.538 E37.31256
G1 X59.991 Y78.251 E37.64516
G1 X60.189 Y78.098 E37.64979
G1 X47.476 Y65.386 E37.98240
G1 X47.675 Y65.233 E37.98703
G1 X60.388 Y77.946 E38.31963
G1 X60.586 Y77.794 E38.32426
G1 X47.874 Y65.081 E38.65687
G1 X48.072 Y64.929 E38.66150
G1 X60.785 Y77.641 E38.99410
G1 X60.983 Y77.489 E38.99873
G1 X48.271 Y64.776 E39.33134
G1 X48.469 Y64.624 E39.33597
G1 X61.182 Y77.337 E39.66857
G1 X61.380 Y77.184 E39.67320
G1 X48.668 Y64.472 E40.00581
G1 X48.866 Y64.319 E40.01044
G1 X61.591 Y77.044 E40.34335
G1 X61.839 Y76.941 E40.34831
G1 X49.065 Y64.167 E40.68252
G1 X49.264 Y64.015 E40.68715
G1 X62.087 Y76.838 E41.02265
G1 X62.335 Y76.735 E41.02762
G1 X49.462 Y63.862 E41.36442
G1 X49.661 Y63.710 E41.36905
G1 X62.583 Y76.632 E41.70714
G1 X62.831 Y76.530 E41.71211
G1 X49.859 Y63.558 E42.05150
G1 X50.058 Y63.405 E42.05613
G1 X63.079 Y76.427 E42.39682
G1 X63.328 Y76.324 E42.40179
G1 X50.256 Y63.253 E42.74378
G1 X50.455 Y63.100 E42.74841
G1 X63.576 Y76.221 E43.09169
