; generated by Slic3r 1.1.7 on 2014-12-15 at 16:36:06

; perimeters extrusion width = 0.42mm
; infill extrusion width = 0.74mm
; solid infill extrusion width = 0.71mm
; top infill extrusion width = 0.71mm
; support material extrusion width = 0.42mm

G21 ; set units to millimeters
M190 S57 ; wait for bed temperature to be reached
M104 S186 ; set temperature
G28 ; home all axes Start of G Code Slic3r
 
M109 S186 ; wait for temperature to be reached
G90 ; use absolute coordinates
G92 E0
M82 ; use absolute distances for extrusion
G1 F1860.000 E-3.00000
G92 E0
G1 Z0.200 F6000.000
G1 X71.481 Y73.438 F6000.000
G1 E3.10000 F1860.000
G1 X77.694 Y68.671 E3.24489 F1200.000
G1 X79.219 Y67.791 E3.27744
G1 X86.454 Y64.794 E3.42233
G1 X88.154 Y64.338 E3.45489
G1 X92.036 Y63.827 E3.52733
G1 X94.348 Y63.923 E3.57014
G1 X96.287 Y64.673 E3.60860 F1200.000
G1 X127.649 Y82.779 E4.27855
G1 X129.424 Y84.263 E4.32135
G1 X130.506 Y86.038 E4.35981
G1 X132.005 Y89.656 E4.43225
G1 X132.460 Y91.355 E4.46481
G1 X133.482 Y99.120 E4.60970
G1 X133.482 Y100.880 E4.64226
G1 X132.460 Y108.645 E4.78715
G1 X132.005 Y110.344 E4.81970
G1 X130.506 Y113.962 E4.89215
G1 X129.267 Y115.916 E4.93495
G1 X127.649 Y117.221 E4.97341
G1 X96.287 Y135.327 E5.64336
G1 X94.114 Y136.123 E5.68617
G1 X92.036 Y136.173 E5.72462
G1 X88.154 Y135.662 E5.79707
G1 X86.454 Y135.206 E5.82963
G1 X79.219 Y132.209 E5.97451
G1 X77.694 Y131.329 E6.00707
G1 X71.481 Y126.562 E6.15196
G1 X70.237 Y125.317 E6.18452
G1 X67.853 Y122.211 E6.25696
G1 X66.780 Y120.160 E6.29976
G1 X66.460 Y118.107 E6.33822
G1 X66.460 Y81.893 E7.00817
G1 X66.857 Y79.614 E7.05098
G1 X67.853 Y77.789 E7.08944
G1 X70.237 Y74.683 E7.16188
G1 X71.437 Y73.483 E7.19327
G1 X71.632 Y73.634 F6000.000
G1 X77.845 Y68.867 E7.33816 F1200.000
G1 X79.313 Y68.019 E7.36952
G1 X86.549 Y65.022 E7.51441
G1 X88.186 Y64.583 E7.54577
G1 X92.069 Y64.072 E7.61822
G1 X94.337 Y64.174 E7.66022
G1 X96.163 Y64.887 E7.69650 F1200.000
G1 X127.525 Y82.993 E8.36645
G1 X129.263 Y84.455 E8.40846
G1 X130.278 Y86.132 E8.44473
G1 X131.776 Y89.750 E8.51717
G1 X132.215 Y91.388 E8.54854
G1 X133.237 Y99.152 E8.69342
G1 X133.237 Y100.848 E8.72479
G1 X132.215 Y108.612 E8.86968
G1 X131.776 Y110.250 E8.90104
G1 X130.278 Y113.868 E8.97348
G1 X129.056 Y115.781 E9.01549
G1 X127.525 Y117.007 E9.05176
G1 X96.163 Y135.113 E9.72172
G1 X94.029 Y135.887 E9.76372
G1 X92.069 Y135.928 E9.80000
G1 X88.186 Y135.417 E9.87244
G1 X86.549 Y134.978 E9.90380
G1 X79.313 Y131.981 E10.04869
G1 X77.845 Y131.133 E10.08006
G1 X71.632 Y126.366 E10.22494
G1 X70.433 Y125.167 E10.25631
G1 X68.049 Y122.060 E10.32875
G1 X67.003 Y120.045 E10.37076
G1 X66.707 Y118.107 E10.40703
G1 X66.707 Y81.893 E11.07698
G1 X67.104 Y79.658 E11.11899
G1 X68.049 Y77.940 E11.15526
G1 X70.433 Y74.833 E11.22771
G1 X71.587 Y73.679 E11.25790
G1 X71.782 Y73.831 F6000.000
G1 X77.995 Y69.063 E11.40279 F1200.000
G1 X79.408 Y68.248 E11.43296
G1 X86.643 Y65.251 E11.57785
G1 X88.218 Y64.828 E11.60802
G1 X92.101 Y64.317 E11.68046
G1 X94.325 Y64.425 E11.72165
G1 X96.040 Y65.101 E11.75576 F1200.000
G1 X127.401 Y83.207 E12.42571
G1 X129.100 Y84.647 E12.46690
G1 X130.049 Y86.227 E12.50101
G1 X131.548 Y89.845 E12.57345
G1 X131.970 Y91.420 E12.60362
G1 X132.992 Y99.185 E12.74851
G1 X132.992 Y100.815 E12.77868
G1 X131.970 Y108.580 E12.92357
G1 X131.548 Y110.155 E12.95374
G1 X130.049 Y113.773 E13.02618
G1 X128.844 Y115.645 E13.06737
G1 X127.401 Y116.793 E13.10148
G1 X96.040 Y134.899 E13.77143
G1 X93.944 Y135.651 E13.81262
G1 X92.101 Y135.683 E13.84673
G1 X88.218 Y135.172 E13.91917
G1 X86.643 Y134.749 E13.94934
G1 X79.408 Y131.752 E14.09423
G1 X77.995 Y130.937 E14.12440
G1 X71.782 Y126.169 E14.26928
G1 X70.629 Y125.016 E14.29945
G1 X68.245 Y121.910 E14.37190
G1 X67.226 Y119.930 E14.41309
G1 X66.954 Y118.107 E14.44719
G1 X66.954 Y81.893 E15.11715
G1 X67.351 Y79.702 E15.15834
G1 X68.245 Y78.090 E15.19244
G1 X70.629 Y74.984 E15.26489
G1 X71.738 Y73.875 E15.29389
G1 F1860.000 E12.29389
G92 E0
G1 X104.824 Y108.026 F6000.000
G1 E3.10000 F1860.000
G1 X102.474 Y109.830 E3.15482 F1200.000
G1 X99.736 Y110.963 E3.20963
G1 X96.798 Y111.350 E3.26445
G1 X93.861 Y110.963 E3.31926
G1 X91.123 Y109.830 E3.37408
G1 X88.773 Y108.026 E3.42890
G1 X86.969 Y105.675 E3.48371
G1 X85.835 Y102.938 E3.53853
G1 X85.448 Y100.000 E3.59335
G1 X85.835 Y97.062 E3.64816
G1 X86.969 Y94.325 E3.70298
G1 X88.773 Y91.974 E3.75779
G1 X91.123 Y90.170 E3.81261
G1 X93.861 Y89.037 E3.86743
G1 X96.799 Y88.650 E3.92224
G1 X99.650 Y89.025 E3.97545
G1 X99.736 Y89.037 E3.97706 F1200.000
G1 X102.474 Y90.170 E4.03187
G1 X104.824 Y91.974 E4.08669
G1 X106.628 Y94.325 E4.14151
G1 X107.762 Y97.062 E4.19632
G1 X108.149 Y100.000 E4.25114
G1 X107.762 Y102.938 E4.30595
G1 X106.628 Y105.675 E4.36077
G1 X104.863 Y107.976 E4.41442
G1 X104.648 Y107.849 F6000.000
G1 X102.349 Y109.614 E4.46803 F1200.000
G1 X99.672 Y110.723 E4.52165
G1 X96.798 Y111.101 E4.57526
G1 X93.979 Y110.730 E4.62787
G1 X93.925 Y110.723 E4.62887
G1 X91.248 Y109.614 E4.68248
G1 X88.949 Y107.850 E4.73609
G1 X87.185 Y105.550 E4.78970
G1 X86.076 Y102.873 E4.84332
G1 X85.698 Y100.000 E4.89693
G1 X86.076 Y97.127 E4.95054
G1 X87.185 Y94.450 E5.00415
G1 X88.949 Y92.151 E5.05776
G1 X91.248 Y90.386 E5.11138
G1 X93.925 Y89.277 E5.16499
G1 X96.745 Y88.906 E5.21760
G1 X96.798 Y88.899 E5.21860 F1200.000
G1 X99.672 Y89.277 E5.27221
G1 X102.349 Y90.386 E5.32582
G1 X104.648 Y92.151 E5.37944
G1 X106.412 Y94.450 E5.43305
G1 X107.521 Y97.127 E5.48666
G1 X107.899 Y100.000 E5.54027
G1 X107.521 Y102.873 E5.59388
G1 X106.412 Y105.550 E5.64750
G1 X104.686 Y107.800 E5.69994
G1 F1860.000 E2.69994
G92 E0
G1 X96.731 Y88.854 F6000.000
G1 X124.046 Y111.035 F6000.000
G1 E3.10000 F1860.000
G1 X107.905 Y111.035 E3.39861 F1200.000
G1 X104.623 Y113.553 E3.47513
G1 X100.697 Y115.179 E3.55375
G1 X92.730 Y129.114 E3.85071
G1 X89.125 Y128.640 E3.91799
G1 X81.974 Y125.677 E4.06119
G1 X75.833 Y120.966 E4.20438
G1 X73.618 Y118.079 E4.27169
G1 X81.689 Y104.101 E4.57029
G1 X81.149 Y100.000 E4.64682
G1 X81.689 Y95.899 E4.72334
G1 X73.618 Y81.921 E5.02195
G1 X75.833 Y79.034 E5.08925
G1 X81.974 Y74.323 E5.23245
G1 X89.125 Y71.361 E5.37564
G1 X92.732 Y70.886 E5.44295
G1 X100.802 Y84.864 E5.74156
G1 X104.623 Y86.447 E5.81808
G1 X107.905 Y88.965 E5.89460
G1 X124.046 Y88.965 E6.19321
G1 X125.438 Y92.326 E6.26052
G1 X126.448 Y100.000 E6.40371
G1 X125.438 Y107.674 E6.54691
G1 X124.070 Y110.977 E6.61304
G1 X124.211 Y111.282 F6000.000
G1 X107.989 Y111.282 E6.91316 F1200.000
G1 X104.748 Y113.769 E6.98873
G1 X100.870 Y115.376 E7.06639
G1 X92.863 Y129.381 E7.36485
G1 X89.060 Y128.880 E7.43581
G1 X81.849 Y125.893 E7.58021
G1 X75.657 Y121.142 E7.72460
G1 X73.322 Y118.099 E7.79557
G1 X81.433 Y104.050 E8.09568
G1 X80.899 Y100.000 E8.17125
G1 X81.433 Y95.950 E8.24683
G1 X73.322 Y81.901 E8.54694
G1 X75.657 Y78.858 E8.61790
G1 X81.849 Y74.107 E8.76230
G1 X89.060 Y71.120 E8.90670
G1 X92.863 Y70.619 E8.97766
G1 X100.974 Y84.668 E9.27777
G1 X104.748 Y86.231 E9.35335
G1 X107.989 Y88.718 E9.42892
G1 X124.211 Y88.718 E9.72903
G1 X125.679 Y92.262 E9.79999
G1 X126.698 Y100.000 E9.94439
G1 X125.679 Y107.738 E10.08879
G1 X124.235 Y111.224 E10.15859
G1 X123.878 Y111.027 F6000.000
G1 X123.550 Y110.876 F6000.000
G1 X106.268 Y93.594 E10.61074 F1200.000
G1 X106.908 Y94.585 F6000.000
G1 X123.199 Y110.876 E11.03695 F1200.000
G1 X122.848 Y110.876 E11.04345
G1 X107.156 Y95.184 E11.45399
G1 X107.405 Y95.783 F6000.000
G1 X122.497 Y110.876 E11.84886 F1200.000
G1 X122.146 Y110.876 E11.85535
G1 X107.653 Y96.382 E12.23454
G1 X107.901 Y96.981 F6000.000
G1 X121.795 Y110.876 E12.59807 F1200.000
G1 X121.444 Y110.876 E12.60456
G1 X107.967 Y97.398 E12.95717
G1 X108.020 Y97.803 E12.96471
G1 X121.093 Y110.876 E13.30676
G1 X120.742 Y110.876 E13.31325
G1 X108.073 Y98.207 E13.64472
G1 X108.126 Y98.611 E13.65226
G1 X120.391 Y110.876 E13.97315
G1 X120.041 Y110.876 E13.97964
G1 X108.180 Y99.015 E14.28997
G1 X108.233 Y99.419 E14.29751
G1 X119.690 Y110.876 E14.59725
G1 X119.339 Y110.876 E14.60375
G1 X108.286 Y99.823 E14.89292
G1 X108.286 Y100.174 E14.89942
G1 X118.988 Y110.876 E15.17941
G1 X118.637 Y110.876 E15.18590
G1 X108.246 Y100.484 E15.45777
G1 X108.205 Y100.795 E15.46356
G1 X118.286 Y110.876 E15.72732
G1 X117.935 Y110.876 E15.73381
G1 X108.164 Y101.105 E15.98945
G1 X108.123 Y101.415 E15.99524
G1 X117.584 Y110.876 E16.24277
G1 X117.233 Y110.876 E16.24927
G1 X108.082 Y101.725 E16.48869
G1 X108.041 Y102.035 E16.49447
G1 X116.882 Y110.876 E16.72578
G1 X116.531 Y110.876 E16.73227
G1 X108.001 Y102.345 E16.95546
G1 X107.960 Y102.655 E16.96125
G1 X116.180 Y110.876 E17.17633
G1 X115.830 Y110.876 E17.18282
G1 X107.919 Y102.965 E17.38979
G1 X107.819 Y103.216 E17.39479
G1 X115.479 Y110.876 E17.59519
G1 X115.128 Y110.876 E17.60168
G1 X107.716 Y103.464 E17.79559
G1 X107.613 Y103.712 E17.80056
G1 X114.777 Y110.876 E17.98798
G1 X114.426 Y110.876 E17.99447
G1 X107.511 Y103.961 E18.17540
G1 X107.408 Y104.209 E18.18037
G1 X114.075 Y110.876 E18.35480
G1 X113.724 Y110.876 E18.36129
G1 X107.305 Y104.457 E18.52924
G1 X107.202 Y104.705 E18.53420
G1 X113.373 Y110.876 E18.69565
G1 X113.022 Y110.876 E18.70215
G1 X107.099 Y104.953 E18.85710
G1 X106.997 Y105.201 E18.86207
G1 X112.671 Y110.876 E19.01054
G1 X112.320 Y110.876 E19.01703
G1 X106.894 Y105.449 E19.15900
G1 X106.791 Y105.698 E19.16397
G1 X111.969 Y110.876 E19.29945
G1 X111.618 Y110.876 E19.30595
G1 X106.650 Y105.908 E19.43593
G1 X106.498 Y106.106 E19.44056
G1 X111.268 Y110.876 E19.56535
G1 X110.917 Y110.876 E19.57184
G1 X106.346 Y106.305 E19.69144
G1 X106.193 Y106.503 E19.69607
G1 X110.566 Y110.876 E19.81047
G1 X110.215 Y110.876 E19.81696
G1 X106.041 Y106.702 E19.92616
G1 X105.888 Y106.900 E19.93079
G1 X109.864 Y110.876 E20.03480
G1 X109.513 Y110.876 E20.04129
G1 X105.736 Y107.099 E20.14011
G1 X105.584 Y107.298 E20.14474
G1 X109.162 Y110.876 E20.23836
G1 X108.811 Y110.876 E20.24485
G1 X105.431 Y107.496 E20.33327
G1 X105.279 Y107.695 E20.33790
G1 X108.460 Y110.876 E20.42113
G1 X108.109 Y110.876 E20.42763
G1 X105.127 Y107.893 E20.50566
G1 X104.974 Y108.092 E20.51029
G1 X107.799 Y110.916 E20.58418
G1 X107.600 Y111.068 E20.58881
G1 X104.787 Y108.255 E20.66241
G1 X104.588 Y108.408 E20.66704
G1 X107.401 Y111.221 E20.74064
G1 X107.203 Y111.373 E20.74527
G1 X104.390 Y108.560 E20.81888
G1 X104.191 Y108.712 E20.82351
G1 X107.004 Y111.525 E20.89711
G1 X106.806 Y111.678 E20.90174
G1 X103.993 Y108.865 E20.97534
G1 X103.794 Y109.017 E20.97997
G1 X106.607 Y111.830 E21.05357
G1 X106.409 Y111.983 E21.05820
G1 X103.595 Y109.169 E21.13180
G1 X103.397 Y109.322 E21.13643
G1 X106.210 Y112.135 E21.21003
G1 X106.012 Y112.287 E21.21466
G1 X103.198 Y109.474 E21.28827
G1 X103.000 Y109.626 E21.29290
G1 X105.813 Y112.440 E21.36650
G1 X105.614 Y112.592 E21.37113
G1 X102.801 Y109.779 E21.44473
G1 X102.603 Y109.931 E21.44936
G1 X105.416 Y112.744 E21.52296
G1 X105.217 Y112.897 E21.52759
G1 X102.367 Y110.046 E21.60217
G1 X102.119 Y110.149 E21.60714
G1 X105.019 Y113.049 E21.68302
G1 X104.820 Y113.201 E21.68765
G1 X101.870 Y110.252 E21.76482
G1 X101.622 Y110.355 E21.76979
G1 X104.622 Y113.354 E21.84826
G1 X104.393 Y113.476 E21.85306
G1 X101.374 Y110.457 E21.93204
G1 X101.126 Y110.560 E21.93701
G1 X104.145 Y113.579 E22.01600
G1 X103.897 Y113.682 E22.02097
G1 X100.878 Y110.663 E22.09995
G1 X100.630 Y110.766 E22.10492
G1 X103.649 Y113.785 E22.18390
G1 X103.400 Y113.887 E22.18887
G1 X100.382 Y110.868 E22.26786
G1 X100.133 Y110.971 E22.27282
G1 X103.152 Y113.990 E22.35181
G1 X102.904 Y114.093 E22.35678
G1 X99.885 Y111.074 E22.43576
G1 X99.602 Y111.142 E22.44115
G1 X102.656 Y114.196 E22.52105
G1 X102.408 Y114.298 E22.52602
G1 X99.292 Y111.183 E22.60754
G1 X98.982 Y111.223 E22.61333
G1 X102.160 Y114.401 E22.69647
G1 X101.912 Y114.504 E22.70144
G1 X98.672 Y111.264 E22.78621
G1 X98.362 Y111.305 E22.79199
G1 X101.664 Y114.607 E22.87838
G1 X101.415 Y114.710 E22.88335
G1 X98.052 Y111.346 E22.97136
G1 X97.742 Y111.387 E22.97714
G1 X101.167 Y114.812 E23.06677
G1 X100.919 Y114.915 E23.07174
G1 X97.431 Y111.427 E23.16299
G1 X97.121 Y111.468 E23.16878
G1 X100.671 Y115.018 E23.26165
G1 X100.502 Y115.200 E23.26624
G1 X96.811 Y111.509 E23.36280
G1 X96.411 Y111.460 E23.37026
G1 X100.374 Y115.423 E23.47396
G1 X100.247 Y115.646 E23.47872
G1 X96.007 Y111.407 E23.58964
G1 X95.603 Y111.353 E23.59719
G1 X100.119 Y115.870 E23.71535
G1 X99.991 Y116.093 E23.72011
G1 X95.199 Y111.300 E23.84550
G1 X94.794 Y111.247 E23.85304
G1 X99.864 Y116.316 E23.98567
G1 X99.736 Y116.540 E23.99043
G1 X94.390 Y111.194 E24.13029
G1 X93.986 Y111.141 E24.13783
G1 X99.608 Y116.763 E24.28493
G1 X99.481 Y116.986 E24.28969
G1 X93.468 Y110.973 E24.44701
G1 X92.869 Y110.725 F6000.000
G1 X99.353 Y117.209 E24.61666 F1200.000
G1 X99.226 Y117.433 E24.62142
G1 X92.270 Y110.477 E24.80341
G1 X91.671 Y110.229 F6000.000
G1 X99.098 Y117.656 E24.99774 F1200.000
G1 X98.970 Y117.879 E25.00249
G1 X91.071 Y109.980 E25.20915
G1 X89.606 Y108.866 F6000.000
G1 X98.843 Y118.102 E25.45080 F1200.000
G1 X98.715 Y118.326 E25.45556
G1 X81.449 Y101.060 E25.90730
G1 X81.396 Y100.655 E25.91484
G1 X87.932 Y107.192 E26.08586
G1 X86.818 Y105.727 F6000.000
G1 X81.342 Y100.251 E26.22913 F1200.000
G1 X81.325 Y99.883 E26.23595
G1 X86.570 Y105.128 E26.37319
G1 X86.322 Y104.529 F6000.000
G1 X81.366 Y99.573 E26.50286 F1200.000
G1 X81.406 Y99.263 E26.50864
G1 X86.074 Y103.930 E26.63076
G1 X85.826 Y103.331 F6000.000
G1 X81.447 Y98.952 E26.74531 F1200.000
G1 X81.488 Y98.642 E26.75109
G1 X85.658 Y102.812 E26.86019
G1 X85.605 Y102.408 E26.86773
G1 X81.529 Y98.332 E26.97437
G1 X81.570 Y98.022 E26.98016
G1 X85.552 Y102.004 E27.08434
G1 X85.498 Y101.600 E27.09188
G1 X81.611 Y97.712 E27.19360
G1 X81.651 Y97.402 E27.19938
G1 X85.445 Y101.196 E27.29864
G1 X85.392 Y100.792 E27.30618
G1 X81.692 Y97.092 E27.40298
G1 X81.733 Y96.782 E27.40877
G1 X85.339 Y100.388 E27.50310
G1 X85.289 Y99.987 E27.51057
G1 X81.774 Y96.472 E27.60254
G1 X81.815 Y96.162 E27.60833
G1 X85.330 Y99.677 E27.70031
G1 X85.371 Y99.367 E27.70610
G1 X81.831 Y95.827 E27.79872
G1 X81.351 Y94.996 F6000.000
G1 X85.412 Y99.057 E27.90496 F1200.000
G1 X85.453 Y98.747 E27.91075
G1 X80.872 Y94.166 E28.03059
G1 X80.393 Y93.336 F6000.000
G1 X85.494 Y98.437 E28.16405 F1200.000
G1 X85.534 Y98.127 E28.16984
G1 X79.913 Y92.506 E28.31690
G1 X79.434 Y91.675 F6000.000
G1 X85.575 Y97.817 E28.47758 F1200.000
G1 X85.616 Y97.506 E28.48336
G1 X78.954 Y90.845 E28.65765
G1 X78.475 Y90.015 F6000.000
G1 X85.657 Y97.196 E28.84555 F1200.000
G1 X85.724 Y96.913 E28.85093
G1 X77.996 Y89.184 E29.05314
G1 X77.516 Y88.354 F6000.000
G1 X85.827 Y96.665 E29.27058 F1200.000
G1 X85.930 Y96.417 E29.27555
G1 X77.037 Y87.524 E29.50822
G1 X76.558 Y86.694 F6000.000
G1 X86.033 Y96.169 E29.75613 F1200.000
G1 X86.136 Y95.921 E29.76110
G1 X76.078 Y85.863 E30.02423
G1 X75.599 Y85.033 F6000.000
G1 X86.238 Y95.672 E30.30259 F1200.000
G1 X86.341 Y95.424 E30.30756
G1 X75.120 Y84.203 E30.60116
G1 X74.640 Y83.372 F6000.000
G1 X86.444 Y95.176 E30.90998 F1200.000
G1 X86.547 Y94.928 E30.91495
G1 X74.161 Y82.542 E31.23901
G1 X73.850 Y81.880 F6000.000
G1 X86.650 Y94.680 E31.57389 F1200.000
G1 X86.752 Y94.432 E31.57886
G1 X74.002 Y81.682 E31.91244
G1 X74.155 Y81.483 E31.91707
G1 X86.867 Y94.196 E32.24967
G1 X87.020 Y93.997 E32.25430
G1 X74.307 Y81.285 E32.58691
G1 X74.459 Y81.086 E32.59154
G1 X87.172 Y93.799 E32.92414
G1 X87.324 Y93.600 E32.92877
G1 X74.612 Y80.887 E33.26138
G1 X74.764 Y80.689 E33.26601
G1 X87.477 Y93.402 E33.59861
G1 X87.629 Y93.203 E33.60324
G1 X74.916 Y80.490 E33.93585
G1 X75.069 Y80.292 E33.94048
G1 X87.781 Y93.004 E34.27308
G1 X87.934 Y92.806 E34.27771
G1 X75.221 Y80.093 E34.61032
G1 X75.374 Y79.895 E34.61495
G1 X88.086 Y92.607 E34.94755
G1 X88.239 Y92.409 E34.95218
G1 X75.526 Y79.696 E35.28479
G1 X75.678 Y79.498 E35.28942
G1 X88.391 Y92.210 E35.62202
G1 X88.543 Y92.012 E35.62665
G1 X75.831 Y79.299 E35.95926
G1 X76.003 Y79.120 E35.96385
G1 X88.707 Y91.824 E36.29622
G1 X88.905 Y91.672 E36.30085
G1 X76.193 Y78.959 E36.63346
G1 X76.391 Y78.807 E36.63809
G1 X89.104 Y91.519 E36.97069
G1 X89.302 Y91.367 E36.97532
G1 X76.590 Y78.654 E37.30793
G1 X76.788 Y78.502 E37.31256
