; generated by Slic3r 1.1.7 on 2014-12-15 at 17:17:24

; perimeters extrusion width = 0.42mm
; infill extrusion width = 0.74mm
; solid infill extrusion width = 0.71mm
; top infill extrusion width = 0.71mm
; support material extrusion width = 0.42mm

G21 ; set units to millimeters
M190 S57 ; wait for bed temperature to be reached
M104 S186 ; set temperature
G28 ; home all axes Start of G Code Slic3r
 
M109 S186 ; wait for temperature to be reached
G90 ; use absolute coordinates
G92 E0
M82 ; use absolute distances for extrusion
G1 F1860.000 E-3.00000
G92 E0
G1 Z0.200 F6000.000
G1 X48.335 Y68.867 F6000.000
G1 E3.10000 F1860.000
G1 X49.803 Y68.019 E3.13136 F1200.000
G1 X57.038 Y65.022 E3.27625
G1 X58.676 Y64.583 E3.30761
G1 X63.641 Y64.021 E3.40005
G1 X126.405 Y66.339 E4.56200
G1 X128.340 Y66.646 E4.59824 F1200.000
G1 X129.350 Y66.887 E4.61745
G1 X154.888 Y75.269 E5.11471
G1 X156.651 Y76.167 E5.15132
G1 X158.295 Y77.361 E5.18890
G1 X159.694 Y78.761 E5.22551
G1 X160.888 Y80.404 E5.26309
G1 X161.786 Y82.167 E5.29969
G1 X162.414 Y84.099 E5.33728
G1 X162.803 Y87.069 E5.39269
G1 X162.723 Y113.947 E5.88995
G1 X162.414 Y115.901 E5.92655
G1 X161.786 Y117.833 E5.96413
G1 X160.888 Y119.596 E6.00074
G1 X159.693 Y121.240 E6.03833
G1 X158.295 Y122.639 E6.07493
G1 X156.651 Y123.833 E6.11252
G1 X153.947 Y125.121 E6.16793
G1 X128.339 Y133.354 E6.66556
G1 X125.624 Y133.736 E6.71629
G1 X62.558 Y135.928 E7.88372
G1 X58.676 Y135.417 E7.95616
G1 X57.038 Y134.978 E7.98753
G1 X49.803 Y131.981 E8.13241
G1 X48.335 Y131.133 E8.16378
G1 X42.121 Y126.366 E8.30867
G1 X40.923 Y125.167 E8.34003
G1 X38.539 Y122.060 E8.41247
G1 X37.493 Y120.045 E8.45448
G1 X37.197 Y118.107 E8.49075
G1 X37.197 Y81.893 E9.16071
G1 X37.594 Y79.658 E9.20271
G1 X38.539 Y77.940 E9.23899
G1 X40.923 Y74.833 E9.31143
G1 X42.121 Y73.634 E9.34279
G1 X48.285 Y68.905 E9.48651
G1 X48.485 Y69.063 F6000.000
G1 X49.897 Y68.248 E9.51669 F1200.000
G1 X57.133 Y65.251 E9.66157
G1 X58.708 Y64.828 E9.69174
G1 X63.632 Y64.268 E9.78342
G1 X126.366 Y66.583 E10.94481
G1 X128.301 Y66.890 E10.98105 F1200.000
G1 X129.273 Y67.122 E10.99955
G1 X154.776 Y75.489 E11.49609
G1 X156.539 Y76.387 E11.53270
G1 X158.120 Y77.536 E11.56885
G1 X159.519 Y78.935 E11.60546
G1 X160.668 Y80.516 E11.64161
G1 X161.566 Y82.279 E11.67821
G1 X162.170 Y84.138 E11.71437
G1 X162.556 Y87.069 E11.76906
G1 X162.479 Y113.909 E12.26561
G1 X162.170 Y115.862 E12.30221
G1 X161.566 Y117.721 E12.33835
G1 X160.668 Y119.484 E12.37496
G1 X159.519 Y121.065 E12.41112
G1 X158.120 Y122.464 E12.44772
G1 X156.539 Y123.613 E12.48388
G1 X153.870 Y124.886 E12.53858
G1 X128.301 Y133.110 E13.03549
G1 X125.615 Y133.489 E13.08567
G1 X62.590 Y135.683 E14.25234
G1 X58.708 Y135.172 E14.32478
G1 X57.133 Y134.749 E14.35495
G1 X49.897 Y131.752 E14.49984
G1 X48.485 Y130.937 E14.53001
G1 X42.272 Y126.169 E14.67490
G1 X41.119 Y125.016 E14.70507
G1 X38.735 Y121.910 E14.77751
G1 X37.716 Y119.930 E14.81870
G1 X37.444 Y118.107 E14.85281
G1 X37.444 Y81.893 E15.52276
G1 X37.841 Y79.702 E15.56395
G1 X38.735 Y78.090 E15.59806
G1 X41.119 Y74.984 E15.67050
G1 X42.272 Y73.831 E15.70067
G1 X48.435 Y69.101 E15.84439
G1 F1860.000 E12.84439
G92 E0
G1 X75.314 Y108.026 F6000.000
G1 E3.10000 F1860.000
G1 X72.963 Y109.830 E3.15482 F1200.000
G1 X70.226 Y110.963 E3.20963
G1 X67.288 Y111.350 E3.26445
G1 X64.350 Y110.963 E3.31926
G1 X61.613 Y109.830 E3.37408
G1 X59.262 Y108.026 E3.42890
G1 X57.459 Y105.675 E3.48371
G1 X56.325 Y102.938 E3.53853
G1 X55.938 Y100.000 E3.59335
G1 X56.325 Y97.062 E3.64816
G1 X57.459 Y94.325 E3.70298
G1 X59.262 Y91.974 E3.75779
G1 X61.613 Y90.170 E3.81261
G1 X64.350 Y89.037 E3.86743
G1 X67.288 Y88.650 E3.92224
G1 X70.140 Y89.025 E3.97545
G1 X70.226 Y89.037 E3.97706 F1200.000
G1 X72.963 Y90.170 E4.03187
G1 X75.314 Y91.974 E4.08669
G1 X77.118 Y94.325 E4.14151
G1 X78.252 Y97.062 E4.19632
G1 X78.638 Y100.000 E4.25114
G1 X78.252 Y102.938 E4.30595
G1 X77.118 Y105.675 E4.36077
G1 X75.352 Y107.976 E4.41442
G1 X75.138 Y107.849 F6000.000
G1 X72.839 Y109.614 E4.46803 F1200.000
G1 X70.161 Y110.723 E4.52165
G1 X67.288 Y111.101 E4.57526
G1 X64.469 Y110.730 E4.62787
G1 X64.415 Y110.723 E4.62887
G1 X61.738 Y109.614 E4.68248
G1 X59.439 Y107.850 E4.73609
G1 X57.675 Y105.550 E4.78970
G1 X56.566 Y102.873 E4.84332
G1 X56.187 Y100.000 E4.89693
G1 X56.566 Y97.127 E4.95054
G1 X57.675 Y94.450 E5.00415
G1 X59.439 Y92.151 E5.05776
G1 X61.738 Y90.386 E5.11138
G1 X64.415 Y89.277 E5.16499
G1 X67.234 Y88.906 E5.21760
G1 X67.288 Y88.899 E5.21860 F1200.000
G1 X70.161 Y89.277 E5.27221
G1 X72.839 Y90.386 E5.32582
G1 X75.138 Y92.151 E5.37944
G1 X76.902 Y94.450 E5.43305
G1 X78.011 Y97.127 E5.48666
G1 X78.389 Y100.000 E5.54027
G1 X78.011 Y102.873 E5.59388
G1 X76.902 Y105.550 E5.64750
G1 X75.176 Y107.800 E5.69994
G1 F1860.000 E2.69994
G92 E0
G1 X67.220 Y88.854 F6000.000
G1 X94.535 Y111.035 F6000.000
G1 E3.10000 F1860.000
G1 X78.395 Y111.035 E3.39861 F1200.000
G1 X75.113 Y113.553 E3.47513
G1 X71.187 Y115.179 E3.55375
G1 X63.220 Y129.114 E3.85071
G1 X59.614 Y128.640 E3.91799
G1 X52.463 Y125.677 E4.06119
G1 X46.323 Y120.966 E4.20438
G1 X44.108 Y118.079 E4.27169
G1 X52.178 Y104.101 E4.57029
G1 X51.638 Y100.000 E4.64682
G1 X52.178 Y95.899 E4.72334
G1 X44.108 Y81.921 E5.02195
G1 X46.323 Y79.034 E5.08925
G1 X52.463 Y74.323 E5.23245
G1 X59.614 Y71.361 E5.37564
G1 X63.221 Y70.886 E5.44295
G1 X71.292 Y84.864 E5.74156
G1 X75.113 Y86.447 E5.81808
G1 X78.395 Y88.965 E5.89460
G1 X94.535 Y88.965 E6.19321
G1 X95.928 Y92.326 E6.26052
G1 X96.938 Y100.000 E6.40371
G1 X95.928 Y107.674 E6.54691
G1 X94.560 Y110.977 E6.61304
G1 X94.701 Y111.282 F6000.000
G1 X78.479 Y111.282 E6.91316 F1200.000
G1 X75.238 Y113.769 E6.98873
G1 X71.359 Y115.376 E7.06639
G1 X63.352 Y129.381 E7.36485
G1 X59.550 Y128.880 E7.43581
G1 X52.339 Y125.893 E7.58021
G1 X46.146 Y121.142 E7.72460
G1 X43.811 Y118.099 E7.79557
G1 X51.922 Y104.050 E8.09568
G1 X51.389 Y100.000 E8.17125
G1 X51.922 Y95.950 E8.24683
G1 X43.811 Y81.901 E8.54694
G1 X46.146 Y78.858 E8.61790
G1 X52.339 Y74.107 E8.76230
G1 X59.550 Y71.120 E8.90670
G1 X63.353 Y70.619 E8.97766
G1 X71.464 Y84.668 E9.27777
G1 X75.238 Y86.231 E9.35335
G1 X78.479 Y88.718 E9.42892
G1 X94.701 Y88.718 E9.72903
G1 X96.168 Y92.262 E9.79999
G1 X97.187 Y100.000 E9.94439
G1 X96.168 Y107.738 E10.08879
G1 X94.725 Y111.224 E10.15859
G1 X94.367 Y111.027 F6000.000
G1 X94.039 Y110.876 F6000.000
G1 X76.758 Y93.594 E10.61074 F1200.000
G1 X77.398 Y94.585 F6000.000
G1 X93.689 Y110.876 E11.03695 F1200.000
G1 X93.338 Y110.876 E11.04345
G1 X77.646 Y95.184 E11.45399
G1 X77.894 Y95.783 F6000.000
G1 X92.987 Y110.876 E11.84886 F1200.000
G1 X92.636 Y110.876 E11.85535
G1 X78.142 Y96.382 E12.23454
G1 X78.390 Y96.981 F6000.000
G1 X92.285 Y110.876 E12.59807 F1200.000
G1 X91.934 Y110.876 E12.60456
G1 X78.456 Y97.398 E12.95717
G1 X78.510 Y97.803 E12.96471
G1 X91.583 Y110.876 E13.30676
G1 X91.232 Y110.876 E13.31325
G1 X78.563 Y98.207 E13.64472
G1 X78.616 Y98.611 E13.65226
G1 X90.881 Y110.876 E13.97315
G1 X90.530 Y110.876 E13.97964
G1 X78.669 Y99.015 E14.28997
G1 X78.722 Y99.419 E14.29751
G1 X90.179 Y110.876 E14.59725
G1 X89.828 Y110.876 E14.60375
G1 X78.776 Y99.823 E14.89292
G1 X78.776 Y100.174 E14.89942
G1 X89.477 Y110.876 E15.17941
G1 X89.127 Y110.876 E15.18590
G1 X78.735 Y100.484 E15.45777
G1 X78.694 Y100.795 E15.46356
G1 X88.776 Y110.876 E15.72732
G1 X88.425 Y110.876 E15.73381
G1 X78.654 Y101.105 E15.98945
G1 X78.613 Y101.415 E15.99524
G1 X88.074 Y110.876 E16.24277
G1 X87.723 Y110.876 E16.24927
G1 X78.572 Y101.725 E16.48869
G1 X78.531 Y102.035 E16.49447
G1 X87.372 Y110.876 E16.72578
G1 X87.021 Y110.876 E16.73227
G1 X78.490 Y102.345 E16.95546
G1 X78.449 Y102.655 E16.96125
G1 X86.670 Y110.876 E17.17633
G1 X86.319 Y110.876 E17.18282
G1 X78.409 Y102.965 E17.38979
G1 X78.309 Y103.216 E17.39479
G1 X85.968 Y110.876 E17.59519
G1 X85.617 Y110.876 E17.60168
G1 X78.206 Y103.464 E17.79559
G1 X78.103 Y103.712 E17.80056
G1 X85.266 Y110.876 E17.98798
G1 X84.915 Y110.876 E17.99447
G1 X78.000 Y103.961 E18.17540
G1 X77.897 Y104.209 E18.18037
G1 X84.565 Y110.876 E18.35480
G1 X84.214 Y110.876 E18.36129
G1 X77.795 Y104.457 E18.52924
G1 X77.692 Y104.705 E18.53420
G1 X83.863 Y110.876 E18.69565
G1 X83.512 Y110.876 E18.70215
G1 X77.589 Y104.953 E18.85710
G1 X77.486 Y105.201 E18.86207
G1 X83.161 Y110.876 E19.01054
G1 X82.810 Y110.876 E19.01703
G1 X77.384 Y105.449 E19.15900
G1 X77.281 Y105.698 E19.16397
G1 X82.459 Y110.876 E19.29945
G1 X82.108 Y110.876 E19.30595
G1 X77.140 Y105.908 E19.43593
G1 X76.988 Y106.106 E19.44056
G1 X81.757 Y110.876 E19.56535
G1 X81.406 Y110.876 E19.57184
G1 X76.835 Y106.305 E19.69144
G1 X76.683 Y106.503 E19.69607
G1 X81.055 Y110.876 E19.81047
G1 X80.704 Y110.876 E19.81696
G1 X76.531 Y106.702 E19.92616
G1 X76.378 Y106.900 E19.93079
G1 X80.354 Y110.876 E20.03480
G1 X80.003 Y110.876 E20.04129
G1 X76.226 Y107.099 E20.14011
G1 X76.073 Y107.298 E20.14474
G1 X79.652 Y110.876 E20.23836
G1 X79.301 Y110.876 E20.24485
G1 X75.921 Y107.496 E20.33327
G1 X75.769 Y107.695 E20.33790
G1 X78.950 Y110.876 E20.42113
G1 X78.599 Y110.876 E20.42763
G1 X75.616 Y107.893 E20.50566
G1 X75.464 Y108.092 E20.51029
G1 X78.288 Y110.916 E20.58418
G1 X78.090 Y111.068 E20.58881
G1 X75.276 Y108.255 E20.66241
G1 X75.078 Y108.408 E20.66704
G1 X77.891 Y111.221 E20.74064
G1 X77.693 Y111.373 E20.74527
G1 X74.879 Y108.560 E20.81888
G1 X74.681 Y108.712 E20.82351
G1 X77.494 Y111.525 E20.89711
G1 X77.295 Y111.678 E20.90174
G1 X74.482 Y108.865 E20.97534
G1 X74.284 Y109.017 E20.97997
G1 X77.097 Y111.830 E21.05357
G1 X76.898 Y111.983 E21.05820
G1 X74.085 Y109.169 E21.13180
G1 X73.887 Y109.322 E21.13643
G1 X76.700 Y112.135 E21.21003
G1 X76.501 Y112.287 E21.21466
G1 X73.688 Y109.474 E21.28827
G1 X73.489 Y109.626 E21.29290
G1 X76.303 Y112.440 E21.36650
G1 X76.104 Y112.592 E21.37113
G1 X73.291 Y109.779 E21.44473
G1 X73.092 Y109.931 E21.44936
G1 X75.905 Y112.744 E21.52296
G1 X75.707 Y112.897 E21.52759
G1 X72.856 Y110.046 E21.60217
G1 X72.608 Y110.149 E21.60714
G1 X75.508 Y113.049 E21.68302
G1 X75.310 Y113.201 E21.68765
G1 X72.360 Y110.252 E21.76482
G1 X72.112 Y110.355 E21.76979
G1 X75.111 Y113.354 E21.84826
G1 X74.883 Y113.476 E21.85306
G1 X71.864 Y110.457 E21.93204
G1 X71.616 Y110.560 E21.93701
G1 X74.635 Y113.579 E22.01600
G1 X74.386 Y113.682 E22.02097
G1 X71.368 Y110.663 E22.09995
G1 X71.119 Y110.766 E22.10492
G1 X74.138 Y113.785 E22.18390
G1 X73.890 Y113.887 E22.18887
G1 X70.871 Y110.868 E22.26786
G1 X70.623 Y110.971 E22.27282
G1 X73.642 Y113.990 E22.35181
G1 X73.394 Y114.093 E22.35678
G1 X70.375 Y111.074 E22.43576
G1 X70.092 Y111.142 E22.44115
G1 X73.146 Y114.196 E22.52105
G1 X72.898 Y114.298 E22.52602
G1 X69.782 Y111.183 E22.60754
G1 X69.472 Y111.223 E22.61333
G1 X72.649 Y114.401 E22.69647
G1 X72.401 Y114.504 E22.70144
G1 X69.161 Y111.264 E22.78621
G1 X68.851 Y111.305 E22.79199
G1 X72.153 Y114.607 E22.87838
G1 X71.905 Y114.710 E22.88335
G1 X68.541 Y111.346 E22.97136
G1 X68.231 Y111.387 E22.97714
G1 X71.657 Y114.812 E23.06677
G1 X71.409 Y114.915 E23.07174
G1 X67.921 Y111.427 E23.16299
G1 X67.611 Y111.468 E23.16878
G1 X71.161 Y115.018 E23.26165
G1 X70.992 Y115.200 E23.26624
G1 X67.301 Y111.509 E23.36280
G1 X66.901 Y111.460 E23.37026
G1 X70.864 Y115.423 E23.47396
G1 X70.736 Y115.646 E23.47872
G1 X66.497 Y111.407 E23.58964
G1 X66.092 Y111.353 E23.59719
G1 X70.609 Y115.870 E23.71535
G1 X70.481 Y116.093 E23.72011
G1 X65.688 Y111.300 E23.84550
G1 X65.284 Y111.247 E23.85304
G1 X70.353 Y116.316 E23.98567
G1 X70.226 Y116.540 E23.99043
G1 X64.880 Y111.194 E24.13029
G1 X64.476 Y111.141 E24.13783
G1 X70.098 Y116.763 E24.28493
G1 X69.970 Y116.986 E24.28969
G1 X63.957 Y110.973 E24.44701
G1 X63.358 Y110.725 F6000.000
G1 X69.843 Y117.209 E24.61666 F1200.000
G1 X69.715 Y117.433 E24.62142
G1 X62.759 Y110.477 E24.80341
G1 X62.160 Y110.229 F6000.000
G1 X69.588 Y117.656 E24.99774 F1200.000
G1 X69.460 Y117.879 E25.00249
G1 X61.561 Y109.980 E25.20915
G1 X60.096 Y108.866 F6000.000
G1 X69.332 Y118.102 E25.45080 F1200.000
G1 X69.205 Y118.326 E25.45556
G1 X51.938 Y101.060 E25.90730
G1 X51.885 Y100.655 E25.91484
G1 X58.422 Y107.192 E26.08586
G1 X57.308 Y105.727 F6000.000
G1 X51.832 Y100.251 E26.22913 F1200.000
G1 X51.814 Y99.883 E26.23595
G1 X57.060 Y105.128 E26.37319
G1 X56.811 Y104.529 F6000.000
G1 X51.855 Y99.573 E26.50286 F1200.000
G1 X51.896 Y99.263 E26.50864
G1 X56.563 Y103.930 E26.63076
G1 X56.315 Y103.331 F6000.000
G1 X51.937 Y98.952 E26.74531 F1200.000
G1 X51.978 Y98.642 E26.75109
G1 X56.148 Y102.812 E26.86019
G1 X56.094 Y102.408 E26.86773
G1 X52.019 Y98.332 E26.97437
G1 X52.059 Y98.022 E26.98016
G1 X56.041 Y102.004 E27.08434
G1 X55.988 Y101.600 E27.09188
G1 X52.100 Y97.712 E27.19360
G1 X52.141 Y97.402 E27.19938
G1 X55.935 Y101.196 E27.29864
G1 X55.882 Y100.792 E27.30618
G1 X52.182 Y97.092 E27.40298
G1 X52.223 Y96.782 E27.40877
G1 X55.828 Y100.388 E27.50310
G1 X55.779 Y99.987 E27.51057
G1 X52.263 Y96.472 E27.60254
G1 X52.304 Y96.162 E27.60833
G1 X55.820 Y99.677 E27.70031
G1 X55.861 Y99.367 E27.70610
G1 X52.320 Y95.827 E27.79872
G1 X51.841 Y94.996 F6000.000
G1 X55.902 Y99.057 E27.90496 F1200.000
G1 X55.942 Y98.747 E27.91075
G1 X51.362 Y94.166 E28.03059
G1 X50.882 Y93.336 F6000.000
G1 X55.983 Y98.437 E28.16405 F1200.000
G1 X56.024 Y98.127 E28.16984
G1 X50.403 Y92.506 E28.31690
G1 X49.924 Y91.675 F6000.000
G1 X56.065 Y97.817 E28.47758 F1200.000
G1 X56.106 Y97.506 E28.48336
G1 X49.444 Y90.845 E28.65765
G1 X48.965 Y90.015 F6000.000
G1 X56.146 Y97.196 E28.84555 F1200.000
G1 X56.214 Y96.913 E28.85093
G1 X48.485 Y89.184 E29.05314
G1 X48.006 Y88.354 F6000.000
G1 X56.317 Y96.665 E29.27058 F1200.000
G1 X56.420 Y96.417 E29.27555
G1 X47.527 Y87.524 E29.50822
G1 X47.047 Y86.694 F6000.000
G1 X56.523 Y96.169 E29.75613 F1200.000
G1 X56.625 Y95.921 E29.76110
G1 X46.568 Y85.863 E30.02423
G1 X46.089 Y85.033 F6000.000
G1 X56.728 Y95.672 E30.30259 F1200.000
G1 X56.831 Y95.424 E30.30756
G1 X45.609 Y84.203 E30.60116
G1 X45.130 Y83.372 F6000.000
G1 X56.934 Y95.176 E30.90998 F1200.000
G1 X57.036 Y94.928 E30.91495
G1 X44.650 Y82.542 E31.23901
G1 X44.340 Y81.880 F6000.000
G1 X57.139 Y94.680 E31.57389 F1200.000
G1 X57.242 Y94.432 E31.57886
G1 X44.492 Y81.682 E31.91244
G1 X44.644 Y81.483 E31.91707
G1 X57.357 Y94.196 E32.24967
G1 X57.509 Y93.997 E32.25430
G1 X44.797 Y81.285 E32.58691
G1 X44.949 Y81.086 E32.59154
G1 X57.662 Y93.799 E32.92414
G1 X57.814 Y93.600 E32.92877
G1 X45.101 Y80.887 E33.26138
G1 X45.254 Y80.689 E33.26601
G1 X57.966 Y93.402 E33.59861
G1 X58.119 Y93.203 E33.60324
G1 X45.406 Y80.490 E33.93585
G1 X45.558 Y80.292 E33.94048
G1 X58.271 Y93.004 E34.27308
G1 X58.423 Y92.806 E34.27771
G1 X45.711 Y80.093 E34.61032
G1 X45.863 Y79.895 E34.61495
G1 X58.576 Y92.607 E34.94755
G1 X58.728 Y92.409 E34.95218
G1 X46.016 Y79.696 E35.28479
G1 X46.168 Y79.498 E35.28942
G1 X58.881 Y92.210 E35.62202
G1 X59.033 Y92.012 E35.62665
G1 X46.320 Y79.299 E35.95926
G1 X46.492 Y79.120 E35.96385
G1 X59.196 Y91.824 E36.29622
G1 X59.395 Y91.672 E36.30085
G1 X46.682 Y78.959 E36.63346
G1 X46.881 Y78.807 E36.63809
G1 X59.593 Y91.519 E36.97069
G1 X59.792 Y91.367 E36.97532
G1 X47.079 Y78.654 E37.30793
G1 X47.278 Y78.502 E37.31256
G1 X59.991 Y91.215 E37.64516
G1 X60.189 Y91.062 E37.64979
G1 X47.476 Y78.350 E37.98240
G1 X47.675 Y78.197 E37.98703
G1 X60.388 Y90.910 E38.31963
G1 X60.586 Y90.758 E38.32426
G1 X47.874 Y78.045 E38.65687
G1 X48.072 Y77.893 E38.66150
G1 X60.785 Y90.605 E38.99410
G1 X60.983 Y90.453 E38.99873
G1 X48.271 Y77.740 E39.33134
G1 X48.469 Y77.588 E39.33597
G1 X61.182 Y90.301 E39.66857
G1 X61.380 Y90.148 E39.67320
G1 X48.668 Y77.436 E40.00581
G1 X48.866 Y77.283 E40.01044
G1 X61.591 Y90.007 E40.34335
G1 X61.839 Y89.905 E40.34831
G1 X49.065 Y77.131 E40.68252
G1 X49.263 Y76.978 E40.68715
G1 X62.087 Y89.802 E41.02265
G1 X62.335 Y89.699 E41.02762
G1 X49.462 Y76.826 E41.36442
G1 X49.661 Y76.674 E41.36905
G1 X62.583 Y89.596 E41.70714
G1 X62.831 Y89.493 E41.71211
G1 X49.859 Y76.521 E42.05150
G1 X50.058 Y76.369 E42.05613
G1 X63.079 Y89.391 E42.39682
G1 X63.328 Y89.288 E42.40179
G1 X50.256 Y76.217 E42.74378
G1 X50.455 Y76.064 E42.74841
G1 X63.576 Y89.185 E43.09169
G1 X63.824 Y89.082 E43.09666
