; generated by Slic3r 1.1.7 on 2015-03-11 at 15:03:16

; perimeters extrusion width = 0.40mm
; infill extrusion width = 0.42mm
; solid infill extrusion width = 0.42mm
; top infill extrusion width = 0.42mm
; support material extrusion width = 0.40mm

G21 ; set units to millimeters
M190 S115 ; wait for bed temperature to be reached
M104 S220 ; set temperature
M106 S255; Turn on Fan fully
G28 ; home all axes Start of G Code Slic3r
 
  
M109 S220 ; wait for temperature to be reached
G90 ; use absolute coordinates
G92 E0
M82 ; use absolute distances for extrusion
M106 S127
G1 F1980.000 E-4.00000
G92 E0
G1 Z0.300 F6000.000
G1 X63.030 Y56.970 F6000.000
G1 E4.00000 F1980.000
G1 X64.607 Y55.299 E4.09532 F1650.000
G1 X67.781 Y54.030 E4.23722
G1 X96.911 Y50.564 E5.45478
G1 X137.132 Y50.564 E7.12415
G1 X139.394 Y50.961 E7.21947
G1 X141.385 Y52.105 E7.31479 F1650.000
G1 X142.869 Y53.858 E7.41011
G1 X143.774 Y57.096 E7.54965
G1 X144.340 Y91.015 E8.95765
G1 X144.340 Y138.562 E10.93112
G1 X143.943 Y140.824 E11.02644
G1 X142.799 Y142.816 E11.12176
G1 X141.046 Y144.299 E11.21708
G1 X138.128 Y145.191 E11.34372
G1 X72.673 Y149.436 E14.06615
G1 X62.303 Y149.436 E14.49656
G1 X60.041 Y149.039 E14.59188
G1 X58.049 Y147.895 E14.68720
G1 X56.566 Y146.142 E14.78252
G1 X55.768 Y143.988 E14.87784
G1 X55.660 Y142.793 E14.92766
G1 X55.660 Y86.795 E17.25186
G1 X55.843 Y85.246 E17.31659
G1 X62.117 Y59.077 E18.43354
G1 X63.007 Y57.025 E18.52637
G1 F1980.000 E14.52637
G92 E0
G1 X63.330 Y57.100 F6000.000
G1 E4.00000 F1980.000
G1 X64.888 Y55.492 E4.09297 F1650.000
G1 X67.820 Y54.349 E4.22356
G1 X96.911 Y50.886 E5.43952
G1 X137.132 Y50.886 E7.10889
G1 X139.336 Y51.282 E7.20185
G1 X141.264 Y52.423 E7.29482 F1650.000
G1 X142.673 Y54.164 E7.38779
G1 X143.452 Y57.101 E7.51391
G1 X144.018 Y91.015 E8.92169
G1 X144.018 Y138.562 E10.89515
G1 X143.622 Y140.767 E10.98812
G1 X142.481 Y142.695 E11.08109
G1 X140.740 Y144.104 E11.17406
G1 X138.107 Y144.871 E11.28785
G1 X72.673 Y149.114 E14.00942
G1 X62.303 Y149.114 E14.43983
G1 X60.099 Y148.718 E14.53280
G1 X58.171 Y147.577 E14.62576
G1 X56.762 Y145.836 E14.71873
G1 X55.982 Y142.793 E14.84910
G1 X55.982 Y86.795 E17.17331
G1 X56.156 Y85.321 E17.23490
G1 X62.430 Y59.152 E18.35185
G1 X63.305 Y57.155 E18.44233
G1 F1980.000 E14.44233
G92 E0
G1 X121.905 Y114.789 F6000.000
G1 E4.00000 F1980.000
G1 X101.593 Y94.477 E5.19223 F900.000
G1 X101.593 Y91.486 E5.31636
G1 X137.226 Y91.486 E6.79527
G1 X137.226 Y138.091 E8.72960
G1 X101.593 Y138.091 E10.20852
G1 X101.593 Y135.100 E10.33265
G1 X121.863 Y114.831 E11.52239
G1 F1980.000 E7.52239
G92 E0
G1 X121.450 Y114.789 F6000.000
G1 E4.00000 F1980.000
G1 X101.272 Y94.610 E5.18441 F720.000
G1 X101.272 Y91.165 E5.32741
G1 X137.547 Y91.165 E6.83301
G1 X137.547 Y138.412 E8.79402
G1 X101.272 Y138.412 E10.29962
G1 X101.272 Y134.967 E10.44262
G1 X121.408 Y114.831 E11.62455
G1 F1980.000 E7.62455
G92 E0
G1 X121.733 Y114.506 F6000.000
G1 X136.973 Y91.699 F6000.000
G1 E4.00000 F1980.000
G1 X137.013 Y91.739 E4.00235 F900.000
G1 X137.013 Y92.196 E4.02131
G1 X136.516 Y91.699 E4.05046
G1 X136.059 Y91.699 E4.06942
G1 X137.013 Y92.653 E4.12539
G1 X137.013 Y93.110 E4.14435
G1 X135.602 Y91.699 E4.22713
G1 X135.145 Y91.699 E4.24609
G1 X137.013 Y93.567 E4.35568
G1 X137.013 Y94.023 E4.37464
G1 X134.689 Y91.699 E4.51104
G1 X134.232 Y91.699 E4.53000
G1 X137.013 Y94.480 E4.69321
G1 X137.013 Y94.937 E4.71217
G1 X133.775 Y91.699 E4.90220
G1 X133.318 Y91.699 E4.92115
G1 X137.013 Y95.394 E5.13799
G1 X137.013 Y95.850 E5.15695
G1 X132.862 Y91.699 E5.40059
G1 X132.405 Y91.699 E5.41955
G1 X137.013 Y96.307 E5.69001
G1 X137.013 Y96.764 E5.70897
G1 X131.948 Y91.699 E6.00623
G1 X131.491 Y91.699 E6.02519
G1 X137.013 Y97.221 E6.34927
G1 X137.013 Y97.677 E6.36823
G1 X131.035 Y91.699 E6.71912
G1 X130.578 Y91.699 E6.73808
G1 X137.013 Y98.134 E7.11578
G1 X137.013 Y98.591 E7.13474
G1 X130.121 Y91.699 E7.53925
G1 X129.664 Y91.699 E7.55821
G1 X137.013 Y99.048 E7.98953
G1 X137.013 Y99.504 E8.00849
G1 X129.207 Y91.699 E8.46662
G1 X128.751 Y91.699 E8.48558
G1 X137.013 Y99.961 E8.97052
G1 X137.013 Y100.418 E8.98948
G1 X128.294 Y91.699 E9.50123
G1 X127.837 Y91.699 E9.52019
G1 X137.013 Y100.875 E10.05876
G1 X137.013 Y101.332 E10.07772
G1 X127.380 Y91.699 E10.64309
G1 X126.924 Y91.699 E10.66205
G1 X137.013 Y101.788 E11.25424
G1 X137.013 Y102.245 E11.27320
G1 X126.467 Y91.699 E11.89220
G1 X126.010 Y91.699 E11.91115
G1 X137.013 Y102.702 E12.55696
G1 X137.013 Y103.159 E12.57592
G1 X125.553 Y91.699 E13.24854
G1 X125.097 Y91.699 E13.26750
G1 X137.013 Y103.615 E13.96693
G1 X137.013 Y104.072 E13.98589
G1 X124.640 Y91.699 E14.71213
G1 X124.183 Y91.699 E14.73109
G1 X137.013 Y104.529 E15.48414
G1 X137.013 Y104.986 E15.50310
G1 X123.726 Y91.699 E16.28296
G1 X123.270 Y91.699 E16.30192
G1 X137.013 Y105.442 E17.10860
G1 X137.013 Y105.899 E17.12755
G1 X122.813 Y91.699 E17.96104
G1 X122.356 Y91.699 E17.98000
G1 X137.013 Y106.356 E18.84029
G1 X137.013 Y106.813 E18.85925
G1 X121.899 Y91.699 E19.74636
G1 X121.442 Y91.699 E19.76532
G1 X137.013 Y107.270 E20.67924
G1 X137.013 Y107.726 E20.69819
G1 X120.986 Y91.699 E21.63892
G1 X120.529 Y91.699 E21.65788
G1 X137.013 Y108.183 E22.62542
G1 X137.013 Y108.640 E22.64438
G1 X120.072 Y91.699 E23.63873
G1 X119.615 Y91.699 E23.65769
G1 X137.013 Y109.097 E24.67885
G1 X137.013 Y109.553 E24.69781
G1 X119.159 Y91.699 E25.74578
G1 X118.702 Y91.699 E25.76474
G1 X137.013 Y110.010 E26.83952
G1 X137.013 Y110.467 E26.85848
G1 X118.245 Y91.699 E27.96008
G1 X117.788 Y91.699 E27.97903
G1 X137.013 Y110.924 E29.10744
G1 X137.013 Y111.380 E29.12640
G1 X117.332 Y91.699 E30.28161
G1 X116.875 Y91.699 E30.30057
G1 X137.013 Y111.837 E31.48260
G1 X137.013 Y112.294 E31.50156
G1 X116.418 Y91.699 E32.71040
G1 X115.961 Y91.699 E32.72935
G1 X137.013 Y112.751 E33.96500
G1 X137.013 Y113.207 E33.98396
G1 X115.504 Y91.699 E35.24642
G1 X115.048 Y91.699 E35.26538
G1 X137.013 Y113.664 E36.55465
G1 X137.013 Y114.121 E36.57361
G1 X114.591 Y91.699 E37.88969
G1 X114.134 Y91.699 E37.90865
G1 X137.013 Y114.578 E39.25154
G1 X137.013 Y115.035 E39.27050
G1 X113.677 Y91.699 E40.64020
G1 X113.221 Y91.699 E40.65916
G1 X137.013 Y115.491 E42.05568
G1 X137.013 Y115.948 E42.07463
G1 X112.764 Y91.699 E43.49796
G1 X112.307 Y91.699 E43.51692
G1 X137.013 Y116.405 E44.96705
G1 X137.013 Y116.862 E44.98601
G1 X111.850 Y91.699 E46.46296
G1 X111.394 Y91.699 E46.48192
G1 X137.013 Y117.318 E47.98567
G1 X137.013 Y117.775 E48.00463
G1 X110.937 Y91.699 E49.53520
G1 X110.480 Y91.699 E49.55416
G1 X137.013 Y118.232 E51.11154
G1 X137.013 Y118.689 E51.13050
G1 X110.023 Y91.699 E52.71469
G1 X109.567 Y91.699 E52.73365
G1 X137.013 Y119.145 E54.34465
G1 X137.013 Y119.602 E54.36361
G1 X109.110 Y91.699 E56.00142
G1 X108.653 Y91.699 E56.02038
G1 X137.013 Y120.059 E57.68500
G1 X137.013 Y120.516 E57.70396
G1 X108.196 Y91.699 E59.39539
G1 X107.739 Y91.699 E59.41435
G1 X137.013 Y120.973 E61.13259
G1 X137.013 Y121.429 E61.15155
G1 X107.283 Y91.699 E62.89661
G1 X106.826 Y91.699 E62.91557
G1 X137.013 Y121.886 E64.68743
G1 X137.013 Y122.343 E64.70639
G1 X106.369 Y91.699 E66.50507
G1 X105.912 Y91.699 E66.52403
G1 X137.013 Y122.800 E68.34952
G1 X137.013 Y123.256 E68.36847
G1 X105.456 Y91.699 E70.22077
G1 X104.999 Y91.699 E70.23973
G1 X137.013 Y123.713 E72.11884
G1 X137.013 Y124.170 E72.13780
G1 X104.542 Y91.699 E74.04372
G1 X104.085 Y91.699 E74.06268
G1 X137.013 Y124.627 E75.99541
G1 X137.013 Y125.083 E76.01437
G1 X103.629 Y91.699 E77.97391
G1 X103.172 Y91.699 E77.99287
G1 X137.013 Y125.540 E79.97923
G1 X137.013 Y125.997 E79.99818
G1 X102.715 Y91.699 E82.01135
G1 X102.258 Y91.699 E82.03031
G1 X137.013 Y126.454 E84.07028
G1 X137.013 Y126.910 E84.08924
G1 X101.824 Y91.722 E86.15471
G1 X101.807 Y92.161 E86.17295
G1 X137.013 Y127.367 E88.23944
G1 X137.013 Y127.824 E88.25840
G1 X101.807 Y92.618 E90.32489
G1 X101.807 Y93.075 E90.34385
G1 X137.013 Y128.281 E92.41034
G1 X137.013 Y128.738 E92.42930
G1 X101.807 Y93.532 E94.49579
G1 X101.807 Y93.988 E94.51475
G1 X137.013 Y129.194 E96.58124
G1 X137.013 Y129.651 E96.60019
G1 X122.178 Y114.817 E97.47092
G1 X121.950 Y115.045 E97.48433
G1 X137.013 Y130.108 E98.36847
G1 X137.013 Y130.565 E98.38742
G1 X121.721 Y115.274 E99.28497
G1 X121.493 Y115.502 E99.29837
G1 X137.013 Y131.021 E100.20932
G1 X137.013 Y131.478 E100.22828
G1 X121.265 Y115.730 E101.15263
G1 X121.036 Y115.959 E101.16604
G1 X137.013 Y131.935 E102.10379
G1 X137.013 Y132.392 E102.12275
G1 X120.808 Y116.187 E103.07392
G1 X120.580 Y116.415 E103.08732
G1 X137.013 Y132.848 E104.05189
G1 X137.013 Y133.305 E104.07085
G1 X120.351 Y116.644 E105.04882
G1 X120.123 Y116.872 E105.06223
G1 X137.013 Y133.762 E106.05361
G1 X137.013 Y134.219 E106.07257
G1 X119.894 Y117.101 E107.07735
G1 X119.666 Y117.329 E107.09076
G1 X137.013 Y134.676 E108.10895
G1 X137.013 Y135.132 E108.12791
G1 X119.438 Y117.557 E109.15950
G1 X119.209 Y117.786 E109.17291
G1 X137.013 Y135.589 E110.21791
G1 X137.013 Y136.046 E110.23687
G1 X118.981 Y118.014 E111.29527
G1 X118.752 Y118.243 E111.30868
G1 X137.013 Y136.503 E112.38049
G1 X137.013 Y136.959 E112.39945
G1 X118.524 Y118.471 E113.48467
G1 X118.296 Y118.699 E113.49807
G1 X137.013 Y137.416 E114.59670
G1 X136.995 Y137.855 E114.61494
G1 X118.067 Y118.928 E115.72595
G1 X117.839 Y119.156 E115.73935
G1 X136.561 Y137.878 E116.83827
G1 X136.104 Y137.878 E116.85723
G1 X117.611 Y119.384 E117.94275
G1 X117.382 Y119.613 E117.95615
G1 X135.647 Y137.878 E119.02826
G1 X135.191 Y137.878 E119.04722
G1 X117.154 Y119.841 E120.10592
G1 X116.925 Y120.070 E120.11933
G1 X134.734 Y137.878 E121.16463
G1 X134.277 Y137.878 E121.18358
G1 X116.697 Y120.298 E122.21548
G1 X116.469 Y120.526 E122.22888
G1 X133.820 Y137.878 E123.24737
G1 X133.363 Y137.878 E123.26633
G1 X116.240 Y120.755 E124.27141
G1 X116.012 Y120.983 E124.28482
G1 X132.907 Y137.878 E125.27649
G1 X132.450 Y137.878 E125.29545
G1 X115.783 Y121.212 E126.27372
G1 X115.555 Y121.440 E126.28713
G1 X131.993 Y137.878 E127.25199
G1 X131.536 Y137.878 E127.27095
G1 X115.327 Y121.668 E128.22241
G1 X115.098 Y121.897 E128.23582
G1 X131.080 Y137.878 E129.17387
G1 X130.623 Y137.878 E129.19283
G1 X114.870 Y122.125 E130.11748
G1 X114.642 Y122.353 E130.13088
G1 X130.166 Y137.878 E131.04213
G1 X129.709 Y137.878 E131.06109
G1 X114.413 Y122.582 E131.95892
G1 X114.185 Y122.810 E131.97233
G1 X129.253 Y137.878 E132.85676
G1 X128.796 Y137.878 E132.87572
G1 X113.956 Y123.039 E133.74675
G1 X113.728 Y123.267 E133.76015
G1 X128.339 Y137.878 E134.61777
G1 X127.882 Y137.878 E134.63673
G1 X113.500 Y123.495 E135.48095
G1 X113.271 Y123.724 E135.49435
G1 X127.425 Y137.878 E136.32517
G1 X126.969 Y137.878 E136.34412
G1 X113.043 Y123.952 E137.16153
G1 X112.814 Y124.181 E137.17494
G1 X126.512 Y137.878 E137.97894
G1 X126.055 Y137.878 E137.99789
G1 X112.586 Y124.409 E138.78849
G1 X112.358 Y124.637 E138.80189
G1 X125.598 Y137.878 E139.57908
G1 X125.142 Y137.878 E139.59804
G1 X112.129 Y124.866 E140.36183
G1 X111.901 Y125.094 E140.37523
G1 X124.685 Y137.878 E141.12561
G1 X124.228 Y137.878 E141.14457
G1 X111.673 Y125.322 E141.88154
G1 X111.444 Y125.551 E141.89495
G1 X123.771 Y137.878 E142.61851
G1 X123.315 Y137.878 E142.63747
G1 X111.216 Y125.779 E143.34763
G1 X110.987 Y126.008 E143.36104
G1 X122.858 Y137.878 E144.05780
G1 X122.401 Y137.878 E144.07675
G1 X110.759 Y126.236 E144.76011
G1 X110.531 Y126.464 E144.77351
G1 X121.944 Y137.878 E145.44346
G1 X121.488 Y137.878 E145.46241
G1 X110.302 Y126.693 E146.11895
G1 X110.074 Y126.921 E146.13236
G1 X121.031 Y137.878 E146.77550
G1 X120.574 Y137.878 E146.79445
G1 X109.846 Y127.149 E147.42418
G1 X109.617 Y127.378 E147.43759
G1 X120.117 Y137.878 E148.05391
G1 X119.660 Y137.878 E148.07287
G1 X109.389 Y127.606 E148.67579
G1 X109.160 Y127.835 E148.68919
G1 X119.204 Y137.878 E149.27871
G1 X118.747 Y137.878 E149.29767
G1 X108.932 Y128.063 E149.87377
G1 X108.704 Y128.291 E149.88718
G1 X118.290 Y137.878 E150.44988
G1 X117.833 Y137.878 E150.46884
G1 X108.475 Y128.520 E151.01814
G1 X108.247 Y128.748 E151.03154
G1 X117.377 Y137.878 E151.56743
G1 X116.920 Y137.878 E151.58639
G1 X108.018 Y128.977 E152.10888
G1 X107.790 Y129.205 E152.12228
G1 X116.463 Y137.878 E152.63136
G1 X116.006 Y137.878 E152.65032
G1 X107.562 Y129.433 E153.14600
G1 X107.333 Y129.662 E153.15940
G1 X115.550 Y137.878 E153.64167
G1 X115.093 Y137.878 E153.66063
G1 X107.105 Y129.890 E154.12949
G1 X106.877 Y130.118 E154.14290
G1 X114.636 Y137.878 E154.59836
G1 X114.179 Y137.878 E154.61731
G1 X106.648 Y130.347 E155.05937
G1 X106.420 Y130.575 E155.07277
G1 X113.722 Y137.878 E155.50142
G1 X113.266 Y137.878 E155.52038
G1 X106.191 Y130.804 E155.93562
G1 X105.963 Y131.032 E155.94903
G1 X112.809 Y137.878 E156.35086
G1 X112.352 Y137.878 E156.36982
G1 X105.735 Y131.260 E156.75825
G1 X105.506 Y131.489 E156.77166
G1 X111.895 Y137.878 E157.14668
G1 X111.439 Y137.878 E157.16564
G1 X105.278 Y131.717 E157.52726
G1 X105.049 Y131.946 E157.54067
G1 X110.982 Y137.878 E157.88888
G1 X110.525 Y137.878 E157.90784
G1 X104.821 Y132.174 E158.24265
G1 X104.593 Y132.402 E158.25606
G1 X110.068 Y137.878 E158.57746
G1 X109.612 Y137.878 E158.59642
G1 X104.364 Y132.631 E158.90442
G1 X104.136 Y132.859 E158.91782
G1 X109.155 Y137.878 E159.21242
G1 X108.698 Y137.878 E159.23138
G1 X103.908 Y133.087 E159.51256
G1 X103.679 Y133.316 E159.52597
G1 X108.241 Y137.878 E159.79375
G1 X107.785 Y137.878 E159.81271
G1 X103.451 Y133.544 E160.06709
G1 X103.222 Y133.773 E160.08049
G1 X107.328 Y137.878 E160.32146
G1 X106.871 Y137.878 E160.34042
G1 X102.994 Y134.001 E160.56799
G1 X102.766 Y134.229 E160.58139
G1 X106.414 Y137.878 E160.79555
G1 X105.957 Y137.878 E160.81451
G1 X102.537 Y134.458 E161.01527
G1 X102.309 Y134.686 E161.02867
G1 X105.501 Y137.878 E161.21602
G1 X105.044 Y137.878 E161.23498
G1 X102.080 Y134.915 E161.40892
G1 X101.852 Y135.143 E161.42233
G1 X104.587 Y137.878 E161.58287
G1 X104.130 Y137.878 E161.60183
G1 X101.807 Y135.554 E161.73823
G1 X101.807 Y136.011 E161.75719
G1 X103.674 Y137.878 E161.86678
G1 X103.217 Y137.878 E161.88574
G1 X101.807 Y136.468 E161.96852
G1 X101.807 Y136.924 E161.98748
G1 X102.760 Y137.878 E162.04345
G1 X102.303 Y137.878 E162.06240
G1 X101.807 Y137.381 E162.09156
G1 X101.807 Y137.838 E162.11052
G1 X101.847 Y137.878 E162.11287
G1 F1980.000 E158.11287
G92 E0
G1 X100.350 Y70.980 F6000.000
G1 E4.00000 F1980.000
G1 X100.350 Y81.315 E4.42893 F900.000
G1 X97.383 Y81.315 E4.55210
G1 X97.383 Y57.679 E5.53313
G1 X100.350 Y57.679 E5.65629
G1 X100.350 Y68.013 E6.08522
G1 X133.693 Y68.013 E7.46912
G1 X133.693 Y57.679 E7.89806
G1 X136.660 Y57.679 E8.02122
G1 X136.660 Y81.315 E9.00225
G1 X133.693 Y81.315 E9.12541
G1 X133.693 Y70.980 E9.55435
G1 X100.410 Y70.980 E10.93576
G1 F1980.000 E6.93576
G92 E0
G1 X100.671 Y71.302 F6000.000
G1 E4.00000 F1980.000
G1 X100.671 Y81.636 E4.42893 F720.000
G1 X97.061 Y81.636 E4.57878
G1 X97.061 Y57.357 E5.58650
G1 X100.671 Y57.357 E5.73634
G1 X100.671 Y67.692 E6.16528
G1 X133.371 Y67.692 E7.52249
G1 X133.371 Y57.357 E7.95143
G1 X136.982 Y57.357 E8.10127
G1 X136.982 Y81.636 E9.10899
G1 X133.371 Y81.636 E9.25884
G1 X133.371 Y71.302 E9.68777
G1 X100.731 Y71.302 E11.04250
G1 F1980.000 E7.04250
G92 E0
G1 X100.271 Y71.302 F6000.000
G1 X100.137 Y68.108 F6000.000
G1 E4.00000 F1980.000
G1 X97.596 Y65.566 E4.14917 F900.000
G1 X97.596 Y65.111 E4.16809
G1 X100.137 Y67.652 E4.31726
G1 X100.137 Y67.196 E4.33617
G1 X97.596 Y64.655 E4.48534
G1 X97.596 Y64.199 E4.50426
G1 X100.137 Y66.741 E4.65343
G1 X100.137 Y66.285 E4.67234
G1 X97.596 Y63.743 E4.82151
G1 X97.596 Y63.288 E4.84043
G1 X100.137 Y65.829 E4.98960
G1 X100.137 Y65.373 E5.00851
G1 X97.596 Y62.832 E5.15768
G1 X97.596 Y62.376 E5.17660
G1 X100.137 Y64.918 E5.32577
G1 X100.137 Y64.462 E5.34468
G1 X97.596 Y61.920 E5.49385
G1 X97.596 Y61.465 E5.51277
G1 X100.137 Y64.006 E5.66194
G1 X100.137 Y63.550 E5.68086
G1 X97.596 Y61.009 E5.83003
G1 X97.596 Y60.553 E5.84894
G1 X100.137 Y63.095 E5.99811
G1 X100.137 Y62.639 E6.01703
G1 X97.596 Y60.097 E6.16620
G1 X97.596 Y59.642 E6.18511
G1 X100.137 Y62.183 E6.33428
G1 X100.137 Y61.727 E6.35320
G1 X97.596 Y59.186 E6.50237
G1 X97.596 Y58.730 E6.52128
G1 X100.137 Y61.272 E6.67045
G1 X100.137 Y60.816 E6.68937
