; generated by Slic3r 1.1.7 on 2015-02-20 at 14:00:55

; perimeters extrusion width = 0.47mm
; infill extrusion width = 0.62mm
; solid infill extrusion width = 0.62mm
; top infill extrusion width = 0.62mm

G21 ; set units to millimeters
M190 S60 ; wait for bed temperature to be reached
M104 S230 ; set temperature
G28 ; home all axes Start of G Code Slic3r
 
 
M109 S230 ; wait for temperature to be reached
G90 ; use absolute coordinates
G92 E0
M82 ; use absolute distances for extrusion
G1 F4200.000 E-3.00000
G92 E0
G1 Z0.294 F6000.000
G1 X56.242 Y35.402 F6000.000
G1 E3.00000 F4200.000
G1 X56.444 Y35.100 E3.02807 F1500.000
G1 X57.056 Y34.293 E3.10630
G1 X58.008 Y33.299 E3.21256
G1 X59.150 Y32.393 E3.32511
G1 X60.259 Y31.726 E3.42506
G1 X61.519 Y31.173 E3.53131
G1 X62.840 Y30.788 E3.63758
G1 X64.200 Y30.580 E3.74385
G1 X65.110 Y30.536 E3.81417
G1 X135.356 Y30.551 E9.23869
G1 X136.724 Y30.702 E9.34498 F1500.000
G1 X138.060 Y31.029 E9.45121
G1 X139.342 Y31.529 E9.55747
G1 X140.548 Y32.192 E9.66375
G1 X141.657 Y33.006 E9.76999
G1 X142.651 Y33.958 E9.87626
G1 X143.511 Y35.032 E9.98252
G1 X143.713 Y35.334 E10.01057
G1 X144.224 Y36.209 E10.08882
G1 X144.777 Y37.469 E10.19507
G1 X145.162 Y38.790 E10.30134
G1 X145.233 Y39.146 E10.32938
G1 X145.370 Y40.150 E10.40763
G1 X145.414 Y41.060 E10.47797
G1 X145.399 Y159.606 E19.63234
G1 X145.372 Y160.023 E19.66459
G1 X145.250 Y160.948 E19.73662
G1 X144.927 Y162.258 E19.84086
G1 X144.436 Y163.516 E19.94510
G1 X144.252 Y163.889 E19.97727
G1 X143.785 Y164.698 E20.04939
G1 X143.554 Y165.043 E20.08144
G1 X142.985 Y165.786 E20.15368
G1 X142.711 Y166.099 E20.18583
G1 X142.052 Y166.758 E20.25783
G1 X140.996 Y167.602 E20.36220
G1 X139.838 Y168.303 E20.46675
G1 X138.605 Y168.843 E20.57069
G1 X137.309 Y169.218 E20.67486
G1 X135.974 Y169.422 E20.77917
G1 X135.090 Y169.464 E20.84748
G1 X64.444 Y169.449 E26.30291
G1 X63.102 Y169.300 E26.40715
G1 X61.794 Y168.978 E26.51122
G1 X60.536 Y168.487 E26.61552
G1 X59.352 Y167.835 E26.71987
G1 X58.264 Y167.035 E26.82412
G1 X57.291 Y166.100 E26.92835
G1 X56.448 Y165.046 E27.03259
G1 X55.749 Y163.891 E27.13683
G1 X55.563 Y163.515 E27.16923
G1 X55.207 Y162.655 E27.24113
G1 X55.072 Y162.258 E27.27350
G1 X54.831 Y161.358 E27.34542
G1 X54.628 Y160.024 E27.44964
G1 X54.586 Y159.140 E27.51797
G1 X54.601 Y40.594 E36.67233
G1 X54.752 Y39.226 E36.77858
G1 X54.822 Y38.870 E36.80663
G1 X55.080 Y37.890 E36.88489
G1 X55.579 Y36.608 E36.99115
G1 X56.208 Y35.464 E37.09196
G1 X56.709 Y35.714 F6000.000
G1 X56.911 Y35.412 E37.12002 F1500.000
G1 X57.479 Y34.663 E37.19258
G1 X58.379 Y33.722 E37.29316
G1 X59.462 Y32.861 E37.40003
G1 X60.508 Y32.230 E37.49430
G1 X61.699 Y31.705 E37.59488
G1 X62.950 Y31.340 E37.69547
G1 X64.237 Y31.141 E37.79606
G1 X65.110 Y31.098 E37.86354
G1 X135.319 Y31.112 E43.28522
G1 X136.614 Y31.253 E43.38583 F1500.000
G1 X137.879 Y31.562 E43.48639
G1 X139.093 Y32.033 E43.58697
G1 X140.236 Y32.659 E43.68757
G1 X141.286 Y33.429 E43.78814
G1 X142.228 Y34.329 E43.88873
G1 X143.044 Y35.344 E43.98931
G1 X143.245 Y35.646 E44.01735
G1 X143.720 Y36.458 E44.08993
G1 X144.245 Y37.649 E44.19050
G1 X144.610 Y38.900 E44.29110
G1 X144.681 Y39.256 E44.31914
G1 X144.809 Y40.187 E44.39170
G1 X144.852 Y41.060 E44.45920
G1 X144.838 Y159.569 E53.61073
G1 X144.811 Y159.986 E53.64297
G1 X144.699 Y160.838 E53.70933
G1 X144.395 Y162.077 E53.80789
G1 X143.932 Y163.267 E53.90647
G1 X143.748 Y163.640 E53.93862
G1 X143.318 Y164.386 E54.00507
G1 X143.087 Y164.731 E54.03712
G1 X142.562 Y165.415 E54.10368
G1 X142.288 Y165.728 E54.13582
G1 X141.681 Y166.335 E54.20216
G1 X140.684 Y167.135 E54.30085
G1 X139.589 Y167.798 E54.39971
G1 X138.424 Y168.310 E54.49798
G1 X137.199 Y168.667 E54.59648
G1 X135.937 Y168.861 E54.69511
G1 X135.090 Y168.902 E54.76058
G1 X64.481 Y168.888 E60.21316
G1 X63.212 Y168.749 E60.31173
G1 X61.974 Y168.446 E60.41013
G1 X60.784 Y167.982 E60.50875
G1 X59.664 Y167.368 E60.60742
G1 X58.635 Y166.612 E60.70599
G1 X57.714 Y165.730 E60.80454
G1 X56.915 Y164.734 E60.90311
G1 X56.253 Y163.642 E61.00166
G1 X56.068 Y163.266 E61.03404
G1 X55.740 Y162.474 E61.10028
G1 X55.605 Y162.077 E61.13263
G1 X55.383 Y161.248 E61.19889
G1 X55.189 Y159.987 E61.29744
G1 X55.148 Y159.140 E61.36293
G1 X55.162 Y40.631 E70.51445
G1 X55.303 Y39.336 E70.61503
G1 X55.374 Y38.980 E70.64307
G1 X55.612 Y38.071 E70.71566
G1 X56.083 Y36.856 E70.81623
G1 X56.675 Y35.776 E70.91136
G1 F4200.000 E67.91136
G92 E0
G1 X137.971 Y159.519 F6000.000
G1 E3.00000 F4200.000
G1 X137.897 Y159.892 E3.02935 F441.000
G1 X137.774 Y160.252 E3.05870
G1 X137.606 Y160.593 E3.08805
G1 X137.395 Y160.909 E3.11740
G1 X137.145 Y161.195 E3.14675
G1 X136.859 Y161.445 E3.17610
G1 X136.543 Y161.656 E3.20546
G1 X136.202 Y161.824 E3.23481
G1 X135.842 Y161.947 E3.26416
G1 X135.469 Y162.021 E3.29351
G1 X135.080 Y162.046 E3.32360
G1 X64.920 Y162.046 E8.74156
G1 X64.531 Y162.021 E8.77166
G1 X64.158 Y161.947 E8.80101
G1 X63.798 Y161.824 E8.83036
G1 X63.457 Y161.656 E8.85971
G1 X63.141 Y161.445 E8.88906
G1 X62.855 Y161.195 E8.91841
G1 X62.605 Y160.909 E8.94776
G1 X62.394 Y160.593 E8.97711
G1 X62.226 Y160.252 E9.00646
G1 X62.103 Y159.892 E9.03581
G1 X62.029 Y159.519 E9.06516
G1 X62.004 Y159.130 E9.09525
G1 X62.004 Y104.210 E13.33635
G1 X62.029 Y103.821 E13.36645
G1 X62.103 Y103.448 E13.39580
G1 X62.226 Y103.088 E13.42515
G1 X62.394 Y102.747 E13.45450
G1 X62.605 Y102.431 E13.48385
G1 X62.855 Y102.145 E13.51320
G1 X63.141 Y101.895 E13.54255
G1 X63.457 Y101.684 E13.57190
G1 X63.798 Y101.516 E13.60125
G1 X64.158 Y101.393 E13.63060
G1 X64.531 Y101.319 E13.65995
G1 X64.920 Y101.294 E13.69005
G1 X135.080 Y101.294 E19.10801
G1 X135.469 Y101.319 E19.13810
G1 X135.842 Y101.393 E19.16745 F441.000
G1 X136.202 Y101.516 E19.19680
G1 X136.543 Y101.684 E19.22615
G1 X136.859 Y101.895 E19.25550
G1 X137.145 Y102.145 E19.28485
G1 X137.395 Y102.431 E19.31421
G1 X137.606 Y102.747 E19.34355
G1 X137.774 Y103.088 E19.37291
G1 X137.897 Y103.448 E19.40226
G1 X137.971 Y103.821 E19.43161
G1 X137.996 Y104.210 E19.46170
G1 X137.996 Y159.130 E23.70280
G1 X137.975 Y159.449 E23.72745
G1 X135.774 Y101.546 F6000.000
G1 X137.412 Y159.446 F6000.000
G1 X137.352 Y159.746 E23.75111 F630.000
G1 X137.254 Y160.036 E23.77477
G1 X137.118 Y160.311 E23.79843
G1 X136.948 Y160.566 E23.82209
G1 X136.746 Y160.796 E23.84574
G1 X136.516 Y160.998 E23.86940
G1 X136.261 Y161.168 E23.89306
G1 X135.986 Y161.304 E23.91672
G1 X135.696 Y161.402 E23.94038
G1 X135.396 Y161.462 E23.96404
G1 X135.062 Y161.484 E23.98987
G1 X64.938 Y161.484 E29.40499
G1 X64.604 Y161.462 E29.43081
G1 X64.304 Y161.402 E29.45448
G1 X64.014 Y161.304 E29.47814
G1 X63.739 Y161.168 E29.50179
G1 X63.484 Y160.998 E29.52545
G1 X63.254 Y160.796 E29.54911
G1 X63.052 Y160.566 E29.57277
G1 X62.882 Y160.311 E29.59643
G1 X62.746 Y160.036 E29.62009
G1 X62.648 Y159.746 E29.64375
G1 X62.588 Y159.446 E29.66741
G1 X62.566 Y159.112 E29.69323
G1 X62.566 Y104.228 E33.93149
G1 X62.588 Y103.894 E33.95732
G1 X62.648 Y103.594 E33.98098
G1 X62.746 Y103.304 E34.00464
G1 X62.882 Y103.029 E34.02830
G1 X63.052 Y102.774 E34.05196
G1 X63.254 Y102.544 E34.07561
G1 X63.484 Y102.342 E34.09928
G1 X63.739 Y102.172 E34.12293
G1 X64.014 Y102.036 E34.14659
G1 X64.304 Y101.938 E34.17025
G1 X64.604 Y101.878 E34.19391
G1 X64.938 Y101.856 E34.21974
G1 X135.062 Y101.856 E39.63486 F630.000
G1 X135.396 Y101.878 E39.66069
G1 X135.696 Y101.938 E39.68435
G1 X135.986 Y102.036 E39.70800
G1 X136.261 Y102.172 E39.73166
G1 X136.516 Y102.342 E39.75532
G1 X136.746 Y102.544 E39.77898
G1 X136.948 Y102.774 E39.80264
G1 X137.118 Y103.029 E39.82630
G1 X137.254 Y103.304 E39.84996
G1 X137.352 Y103.594 E39.87362
G1 X137.412 Y103.894 E39.89728
G1 X137.434 Y104.228 E39.92311
G1 X137.434 Y159.112 E44.16136
G1 X137.417 Y159.375 E44.18174
G1 X136.265 Y102.640 F6000.000
G1 X136.650 Y103.025 E44.22372 F1500.000
G1 X137.045 Y104.216 E44.32067
G1 X135.074 Y102.245 E44.53595
G1 X134.276 Y102.243 E44.59757
G1 X137.047 Y105.014 E44.90016
G1 X137.047 Y105.811 E44.96165
G1 X133.479 Y102.243 E45.35120
G1 X132.683 Y102.243 E45.41269
G1 X137.047 Y106.607 E45.88920
G1 X137.047 Y107.403 E45.95069
G1 X131.887 Y102.243 E46.51417
G1 X131.091 Y102.243 E46.57566
G1 X137.047 Y108.199 E47.22609
G1 X137.047 Y108.996 E47.28758
G1 X130.294 Y102.243 E48.02498
G1 X129.498 Y102.243 E48.08647
G1 X137.047 Y109.792 E48.91082
G1 X137.047 Y110.588 E48.97231
G1 X128.702 Y102.243 E49.88363
G1 X127.906 Y102.243 E49.94512
G1 X137.047 Y111.384 E50.94339
G1 X137.047 Y112.181 E51.00488
G1 X127.109 Y102.243 E52.09012
G1 X126.313 Y102.243 E52.15161
G1 X137.047 Y112.977 E53.32380
G1 X137.047 Y113.773 E53.38530
G1 X125.517 Y102.243 E54.64445
G1 X124.720 Y102.243 E54.70594
G1 X137.047 Y114.570 E56.05206
G1 X137.047 Y115.366 E56.11355
G1 X123.924 Y102.243 E57.54663
G1 X123.128 Y102.243 E57.60812
G1 X137.047 Y116.162 E59.12815
G1 X137.047 Y116.958 E59.18964
G1 X122.332 Y102.243 E60.79664
G1 X121.535 Y102.243 E60.85813
G1 X137.047 Y117.755 E62.55209
G1 X137.047 Y118.551 E62.61358
G1 X120.739 Y102.243 E64.39450
G1 X119.943 Y102.243 E64.45599
G1 X137.047 Y119.347 E66.32387
G1 X137.047 Y120.144 E66.38536
G1 X119.146 Y102.243 E68.34020
G1 X118.350 Y102.243 E68.40169
G1 X137.047 Y120.940 E70.44349
G1 X137.047 Y121.736 E70.50498
G1 X117.554 Y102.243 E72.63374
G1 X116.758 Y102.243 E72.69523
G1 X137.047 Y122.532 E74.91095
G1 X137.047 Y123.329 E74.97244
G1 X115.961 Y102.243 E77.27512
G1 X115.165 Y102.243 E77.33661
G1 X137.047 Y124.125 E79.72625
G1 X137.047 Y124.921 E79.78774
G1 X114.369 Y102.243 E82.26434
G1 X113.573 Y102.243 E82.32583
G1 X137.047 Y125.717 E84.88939
G1 X137.047 Y126.514 E84.95088
G1 X112.776 Y102.243 E87.60140
G1 X111.980 Y102.243 E87.66289
G1 X137.047 Y127.310 E90.40038
G1 X137.047 Y128.106 E90.46187
G1 X111.184 Y102.243 E93.28631
G1 X110.387 Y102.243 E93.34780
G1 X137.047 Y128.903 E96.25920
G1 X137.047 Y129.699 E96.32069
G1 X109.591 Y102.243 E99.31906
G1 X108.795 Y102.243 E99.38055
G1 X137.047 Y130.495 E102.46587
G1 X137.047 Y131.291 E102.52736
G1 X107.999 Y102.243 E105.69964
G1 X107.202 Y102.243 E105.76113
G1 X137.047 Y132.088 E109.02038
G1 X137.047 Y132.884 E109.08187
G1 X106.406 Y102.243 E112.42807
G1 X105.610 Y102.243 E112.48956
G1 X137.047 Y133.680 E115.92273
G1 X137.047 Y134.477 E115.98422
G1 X104.813 Y102.243 E119.50434
G1 X104.017 Y102.243 E119.56583
G1 X137.047 Y135.273 E123.17292
G1 X137.047 Y136.069 E123.23441
G1 X103.221 Y102.243 E126.92846
G1 X102.425 Y102.243 E126.98995
G1 X137.047 Y136.865 E130.77095
G1 X137.047 Y137.662 E130.83244
G1 X101.628 Y102.243 E134.70041
G1 X100.832 Y102.243 E134.76190
G1 X137.047 Y138.458 E138.71683
G1 X137.047 Y139.254 E138.77832
G1 X100.036 Y102.243 E142.82021
G1 X99.239 Y102.243 E142.88170
G1 X137.047 Y140.050 E147.01054
G1 X137.047 Y140.847 E147.07203
G1 X98.443 Y102.243 E151.28784
G1 X97.647 Y102.243 E151.34933
G1 X137.047 Y141.643 E155.65210
G1 X137.047 Y142.439 E155.71359
G1 X96.851 Y102.243 E160.10332
G1 X96.054 Y102.243 E160.16481
G1 X137.047 Y143.236 E164.64150
G1 X137.047 Y144.032 E164.70299
G1 X95.258 Y102.243 E169.26664
G1 X94.462 Y102.243 E169.32813
G1 X137.047 Y144.828 E173.97874
G1 X137.047 Y145.624 E174.04023
G1 X93.666 Y102.243 E178.77780
G1 X92.869 Y102.243 E178.83929
G1 X137.047 Y146.421 E183.66382
G1 X137.047 Y147.217 E183.72531
G1 X92.073 Y102.243 E188.63680
G1 X91.277 Y102.243 E188.69829
G1 X137.047 Y148.013 E193.69674
G1 X137.047 Y148.810 E193.75823
G1 X90.480 Y102.243 E198.84365
G1 X89.684 Y102.243 E198.90514
G1 X137.047 Y149.606 E204.07751
G1 X137.047 Y150.402 E204.13900
G1 X88.888 Y102.243 E209.39833
G1 X88.092 Y102.243 E209.45982
G1 X137.047 Y151.198 E214.80611
G1 X137.047 Y151.995 E214.86760
G1 X87.295 Y102.243 E220.30086
G1 X86.499 Y102.243 E220.36235
G1 X137.047 Y152.791 E225.88256
G1 X137.047 Y153.587 E225.94405
G1 X85.703 Y102.243 E231.55123
G1 X84.906 Y102.243 E231.61272
G1 X137.047 Y154.384 E237.30685
G1 X137.047 Y155.180 E237.36834
G1 X84.110 Y102.243 E243.14943
G1 X83.314 Y102.243 E243.21092
G1 X137.047 Y155.976 E249.07898
G1 X137.047 Y156.772 E249.14047
G1 X82.518 Y102.243 E255.09549
G1 X81.721 Y102.243 E255.15698
G1 X137.047 Y157.569 E261.19895
G1 X137.047 Y158.365 E261.26044
G1 X80.925 Y102.243 E267.38938
G1 X80.129 Y102.243 E267.45087
G1 X137.043 Y159.157 E273.66635
G1 X136.916 Y159.827 E273.71896
G1 X79.333 Y102.243 E280.00754
G1 X78.536 Y102.243 E280.06903
G1 X136.629 Y160.336 E286.41323
G1 X136.224 Y160.727 E286.45672
G1 X77.740 Y102.243 E292.84364
G1 X76.944 Y102.243 E292.90513
G1 X135.694 Y160.994 E299.32118
G1 X135.000 Y161.097 E299.37532
G1 X76.147 Y102.243 E305.80257
G1 X75.351 Y102.243 E305.86406
G1 X134.204 Y161.097 E312.29132
G1 X133.408 Y161.097 E312.35281
G1 X74.555 Y102.243 E318.78006
G1 X73.759 Y102.243 E318.84155
G1 X132.612 Y161.097 E325.26880
G1 X131.815 Y161.097 E325.33029
G1 X72.962 Y102.243 E331.75754
G1 X72.166 Y102.243 E331.81903
G1 X131.019 Y161.097 E338.24628
G1 X130.223 Y161.097 E338.30777
G1 X71.370 Y102.243 E344.73502
G1 X70.573 Y102.243 E344.79651
G1 X129.427 Y161.097 E351.22376
G1 X128.630 Y161.097 E351.28525
G1 X69.777 Y102.243 E357.71251
G1 X68.981 Y102.243 E357.77400
G1 X127.834 Y161.097 E364.20125
G1 X127.038 Y161.097 E364.26274
G1 X68.185 Y102.243 E370.68999
G1 X67.388 Y102.243 E370.75148
G1 X126.241 Y161.097 E377.17873
G1 X125.445 Y161.097 E377.24022
G1 X66.592 Y102.243 E383.66747
G1 X65.796 Y102.243 E383.72896
G1 X124.649 Y161.097 E390.15621
G1 X123.853 Y161.097 E390.21770
G1 X65.000 Y102.243 E396.64496
G1 X64.306 Y102.346 E396.69910
G1 X123.056 Y161.097 E403.11514
G1 X122.260 Y161.097 E403.17663
G1 X63.776 Y102.613 E409.56356
G1 X63.371 Y103.004 E409.60705
G1 X121.464 Y161.097 E415.95125
G1 X120.667 Y161.097 E416.01274
G1 X63.084 Y103.513 E422.30132
G1 X62.957 Y104.183 E422.35393
G1 X119.871 Y161.097 E428.56941
G1 X119.075 Y161.097 E428.63090
G1 X62.953 Y104.975 E434.75984
G1 X62.953 Y105.771 E434.82133
G1 X118.279 Y161.097 E440.86330
G1 X117.482 Y161.097 E440.92479
G1 X62.953 Y106.568 E446.87981
G1 X62.953 Y107.364 E446.94130
G1 X116.686 Y161.097 E452.80935
G1 X115.890 Y161.097 E452.87084
G1 X62.953 Y108.160 E458.65194
G1 X62.953 Y108.956 E458.71343
G1 X115.094 Y161.097 E464.40756
G1 X114.297 Y161.097 E464.46905
G1 X62.953 Y109.753 E470.07623
G1 X62.953 Y110.549 E470.13772
G1 X113.501 Y161.097 E475.65793
G1 X112.705 Y161.097 E475.71942
G1 X62.953 Y111.345 E481.15268
G1 X62.953 Y112.142 E481.21417
G1 X111.908 Y161.097 E486.56046
G1 X111.112 Y161.097 E486.62195
G1 X62.953 Y112.938 E491.88128
G1 X62.953 Y113.734 E491.94277
G1 X110.316 Y161.097 E497.11514
G1 X109.520 Y161.097 E497.17663
G1 X62.953 Y114.530 E502.26205
G1 X62.953 Y115.327 E502.32354
G1 X108.723 Y161.097 E507.32199
G1 X107.927 Y161.097 E507.38348
G1 X62.953 Y116.123 E512.29497
G1 X62.953 Y116.919 E512.35646
G1 X107.131 Y161.097 E517.18099
G1 X106.334 Y161.097 E517.24248
G1 X62.953 Y117.716 E521.98005
G1 X62.953 Y118.512 E522.04154
G1 X105.538 Y161.097 E526.69215
G1 X104.742 Y161.097 E526.75364
G1 X62.953 Y119.308 E531.31729
G1 X62.953 Y120.104 E531.37878
G1 X103.946 Y161.097 E535.85547
G1 X103.149 Y161.097 E535.91696
G1 X62.953 Y120.901 E540.30669
G1 X62.953 Y121.697 E540.36818
G1 X102.353 Y161.097 E544.67095
G1 X101.557 Y161.097 E544.73244
G1 X62.953 Y122.493 E548.94825
G1 X62.953 Y123.289 E549.00974
G1 X100.760 Y161.097 E553.13859
G1 X99.964 Y161.097 E553.20008
G1 X62.953 Y124.086 E557.24196
G1 X62.953 Y124.882 E557.30345
G1 X99.168 Y161.097 E561.25838
G1 X98.372 Y161.097 E561.31987
G1 X62.953 Y125.678 E565.18784
G1 X62.953 Y126.475 E565.24933
G1 X97.575 Y161.097 E569.03034
G1 X96.779 Y161.097 E569.09183
G1 X62.953 Y127.271 E572.78587
G1 X62.953 Y128.067 E572.84736
G1 X95.983 Y161.097 E576.45445
G1 X95.187 Y161.097 E576.51594
G1 X62.953 Y128.863 E580.03607
G1 X62.953 Y129.660 E580.09756
G1 X94.390 Y161.097 E583.53072
G1 X93.594 Y161.097 E583.59221
G1 X62.953 Y130.456 E586.93842
G1 X62.953 Y131.252 E586.99991
G1 X92.798 Y161.097 E590.25915
G1 X92.001 Y161.097 E590.32064
G1 X62.953 Y132.049 E593.49293
G1 X62.953 Y132.845 E593.55442
G1 X91.205 Y161.097 E596.63974
G1 X90.409 Y161.097 E596.70123
G1 X62.953 Y133.641 E599.69959
