; generated by Slic3r 1.1.7 on 2014-12-04 at 22:58:14

; perimeters extrusion width = 0.42mm
; infill extrusion width = 0.74mm
; solid infill extrusion width = 0.71mm
; top infill extrusion width = 0.71mm

G21 ; set units to millimeters
M190 S60 ; wait for bed temperature to be reached
M104 S186 ; set temperature
G28 ; home all axes
M109 S186 ; wait for temperature to be reached
G90 ; use absolute coordinates
G92 E0
M82 ; use absolute distances for extrusion
M106 S127
G1 F1860.000 E-3.00000
G92 E0
G1 Z0.200 F6000.000
G1 X72.609 Y73.343 F6000.000
G1 E3.10000 F1860.000
G1 X78.402 Y67.608 E3.25079 F1200.000
G1 X80.270 Y66.317 E3.29280
G1 X81.999 Y65.802 E3.32619
G1 X104.761 Y62.432 E3.75188
G1 X110.261 Y62.432 E3.85363
G1 X112.497 Y62.829 E3.89563
G1 X114.228 Y63.784 E3.93221 F1200.000
G1 X132.378 Y77.784 E4.35627
G1 X133.906 Y79.464 E4.39828
G1 X134.762 Y81.567 E4.44028
G1 X134.906 Y82.926 E4.46558
G1 X134.893 Y88.337 E4.56568
G1 X132.528 Y125.421 E5.25314
G1 X132.306 Y127.104 E5.28453
G1 X131.867 Y128.741 E5.31589
G1 X131.218 Y130.309 E5.34728
G1 X130.370 Y131.777 E5.37865
G1 X129.337 Y133.123 E5.41004
G1 X128.139 Y134.322 E5.44141
G1 X126.792 Y135.355 E5.47280
G1 X125.324 Y136.203 E5.50416
G1 X123.755 Y136.853 E5.53559
G1 X122.119 Y137.291 E5.56692
G1 X120.442 Y137.512 E5.59822
G1 X119.421 Y137.566 E5.61712
G1 X100.077 Y137.066 E5.97511
G1 X97.648 Y136.526 E6.02114
G1 X68.992 Y124.026 E6.59952
G1 X67.102 Y122.769 E6.64153
G1 X65.760 Y120.937 E6.68354
G1 X65.094 Y118.074 E6.73792
G1 X65.100 Y115.305 E6.78913
G1 X66.482 Y81.855 E7.40850
G1 X66.971 Y79.638 E7.45050
G1 X68.402 Y77.508 E7.49797
G1 X72.565 Y73.387 E7.60634
G1 X72.783 Y73.518 F6000.000
G1 X78.576 Y67.784 E7.75713 F1200.000
G1 X80.412 Y66.524 E7.79833
G1 X82.036 Y66.047 E7.82965
G1 X104.761 Y62.679 E8.25466
G1 X110.261 Y62.679 E8.35641
G1 X112.452 Y63.076 E8.39760
G1 X114.077 Y63.980 E8.43199 F1200.000
G1 X132.227 Y77.980 E8.85606
G1 X133.719 Y79.632 E8.89725
G1 X134.537 Y81.703 E8.93844
G1 X134.658 Y82.926 E8.96119
G1 X134.646 Y88.322 E9.06100
G1 X132.283 Y125.389 E9.74814
G1 X132.061 Y127.072 E9.77954
G1 X131.639 Y128.647 E9.80971
G1 X130.990 Y130.214 E9.84110
G1 X130.174 Y131.627 E9.87127
G1 X129.141 Y132.973 E9.90266
G1 X127.988 Y134.126 E9.93283
G1 X126.642 Y135.159 E9.96422
G1 X125.230 Y135.974 E9.99440
G1 X123.660 Y136.624 E10.02582
G1 X122.087 Y137.046 E10.05596
G1 X120.409 Y137.267 E10.08726
G1 X119.427 Y137.319 E10.10545
G1 X100.084 Y136.819 E10.46343
G1 X97.747 Y136.300 E10.50771
G1 X69.091 Y123.800 E11.08610
G1 X67.241 Y122.560 E11.12729
G1 X65.944 Y120.750 E11.16848
G1 X65.342 Y118.074 E11.21924
G1 X65.347 Y115.316 E11.27026
G1 X66.729 Y81.866 E11.88962
G1 X67.216 Y79.693 E11.93082
G1 X68.576 Y77.684 E11.97570
G1 X72.738 Y73.563 E12.08407
G1 F1860.000 E9.08407
G92 E0
G1 X110.210 Y85.002 F6000.000
G1 E3.10000 F1860.000
G1 X109.852 Y85.468 E3.11087 F1200.000
G1 X109.386 Y85.825 E3.12173
G1 X108.844 Y86.050 E3.13260
G1 X108.261 Y86.127 E3.14347
G1 X107.679 Y86.050 E3.15434
G1 X107.136 Y85.825 E3.16520
G1 X106.670 Y85.468 E3.17607
G1 X106.312 Y85.002 E3.18694
G1 X106.088 Y84.459 E3.19780
G1 X106.011 Y83.876 E3.20867
G1 X106.088 Y83.294 E3.21954
G1 X106.313 Y82.751 E3.23041
G1 X106.670 Y82.285 E3.24128
G1 X107.136 Y81.928 E3.25214
G1 X107.679 Y81.703 E3.26301
G1 X108.261 Y81.626 E3.27388
G1 X108.316 Y81.634 E3.27491
G1 X108.844 Y81.703 E3.28474 F1200.000
G1 X109.386 Y81.928 E3.29561
G1 X109.852 Y82.285 E3.30648
G1 X110.210 Y82.751 E3.31735
G1 X110.435 Y83.294 E3.32822
G1 X110.511 Y83.876 E3.33908
G1 X110.435 Y84.459 E3.34995
G1 X110.234 Y84.943 E3.35965
G1 X109.994 Y84.877 F6000.000
G1 X109.676 Y85.291 E3.36932 F1200.000
G1 X109.262 Y85.609 E3.37898
G1 X108.779 Y85.809 E3.38864
G1 X108.261 Y85.877 E3.39831
G1 X107.743 Y85.809 E3.40797
G1 X107.261 Y85.609 E3.41763
G1 X106.846 Y85.291 E3.42730
G1 X106.528 Y84.877 E3.43696
G1 X106.329 Y84.394 E3.44662
G1 X106.260 Y83.876 E3.45628
G1 X106.329 Y83.359 E3.46595
G1 X106.528 Y82.876 E3.47561
G1 X106.846 Y82.462 E3.48527
G1 X107.261 Y82.144 E3.49494
G1 X107.766 Y81.941 E3.50501
G1 X108.261 Y81.876 E3.51425 F1200.000
G1 X108.779 Y81.944 E3.52391
G1 X109.262 Y82.144 E3.53358
G1 X109.676 Y82.462 E3.54324
G1 X109.994 Y82.876 E3.55290
G1 X110.194 Y83.359 E3.56257
G1 X110.262 Y83.876 E3.57223
G1 X110.194 Y84.394 E3.58189
G1 X110.018 Y84.819 E3.59039
G1 F1860.000 E0.59039
G92 E0
G1 X107.623 Y81.546 F6000.000
G1 X108.844 Y92.703 F6000.000
G1 E3.10000 F1860.000
G1 X109.386 Y92.928 E3.11087 F1200.000
G1 X109.852 Y93.285 E3.12174
G1 X110.176 Y93.707 E3.13157
G1 X110.210 Y93.751 E3.13260
G1 X110.435 Y94.294 E3.14347
G1 X110.511 Y94.876 E3.15434
G1 X110.435 Y95.459 E3.16521
G1 X110.231 Y95.950 E3.17504
G1 X110.210 Y96.002 E3.17607
G1 X109.852 Y96.468 E3.18694
G1 X109.386 Y96.825 E3.19781
G1 X108.844 Y97.050 E3.20867
G1 X108.261 Y97.127 E3.21954
G1 X107.679 Y97.050 E3.23041
G1 X107.136 Y96.825 E3.24128
G1 X106.670 Y96.468 E3.25214
G1 X106.312 Y96.002 E3.26301
G1 X106.088 Y95.459 E3.27388
G1 X106.011 Y94.877 E3.28475
G1 X106.088 Y94.294 E3.29562
G1 X106.291 Y93.803 E3.30545
G1 X106.313 Y93.751 E3.30648
G1 X106.670 Y93.285 E3.31735
G1 X107.136 Y92.928 E3.32822
G1 X107.679 Y92.703 E3.33908
G1 X108.261 Y92.626 E3.34995
G1 X108.316 Y92.634 E3.35098
G1 X108.781 Y92.695 E3.35965 F1200.000
G1 X108.779 Y92.944 F6000.000
G1 X109.262 Y93.144 E3.36932 F1200.000
G1 X109.676 Y93.462 E3.37898
G1 X109.980 Y93.858 E3.38822
G1 X110.194 Y94.359 E3.39829
G1 X110.262 Y94.876 E3.40796
G1 X110.194 Y95.394 E3.41762
G1 X110.003 Y95.856 E3.42685
G1 X109.676 Y96.291 E3.43693
G1 X109.262 Y96.609 E3.44659
G1 X108.779 Y96.809 E3.45626
G1 X108.261 Y96.877 E3.46592
G1 X107.743 Y96.809 E3.47558
G1 X107.261 Y96.609 E3.48525
G1 X106.846 Y96.291 E3.49491
G1 X106.528 Y95.877 E3.50457
G1 X106.329 Y95.394 E3.51424
G1 X106.260 Y94.876 E3.52390
G1 X106.329 Y94.359 E3.53356
G1 X106.520 Y93.897 E3.54280
G1 X106.846 Y93.462 E3.55288
G1 X107.261 Y93.144 E3.56254
G1 X107.766 Y92.941 E3.57262
G1 X108.261 Y92.876 E3.58185 F1200.000
G1 X108.717 Y92.936 E3.59035
G1 X107.511 Y92.608 F6000.000
G1 F1860.000 E0.59035
G92 E0
G1 X108.261 Y102.126 F6000.000
G1 E3.10000 F1860.000
G1 X108.316 Y102.134 E3.10103 F1200.000
G1 X108.844 Y102.203 E3.11087 F1200.000
G1 X109.386 Y102.428 E3.12173
G1 X109.852 Y102.785 E3.13260
G1 X110.210 Y103.251 E3.14347
G1 X110.435 Y103.794 E3.15434
G1 X110.511 Y104.376 E3.16520
G1 X110.435 Y104.959 E3.17607
G1 X110.231 Y105.450 E3.18591
G1 X110.210 Y105.502 E3.18694
G1 X109.852 Y105.968 E3.19781
G1 X109.386 Y106.325 E3.20867
G1 X108.844 Y106.550 E3.21954
G1 X108.261 Y106.627 E3.23041
G1 X107.679 Y106.550 E3.24128
G1 X107.136 Y106.325 E3.25214
G1 X106.670 Y105.968 E3.26301
G1 X106.312 Y105.502 E3.27388
G1 X106.088 Y104.959 E3.28474
G1 X106.011 Y104.377 E3.29561
G1 X106.088 Y103.794 E3.30648
G1 X106.291 Y103.303 E3.31632
G1 X106.313 Y103.251 E3.31735
G1 X106.670 Y102.785 E3.32822
G1 X107.136 Y102.428 E3.33908
G1 X107.679 Y102.203 E3.34995
G1 X108.199 Y102.134 E3.35965
G1 X108.261 Y102.376 F6000.000
G1 X108.779 Y102.444 E3.36932 F1200.000
G1 X109.262 Y102.644 E3.37898
G1 X109.676 Y102.962 E3.38864
G1 X109.994 Y103.376 E3.39831
G1 X110.194 Y103.859 E3.40797
G1 X110.262 Y104.376 E3.41763
G1 X110.194 Y104.894 E3.42730
G1 X110.003 Y105.356 E3.43653
G1 X109.676 Y105.791 E3.44661
G1 X109.262 Y106.109 E3.45627
G1 X108.756 Y106.312 E3.46635
G1 X108.261 Y106.377 E3.47558
G1 X107.743 Y106.309 E3.48525
G1 X107.261 Y106.109 E3.49491
G1 X106.846 Y105.791 E3.50457
G1 X106.542 Y105.395 E3.51381
G1 X106.329 Y104.894 E3.52389
G1 X106.260 Y104.376 E3.53355
G1 X106.329 Y103.859 E3.54321
G1 X106.528 Y103.376 E3.55288
G1 X106.846 Y102.962 E3.56254
G1 X107.261 Y102.644 E3.57220
G1 X107.766 Y102.441 E3.58228
G1 X108.199 Y102.384 E3.59035 F1200.000
G1 X107.730 Y102.022 F6000.000
G1 F1860.000 E0.59035
G92 E0
G1 X109.914 Y79.143 F6000.000
G1 E3.10000 F1860.000
G1 X118.331 Y83.274 E3.27345 F1200.000
G1 X128.064 Y83.274 E3.45352
G1 X128.064 Y87.816 E3.53755
G1 X113.032 Y108.979 E4.01779
G1 X103.626 Y108.979 E4.19181
G1 X100.666 Y78.984 E4.74943
G1 X104.987 Y69.274 E4.94605
G1 X109.914 Y69.274 E5.03720
G1 X109.914 Y79.080 E5.21862
G1 X110.161 Y78.989 F6000.000
G1 X118.388 Y83.026 E5.38816 F1200.000
G1 X128.311 Y83.026 E5.57174
G1 X128.311 Y87.895 E5.66180
G1 X113.160 Y109.226 E6.14587
G1 X103.402 Y109.226 E6.32639
G1 X100.413 Y78.943 E6.88936
G1 X104.826 Y69.026 E7.09016
G1 X110.161 Y69.026 E7.18886
G1 X110.161 Y78.926 E7.37200
G1 X110.035 Y79.390 F6000.000
G1 X110.232 Y79.477 F6000.000
G1 X124.008 Y93.252 E7.73240 F1200.000
G1 X124.153 Y93.047 E7.73706
G1 X110.921 Y79.815 E8.08325
G1 X111.610 Y80.152 F6000.000
G1 X124.299 Y92.842 E8.41524 F1200.000
G1 X124.445 Y92.637 E8.41989
G1 X112.298 Y80.490 E8.73768
G1 X112.987 Y80.828 F6000.000
G1 X124.590 Y92.432 E9.04125 F1200.000
G1 X124.736 Y92.227 E9.04590
G1 X113.676 Y81.166 E9.33527
G1 X114.364 Y81.504 F6000.000
G1 X124.881 Y92.021 E9.61043 F1200.000
G1 X125.027 Y91.816 E9.61508
G1 X115.053 Y81.842 E9.87604
G1 X115.742 Y82.180 F6000.000
G1 X125.173 Y91.611 E10.12278 F1200.000
G1 X125.318 Y91.406 E10.12744
G1 X116.430 Y82.518 E10.35997
G1 X117.119 Y82.856 F6000.000
G1 X125.464 Y91.201 E10.57831 F1200.000
G1 X125.610 Y90.996 E10.58296
G1 X117.808 Y83.194 E10.78708
G1 X118.397 Y83.433 F6000.000
G1 X125.755 Y90.791 E10.97960 F1200.000
G1 X125.901 Y90.586 E10.98425
G1 X118.747 Y83.433 E11.17141
G1 X119.098 Y83.433 E11.17790
G1 X126.046 Y90.381 E11.35969
G1 X126.192 Y90.176 E11.36434
G1 X119.449 Y83.433 E11.54077
G1 X119.799 Y83.433 E11.54725
G1 X126.338 Y89.971 E11.71831
G1 X126.483 Y89.766 E11.72297
G1 X120.150 Y83.433 E11.88867
G1 X120.501 Y83.433 E11.89515
G1 X126.629 Y89.561 E12.05549
G1 X126.775 Y89.356 E12.06014
G1 X120.851 Y83.433 E12.21511
G1 X121.202 Y83.433 E12.22159
G1 X126.920 Y89.151 E12.37120
G1 X127.066 Y88.946 E12.37585
G1 X121.553 Y83.433 E12.52009
G1 X121.903 Y83.433 E12.52658
G1 X127.212 Y88.741 E12.66546
G1 X127.357 Y88.536 E12.67011
G1 X122.254 Y83.433 E12.80362
G1 X122.605 Y83.433 E12.81011
G1 X127.503 Y88.331 E12.93825
G1 X127.648 Y88.126 E12.94291
G1 X122.955 Y83.433 E13.06569
G1 X123.306 Y83.433 E13.07218
G1 X127.794 Y87.921 E13.18960
G1 X127.905 Y87.681 E13.19448
G1 X123.657 Y83.433 E13.30563
G1 X124.007 Y83.433 E13.31211
G1 X127.905 Y87.330 E13.41408
G1 X127.905 Y86.980 E13.42057
G1 X124.358 Y83.433 E13.51336
G1 X124.709 Y83.433 E13.51985
G1 X127.905 Y86.629 E13.60346
G1 X127.905 Y86.278 E13.60995
G1 X125.059 Y83.433 E13.68439
G1 X125.410 Y83.433 E13.69088
G1 X127.905 Y85.928 E13.75615
G1 X127.905 Y85.577 E13.76264
G1 X125.761 Y83.433 E13.81873
G1 X126.111 Y83.433 E13.82522
G1 X127.905 Y85.226 E13.87214
G1 X127.905 Y84.876 E13.87862
G1 X126.462 Y83.433 E13.91637
G1 X126.813 Y83.433 E13.92286
G1 X127.905 Y84.525 E13.95143
G1 X127.905 Y84.174 E13.95791
G1 X127.163 Y83.433 E13.97731
G1 X127.514 Y83.433 E13.98380
G1 X127.905 Y83.824 E13.99402
G1 X127.905 Y83.473 E14.00051
G1 X127.865 Y83.433 E14.00155
G1 F1860.000 E11.00155
G92 E0
G1 X122.697 Y95.097 F6000.000
G1 E3.10000 F1860.000
G1 X110.404 Y82.804 E3.42162 F1200.000
G1 X110.603 Y83.354 F6000.000
G1 X122.551 Y95.302 E3.73422 F1200.000
G1 X122.406 Y95.507 E3.73888
G1 X110.656 Y83.758 E4.04628
G1 X110.643 Y84.095 E4.05253
G1 X122.260 Y95.712 E4.35646
G1 X122.114 Y95.917 E4.36111
G1 X110.602 Y84.405 E4.66231
G1 X110.519 Y84.672 E4.66748
G1 X121.969 Y96.122 E4.96705
G1 X121.823 Y96.327 E4.97171
G1 X110.416 Y84.920 E5.27015
G1 X110.296 Y85.151 E5.27496
G1 X121.678 Y96.532 E5.57274
G1 X121.532 Y96.737 E5.57739
G1 X110.144 Y85.349 E5.87534
G1 X109.992 Y85.548 E5.87997
G1 X121.386 Y96.942 E6.17809
G1 X121.241 Y97.147 E6.18274
G1 X109.801 Y85.708 E6.48204
G1 X109.603 Y85.860 E6.48667
G1 X121.095 Y97.352 E6.78735
G1 X120.949 Y97.557 E6.79200
G1 X109.389 Y85.997 E7.09447
G1 X109.141 Y86.099 E7.09943
G1 X120.804 Y97.762 E7.40458
G1 X120.658 Y97.967 E7.40923
G1 X108.893 Y86.202 E7.71705
G1 X108.585 Y86.245 E7.72280
G1 X120.512 Y98.172 E8.03487
G1 X120.367 Y98.378 E8.03953
G1 X108.275 Y86.285 E8.35589
G1 X107.875 Y86.236 E8.36334
G1 X120.221 Y98.583 E8.68636
G1 X120.076 Y98.788 E8.69101
G1 X107.391 Y86.103 E9.02288
G1 X106.034 Y84.746 F6000.000
G1 X100.886 Y79.598 E9.15757 F1200.000
G1 X100.848 Y79.209 E9.16480
G1 X105.901 Y84.263 E9.29701
G1 X105.852 Y83.863 E9.30446
G1 X100.881 Y78.892 E9.43452
G1 X100.989 Y78.649 E9.43943
G1 X105.893 Y83.553 E9.56774
G1 X105.936 Y83.245 E9.57349
G1 X101.097 Y78.406 E9.70009
G1 X101.205 Y78.164 E9.70500
G1 X106.038 Y82.997 E9.83146
G1 X106.141 Y82.749 E9.83643
G1 X101.313 Y77.921 E9.96275
G1 X101.421 Y77.678 E9.96766
G1 X106.278 Y82.535 E10.09473
G1 X106.430 Y82.337 E10.09936
G1 X101.529 Y77.436 E10.22758
G1 X101.637 Y77.193 E10.23250
G1 X106.590 Y82.146 E10.36209
G1 X106.788 Y81.994 E10.36671
G1 X101.745 Y76.950 E10.49867
G1 X101.853 Y76.708 E10.50358
G1 X106.987 Y81.842 E10.63791
G1 X107.218 Y81.722 E10.64272
G1 X101.961 Y76.465 E10.78025
G1 X102.069 Y76.222 E10.78516
G1 X107.466 Y81.619 E10.92636
G1 X107.733 Y81.535 E10.93154
G1 X102.177 Y75.980 E11.07689
G1 X102.285 Y75.737 E11.08181
G1 X108.042 Y81.494 E11.23244
G1 X108.380 Y81.481 E11.23869
G1 X102.393 Y75.494 E11.39533
G1 X102.501 Y75.252 E11.40025
G1 X108.784 Y81.534 E11.56463
G1 X109.334 Y81.734 F6000.000
G1 X102.609 Y75.009 E11.74057 F1200.000
G1 X102.717 Y74.766 E11.74548
G1 X122.843 Y94.892 E12.27204
G1 X122.988 Y94.687 E12.27669
G1 X102.825 Y74.524 E12.80423
G1 X102.933 Y74.281 E12.80915
G1 X123.134 Y94.482 E13.33767
G1 X123.279 Y94.277 E13.34233
G1 X103.041 Y74.038 E13.87184
G1 X103.149 Y73.795 E13.87675
G1 X123.425 Y94.072 E14.40724
G1 X123.571 Y93.867 E14.41190
G1 X103.257 Y73.553 E14.94338
G1 X103.365 Y73.310 E14.94829
G1 X123.716 Y93.662 E15.48075
G1 X123.862 Y93.457 E15.48541
G1 X103.473 Y73.067 E16.01886
G1 X103.581 Y72.825 E16.02377
G1 X109.755 Y78.999 E16.18530
G1 X109.755 Y78.648 F6000.000
G1 X103.689 Y72.582 E16.34401 F1200.000
G1 X103.797 Y72.339 E16.34892
G1 X109.755 Y78.297 E16.50481
G1 X109.755 Y77.947 E16.51129
G1 X103.905 Y72.097 E16.66435
G1 X104.013 Y71.854 E16.66926
G1 X109.755 Y77.596 E16.81950
G1 X109.755 Y77.246 E16.82598
G1 X104.121 Y71.611 E16.97339
G1 X104.229 Y71.369 E16.97830
G1 X109.755 Y76.895 E17.12288
G1 X109.755 Y76.544 E17.12937
G1 X104.337 Y71.126 E17.27113
G1 X104.445 Y70.883 E17.27604
G1 X109.755 Y76.194 E17.41497
G1 X109.755 Y75.843 E17.42146
G1 X104.553 Y70.641 E17.55756
G1 X104.661 Y70.398 E17.56248
G1 X109.755 Y75.492 E17.69575
G1 X109.755 Y75.142 E17.70224
G1 X104.769 Y70.155 E17.83270
G1 X104.877 Y69.913 E17.83761
G1 X109.755 Y74.791 E17.96524
G1 X109.755 Y74.440 E17.97172
G1 X104.985 Y69.670 E18.09653
G1 X105.111 Y69.445 E18.10129
G1 X109.755 Y74.090 E18.22280
G1 X109.755 Y73.739 E18.22929
G1 X105.449 Y69.433 E18.34194
G1 X105.799 Y69.433 E18.34843
G1 X109.755 Y73.388 E18.45191
G1 X109.755 Y73.038 E18.45840
G1 X106.150 Y69.433 E18.55271
G1 X106.501 Y69.433 E18.55920
G1 X109.755 Y72.687 E18.64433
G1 X109.755 Y72.336 E18.65082
G1 X106.851 Y69.433 E18.72678
G1 X107.202 Y69.433 E18.73327
G1 X109.755 Y71.986 E18.80005
G1 X109.755 Y71.635 E18.80654
G1 X107.553 Y69.433 E18.86415
G1 X107.903 Y69.433 E18.87064
G1 X109.755 Y71.284 E18.91907
G1 X109.755 Y70.934 E18.92556
G1 X108.254 Y69.433 E18.96482
G1 X108.605 Y69.433 E18.97131
G1 X109.755 Y70.583 E19.00140
G1 X109.755 Y70.232 E19.00788
G1 X108.955 Y69.433 E19.02880
G1 X109.306 Y69.433 E19.03528
G1 X109.755 Y69.882 E19.04702
G1 X109.755 Y69.531 E19.05351
G1 X109.657 Y69.433 E19.05607
G1 F1860.000 E16.05607
G92 E0
G1 X109.688 Y92.958 F6000.000
G1 E3.10000 F1860.000
G1 X101.385 Y84.656 E3.31721 F1200.000
G1 X101.424 Y85.045 E3.32445
G1 X108.956 Y92.577 E3.52151
G1 X108.529 Y92.501 E3.52953
G1 X101.462 Y85.434 E3.71441
G1 X101.501 Y85.823 E3.72165
G1 X108.157 Y92.479 E3.89579
G1 X107.847 Y92.520 E3.90158
G1 X101.539 Y86.212 E4.06661
G1 X101.577 Y86.601 E4.07384
G1 X107.557 Y92.581 E4.23029
G1 X107.309 Y92.684 E4.23525
G1 X101.616 Y86.990 E4.38421
G1 X101.654 Y87.380 E4.39144
G1 X107.061 Y92.786 E4.53290
G1 X106.862 Y92.938 E4.53753
G1 X101.693 Y87.769 E4.67277
