; generated by Slic3r 1.1.7 on 2014-12-11 at 17:51:36

; perimeters extrusion width = 0.40mm
; infill extrusion width = 0.67mm
; solid infill extrusion width = 0.67mm
; top infill extrusion width = 0.67mm
; support material extrusion width = 0.40mm

G21 ; set units to millimeters
M190 S57 ; wait for bed temperature to be reached
M104 S186 ; set temperature
G28 ; home all axes Start of G Code Slic3r
 
M109 S186 ; wait for temperature to be reached
G90 ; use absolute coordinates
G92 E0
M82 ; use absolute distances for extrusion
M106 S201
G1 F1860.000 E-3.00000
G92 E0
G1 Z0.200 F6000.000
G1 X102.411 Y73.092 F6000.000
G1 E3.10000 F1860.000
G1 X104.233 Y71.669 E3.14202 F1200.000
G1 X106.724 Y70.911 E3.18934
G1 X106.911 Y70.892 E3.19276
G1 X109.216 Y71.058 E3.23478
G1 X111.330 Y71.994 E3.27680 F1200.000
G1 X113.002 Y73.590 E3.31882
G1 X113.865 Y75.161 E3.35140
G1 X114.096 Y75.876 E3.36506
G1 X114.538 Y77.608 E3.39756
G1 X114.884 Y79.446 E3.43157
G1 X115.399 Y82.785 E3.49299
G1 X115.536 Y84.307 E3.52075
G1 X115.539 Y85.052 E3.53430
G1 X115.298 Y86.865 E3.56755
G1 X115.251 Y87.037 E3.57079
G1 X115.066 Y87.679 E3.58294
G1 X108.106 Y108.985 E3.99040
G1 X102.160 Y120.435 E4.22495
G1 X101.477 Y121.495 E4.24788
G1 X96.478 Y127.849 E4.39485
G1 X94.758 Y129.393 E4.43687
G1 X92.616 Y130.264 E4.47889
G1 X90.757 Y130.403 E4.51279
G1 X90.614 Y130.394 E4.51539
G1 X88.367 Y129.852 E4.55741
G1 X86.437 Y128.581 E4.59943
G1 X84.676 Y125.845 E4.65858
G1 X84.411 Y124.928 E4.67593
G1 X84.274 Y124.260 E4.68832
G1 X84.159 Y123.522 E4.70190
G1 X84.085 Y122.739 E4.71620
G1 X84.068 Y122.330 E4.72363
G1 X84.048 Y120.943 E4.74885
G1 X84.097 Y120.010 E4.76584
G1 X84.203 Y118.988 E4.78451
G1 X84.398 Y118.018 E4.80251
G1 X84.513 Y117.545 E4.81136
G1 X84.716 Y116.873 E4.82412
G1 X89.748 Y102.843 E5.09508
G1 X101.178 Y75.047 E5.64144
G1 X102.379 Y73.142 E5.68237
G1 X102.619 Y73.224 F6000.000
G1 X104.421 Y71.845 E5.72362 F1200.000
G1 X106.748 Y71.153 E5.76775
G1 X106.935 Y71.134 E5.77117
G1 X109.198 Y71.304 E5.81242
G1 X111.264 Y72.243 E5.85367 F1200.000
G1 X112.879 Y73.836 E5.89491
G1 X113.638 Y75.249 E5.92407
G1 X113.861 Y75.937 E5.93723
G1 X114.299 Y77.655 E5.96945
G1 X114.644 Y79.485 E6.00331
G1 X115.158 Y82.814 E6.06454
G1 X115.293 Y84.308 E6.09180
G1 X115.296 Y85.053 E6.10536
G1 X115.064 Y86.801 E6.13740
G1 X115.017 Y86.971 E6.14063
G1 X114.835 Y87.604 E6.15260
G1 X107.890 Y108.873 E6.55932
G1 X101.945 Y120.324 E6.79388
G1 X101.286 Y121.345 E6.81598
G1 X96.287 Y127.699 E6.96295
G1 X94.593 Y129.209 E7.00420
G1 X92.483 Y130.044 E7.04545
G1 X90.773 Y130.161 E7.07662
G1 X90.630 Y130.152 E7.07922
G1 X88.426 Y129.612 E7.12047
G1 X86.543 Y128.346 E7.16172
G1 X84.906 Y125.767 E7.21726
G1 X84.648 Y124.875 E7.23414
G1 X84.514 Y124.219 E7.24631
G1 X84.400 Y123.494 E7.25964
G1 X84.328 Y122.728 E7.27363
G1 X84.311 Y122.323 E7.28101
G1 X84.290 Y120.955 E7.30588
G1 X84.340 Y120.028 E7.32275
G1 X84.475 Y118.842 E7.34445
G1 X84.748 Y117.607 E7.36745
G1 X84.945 Y116.955 E7.37983
G1 X89.972 Y102.935 E7.65058
G1 X101.403 Y75.139 E8.19695
G1 X102.587 Y73.274 E8.23710
G1 X102.827 Y73.357 F6000.000
G1 X104.609 Y72.022 E8.27757 F1200.000
G1 X106.772 Y71.395 E8.31852
G1 X106.960 Y71.376 E8.32194
G1 X109.179 Y71.550 E8.36241
G1 X111.195 Y72.491 E8.40287 F1200.000
G1 X112.754 Y74.081 E8.44333
G1 X113.411 Y75.336 E8.46910
G1 X113.626 Y75.999 E8.48177
G1 X114.061 Y77.701 E8.51370
G1 X114.404 Y79.524 E8.54742
G1 X114.917 Y82.843 E8.60847
G1 X115.050 Y84.309 E8.63523
G1 X115.053 Y85.054 E8.64878
G1 X114.830 Y86.736 E8.67963
G1 X114.604 Y87.530 E8.69463
G1 X107.674 Y108.761 E9.10062
G1 X101.729 Y120.212 E9.33517
G1 X101.095 Y121.195 E9.35645
G1 X96.096 Y127.549 E9.50342
G1 X94.430 Y129.025 E9.54388
G1 X92.352 Y129.822 E9.58434
G1 X90.788 Y129.919 E9.61282
G1 X90.646 Y129.909 E9.61542
G1 X88.485 Y129.373 E9.65588
G1 X86.651 Y128.112 E9.69635
G1 X85.136 Y125.688 E9.74831
G1 X84.886 Y124.822 E9.76471
G1 X84.782 Y124.335 E9.77375
G1 X84.641 Y123.467 E9.78975
G1 X84.571 Y122.717 E9.80343
G1 X84.528 Y121.079 E9.83322
G1 X84.582 Y120.046 E9.85203
G1 X84.714 Y118.885 E9.87326
G1 X84.983 Y117.669 E9.89592
G1 X85.174 Y117.037 E9.90791
G1 X90.197 Y103.028 E10.17846
G1 X101.627 Y75.231 E10.72483
G1 X102.795 Y73.407 E10.76420
G1 F1860.000 E7.76420
G92 E0
G1 X96.217 Y115.679 F6000.000
G1 E3.10000 F1860.000
G1 X96.208 Y115.876 E3.10358 F1200.000
G1 X96.090 Y116.638 E3.11760
G1 X95.895 Y117.144 E3.12745
G1 X95.613 Y117.429 E3.13475
G1 X95.230 Y117.629 E3.14259
G1 X94.782 Y117.751 E3.15103
G1 X94.335 Y117.801 E3.15922
G1 X93.988 Y117.810 E3.16552
G1 X93.005 Y117.753 E3.18342
G1 X92.715 Y117.769 E3.18870
G1 X92.397 Y117.852 E3.19468
G1 X92.082 Y118.041 E3.20136
G1 X91.974 Y117.933 E3.20414
G1 X92.079 Y117.765 E3.20775
G1 X92.289 Y117.615 E3.21244
G1 X92.373 Y117.590 E3.21403
G1 X92.520 Y117.552 E3.21679
G1 X92.815 Y117.540 E3.22215
G1 X93.424 Y117.570 E3.23324
G1 X93.838 Y117.566 E3.24077
G1 X94.244 Y117.519 E3.24820
G1 X94.649 Y117.428 E3.25575
G1 X95.033 Y117.242 E3.26350
G1 X95.334 Y116.985 E3.27069
G1 X95.598 Y116.688 E3.27791
G1 X95.863 Y116.259 E3.28709
G1 X96.050 Y115.649 E3.29868
G1 X96.158 Y115.669 E3.30069
G1 F1860.000 E0.30069
G92 E0
G1 X96.020 Y109.621 F6000.000
G1 E3.10000 F1860.000
G1 X96.016 Y108.172 E3.12634 F1200.000
G1 X96.051 Y107.077 E3.14626
G1 X96.141 Y106.184 E3.16257
G1 X96.295 Y105.521 E3.17494
G1 X96.503 Y105.116 E3.18323
G1 X96.761 Y104.922 E3.18909
G1 X97.088 Y104.842 E3.19520
G1 X97.466 Y104.856 E3.20209
G1 X97.846 Y104.935 E3.20915
G1 X98.161 Y105.034 E3.21514
G1 X98.756 Y105.268 E3.22677
G1 X99.105 Y105.381 E3.23343
G1 X99.527 Y105.469 E3.24127
G1 X99.973 Y105.504 E3.24941
G1 X100.425 Y105.455 E3.25767
G1 X100.852 Y105.274 E3.26609
G1 X101.155 Y104.926 E3.27449
G1 X101.322 Y104.536 E3.28219
G1 X101.419 Y104.113 E3.29010
G1 X101.527 Y103.025 E3.30997
G1 X101.622 Y99.947 E3.36594
G1 X101.602 Y97.409 E3.41209
G1 X101.634 Y96.716 E3.42470
G1 X101.715 Y96.059 E3.43672
G1 X101.850 Y95.583 E3.44572
G1 X102.014 Y95.376 E3.45052
G1 X102.200 Y95.289 E3.45426
G1 X102.435 Y95.271 E3.45854
G1 X103.115 Y95.362 E3.47102
G1 X103.641 Y95.477 E3.48079
G1 X103.939 Y95.475 E3.48622
G1 X104.259 Y95.313 E3.49274
G1 X104.491 Y94.982 E3.50009
G1 X104.637 Y94.499 E3.50925
G1 X104.733 Y93.896 E3.52037
G1 X104.787 Y93.177 E3.53348
G1 X104.797 Y92.362 E3.54829
G1 X104.764 Y91.508 E3.56381
G1 X104.550 Y88.567 E3.61743
G1 X104.740 Y88.552 E3.62090
G1 X104.957 Y90.668 E3.65956
G1 X105.033 Y91.588 E3.67635
G1 X105.079 Y92.563 E3.69409
G1 X105.078 Y93.577 E3.71253
G1 X105.024 Y94.532 E3.72991
G1 X104.914 Y95.331 E3.74458
G1 X104.754 Y95.862 E3.75465
G1 X104.590 Y96.072 E3.75950
G1 X104.437 Y96.137 E3.76252
G1 X104.239 Y96.134 E3.76612
G1 X103.191 Y95.899 E3.78564
G1 X102.938 Y95.866 E3.79029
G1 X102.616 Y95.900 E3.79618
G1 X102.283 Y96.100 E3.80323
G1 X102.074 Y96.467 E3.81091
G1 X101.994 Y96.951 E3.81982
G1 X101.981 Y97.266 E3.82556
G1 X102.010 Y98.647 E3.85067
G1 X101.934 Y101.560 E3.90364
G1 X101.937 Y102.415 E3.91919
G1 X101.995 Y103.882 E3.94588
G1 X102.005 Y104.781 E3.96222
G1 X101.954 Y105.301 E3.97173
G1 X101.823 Y105.726 E3.97981
G1 X101.614 Y105.993 E3.98597
G1 X101.238 Y106.151 E3.99337
G1 X100.704 Y106.212 E4.00315
G1 X100.102 Y106.186 E4.01411
G1 X99.548 Y106.104 E4.02428
G1 X99.131 Y106.004 E4.03208
G1 X98.240 Y105.673 E4.04936
G1 X97.889 Y105.589 E4.05591
G1 X97.500 Y105.569 E4.06300
G1 X97.091 Y105.666 E4.07064
G1 X96.725 Y105.936 E4.07891
G1 X96.481 Y106.373 E4.08801
G1 X96.338 Y106.939 E4.09863
G1 X96.257 Y107.671 E4.11202
G1 X96.219 Y108.603 E4.12897
G1 X96.212 Y109.620 E4.14746
G1 X96.080 Y109.621 E4.14985
G1 F1860.000 E1.14985
G92 E0
G1 X104.513 Y87.420 F6000.000
G1 E3.10000 F1860.000
G1 X104.511 Y87.171 E3.10453 F1200.000
G1 X104.575 Y86.517 E3.11648
G1 X104.710 Y86.098 E3.12448
G1 X104.897 Y85.915 E3.12924
G1 X105.157 Y85.824 E3.13425
G1 X105.848 Y85.782 E3.14683
G1 X106.160 Y85.716 E3.15263
G1 X106.408 Y85.613 E3.15751
G1 X106.764 Y85.417 E3.16489
G1 X107.271 Y85.216 E3.17481
G1 X107.576 Y85.022 E3.18138
G1 X107.834 Y84.718 E3.18863
G1 X107.970 Y84.303 E3.19657
G1 X108.005 Y83.753 E3.20659
G1 X107.975 Y82.998 E3.22031
G1 X107.863 Y81.514 E3.24737
G1 X108.049 Y81.493 E3.25077
G1 X108.349 Y83.398 E3.28583
G1 X108.465 Y84.356 E3.30338
G1 X108.467 Y85.035 E3.31573
G1 X108.354 Y85.442 E3.32340
G1 X108.120 Y85.688 E3.32958
G1 X107.760 Y85.860 E3.33683
G1 X107.333 Y85.962 E3.34482
G1 X105.699 Y86.152 E3.37472
G1 X105.379 Y86.237 E3.38074
G1 X105.060 Y86.430 E3.38752
G1 X104.817 Y86.773 E3.39516
G1 X104.710 Y87.223 E3.40358
G1 X104.702 Y87.423 E3.40722
G1 X104.573 Y87.421 E3.40958
G1 F1860.000 E0.40958
G92 E0
G1 X102.136 Y95.051 F6000.000
G1 E3.10000 F1860.000
G1 X102.439 Y95.027 E3.10553 F1200.000
G1 X103.159 Y95.123 E3.11872
G1 X103.667 Y95.234 E3.12818
G1 X103.881 Y95.232 E3.13206
G1 X104.095 Y95.124 E3.13642
G1 X104.271 Y94.873 E3.14200
G1 X104.400 Y94.446 E3.15011
G1 X104.492 Y93.870 E3.16072
G1 X104.544 Y93.165 E3.17356
G1 X104.554 Y92.366 E3.18809
G1 X104.521 Y91.521 E3.20346
G1 X104.280 Y88.114 E3.26555
G1 X104.268 Y87.160 E3.28290
G1 X104.336 Y86.467 E3.29556
G1 X104.497 Y85.966 E3.30512
G1 X104.766 Y85.703 E3.31196
G1 X105.105 Y85.584 E3.31848
G1 X105.819 Y85.540 E3.33148
G1 X106.088 Y85.483 E3.33648
G1 X106.301 Y85.394 E3.34068
G1 X106.666 Y85.195 E3.34825
G1 X107.159 Y84.999 E3.35789
G1 X107.413 Y84.838 E3.36335
G1 X107.618 Y84.597 E3.36911
G1 X107.730 Y84.255 E3.37564
G1 X107.762 Y83.751 E3.38483
G1 X107.714 Y82.750 E3.40304
G1 X107.542 Y80.503 E3.44402
G1 X107.469 Y78.932 E3.47260
G1 X107.494 Y78.309 E3.48395
G1 X107.660 Y78.289 E3.48697
G1 X107.836 Y78.919 E3.49886
G1 X108.143 Y80.538 E3.52881
G1 X108.589 Y83.363 E3.58081
G1 X108.707 Y84.341 E3.59872
G1 X108.710 Y85.067 E3.61192
G1 X108.572 Y85.565 E3.62132
G1 X108.265 Y85.889 E3.62942
G1 X107.842 Y86.090 E3.63794
G1 X107.376 Y86.201 E3.64665
G1 X105.744 Y86.391 E3.67652
G1 X105.476 Y86.462 E3.68156
G1 X105.228 Y86.613 E3.68683
G1 X105.042 Y86.875 E3.69267
G1 X104.952 Y87.255 E3.69978
G1 X104.932 Y87.739 E3.70859
G1 X104.963 Y88.328 E3.71931
G1 X105.199 Y90.645 E3.76165
G1 X105.275 Y91.572 E3.77855
G1 X105.322 Y92.557 E3.79649
G1 X105.321 Y93.584 E3.81515
G1 X105.266 Y94.555 E3.83284
G1 X105.152 Y95.382 E3.84801
G1 X104.974 Y95.974 E3.85925
G1 X104.743 Y96.271 E3.86609
G1 X104.486 Y96.381 E3.87117
G1 X104.209 Y96.376 E3.87619
G1 X103.341 Y96.172 E3.89242
G1 X102.935 Y96.111 E3.89987
G1 X102.693 Y96.136 E3.90429
G1 X102.464 Y96.274 E3.90915
G1 X102.306 Y96.552 E3.91497
G1 X102.236 Y96.976 E3.92279
G1 X102.224 Y97.274 E3.92821
G1 X102.253 Y98.646 E3.95315
G1 X102.177 Y101.562 E4.00619
G1 X102.180 Y102.409 E4.02159
G1 X102.237 Y103.876 E4.04826
G1 X102.248 Y104.790 E4.06489
G1 X102.194 Y105.350 E4.07511
G1 X102.043 Y105.838 E4.08439
G1 X101.766 Y106.193 E4.09258
G1 X101.302 Y106.388 E4.10172
G1 X100.712 Y106.456 E4.11252
G1 X100.079 Y106.429 E4.12403
G1 X99.499 Y106.342 E4.13469
G1 X99.062 Y106.237 E4.14286
G1 X98.170 Y105.906 E4.16016
G1 X97.855 Y105.831 E4.16606
G1 X97.522 Y105.814 E4.17212
G1 X97.195 Y105.891 E4.17822
G1 X96.910 Y106.101 E4.18465
G1 X96.709 Y106.463 E4.19218
G1 X96.578 Y106.983 E4.20194
G1 X96.499 Y107.690 E4.21486
G1 X96.462 Y108.609 E4.23159
G1 X96.453 Y109.767 E4.25265
G1 X96.498 Y114.903 E4.34602
G1 X96.450 Y115.901 E4.36418
G1 X96.326 Y116.701 E4.37889
G1 X96.104 Y117.276 E4.39009
G1 X95.753 Y117.633 E4.39921
G1 X95.312 Y117.859 E4.40821
G1 X94.826 Y117.990 E4.41736
G1 X94.348 Y118.043 E4.42611
G1 X93.846 Y118.052 E4.43522
G1 X93.007 Y117.997 E4.45052
G1 X92.751 Y118.011 E4.45518
G1 X92.491 Y118.078 E4.46006
G1 X92.241 Y118.229 E4.46537
G1 X92.014 Y118.483 E4.47157
G1 X91.809 Y118.894 E4.47992
G1 X91.728 Y119.144 E4.48468
G1 X91.636 Y119.527 E4.49185
G1 X91.516 Y120.381 E4.50754
G1 X91.333 Y122.492 E4.54606
G1 X91.214 Y123.232 E4.55968
G1 X91.167 Y123.252 E4.56062
G1 X91.028 Y123.233 E4.56316
G1 X90.907 Y122.432 E4.57788
G1 X90.867 Y121.299 E4.59849
G1 X90.935 Y120.135 E4.61968
G1 X91.146 Y119.174 E4.63756
G1 X91.340 Y118.731 E4.64637
G1 X91.425 Y118.470 E4.65136
G1 X91.508 Y118.333 E4.65426
G1 X91.668 Y117.949 E4.66183
G1 X91.901 Y117.592 E4.66958
G1 X92.176 Y117.395 E4.67573
G1 X92.308 Y117.356 E4.67824
G1 X92.484 Y117.310 E4.68154
G1 X92.818 Y117.297 E4.68762
G1 X93.427 Y117.327 E4.69869
G1 X93.820 Y117.323 E4.70585
G1 X94.199 Y117.280 E4.71277
G1 X94.573 Y117.195 E4.71975
G1 X94.896 Y117.039 E4.72628
G1 X95.145 Y116.829 E4.73220
G1 X95.401 Y116.544 E4.73916
G1 X95.640 Y116.157 E4.74741
G1 X95.784 Y115.684 E4.75641
G1 X95.858 Y115.085 E4.76737
G1 X95.880 Y114.318 E4.78133
G1 X95.774 Y109.452 E4.86981
G1 X95.773 Y108.168 E4.89315
G1 X95.809 Y107.061 E4.91329
G1 X95.901 Y106.144 E4.93003
G1 X96.065 Y105.437 E4.94324
G1 X96.313 Y104.955 E4.95308
G1 X96.655 Y104.698 E4.96087
G1 X97.063 Y104.598 E4.96849
G1 X97.496 Y104.614 E4.97638
G1 X97.907 Y104.700 E4.98401
G1 X98.179 Y104.785 E4.98919
G1 X98.839 Y105.039 E5.00204
G1 X99.168 Y105.146 E5.00833
G1 X99.561 Y105.228 E5.01563
G1 X100.028 Y105.254 E5.02414
G1 X100.364 Y105.217 E5.03029
G1 X100.707 Y105.072 E5.03706
G1 X100.946 Y104.796 E5.04368
G1 X101.093 Y104.454 E5.05045
G1 X101.180 Y104.071 E5.05759
G1 X101.227 Y103.694 E5.06450
G1 X101.300 Y102.679 E5.08300
G1 X101.379 Y99.943 E5.13275
G1 X101.355 Y98.032 E5.16750
G1 X101.359 Y97.403 E5.17894
G1 X101.392 Y96.694 E5.19184
G1 X101.476 Y96.011 E5.20435
G1 X101.629 Y95.472 E5.21453
G1 X101.859 Y95.180 E5.22129
G1 X102.082 Y95.077 E5.22576
G1 X102.337 Y95.279 F6000.000
G1 F1860.000 E2.22576
G92 E0
G1 X97.670 Y105.058 F6000.000
G1 E3.10000 F1860.000
G1 X97.712 Y105.100 E3.10108 F1200.000
G1 X97.629 Y105.379 E3.10637
G1 X97.255 Y105.005 E3.11599
G1 X96.930 Y105.041 E3.12193
G1 X97.336 Y105.448 E3.13237
G1 X97.044 Y105.517 E3.13784
G1 X96.700 Y105.173 E3.14666
G1 X96.544 Y105.379 E3.15136
G1 X96.830 Y105.665 E3.15871
G1 X96.621 Y105.818 E3.16341
G1 X96.431 Y105.627 E3.16831
G1 X96.423 Y105.981 E3.17474
G1 X96.486 Y106.044 E3.17636
G1 X96.275 Y106.143 F6000.000
G1 X96.333 Y106.236 E3.17771 F1200.000
G1 X96.279 Y106.487 E3.18087
G1 X97.831 Y105.256 F6000.000
G1 X98.313 Y105.398 E3.19295 F1200.000
G1 X99.038 Y105.664 E3.21153
G1 X99.473 Y105.771 E3.22231
G1 X99.842 Y105.820 E3.23127
G1 X99.982 Y105.975 F6000.000
G1 X100.023 Y106.017 E3.23234 F1200.000
G1 X100.413 Y106.044 E3.23945
G1 X100.040 Y105.670 E3.24904
G1 X100.352 Y105.620 E3.25480
G1 X100.779 Y106.047 E3.26578
G1 X101.105 Y106.009 E3.27173
G1 X100.632 Y105.536 E3.28388
G1 X100.888 Y105.429 E3.28892
G1 X101.381 Y105.922 E3.30159
G1 X101.587 Y105.765 E3.30630
G1 X101.076 Y105.254 E3.31943
G1 X101.245 Y105.060 E3.32411
G1 X101.719 Y105.534 E3.33629
G1 X101.802 Y105.254 E3.34160
G1 X101.370 Y104.821 E3.35272
G1 X101.476 Y104.564 E3.35777
G1 X101.834 Y104.923 E3.36698
G1 X101.846 Y104.571 E3.37337
G1 X101.804 Y104.529 E3.37446
G1 X101.689 Y104.361 F6000.000
G1 X101.729 Y103.741 E3.38940 F1200.000
G1 X101.744 Y103.024 E3.40666
G1 X101.744 Y103.024 F6000.000
G1 X101.809 Y99.079 E3.45520 F1200.000
G1 X101.789 Y97.414 E3.47568
G1 X101.810 Y96.927 E3.48167
G1 X101.877 Y96.411 E3.48807
G1 X102.614 Y95.411 F6000.000
G1 X102.815 Y95.598 E3.49467 F1200.000
G1 X103.217 Y95.644 E3.50440
G1 X103.679 Y95.742 E3.51576
G1 X103.859 Y95.889 F6000.000
G1 X103.816 Y95.845 E3.51687 F1200.000
G1 X103.968 Y95.631 E3.52165
G1 X104.316 Y95.979 E3.53060
G1 X104.555 Y95.852 E3.53553
G1 X104.214 Y95.511 E3.54429
G1 X104.422 Y95.353 E3.54904
G1 X104.670 Y95.600 E3.55540
G1 X104.755 Y95.319 E3.56075
G1 X104.573 Y95.137 E3.56542
G1 X104.802 Y94.999 E3.57028
G1 X104.758 Y94.956 E3.57140
G1 X104.771 Y94.799 F6000.000
G1 X104.831 Y94.513 E3.57499 F1200.000
G1 X104.883 Y94.036 E3.58090
G1 F1860.000 E0.58090
G92 E0
G1 X102.208 Y95.458 F6000.000
G1 E3.10000 F1860.000
G1 X102.509 Y95.759 E3.10773 F1200.000
G1 X102.292 Y95.912 E3.11256
G1 X102.012 Y95.632 E3.11976
G1 X101.919 Y95.910 E3.12509
G1 X102.105 Y96.096 E3.12987
G1 X101.895 Y96.256 E3.13468
G1 X101.853 Y96.214 E3.13575
G1 F1860.000 E0.13575
G92 E0
G1 X104.830 Y86.398 F6000.000
G1 E3.10000 F1860.000
