; generated by Slic3r 1.1.7 on 2014-12-11 at 18:28:21

; perimeters extrusion width = 0.40mm
; infill extrusion width = 0.67mm
; solid infill extrusion width = 0.67mm
; top infill extrusion width = 0.67mm
; support material extrusion width = 0.40mm

G21 ; set units to millimeters
M190 S57 ; wait for bed temperature to be reached
M104 S186 ; set temperature
G28 ; home all axes Start of G Code Slic3r
 
M109 S186 ; wait for temperature to be reached
G90 ; use absolute coordinates
G92 E0
M82 ; use absolute distances for extrusion
G1 F1860.000 E-3.00000
G92 E0
G1 Z0.200 F6000.000
G1 X49.301 Y69.358 F6000.000
G1 E3.10000 F1860.000
G1 X52.500 Y68.514 E3.16015 F1200.000
G1 X147.500 Y68.514 E4.88715
G1 X149.734 Y68.911 E4.92840
G1 X151.695 Y70.053 E4.96965 F1200.000
G1 X153.142 Y71.801 E5.01090
G1 X153.986 Y75.000 E5.07105
G1 X153.986 Y125.000 E5.98000
G1 X153.589 Y127.234 E6.02125
G1 X152.447 Y129.195 E6.06250
G1 X150.699 Y130.642 E6.10375
G1 X147.500 Y131.486 E6.16389
G1 X52.500 Y131.486 E7.89090
G1 X50.266 Y131.089 E7.93215
G1 X48.305 Y129.947 E7.97340
G1 X46.858 Y128.199 E8.01465
G1 X46.014 Y125.000 E8.07480
G1 X46.014 Y75.000 E8.98375
G1 X46.411 Y72.766 E9.02500
G1 X47.553 Y70.805 E9.06625
G1 X49.255 Y69.396 E9.10640
G1 X49.464 Y69.562 F6000.000
G1 X49.532 Y69.508 E9.10799 F1200.000
G1 X52.500 Y68.757 E9.16364
G1 X147.500 Y68.757 E10.89065
G1 X149.690 Y69.154 E10.93111
G1 X151.602 Y70.294 E10.97157 F1200.000
G1 X152.992 Y72.032 E11.01204
G1 X153.743 Y75.000 E11.06769
G1 X153.743 Y125.000 E11.97664
G1 X153.346 Y127.190 E12.01711
G1 X152.206 Y129.102 E12.05757
G1 X150.468 Y130.492 E12.09803
G1 X147.500 Y131.243 E12.15369
G1 X52.500 Y131.243 E13.88069
G1 X50.310 Y130.846 E13.92116
G1 X48.398 Y129.706 E13.96162
G1 X47.008 Y127.968 E14.00208
G1 X46.257 Y125.000 E14.05774
G1 X46.257 Y75.000 E14.96669
G1 X46.654 Y72.810 E15.00715
G1 X47.794 Y70.898 E15.04762
G1 X49.417 Y69.600 E15.08541
G1 F1860.000 E12.08541
G92 E0
G1 X112.843 Y116.343 F6000.000
G1 E3.10000 F1860.000
G1 X112.843 Y108.657 E3.23972 F1200.000
G1 X107.843 Y108.657 E3.33062
G1 X107.843 Y105.343 E3.39086
G1 X147.157 Y105.343 E4.10556
G1 X147.157 Y124.657 E4.45667
G1 X94.593 Y124.657 E5.41223
G1 X94.593 Y116.343 E5.56338
G1 X112.783 Y116.343 E5.89405
G1 X112.600 Y116.100 F6000.000
G1 X112.600 Y108.900 E6.02494 F1200.000
G1 X107.600 Y108.900 E6.11584
G1 X107.600 Y105.100 E6.18492
G1 X147.400 Y105.100 E6.90844
G1 X147.400 Y124.900 E7.26839
G1 X94.350 Y124.900 E8.23279
G1 X94.350 Y116.100 E8.39276
G1 X112.540 Y116.100 E8.72344
G1 X113.000 Y116.100 F6000.000
G1 F1860.000 E5.72344
G92 E0
G1 X112.485 Y108.501 F6000.000
G1 E3.10000 F1860.000
G1 X109.483 Y105.499 E3.17718 F1200.000
G1 X109.139 Y105.499 E3.18343
G1 X112.141 Y108.501 E3.26061
G1 X111.797 Y108.501 E3.26686
G1 X108.795 Y105.499 E3.34403
G1 X108.451 Y105.499 E3.35028
G1 X111.453 Y108.501 E3.42746
G1 X111.110 Y108.501 E3.43371
G1 X108.108 Y105.499 E3.51089
G1 X107.999 Y105.734 E3.51560
G1 X110.766 Y108.501 E3.58673
G1 X110.422 Y108.501 E3.59298
G1 X107.999 Y106.078 E3.65527
G1 X107.999 Y106.422 E3.66152
G1 X110.078 Y108.501 E3.71497
G1 X109.734 Y108.501 E3.72122
G1 X107.999 Y106.766 E3.76583
G1 X107.999 Y107.110 E3.77208
G1 X109.390 Y108.501 E3.80785
G1 X109.047 Y108.501 E3.81410
G1 X107.999 Y107.453 E3.84103
G1 X107.999 Y107.797 E3.84728
G1 X108.703 Y108.501 E3.86537
G1 X108.359 Y108.501 E3.87162
G1 X107.999 Y108.141 E3.88088
G1 X107.999 Y108.485 E3.88713
G1 X108.015 Y108.501 E3.88754
G1 F1860.000 E0.88754
G92 E0
G1 X94.749 Y124.461 F6000.000
G1 E3.10000 F1860.000
G1 X94.789 Y124.501 E3.10103 F1200.000
G1 X95.133 Y124.501 E3.10728
G1 X94.749 Y124.117 E3.11715
G1 X94.749 Y123.773 E3.12340
G1 X95.477 Y124.501 E3.14211
G1 X95.821 Y124.501 E3.14836
G1 X94.749 Y123.429 E3.17590
G1 X94.749 Y123.086 E3.18215
G1 X96.164 Y124.501 E3.21854
G1 X96.508 Y124.501 E3.22479
G1 X94.749 Y122.742 E3.27002
G1 X94.749 Y122.398 E3.27627
G1 X96.852 Y124.501 E3.33034
G1 X97.196 Y124.501 E3.33659
G1 X94.749 Y122.054 E3.39949
G1 X94.749 Y121.710 E3.40574
G1 X97.540 Y124.501 E3.47749
G1 X97.884 Y124.501 E3.48374
G1 X94.749 Y121.366 E3.56432
G1 X94.749 Y121.023 E3.57057
G1 X98.227 Y124.501 E3.66000
G1 X98.571 Y124.501 E3.66625
G1 X94.749 Y120.679 E3.76451
G1 X94.749 Y120.335 E3.77077
G1 X98.915 Y124.501 E3.87787
G1 X99.259 Y124.501 E3.88412
G1 X94.749 Y119.991 E4.00006
G1 X94.749 Y119.647 E4.00632
G1 X99.603 Y124.501 E4.13110
G1 X99.947 Y124.501 E4.13735
G1 X94.749 Y119.303 E4.27097
G1 X94.749 Y118.960 E4.27722
G1 X100.290 Y124.501 E4.41969
G1 X100.634 Y124.501 E4.42594
G1 X94.749 Y118.616 E4.57724
G1 X94.749 Y118.272 E4.58349
G1 X100.978 Y124.501 E4.74363
G1 X101.322 Y124.501 E4.74988
G1 X94.749 Y117.928 E4.91887
G1 X94.749 Y117.584 E4.92512
G1 X101.666 Y124.501 E5.10294
G1 X102.010 Y124.501 E5.10919
G1 X94.749 Y117.240 E5.29585
G1 X94.749 Y116.897 E5.30210
G1 X102.353 Y124.501 E5.49760
G1 X102.697 Y124.501 E5.50385
G1 X94.749 Y116.553 E5.70819
G1 X95.039 Y116.499 E5.71356
G1 X103.041 Y124.501 E5.91928
G1 X103.385 Y124.501 E5.92553
G1 X95.383 Y116.499 E6.13125
G1 X95.727 Y116.499 E6.13750
G1 X103.729 Y124.501 E6.34323
G1 X104.073 Y124.501 E6.34948
G1 X96.071 Y116.499 E6.55520
G1 X96.414 Y116.499 E6.56145
G1 X104.416 Y124.501 E6.76717
G1 X104.760 Y124.501 E6.77342
G1 X96.758 Y116.499 E6.97915
G1 X97.102 Y116.499 E6.98540
G1 X105.104 Y124.501 E7.19112
G1 X105.448 Y124.501 E7.19737
G1 X97.446 Y116.499 E7.40309
G1 X97.790 Y116.499 E7.40934
G1 X105.792 Y124.501 E7.61507
G1 X106.136 Y124.501 E7.62132
G1 X98.134 Y116.499 E7.82704
G1 X98.477 Y116.499 E7.83329
G1 X106.479 Y124.501 E8.03901
G1 X106.823 Y124.501 E8.04526
G1 X98.821 Y116.499 E8.25099
G1 X99.165 Y116.499 E8.25724
G1 X107.167 Y124.501 E8.46296
G1 X107.511 Y124.501 E8.46921
G1 X99.509 Y116.499 E8.67493
G1 X99.853 Y116.499 E8.68118
G1 X107.855 Y124.501 E8.88691
G1 X108.199 Y124.501 E8.89316
G1 X100.197 Y116.499 E9.09888
G1 X100.540 Y116.499 E9.10513
G1 X108.542 Y124.501 E9.31085
G1 X108.886 Y124.501 E9.31710
G1 X100.884 Y116.499 E9.52282
G1 X101.228 Y116.499 E9.52908
G1 X109.230 Y124.501 E9.73480
G1 X109.574 Y124.501 E9.74105
G1 X101.572 Y116.499 E9.94677
G1 X101.916 Y116.499 E9.95302
G1 X109.918 Y124.501 E10.15874
G1 X110.262 Y124.501 E10.16500
G1 X102.260 Y116.499 E10.37072
G1 X102.603 Y116.499 E10.37697
G1 X110.605 Y124.501 E10.58269
G1 X110.949 Y124.501 E10.58894
G1 X102.947 Y116.499 E10.79466
G1 X103.291 Y116.499 E10.80092
G1 X111.293 Y124.501 E11.00664
G1 X111.637 Y124.501 E11.01289
G1 X103.635 Y116.499 E11.21861
G1 X103.979 Y116.499 E11.22486
G1 X111.981 Y124.501 E11.43058
G1 X112.325 Y124.501 E11.43684
G1 X104.323 Y116.499 E11.64256
G1 X104.666 Y116.499 E11.64881
G1 X112.668 Y124.501 E11.85453
G1 X113.012 Y124.501 E11.86078
G1 X105.010 Y116.499 E12.06650
G1 X105.354 Y116.499 E12.07276
G1 X113.356 Y124.501 E12.27848
G1 X113.700 Y124.501 E12.28473
G1 X105.698 Y116.499 E12.49045
G1 X106.042 Y116.499 E12.49670
G1 X114.044 Y124.501 E12.70242
G1 X114.388 Y124.501 E12.70867
G1 X106.386 Y116.499 E12.91440
G1 X106.730 Y116.499 E12.92065
G1 X114.731 Y124.501 E13.12637
G1 X115.075 Y124.501 E13.13262
G1 X107.073 Y116.499 E13.33834
G1 X107.417 Y116.499 E13.34459
G1 X115.419 Y124.501 E13.55032
G1 X115.763 Y124.501 E13.55657
G1 X107.761 Y116.499 E13.76229
G1 X108.105 Y116.499 E13.76854
G1 X116.107 Y124.501 E13.97426
G1 X116.451 Y124.501 E13.98051
G1 X108.449 Y116.499 E14.18624
G1 X108.793 Y116.499 E14.19249
G1 X116.794 Y124.501 E14.39821
G1 X117.138 Y124.501 E14.40446
G1 X109.136 Y116.499 E14.61018
G1 X109.480 Y116.499 E14.61643
G1 X117.482 Y124.501 E14.82216
G1 X117.826 Y124.501 E14.82841
G1 X109.824 Y116.499 E15.03413
G1 X110.168 Y116.499 E15.04038
G1 X118.170 Y124.501 E15.24610
G1 X118.514 Y124.501 E15.25235
G1 X110.512 Y116.499 E15.45808
G1 X110.856 Y116.499 E15.46433
G1 X118.857 Y124.501 E15.67005
G1 X119.201 Y124.501 E15.67630
G1 X111.199 Y116.499 E15.88202
G1 X111.543 Y116.499 E15.88827
G1 X119.545 Y124.501 E16.09400
G1 X119.889 Y124.501 E16.10025
G1 X111.887 Y116.499 E16.30597
G1 X112.231 Y116.499 E16.31222
G1 X120.233 Y124.501 E16.51794
G1 X120.577 Y124.501 E16.52419
G1 X112.575 Y116.499 E16.72992
G1 X112.919 Y116.499 E16.73617
G1 X120.921 Y124.501 E16.94189
G1 X121.264 Y124.501 E16.94814
G1 X112.999 Y116.236 E17.16063
G1 X112.999 Y115.892 E17.16688
G1 X121.608 Y124.501 E17.38822
G1 X121.952 Y124.501 E17.39447
G1 X112.999 Y115.548 E17.62464
G1 X112.999 Y115.204 E17.63089
G1 X122.296 Y124.501 E17.86990
G1 X122.640 Y124.501 E17.87615
G1 X112.999 Y114.860 E18.12401
G1 X112.999 Y114.516 E18.13026
G1 X122.984 Y124.501 E18.38695
G1 X123.327 Y124.501 E18.39320
G1 X112.999 Y114.173 E18.65873
G1 X112.999 Y113.829 E18.66498
G1 X123.671 Y124.501 E18.93935
G1 X124.015 Y124.501 E18.94560
G1 X112.999 Y113.485 E19.22881
G1 X112.999 Y113.141 E19.23506
G1 X124.359 Y124.501 E19.52712
G1 X124.703 Y124.501 E19.53337
G1 X112.999 Y112.797 E19.83426
G1 X112.999 Y112.453 E19.84051
G1 X125.047 Y124.501 E20.15024
G1 X125.390 Y124.501 E20.15649
G1 X112.999 Y112.110 E20.47506
G1 X112.999 Y111.766 E20.48131
G1 X125.734 Y124.501 E20.80872
G1 X126.078 Y124.501 E20.81497
G1 X112.999 Y111.422 E21.15122
G1 X112.999 Y111.078 E21.15747
G1 X126.422 Y124.501 E21.50255
G1 X126.766 Y124.501 E21.50881
G1 X112.999 Y110.734 E21.86273
G1 X112.999 Y110.390 E21.86898
G1 X127.110 Y124.501 E22.23175
G1 X127.453 Y124.501 E22.23800
G1 X112.999 Y110.047 E22.60961
G1 X112.999 Y109.703 E22.61586
G1 X127.797 Y124.501 E22.99631
G1 X128.141 Y124.501 E23.00256
G1 X112.999 Y109.359 E23.39184
G1 X112.999 Y109.015 E23.39810
G1 X128.485 Y124.501 E23.79622
G1 X128.829 Y124.501 E23.80247
G1 X109.827 Y105.499 E24.29099
G1 X110.171 Y105.499 E24.29725
G1 X129.173 Y124.501 E24.78577
G1 X129.516 Y124.501 E24.79202
G1 X110.514 Y105.499 E25.28054
G1 X110.858 Y105.499 E25.28679
G1 X129.860 Y124.501 E25.77531
G1 X130.204 Y124.501 E25.78156
G1 X111.202 Y105.499 E26.27008
G1 X111.546 Y105.499 E26.27633
G1 X130.548 Y124.501 E26.76486
G1 X130.892 Y124.501 E26.77111
G1 X111.890 Y105.499 E27.25963
G1 X112.234 Y105.499 E27.26588
G1 X131.236 Y124.501 E27.75440
G1 X131.579 Y124.501 E27.76065
G1 X112.577 Y105.499 E28.24917
G1 X112.921 Y105.499 E28.25542
G1 X131.923 Y124.501 E28.74395
G1 X132.267 Y124.501 E28.75020
G1 X113.265 Y105.499 E29.23872
G1 X113.609 Y105.499 E29.24497
G1 X132.611 Y124.501 E29.73349
G1 X132.955 Y124.501 E29.73974
G1 X113.953 Y105.499 E30.22826
G1 X114.297 Y105.499 E30.23451
G1 X133.299 Y124.501 E30.72304
G1 X133.642 Y124.501 E30.72929
G1 X114.640 Y105.499 E31.21781
G1 X114.984 Y105.499 E31.22406
G1 X133.986 Y124.501 E31.71258
G1 X134.330 Y124.501 E31.71883
G1 X115.328 Y105.499 E32.20735
G1 X115.672 Y105.499 E32.21360
G1 X134.674 Y124.501 E32.70213
G1 X135.018 Y124.501 E32.70838
G1 X116.016 Y105.499 E33.19690
G1 X116.360 Y105.499 E33.20315
G1 X135.362 Y124.501 E33.69167
G1 X135.705 Y124.501 E33.69792
G1 X116.703 Y105.499 E34.18644
G1 X117.047 Y105.499 E34.19269
G1 X136.049 Y124.501 E34.68122
G1 X136.393 Y124.501 E34.68747
G1 X117.391 Y105.499 E35.17599
G1 X117.735 Y105.499 E35.18224
G1 X136.737 Y124.501 E35.67076
G1 X137.081 Y124.501 E35.67701
G1 X118.079 Y105.499 E36.16553
G1 X118.423 Y105.499 E36.17178
G1 X137.425 Y124.501 E36.66031
G1 X137.768 Y124.501 E36.66656
G1 X118.766 Y105.499 E37.15508
G1 X119.110 Y105.499 E37.16133
G1 X138.112 Y124.501 E37.64985
G1 X138.456 Y124.501 E37.65610
G1 X119.454 Y105.499 E38.14462
G1 X119.798 Y105.499 E38.15087
G1 X138.800 Y124.501 E38.63940
G1 X139.144 Y124.501 E38.64565
G1 X120.142 Y105.499 E39.13417
G1 X120.486 Y105.499 E39.14042
G1 X139.488 Y124.501 E39.62894
G1 X139.831 Y124.501 E39.63519
G1 X120.829 Y105.499 E40.12371
G1 X121.173 Y105.499 E40.12996
G1 X140.175 Y124.501 E40.61849
G1 X140.519 Y124.501 E40.62474
G1 X121.517 Y105.499 E41.11326
G1 X121.861 Y105.499 E41.11951
G1 X140.863 Y124.501 E41.60803
G1 X141.207 Y124.501 E41.61428
G1 X122.205 Y105.499 E42.10280
G1 X122.549 Y105.499 E42.10905
G1 X141.551 Y124.501 E42.59758
G1 X141.894 Y124.501 E42.60383
G1 X122.893 Y105.499 E43.09235
G1 X123.236 Y105.499 E43.09860
G1 X142.238 Y124.501 E43.58712
G1 X142.582 Y124.501 E43.59337
G1 X123.580 Y105.499 E44.08189
G1 X123.924 Y105.499 E44.08814
G1 X142.926 Y124.501 E44.57667
G1 X143.270 Y124.501 E44.58292
G1 X124.268 Y105.499 E45.07144
G1 X124.612 Y105.499 E45.07769
G1 X143.614 Y124.501 E45.56621
G1 X143.957 Y124.501 E45.57246
G1 X124.956 Y105.499 E46.06098
G1 X125.299 Y105.499 E46.06723
G1 X144.301 Y124.501 E46.55576
G1 X144.645 Y124.501 E46.56201
G1 X125.643 Y105.499 E47.05053
G1 X125.987 Y105.499 E47.05678
G1 X144.989 Y124.501 E47.54530
G1 X145.333 Y124.501 E47.55155
G1 X126.331 Y105.499 E48.04007
G1 X126.675 Y105.499 E48.04632
G1 X145.677 Y124.501 E48.53485
G1 X146.020 Y124.501 E48.54110
G1 X127.019 Y105.499 E49.02962
G1 X127.362 Y105.499 E49.03587
G1 X146.364 Y124.501 E49.52439
G1 X146.708 Y124.501 E49.53064
G1 X127.706 Y105.499 E50.01916
G1 X128.050 Y105.499 E50.02541
G1 X147.001 Y124.450 E50.51262
G1 X147.001 Y124.106 E50.51887
G1 X128.394 Y105.499 E50.99725
G1 X128.738 Y105.499 E51.00350
G1 X147.001 Y123.762 E51.47303
G1 X147.001 Y123.418 E51.47928
G1 X129.082 Y105.499 E51.93997
G1 X129.425 Y105.499 E51.94622
G1 X147.001 Y123.075 E52.39807
G1 X147.001 Y122.731 E52.40432
G1 X129.769 Y105.499 E52.84733
G1 X130.113 Y105.499 E52.85358
G1 X147.001 Y122.387 E53.28776
G1 X147.001 Y122.043 E53.29401
G1 X130.457 Y105.499 E53.71934
G1 X130.801 Y105.499 E53.72559
G1 X147.001 Y121.699 E54.14208
G1 X147.001 Y121.355 E54.14833
G1 X131.145 Y105.499 E54.55599
G1 X131.488 Y105.499 E54.56224
G1 X147.001 Y121.012 E54.96105
G1 X147.001 Y120.668 E54.96730
G1 X131.832 Y105.499 E55.35728
G1 X132.176 Y105.499 E55.36353
G1 X147.001 Y120.324 E55.74466
G1 X147.001 Y119.980 E55.75091
G1 X132.520 Y105.499 E56.12321
G1 X132.864 Y105.499 E56.12946
G1 X147.001 Y119.636 E56.49291
G1 X147.001 Y119.292 E56.49916
G1 X133.208 Y105.499 E56.85378
G1 X133.551 Y105.499 E56.86003
G1 X147.001 Y118.949 E57.20580
G1 X147.001 Y118.605 E57.21205
G1 X133.895 Y105.499 E57.54899
G1 X134.239 Y105.499 E57.55524
G1 X147.001 Y118.261 E57.88334
G1 X147.001 Y117.917 E57.88959
G1 X134.583 Y105.499 E58.20884
G1 X134.927 Y105.499 E58.21509
G1 X147.001 Y117.573 E58.52551
G1 X147.001 Y117.229 E58.53176
G1 X135.271 Y105.499 E58.83334
G1 X135.614 Y105.499 E58.83959
G1 X147.001 Y116.886 E59.13233
G1 X147.001 Y116.542 E59.13858
G1 X135.958 Y105.499 E59.42248
G1 X136.302 Y105.499 E59.42873
G1 X147.001 Y116.198 E59.70378
G1 X147.001 Y115.854 E59.71003
G1 X136.646 Y105.499 E59.97625
G1 X136.990 Y105.499 E59.98250
G1 X147.001 Y115.510 E60.23988
G1 X147.001 Y115.166 E60.24613
G1 X137.334 Y105.499 E60.49467
G1 X137.677 Y105.499 E60.50092
G1 X147.001 Y114.823 E60.74062
G1 X147.001 Y114.479 E60.74687
G1 X138.021 Y105.499 E60.97773
G1 X138.365 Y105.499 E60.98398
G1 X147.001 Y114.135 E61.20600
G1 X147.001 Y113.791 E61.21225
G1 X138.709 Y105.499 E61.42544
G1 X139.053 Y105.499 E61.43169
G1 X147.001 Y113.447 E61.63603
G1 X147.001 Y113.103 E61.64228
G1 X139.397 Y105.499 E61.83778
G1 X139.740 Y105.499 E61.84403
G1 X147.001 Y112.760 E62.03069
G1 X147.001 Y112.416 E62.03694
G1 X140.084 Y105.499 E62.21476
G1 X140.428 Y105.499 E62.22101
G1 X147.001 Y112.072 E62.39000
G1 X147.001 Y111.728 E62.39625
G1 X140.772 Y105.499 E62.55639
G1 X141.116 Y105.499 E62.56264
G1 X147.001 Y111.384 E62.71394
G1 X147.001 Y111.040 E62.72019
G1 X141.460 Y105.499 E62.86266
G1 X141.803 Y105.499 E62.86891
G1 X147.001 Y110.697 E63.00253
G1 X147.001 Y110.353 E63.00878
G1 X142.147 Y105.499 E63.13356
G1 X142.491 Y105.499 E63.13981
G1 X147.001 Y110.009 E63.25576
G1 X147.001 Y109.665 E63.26201
G1 X142.835 Y105.499 E63.36911
G1 X143.179 Y105.499 E63.37536
G1 X147.001 Y109.321 E63.47363
G1 X147.001 Y108.977 E63.47988
G1 X143.523 Y105.499 E63.56930
G1 X143.866 Y105.499 E63.57556
G1 X147.001 Y108.634 E63.65614
G1 X147.001 Y108.290 E63.66239
G1 X144.210 Y105.499 E63.73414
G1 X144.554 Y105.499 E63.74039
G1 X147.001 Y107.946 E63.80329
G1 X147.001 Y107.602 E63.80954
G1 X144.898 Y105.499 E63.86361
G1 X145.242 Y105.499 E63.86986
G1 X147.001 Y107.258 E63.91509
G1 X147.001 Y106.914 E63.92134
