; generated by Slic3r 1.1.7 on 2014-12-20 at 17:16:58

; perimeters extrusion width = 0.42mm
; infill extrusion width = 0.74mm
; solid infill extrusion width = 0.71mm
; top infill extrusion width = 0.71mm
; support material extrusion width = 0.42mm

G21 ; set units to millimeters
M190 S110 ; wait for bed temperature to be reached
M104 S220 ; set temperature
G28 ; home all axes Start of G Code Slic3r
 
M109 S220 ; wait for temperature to be reached
G90 ; use absolute coordinates
G92 E0
M82 ; use absolute distances for extrusion
M106 S127
G1 F1860.000 E-3.00000
G92 E0
G1 Z0.200 F6000.000
G1 X33.720 Y54.497 F6000.000
G1 E3.10000 F1860.000
G1 X53.660 Y45.572 E3.51836 F1200.000
G1 X56.749 Y45.020 E3.57846
G1 X126.880 Y49.765 E4.92463
G1 X164.634 Y55.695 E5.65653 F1200.000
G1 X166.781 Y56.434 E5.70001
G1 X168.542 Y57.867 E5.74350
G1 X169.703 Y59.819 E5.78698
G1 X170.121 Y62.111 E5.83161
G1 X170.113 Y64.179 E5.87121
G1 X166.899 Y129.383 E7.12146
G1 X166.392 Y131.596 E7.16494
G1 X165.649 Y132.904 E7.19374
G1 X163.491 Y135.842 E7.26357
G1 X161.263 Y138.704 E7.33303
G1 X158.653 Y140.703 E7.39598
G1 X137.308 Y149.660 E7.83931
G1 X136.615 Y149.896 E7.85333
G1 X135.818 Y150.101 E7.86908
G1 X134.769 Y150.266 E7.88941
G1 X134.363 Y150.298 E7.89721
G1 X64.998 Y154.993 E9.22868
G1 X64.251 Y154.976 E9.24298
G1 X63.485 Y154.921 E9.25769
G1 X62.745 Y154.824 E9.27200
G1 X61.989 Y154.687 E9.28670
G1 X60.527 Y154.294 E9.31571
G1 X59.115 Y153.745 E9.34471
G1 X57.771 Y153.047 E9.37372
G1 X56.803 Y152.428 E9.39573
G1 X37.325 Y138.720 E9.85186
G1 X35.733 Y137.120 E9.89509
G1 X33.084 Y133.207 E9.98559
G1 X31.795 Y130.670 E10.04008
G1 X31.092 Y127.863 E10.09551
G1 X29.879 Y68.959 E11.22382
G1 X29.879 Y60.425 E11.38727
G1 X30.276 Y58.189 E11.43075
G1 X31.418 Y56.227 E11.47424
G1 X33.670 Y54.535 E11.52817
G1 X33.821 Y54.723 F6000.000
G1 X53.761 Y45.798 E11.94654 F1200.000
G1 X56.732 Y45.267 E12.00435
G1 X126.842 Y50.009 E13.35010
G1 X164.596 Y55.939 E14.08200 F1200.000
G1 X166.699 Y56.671 E14.12464
G1 X168.411 Y58.094 E14.16728
G1 X169.516 Y60.028 E14.20992
G1 X169.873 Y62.111 E14.25041
G1 X169.866 Y64.167 E14.28977
G1 X166.652 Y129.371 E15.54003
G1 X166.148 Y131.539 E15.58267
G1 X165.450 Y132.757 E15.60955
G1 X163.296 Y135.691 E15.67925
G1 X161.068 Y138.553 E15.74871
G1 X158.558 Y140.475 E15.80926
G1 X137.223 Y149.428 E16.25236
G1 X136.546 Y149.658 E16.26605
G1 X135.770 Y149.858 E16.28140
G1 X134.749 Y150.019 E16.30119
G1 X134.346 Y150.052 E16.30893
G1 X65.004 Y154.746 E17.63997
G1 X64.257 Y154.729 E17.65427
G1 X63.517 Y154.676 E17.66847
G1 X62.777 Y154.579 E17.68278
G1 X62.047 Y154.447 E17.69697
G1 X60.610 Y154.061 E17.72547
G1 X59.224 Y153.523 E17.75396
G1 X57.902 Y152.838 E17.78246
G1 X56.945 Y152.226 E17.80422
G1 X37.467 Y138.518 E18.26035
G1 X35.936 Y136.979 E18.30194
G1 X33.304 Y133.095 E18.39179
G1 X32.016 Y130.558 E18.44627
G1 X31.339 Y127.858 E18.49959
G1 X30.127 Y68.959 E19.62780
G1 X30.127 Y60.425 E19.79126
G1 X30.523 Y58.234 E19.83390
G1 X31.663 Y56.321 E19.87654
G1 X33.771 Y54.760 E19.92677
G1 F1860.000 E16.92677
G92 E0
G1 X85.358 Y130.583 F6000.000
G1 E3.10000 F1860.000
G1 X85.358 Y133.182 E3.14978 F1200.000
G1 X58.642 Y136.992 E3.66659
G1 X47.516 Y129.876 E3.91953
G1 X47.516 Y127.836 E3.95861
G1 X45.327 Y126.559 E4.00714
G1 X45.327 Y124.790 E4.04103
G1 X44.038 Y124.034 E4.06964
G1 X44.038 Y64.064 E5.21813
G1 X57.202 Y58.172 E5.49434
G1 X90.760 Y63.444 E6.14490
G1 X89.661 Y127.514 E7.37209
G1 X87.586 Y127.791 E7.41218
G1 X87.586 Y130.298 E7.46019
G1 X85.421 Y130.575 E7.50200
G1 X85.111 Y130.366 F6000.000
G1 X85.111 Y132.968 E7.55183 F1200.000
G1 X58.698 Y136.734 E8.06279
G1 X47.763 Y129.741 E8.31138
G1 X47.763 Y127.694 E8.35058
G1 X45.574 Y126.417 E8.39911
G1 X45.574 Y124.648 E8.43299
G1 X44.285 Y123.892 E8.46160
G1 X44.285 Y64.224 E9.60432
G1 X57.236 Y58.427 E9.87605
G1 X90.509 Y63.655 E10.52109
G1 X89.417 Y127.297 E11.74009
G1 X87.339 Y127.575 E11.78024
G1 X87.339 Y130.081 E11.82823
G1 X85.174 Y130.358 E11.87004
G1 X85.336 Y130.720 F6000.000
G1 F1860.000 E8.87004
G92 E0
G1 X91.464 Y135.958 F6000.000
G1 E3.10000 F1860.000
G1 X91.464 Y138.479 E3.14829 F1200.000
G1 X72.720 Y141.138 E3.51086
G1 X72.516 Y142.684 E3.54073
G1 X72.038 Y143.839 E3.56467
G1 X71.762 Y144.199 E3.57336
G1 X71.336 Y144.830 E3.58793
G1 X70.977 Y145.275 E3.59887
G1 X70.589 Y145.694 E3.60981
G1 X70.173 Y146.086 E3.62075
G1 X69.732 Y146.449 E3.63170
G1 X69.267 Y146.781 E3.64264
G1 X68.781 Y147.081 E3.65358
G1 X68.276 Y147.347 E3.66452
G1 X67.753 Y147.579 E3.67546
G1 X67.217 Y147.774 E3.68640
G1 X66.627 Y147.945 E3.69816
G1 X65.906 Y148.086 E3.71223
G1 X65.132 Y148.152 E3.72711
G1 X64.355 Y148.135 E3.74199
G1 X63.584 Y148.034 E3.75688
G1 X62.829 Y147.851 E3.77176
G1 X62.053 Y147.566 E3.78758
G1 X61.399 Y147.247 E3.80153
G1 X60.741 Y146.833 E3.81641
G1 X60.132 Y146.350 E3.83130
G1 X59.578 Y145.805 E3.84618
G1 X59.014 Y145.115 E3.86325
G1 X58.887 Y144.895 E3.86812
G1 X58.635 Y144.568 E3.87602
G1 X58.085 Y143.239 E3.90357
G1 X57.262 Y143.356 E3.91950
G1 X41.410 Y133.219 E4.27984
G1 X41.410 Y131.343 E4.31578
G1 X39.221 Y130.066 E4.36431
G1 X39.221 Y128.286 E4.39839
G1 X37.933 Y127.530 E4.42700
G1 X37.933 Y69.096 E5.54610
G1 X36.721 Y68.706 E5.57047
G1 X36.721 Y60.650 E5.72476
G1 X56.361 Y51.859 E6.13684
G1 X98.953 Y58.551 E6.96254
G1 X98.953 Y66.201 E7.10905
G1 X96.794 Y67.650 E7.15884
G1 X95.675 Y132.870 E8.40806
G1 X93.692 Y133.135 E8.44638
G1 X93.692 Y135.673 E8.49498
G1 X91.527 Y135.950 E8.53679
G1 X91.711 Y136.175 F6000.000
G1 X91.711 Y138.694 E8.58502 F1200.000
G1 X72.940 Y141.356 E8.94810
G1 X72.757 Y142.749 E8.97500
G1 X72.254 Y143.964 E9.00019
G1 X71.966 Y144.339 E9.00923
G1 X71.533 Y144.979 E9.02403
G1 X71.164 Y145.436 E9.03529
G1 X70.765 Y145.868 E9.04655
G1 X70.337 Y146.271 E9.05781
G1 X69.883 Y146.645 E9.06908
G1 X69.404 Y146.987 E9.08034
G1 X68.904 Y147.296 E9.09160
G1 X68.384 Y147.570 E9.10286
G1 X67.846 Y147.808 E9.11413
G1 X67.293 Y148.009 E9.12539
G1 X66.685 Y148.185 E9.13752
G1 X65.940 Y148.331 E9.15205
G1 X65.140 Y148.400 E9.16744
G1 X64.336 Y148.382 E9.18284
G1 X63.539 Y148.278 E9.19823
G1 X62.758 Y148.088 E9.21363
G1 X61.945 Y147.788 E9.23022
G1 X61.279 Y147.463 E9.24441
G1 X60.598 Y147.035 E9.25981
G1 X59.968 Y146.536 E9.27521
G1 X59.395 Y145.972 E9.29060
G1 X58.810 Y145.256 E9.30831
G1 X58.681 Y145.033 E9.31325
G1 X58.419 Y144.692 E9.32147
G1 X57.930 Y143.510 E9.34597
G1 X57.206 Y143.614 E9.35998
G1 X41.163 Y133.355 E9.72467
G1 X41.163 Y131.485 E9.76048
G1 X38.974 Y130.208 E9.80901
G1 X38.974 Y128.428 E9.84310
G1 X37.685 Y127.672 E9.87171
G1 X37.685 Y69.276 E10.99006
G1 X36.474 Y68.887 E11.01444
G1 X36.474 Y60.490 E11.17525
G1 X56.327 Y51.603 E11.59180
G1 X99.200 Y58.340 E12.42296
G1 X99.200 Y66.333 E12.57604
G1 X97.039 Y67.783 E12.62588
G1 X95.919 Y133.087 E13.87670
G1 X93.939 Y133.351 E13.91495
G1 X93.939 Y135.890 E13.96357
G1 X91.774 Y136.167 E14.00538
G1 X91.292 Y136.193 F6000.000
G1 F1860.000 E11.00538
G92 E0
G1 X62.229 Y147.461 F6000.000
G1 E3.10000 F1860.000
G1 X58.434 Y143.666 E3.20277 F1200.000
G1 X58.682 Y144.264 F6000.000
G1 X61.572 Y147.154 E3.28105 F1200.000
G1 X60.533 Y146.464 F6000.000
G1 X59.382 Y145.314 E3.31221 F1200.000
G1 F1860.000 E0.31221
G92 E0
G1 X57.188 Y143.120 F6000.000
G1 E3.10000 F1860.000
G1 X38.092 Y124.024 E3.61720 F1200.000
G1 X38.092 Y123.674 E3.62390
G1 X57.569 Y143.151 E4.15143
G1 X57.876 Y143.108 E4.15736
G1 X38.092 Y123.324 E4.69318
G1 X38.092 Y122.974 E4.69989
G1 X62.782 Y147.664 E5.36860
G1 X63.260 Y147.792 E5.37807
G1 X38.092 Y122.624 E6.05972
G1 X38.092 Y122.274 E6.06642
G1 X63.708 Y147.890 E6.76020
G1 X64.111 Y147.943 E6.76798
G1 X38.092 Y121.924 E7.47268
G1 X38.092 Y121.574 E7.47938
G1 X64.497 Y147.979 E8.19454
G1 X64.855 Y147.987 E8.20139
G1 X38.092 Y121.224 E8.92625
G1 X38.092 Y120.874 E8.93295
G1 X65.204 Y147.986 E9.66727
G1 X65.527 Y147.959 E9.67346
G1 X47.843 Y130.275 E10.15242
G1 X47.356 Y129.788 F6000.000
G1 X38.092 Y120.524 E10.40334 F1200.000
G1 X38.092 Y120.174 E10.41004
G1 X47.356 Y129.438 E10.66096
G1 X47.356 Y129.088 E10.66766
G1 X38.092 Y119.824 E10.91858
G1 X38.092 Y119.474 E10.92529
G1 X47.356 Y128.738 E11.17621
G1 X47.356 Y128.388 E11.18291
G1 X46.250 Y127.282 E11.21287
G1 X47.090 Y127.772 F6000.000
G1 X47.356 Y128.038 E11.22009 F1200.000
G1 F1860.000 E8.22009
G92 E0
G1 X45.167 Y126.199 F6000.000
G1 E3.10000 F1860.000
G1 X38.092 Y119.124 E3.29164 F1200.000
G1 X38.092 Y118.774 E3.29834
G1 X45.167 Y125.849 E3.48998
G1 X45.167 Y125.499 E3.49668
G1 X38.092 Y118.424 E3.68831
G1 X38.092 Y118.074 E3.69502
G1 X43.879 Y123.861 E3.85176
G1 X43.879 Y123.511 E3.85846
G1 X38.092 Y117.724 E4.01520
G1 X38.092 Y117.374 E4.02190
G1 X43.879 Y123.161 E4.17864
G1 X43.879 Y122.811 E4.18534
G1 X38.092 Y117.024 E4.34208
G1 X38.092 Y116.674 E4.34878
G1 X43.879 Y122.461 E4.50552
G1 X43.879 Y122.111 E4.51223
G1 X38.092 Y116.324 E4.66896
G1 X38.092 Y115.974 E4.67567
G1 X43.879 Y121.761 E4.83241
G1 X43.879 Y121.411 E4.83911
G1 X38.092 Y115.624 E4.99585
G1 X38.092 Y115.274 E5.00255
G1 X43.879 Y121.061 E5.15929
G1 X43.879 Y120.711 E5.16599
G1 X38.092 Y114.924 E5.32273
G1 X38.092 Y114.574 E5.32943
G1 X43.879 Y120.361 E5.48617
G1 X43.879 Y120.011 E5.49288
G1 X38.092 Y114.224 E5.64961
G1 X38.092 Y113.874 E5.65632
G1 X43.879 Y119.661 E5.81306
G1 X43.879 Y119.311 E5.81976
G1 X38.092 Y113.524 E5.97650
G1 X38.092 Y113.174 E5.98320
G1 X43.879 Y118.961 E6.13994
G1 X43.879 Y118.611 E6.14664
G1 X38.092 Y112.824 E6.30338
G1 X38.092 Y112.474 E6.31008
G1 X43.879 Y118.261 E6.46682
G1 X43.879 Y117.911 E6.47353
G1 X38.092 Y112.124 E6.63026
G1 X38.092 Y111.774 E6.63697
G1 X43.879 Y117.561 E6.79371
G1 X43.879 Y117.211 E6.80041
G1 X38.092 Y111.424 E6.95715
G1 X38.092 Y111.074 E6.96385
G1 X43.879 Y116.861 E7.12059
G1 X43.879 Y116.511 E7.12729
G1 X38.092 Y110.724 E7.28403
G1 X38.092 Y110.374 E7.29073
G1 X43.879 Y116.161 E7.44747
G1 X43.879 Y115.811 E7.45417
G1 X38.092 Y110.024 E7.61091
G1 X38.092 Y109.674 E7.61762
G1 X43.879 Y115.461 E7.77436
G1 X43.879 Y115.111 E7.78106
G1 X38.092 Y109.324 E7.93780
G1 X38.092 Y108.974 E7.94450
G1 X43.879 Y114.761 E8.10124
G1 X43.879 Y114.411 E8.10794
G1 X38.092 Y108.624 E8.26468
G1 X38.092 Y108.274 E8.27138
G1 X43.879 Y114.061 E8.42812
G1 X43.879 Y113.711 E8.43482
G1 X38.092 Y107.924 E8.59156
G1 X38.092 Y107.574 E8.59827
G1 X43.879 Y113.361 E8.75500
G1 X43.879 Y113.011 E8.76171
G1 X38.092 Y107.224 E8.91845
G1 X38.092 Y106.874 E8.92515
G1 X43.879 Y112.661 E9.08189
G1 X43.879 Y112.311 E9.08859
G1 X38.092 Y106.524 E9.24533
G1 X38.092 Y106.174 E9.25203
G1 X43.879 Y111.961 E9.40877
G1 X43.879 Y111.611 E9.41547
G1 X38.092 Y105.824 E9.57221
G1 X38.092 Y105.474 E9.57892
G1 X43.879 Y111.261 E9.73565
G1 X43.879 Y110.911 E9.74236
G1 X38.092 Y105.124 E9.89910
G1 X38.092 Y104.774 E9.90580
G1 X43.879 Y110.561 E10.06254
G1 X43.879 Y110.211 E10.06924
G1 X38.092 Y104.424 E10.22598
G1 X38.092 Y104.074 E10.23268
G1 X43.879 Y109.861 E10.38942
G1 X43.879 Y109.511 E10.39612
G1 X38.092 Y103.724 E10.55286
G1 X38.092 Y103.374 E10.55957
G1 X43.879 Y109.161 E10.71630
G1 X43.879 Y108.811 E10.72301
G1 X38.092 Y103.024 E10.87975
G1 X38.092 Y102.674 E10.88645
G1 X43.879 Y108.461 E11.04319
G1 X43.879 Y108.111 E11.04989
G1 X38.092 Y102.323 E11.20663
G1 X38.092 Y101.973 E11.21333
G1 X43.879 Y107.761 E11.37007
G1 X43.879 Y107.411 E11.37677
G1 X38.092 Y101.623 E11.53351
G1 X38.092 Y101.273 E11.54022
G1 X43.879 Y107.061 E11.69695
G1 X43.879 Y106.711 E11.70366
G1 X38.092 Y100.923 E11.86040
G1 X38.092 Y100.573 E11.86710
G1 X43.879 Y106.361 E12.02384
G1 X43.879 Y106.011 E12.03054
G1 X38.092 Y100.223 E12.18728
G1 X38.092 Y99.873 E12.19398
G1 X43.879 Y105.661 E12.35072
G1 X43.879 Y105.311 E12.35742
G1 X38.092 Y99.523 E12.51416
G1 X38.092 Y99.173 E12.52087
G1 X43.879 Y104.961 E12.67760
G1 X43.879 Y104.611 E12.68431
G1 X38.092 Y98.823 E12.84105
G1 X38.092 Y98.473 E12.84775
G1 X43.879 Y104.261 E13.00449
G1 X43.879 Y103.911 E13.01119
G1 X38.092 Y98.123 E13.16793
G1 X38.092 Y97.773 E13.17463
G1 X43.879 Y103.561 E13.33137
G1 X43.879 Y103.211 E13.33807
G1 X38.092 Y97.423 E13.49481
G1 X38.092 Y97.073 E13.50151
G1 X43.879 Y102.861 E13.65825
G1 X43.879 Y102.511 E13.66496
G1 X38.092 Y96.723 E13.82169
G1 X38.092 Y96.373 E13.82840
G1 X43.879 Y102.161 E13.98514
G1 X43.879 Y101.811 E13.99184
G1 X38.092 Y96.023 E14.14858
G1 X38.092 Y95.673 E14.15528
G1 X43.879 Y101.461 E14.31202
G1 X43.879 Y101.111 E14.31872
G1 X38.092 Y95.323 E14.47546
G1 X38.092 Y94.973 E14.48216
G1 X43.879 Y100.761 E14.63890
G1 X43.879 Y100.411 E14.64561
G1 X38.092 Y94.623 E14.80234
G1 X38.092 Y94.273 E14.80905
G1 X43.879 Y100.061 E14.96579
G1 X43.879 Y99.711 E14.97249
G1 X38.092 Y93.923 E15.12923
G1 X38.092 Y93.573 E15.13593
G1 X43.879 Y99.361 E15.29267
G1 X43.879 Y99.011 E15.29937
G1 X38.092 Y93.223 E15.45611
G1 X38.092 Y92.873 E15.46281
G1 X43.879 Y98.661 E15.61955
G1 X43.879 Y98.311 E15.62626
G1 X38.092 Y92.523 E15.78299
G1 X38.092 Y92.173 E15.78970
G1 X43.879 Y97.961 E15.94644
G1 X43.879 Y97.611 E15.95314
G1 X38.092 Y91.823 E16.10988
G1 X38.092 Y91.473 E16.11658
G1 X43.879 Y97.261 E16.27332
G1 X43.879 Y96.911 E16.28002
G1 X38.092 Y91.123 E16.43676
G1 X38.092 Y90.773 E16.44346
G1 X43.879 Y96.561 E16.60020
G1 X43.879 Y96.211 E16.60691
G1 X38.092 Y90.423 E16.76364
G1 X38.092 Y90.073 E16.77035
G1 X43.879 Y95.861 E16.92709
G1 X43.879 Y95.511 E16.93379
G1 X38.092 Y89.723 E17.09053
G1 X38.092 Y89.373 E17.09723
G1 X43.879 Y95.161 E17.25397
G1 X43.879 Y94.811 E17.26067
G1 X38.092 Y89.023 E17.41741
G1 X38.092 Y88.673 E17.42411
G1 X43.879 Y94.461 E17.58085
G1 X43.879 Y94.111 E17.58756
G1 X38.092 Y88.323 E17.74429
G1 X38.092 Y87.973 E17.75100
G1 X43.879 Y93.760 E17.90774
G1 X43.879 Y93.410 E17.91444
G1 X38.092 Y87.623 E18.07118
G1 X38.092 Y87.273 E18.07788
G1 X43.879 Y93.060 E18.23462
G1 X43.879 Y92.710 E18.24132
G1 X38.092 Y86.923 E18.39806
G1 X38.092 Y86.573 E18.40476
G1 X43.879 Y92.360 E18.56150
G1 X43.879 Y92.010 E18.56820
G1 X38.092 Y86.223 E18.72494
G1 X38.092 Y85.873 E18.73165
G1 X43.879 Y91.660 E18.88838
G1 X43.879 Y91.310 E18.89509
G1 X38.092 Y85.523 E19.05183
G1 X38.092 Y85.173 E19.05853
G1 X43.879 Y90.960 E19.21527
G1 X43.879 Y90.610 E19.22197
G1 X38.092 Y84.823 E19.37871
G1 X38.092 Y84.473 E19.38541
G1 X43.879 Y90.260 E19.54215
G1 X43.879 Y89.910 E19.54885
G1 X38.092 Y84.123 E19.70559
G1 X38.092 Y83.773 E19.71230
G1 X43.879 Y89.560 E19.86903
G1 X43.879 Y89.210 E19.87574
G1 X38.092 Y83.423 E20.03248
G1 X38.092 Y83.073 E20.03918
G1 X43.879 Y88.860 E20.19592
G1 X43.879 Y88.510 E20.20262
G1 X38.092 Y82.723 E20.35936
G1 X38.092 Y82.373 E20.36606
G1 X43.879 Y88.160 E20.52280
G1 X43.879 Y87.810 E20.52950
G1 X38.092 Y82.023 E20.68624
G1 X38.092 Y81.673 E20.69295
G1 X43.879 Y87.460 E20.84968
G1 X43.879 Y87.110 E20.85639
G1 X38.092 Y81.323 E21.01313
G1 X38.092 Y80.973 E21.01983
G1 X43.879 Y86.760 E21.17657
G1 X43.879 Y86.410 E21.18327
G1 X38.092 Y80.623 E21.34001
G1 X38.092 Y80.273 E21.34671
G1 X43.879 Y86.060 E21.50345
G1 X43.879 Y85.710 E21.51015
G1 X38.092 Y79.923 E21.66689
G1 X38.092 Y79.573 E21.67360
G1 X43.879 Y85.360 E21.83033
G1 X43.879 Y85.010 E21.83704
G1 X38.092 Y79.223 E21.99378
G1 X38.092 Y78.873 E22.00048
G1 X43.879 Y84.660 E22.15722
G1 X43.879 Y84.310 E22.16392
G1 X38.092 Y78.523 E22.32066
G1 X38.092 Y78.173 E22.32736
G1 X43.879 Y83.960 E22.48410
G1 X43.879 Y83.610 E22.49080
G1 X38.092 Y77.823 E22.64754
G1 X38.092 Y77.473 E22.65425
G1 X43.879 Y83.260 E22.81098
G1 X43.879 Y82.910 E22.81769
G1 X38.092 Y77.123 E22.97443
G1 X38.092 Y76.773 E22.98113
G1 X43.879 Y82.560 E23.13787
G1 X43.879 Y82.210 E23.14457
G1 X38.092 Y76.423 E23.30131
G1 X38.092 Y76.073 E23.30801
G1 X43.879 Y81.860 E23.46475
G1 X43.879 Y81.510 E23.47145
G1 X38.092 Y75.723 E23.62819
G1 X38.092 Y75.373 E23.63489
G1 X43.879 Y81.160 E23.79163
G1 X43.879 Y80.810 E23.79834
G1 X38.092 Y75.023 E23.95508
G1 X38.092 Y74.673 E23.96178
G1 X43.879 Y80.460 E24.11852
G1 X43.879 Y80.110 E24.12522
G1 X38.092 Y74.323 E24.28196
G1 X38.092 Y73.973 E24.28866
G1 X43.879 Y79.760 E24.44540
G1 X43.879 Y79.410 E24.45210
G1 X38.092 Y73.623 E24.60884
G1 X38.092 Y73.273 E24.61554
G1 X43.879 Y79.060 E24.77228
