; generated by Slic3r 1.1.7 on 2014-12-07 at 15:59:30

; perimeters extrusion width = 0.42mm
; infill extrusion width = 0.74mm
; solid infill extrusion width = 0.71mm
; top infill extrusion width = 0.71mm
; support material extrusion width = 0.42mm

G21 ; set units to millimeters
M190 S60 ; wait for bed temperature to be reached
M104 S215 ; set temperature
G28 ; home all axes
M109 S215 ; wait for temperature to be reached
G90 ; use absolute coordinates
G92 E0
M82 ; use absolute distances for extrusion
M106 S127
G1 F1860.000 E-3.00000
G92 E0
G1 Z0.200 F6000.000
G1 X73.311 Y74.330 F6000.000
G1 E3.10000 F1860.000
G1 X74.544 Y73.166 E3.13137 F1200.000
G1 X76.660 Y71.638 E3.17966
G1 X78.153 Y70.834 E3.21103
G1 X80.593 Y69.906 E3.25932
G1 X82.243 Y69.515 E3.29069
G1 X84.840 Y69.250 E3.33898
G1 X86.314 Y69.268 E3.36626
G1 X125.604 Y74.239 E4.09893 F1200.000
G1 X127.772 Y74.913 E4.14094
G1 X129.576 Y76.293 E4.18294
G1 X130.794 Y78.209 E4.22495
G1 X131.283 Y80.682 E4.27159
G1 X131.283 Y120.582 E5.00975
G1 X130.886 Y122.818 E5.05175
G1 X129.744 Y124.780 E5.09376
G1 X127.996 Y126.229 E5.13577
G1 X125.399 Y127.048 E5.18614
G1 X86.122 Y130.755 E5.91601
G1 X84.476 Y130.700 E5.94647
G1 X81.899 Y130.284 E5.99476
G1 X80.275 Y129.798 E6.02613
G1 X77.894 Y128.729 E6.07442
G1 X76.451 Y127.838 E6.10579
G1 X74.427 Y126.189 E6.15408
G1 X73.264 Y124.956 E6.18545
G1 X71.812 Y122.945 E6.23133
G1 X71.736 Y122.840 E6.23375
G1 X70.931 Y121.347 E6.26511
G1 X70.003 Y118.907 E6.31340
G1 X69.612 Y117.257 E6.34477
G1 X69.315 Y114.137 E6.40276
G1 X68.718 Y85.550 E6.93174
G1 X68.800 Y84.379 E6.95345
G1 X69.216 Y81.802 E7.00175
G1 X69.702 Y80.178 E7.03311
G1 X70.771 Y77.796 E7.08141
G1 X71.661 Y76.354 E7.11277
G1 X73.271 Y74.379 E7.15990
G1 X73.502 Y74.486 F6000.000
G1 X74.689 Y73.367 E7.19008 F1200.000
G1 X76.805 Y71.839 E7.23837
G1 X78.241 Y71.065 E7.26854
G1 X80.681 Y70.137 E7.31684
G1 X82.268 Y69.761 E7.34701
G1 X84.865 Y69.496 E7.39530
G1 X86.283 Y69.513 E7.42154
G1 X125.573 Y74.484 E8.15421 F1200.000
G1 X127.697 Y75.153 E8.19541
G1 X129.451 Y76.524 E8.23660
G1 X130.613 Y78.423 E8.27779
G1 X131.036 Y80.682 E8.32031
G1 X131.036 Y120.582 E9.05846
G1 X130.639 Y122.773 E9.09966
G1 X129.499 Y124.686 E9.14085
G1 X127.761 Y126.077 E9.18204
G1 X125.376 Y126.802 E9.22816
G1 X86.099 Y130.509 E9.95802
G1 X84.516 Y130.456 E9.98732
G1 X81.939 Y130.040 E10.03562
G1 X80.377 Y129.572 E10.06579
G1 X77.995 Y128.503 E10.11409
G1 X76.607 Y127.647 E10.14426
G1 X74.583 Y125.998 E10.19255
G1 X73.464 Y124.812 E10.22272
G1 X72.012 Y122.801 E10.26860
G1 X71.936 Y122.695 E10.27102
G1 X71.162 Y121.259 E10.30119
G1 X70.234 Y118.819 E10.34948
G1 X69.858 Y117.232 E10.37966
G1 X69.562 Y114.132 E10.43728
G1 X68.965 Y85.545 E10.96625
G1 X69.044 Y84.419 E10.98714
G1 X69.460 Y81.842 E11.03544
G1 X69.928 Y80.279 E11.06561
G1 X70.997 Y77.898 E11.11391
G1 X71.853 Y76.510 E11.14407
G1 X73.462 Y74.535 E11.19120
G1 F1860.000 E8.19120
G92 E0
G1 X88.363 Y117.170 F6000.000
G1 E3.10000 F1860.000
G1 X87.531 Y117.734 E3.11859 F1200.000
G1 X86.581 Y118.064 E3.13719
G1 X85.579 Y118.137 E3.15578
G1 X84.592 Y117.948 E3.17438
G1 X83.687 Y117.510 E3.19297
G1 X82.927 Y116.852 E3.21157
G1 X82.363 Y116.020 E3.23016
G1 X82.033 Y115.071 E3.24876
G1 X81.960 Y114.068 E3.26735
G1 X82.149 Y113.081 E3.28595
G1 X82.588 Y112.177 E3.30454
G1 X83.245 Y111.416 E3.32314
G1 X84.077 Y110.852 E3.34173
G1 X85.026 Y110.522 E3.36033
G1 X86.029 Y110.450 E3.37892
G1 X86.123 Y110.468 E3.38070
G1 X87.016 Y110.639 E3.39752 F1200.000
G1 X87.920 Y111.077 E3.41611
G1 X88.681 Y111.734 E3.43470
G1 X89.245 Y112.566 E3.45330
G1 X89.575 Y113.516 E3.47189
G1 X89.647 Y114.518 E3.49049
G1 X89.458 Y115.505 E3.50908
G1 X89.020 Y116.410 E3.52768
G1 X88.404 Y117.122 E3.54511
G1 X88.197 Y116.984 F6000.000
G1 X87.419 Y117.512 E3.56250 F1200.000
G1 X86.531 Y117.820 E3.57989
G1 X85.594 Y117.888 E3.59728
G1 X84.670 Y117.711 E3.61467
G1 X83.824 Y117.301 E3.63206
G1 X83.113 Y116.686 E3.64945
G1 X82.586 Y115.909 E3.66684
G1 X82.277 Y115.021 E3.68423
G1 X82.209 Y114.083 E3.70162
G1 X82.386 Y113.160 E3.71901
G1 X82.796 Y112.314 E3.73640
G1 X83.411 Y111.603 E3.75379
G1 X84.189 Y111.075 E3.77118
G1 X85.077 Y110.767 E3.78857
G1 X85.950 Y110.703 E3.80478
G1 X86.014 Y110.699 E3.80596 F1200.000
G1 X86.937 Y110.875 E3.82335
G1 X87.783 Y111.285 E3.84074
G1 X88.494 Y111.900 E3.85814
G1 X89.022 Y112.678 E3.87553
G1 X89.330 Y113.566 E3.89292
G1 X89.399 Y114.504 E3.91031
G1 X89.222 Y115.427 E3.92770
G1 X88.812 Y116.273 E3.94509
G1 X88.238 Y116.936 E3.96131
G1 F1860.000 E0.96131
G92 E0
G1 X85.937 Y110.641 F6000.000
G1 X91.700 Y121.836 F6000.000
G1 E3.10000 F1860.000
G1 X90.383 Y122.788 E3.13006 F1200.000
G1 X88.028 Y123.683 E3.17667
G1 X85.522 Y123.939 E3.22327
G1 X83.035 Y123.537 E3.26988
G1 X80.737 Y122.506 E3.31648
G1 X78.784 Y120.914 E3.36308
G1 X77.309 Y118.872 E3.40969
G1 X76.414 Y116.518 E3.45629
G1 X76.158 Y114.011 E3.50290
G1 X76.560 Y111.525 E3.54950
G1 X77.591 Y109.226 E3.59610
G1 X79.183 Y107.273 E3.64271
G1 X81.225 Y105.799 E3.68931
G1 X83.580 Y104.903 E3.73591
G1 X86.001 Y104.656 E3.78095
G1 X86.086 Y104.648 E3.78252 F1200.000
G1 X88.573 Y105.049 E3.82912
G1 X90.871 Y106.081 E3.87573
G1 X92.824 Y107.672 E3.92233
G1 X94.298 Y109.715 E3.96894
G1 X95.194 Y112.069 E4.01554
G1 X95.450 Y114.575 E4.06214
G1 X95.048 Y117.062 E4.10875
G1 X94.016 Y119.360 E4.15535
G1 X92.425 Y121.313 E4.20195
G1 X91.751 Y121.800 E4.21733
G1 X91.845 Y122.037 F6000.000
G1 X90.501 Y123.007 E4.24799 F1200.000
G1 X88.086 Y123.926 E4.29580
G1 X85.515 Y124.188 E4.34361
G1 X82.964 Y123.776 E4.39142
G1 X80.606 Y122.718 E4.43923
G1 X78.603 Y121.086 E4.48704
G1 X77.090 Y118.990 E4.53484
G1 X76.171 Y116.575 E4.58265
G1 X75.909 Y114.004 E4.63046
G1 X76.321 Y111.453 E4.67827
G1 X77.379 Y109.095 E4.72608
G1 X79.012 Y107.092 E4.77388
G1 X81.107 Y105.579 E4.82169
G1 X83.522 Y104.661 E4.86950
G1 X86.093 Y104.398 E4.91731
G1 X88.528 Y104.792 E4.96295
G1 X88.644 Y104.810 E4.96512 F1200.000
G1 X91.002 Y105.869 E5.01292
G1 X93.005 Y107.501 E5.06073
G1 X94.518 Y109.596 E5.10854
G1 X95.436 Y112.012 E5.15635
G1 X95.699 Y114.582 E5.20416
G1 X95.287 Y117.134 E5.25197
G1 X94.228 Y119.491 E5.29977
G1 X92.596 Y121.495 E5.34758
G1 X91.896 Y122.000 E5.36356
G1 F1860.000 E2.36356
G92 E0
G1 X88.628 Y104.853 F6000.000
G1 X88.823 Y105.336 F6000.000
G1 E3.10000 F1860.000
G1 X94.696 Y111.209 E3.25366 F1200.000
G1 X94.913 Y111.778 F6000.000
G1 X88.302 Y105.167 E3.42662 F1200.000
G1 X87.881 Y105.099 E3.43449
G1 X95.054 Y112.272 E3.62216
G1 X95.094 Y112.664 E3.62946
G1 X87.461 Y105.031 E3.82916
G1 X87.041 Y104.963 E3.83704
G1 X95.134 Y113.056 E4.04878
G1 X95.175 Y113.449 E4.05607
G1 X86.621 Y104.895 E4.27986
G1 X86.201 Y104.828 E4.28773
G1 X95.215 Y113.841 E4.52355
G1 X95.255 Y114.233 E4.53085
G1 X85.853 Y104.831 E4.77683
G1 X85.533 Y104.864 E4.78277
G1 X95.282 Y114.613 E5.03784
G1 X95.233 Y114.916 E5.04352
G1 X85.213 Y104.897 E5.30567
G1 X84.894 Y104.929 E5.31161
G1 X95.184 Y115.220 E5.58084
G1 X95.135 Y115.523 E5.58652
G1 X84.574 Y104.962 E5.86283
G1 X84.255 Y104.995 E5.86878
G1 X95.086 Y115.826 E6.15217
G1 X95.037 Y116.129 E6.15785
G1 X83.935 Y105.027 E6.44832
G1 X83.616 Y105.060 E6.45426
G1 X94.988 Y116.433 E6.75181
G1 X94.939 Y116.736 E6.75749
G1 X83.360 Y105.157 E7.06043
G1 X83.105 Y105.254 E7.06549
G1 X94.886 Y117.035 E7.37370
G1 X94.777 Y117.278 E7.37863
G1 X82.850 Y105.351 E7.69067
G1 X82.595 Y105.448 E7.69572
G1 X94.667 Y117.521 E8.01158
G1 X94.558 Y117.764 E8.01651
G1 X89.442 Y112.647 E8.15037
G1 X89.629 Y113.187 F6000.000
G1 X94.449 Y118.007 E8.27648 F1200.000
G1 X94.340 Y118.250 E8.28141
G1 X89.744 Y113.655 E8.40165
G1 X89.772 Y114.034 E8.40869
G1 X94.231 Y118.493 E8.52535
G1 X94.122 Y118.736 E8.53028
G1 X89.800 Y114.414 E8.64337
G1 X89.768 Y114.735 E8.64933
G1 X94.013 Y118.980 E8.76038
G1 X93.904 Y119.223 E8.76531
G1 X89.711 Y115.031 E8.87499
G1 X89.655 Y115.326 E8.88056
G1 X93.756 Y119.428 E8.98787
G1 X93.598 Y119.622 E8.99250
G1 X89.585 Y115.609 E9.09749
G1 X89.470 Y115.846 E9.10237
G1 X93.440 Y119.816 E9.20622
G1 X93.282 Y120.010 E9.21086
G1 X89.355 Y116.083 E9.31359
G1 X89.240 Y116.321 E9.31846
G1 X93.123 Y120.204 E9.42006
G1 X92.965 Y120.398 E9.42470
G1 X89.113 Y116.546 E9.52548
G1 X88.950 Y116.735 E9.53010
G1 X92.807 Y120.592 E9.63103
G1 X92.649 Y120.786 E9.63566
G1 X88.786 Y116.924 E9.73672
G1 X88.623 Y117.112 E9.74134
G1 X92.491 Y120.980 E9.84253
G1 X92.320 Y121.162 E9.84715
G1 X88.457 Y117.299 E9.94823
G1 X88.247 Y117.441 E9.95292
G1 X92.133 Y121.327 E10.05460
G1 X91.929 Y121.475 E10.05927
G1 X88.037 Y117.583 E10.16109
G1 X87.827 Y117.726 E10.16578
G1 X91.724 Y121.623 E10.26773
G1 X91.520 Y121.770 E10.27240
G1 X87.617 Y117.868 E10.37450
G1 X87.360 Y117.962 E10.37958
G1 X91.315 Y121.918 E10.48307
G1 X91.111 Y122.066 E10.48774
G1 X87.098 Y118.053 E10.59272
G1 X86.837 Y118.144 E10.59784
G1 X90.906 Y122.213 E10.70431
G1 X90.701 Y122.361 E10.70897
G1 X86.565 Y118.225 E10.81719
G1 X86.237 Y118.249 E10.82328
G1 X90.497 Y122.509 E10.93474
G1 X90.289 Y122.653 E10.93942
G1 X85.908 Y118.273 E11.05402
G1 X85.580 Y118.296 E11.06011
G1 X90.034 Y122.750 E11.17664
G1 X89.778 Y122.847 E11.18169
G1 X85.148 Y118.216 E11.30284
G1 X84.712 Y118.133 E11.31105
G1 X89.523 Y122.944 E11.43693
G1 X89.268 Y123.041 E11.44198
G1 X84.126 Y117.899 E11.57652
G1 X83.002 Y117.128 F6000.000
G1 X89.013 Y123.138 E11.73377 F1200.000
G1 X88.758 Y123.235 E11.73883
G1 X76.831 Y111.309 E12.05086
G1 X76.940 Y111.066 E12.05579
G1 X82.751 Y116.877 E12.20783
G1 X82.166 Y115.939 F6000.000
G1 X77.049 Y110.823 E12.34169 F1200.000
G1 X77.159 Y110.579 E12.34662
G1 X81.979 Y115.400 E12.47273
G1 X81.863 Y114.932 E12.48164
G1 X77.268 Y110.336 E12.60188
G1 X77.377 Y110.093 E12.60681
G1 X81.836 Y114.552 E12.72347
G1 X81.808 Y114.172 E12.73051
G1 X77.486 Y109.850 E12.84359
G1 X77.595 Y109.607 E12.84852
G1 X81.840 Y113.852 E12.95958
G1 X81.896 Y113.556 E12.96515
G1 X77.704 Y109.364 E13.07482
G1 X77.852 Y109.159 E13.07949
G1 X81.953 Y113.260 E13.18680
G1 X82.023 Y112.978 E13.19218
G1 X78.010 Y108.965 E13.29717
G1 X78.168 Y108.771 E13.30180
G1 X82.138 Y112.740 E13.40566
G1 X82.252 Y112.503 E13.41054
G1 X78.326 Y108.577 E13.51327
G1 X78.484 Y108.383 E13.51790
G1 X82.367 Y112.266 E13.61950
G1 X82.495 Y112.041 E13.62428
G1 X78.642 Y108.189 E13.72507
G1 X78.801 Y107.994 E13.72970
G1 X82.658 Y111.852 E13.83062
G1 X82.821 Y111.663 E13.83524
G1 X78.959 Y107.800 E13.93630
G1 X79.117 Y107.606 E13.94093
G1 X82.985 Y111.474 E14.04213
G1 X83.151 Y111.288 E14.04674
G1 X79.287 Y107.424 E14.14783
G1 X79.474 Y107.259 E14.15244
G1 X83.361 Y111.146 E14.25412
G1 X83.570 Y111.003 E14.25881
G1 X79.679 Y107.112 E14.36063
G1 X79.883 Y106.964 E14.36530
G1 X83.780 Y110.861 E14.46726
G1 X83.990 Y110.718 E14.47195
G1 X80.088 Y106.816 E14.57404
G1 X80.293 Y106.669 E14.57871
G1 X84.248 Y110.624 E14.68220
G1 X84.510 Y110.533 E14.68732
G1 X80.497 Y106.521 E14.79230
G1 X80.702 Y106.373 E14.79697
G1 X84.771 Y110.443 E14.90344
G1 X85.042 Y110.362 E14.90868
G1 X80.906 Y106.225 E15.01689
G1 X81.111 Y106.078 E15.02156
G1 X85.371 Y110.338 E15.13302
G1 X85.699 Y110.314 E15.13911
G1 X81.319 Y105.934 E15.25371
G1 X81.574 Y105.837 E15.25876
G1 X86.028 Y110.290 E15.37528
G1 X86.460 Y110.370 E15.38342
G1 X81.829 Y105.739 E15.50457
G1 X82.084 Y105.642 E15.50962
G1 X86.896 Y110.454 E15.63550
G1 X87.482 Y110.688 F6000.000
G1 X82.340 Y105.545 E15.77005 F1200.000
G1 F1860.000 E12.77005
G92 E0
G1 X89.463 Y105.623 F6000.000
G1 E3.10000 F1860.000
G1 X94.480 Y110.641 E3.23128 F1200.000
G1 X94.264 Y110.072 F6000.000
G1 X90.102 Y105.910 E3.34017 F1200.000
G1 X90.741 Y106.197 F6000.000
G1 X93.695 Y109.151 E3.41747 F1200.000
G1 X92.781 Y107.885 F6000.000
G1 X92.553 Y107.657 E3.42343 F1200.000
G1 F1860.000 E0.42343
G92 E0
G1 X76.722 Y111.552 F6000.000
G1 E3.10000 F1860.000
G1 X88.502 Y123.332 E3.40822 F1200.000
G1 X88.247 Y123.430 E3.41327
G1 X76.668 Y111.851 E3.71621
G1 X76.619 Y112.154 E3.72189
G1 X87.992 Y123.527 E4.01944
G1 X87.673 Y123.559 E4.02538
G1 X76.570 Y112.457 E4.31585
G1 X76.521 Y112.760 E4.32153
G1 X87.353 Y123.592 E4.60493
G1 X87.033 Y123.625 E4.61087
G1 X76.472 Y113.064 E4.88718
G1 X76.424 Y113.367 E4.89286
G1 X86.714 Y123.657 E5.16209
G1 X86.394 Y123.690 E5.16804
G1 X76.375 Y113.670 E5.43018
G1 X76.326 Y113.974 E5.43587
G1 X86.075 Y123.723 E5.69093
G1 X85.755 Y123.755 E5.69688
G1 X76.353 Y114.353 E5.94286
G1 X76.393 Y114.746 E5.95015
G1 X85.407 Y123.759 E6.18598
G1 X84.986 Y123.691 E6.19385
G1 X76.433 Y115.138 E6.41763
G1 X76.473 Y115.530 E6.42493
G1 X84.566 Y123.623 E6.63667
G1 X84.146 Y123.556 E6.64455
G1 X76.513 Y115.922 E6.84425
G1 X76.553 Y116.315 E6.85155
G1 X83.726 Y123.488 E7.03922
G1 X83.306 Y123.420 E7.04709
G1 X76.695 Y116.809 E7.22006
G1 X76.911 Y117.377 F6000.000
G1 X82.784 Y123.250 E7.37372 F1200.000
G1 X82.145 Y122.963 F6000.000
G1 X77.127 Y117.946 E7.50500 F1200.000
G1 X77.344 Y118.514 F6000.000
G1 X81.506 Y122.676 E7.61389 F1200.000
G1 X80.867 Y122.390 F6000.000
G1 X77.912 Y119.435 E7.69120 F1200.000
G1 X78.827 Y120.702 F6000.000
G1 X79.055 Y120.930 E7.69716 F1200.000
G1 F1860.000 E4.69716
G92 E0
G1 X87.766 Y88.584 F6000.000
G1 E3.10000 F1860.000
G1 X86.934 Y89.148 E3.11859 F1200.000
G1 X85.984 Y89.478 E3.13719
G1 X84.982 Y89.550 E3.15578
G1 X83.995 Y89.361 E3.17438
G1 X83.090 Y88.923 E3.19297
G1 X82.330 Y88.266 E3.21157
G1 X81.766 Y87.434 E3.23016
G1 X81.436 Y86.484 E3.24876
G1 X81.363 Y85.482 E3.26735
G1 X81.552 Y84.495 E3.28595
G1 X81.991 Y83.590 E3.30454
G1 X82.648 Y82.830 E3.32314
G1 X83.480 Y82.266 E3.34173
G1 X84.429 Y81.936 E3.36033
G1 X85.432 Y81.863 E3.37892
G1 X85.526 Y81.881 E3.38070
G1 X86.419 Y82.052 E3.39752 F1200.000
G1 X87.323 Y82.490 E3.41611
G1 X88.084 Y83.148 E3.43470
G1 X88.648 Y83.980 E3.45330
G1 X88.978 Y84.929 E3.47189
G1 X89.050 Y85.932 E3.49049
G1 X88.861 Y86.919 E3.50908
G1 X88.423 Y87.823 E3.52768
G1 X87.807 Y88.536 E3.54511
G1 X87.600 Y88.397 F6000.000
G1 X86.822 Y88.925 E3.56250 F1200.000
G1 X85.934 Y89.233 E3.57989
G1 X84.997 Y89.301 E3.59728
G1 X84.073 Y89.125 E3.61467
G1 X83.227 Y88.715 E3.63206
G1 X82.516 Y88.100 E3.64945
G1 X81.989 Y87.322 E3.66684
G1 X81.680 Y86.434 E3.68423
G1 X81.612 Y85.496 E3.70162
G1 X81.789 Y84.573 E3.71901
G1 X82.199 Y83.727 E3.73640
G1 X82.814 Y83.016 E3.75379
G1 X83.592 Y82.488 E3.77118
G1 X84.480 Y82.180 E3.78857
G1 X85.353 Y82.117 E3.80478
G1 X85.417 Y82.112 E3.80596 F1200.000
G1 X86.340 Y82.289 E3.82335
G1 X87.186 Y82.699 E3.84074
G1 X87.897 Y83.314 E3.85814
G1 X88.425 Y84.091 E3.87553
G1 X88.733 Y84.979 E3.89292
G1 X88.802 Y85.917 E3.91031
G1 X88.625 Y86.840 E3.92770
G1 X88.215 Y87.686 E3.94509
G1 X87.641 Y88.350 E3.96131
G1 F1860.000 E0.96131
G92 E0
G1 X85.340 Y82.054 F6000.000
G1 X91.103 Y93.250 F6000.000
G1 E3.10000 F1860.000
G1 X89.786 Y94.201 E3.13006 F1200.000
G1 X87.431 Y95.097 E3.17667
G1 X84.925 Y95.352 E3.22327
G1 X82.438 Y94.951 E3.26988
G1 X80.140 Y93.919 E3.31648
G1 X78.187 Y92.328 E3.36308
G1 X76.712 Y90.285 E3.40969
G1 X75.817 Y87.931 E3.45629
G1 X75.561 Y85.425 E3.50290
G1 X75.963 Y82.938 E3.54950
G1 X76.994 Y80.640 E3.59610
G1 X78.586 Y78.687 E3.64271
G1 X80.628 Y77.212 E3.68931
G1 X82.983 Y76.317 E3.73591
G1 X85.404 Y76.070 E3.78095
G1 X85.489 Y76.061 E3.78252 F1200.000
G1 X87.976 Y76.463 E3.82912
G1 X90.274 Y77.494 E3.87573
G1 X92.227 Y79.085 E3.92233
G1 X93.701 Y81.128 E3.96894
G1 X94.597 Y83.482 E4.01554
G1 X94.852 Y85.989 E4.06214
G1 X94.451 Y88.475 E4.10875
G1 X93.419 Y90.774 E4.15535
G1 X91.828 Y92.727 E4.20195
G1 X91.154 Y93.213 E4.21733
G1 X91.248 Y93.450 F6000.000
G1 X89.904 Y94.421 E4.24799 F1200.000
G1 X87.488 Y95.339 E4.29580
G1 X84.918 Y95.602 E4.34361
G1 X82.367 Y95.190 E4.39142
G1 X80.009 Y94.131 E4.43923
G1 X78.006 Y92.499 E4.48704
G1 X76.493 Y90.404 E4.53484
G1 X75.574 Y87.988 E4.58265
G1 X75.312 Y85.418 E4.63046
G1 X75.724 Y82.866 E4.67827
G1 X76.782 Y80.509 E4.72608
G1 X78.415 Y78.505 E4.77388
G1 X80.510 Y76.993 E4.82169
G1 X82.925 Y76.074 E4.86950
G1 X85.496 Y75.812 E4.91731
G1 X87.931 Y76.205 E4.96295
G1 X88.047 Y76.224 E4.96512 F1200.000
G1 X90.405 Y77.282 E5.01292
G1 X92.408 Y78.914 E5.06073
G1 X93.921 Y81.010 E5.10854
G1 X94.839 Y83.425 E5.15635
