; generated by Slic3r 1.1.7 on 2014-12-07 at 13:49:17

; perimeters extrusion width = 0.42mm
; infill extrusion width = 0.74mm
; solid infill extrusion width = 0.71mm
; top infill extrusion width = 0.71mm
; support material extrusion width = 0.42mm

G21 ; set units to millimeters
M190 S60 ; wait for bed temperature to be reached
M104 S186 ; set temperature
G28 ; home all axes
M109 S186 ; wait for temperature to be reached
G90 ; use absolute coordinates
G92 E0
M82 ; use absolute distances for extrusion
M106 S127
G1 F1860.000 E-3.00000
G92 E0
G1 Z0.200 F6000.000
G1 X62.304 Y62.788 F6000.000
G1 E3.10000 F1860.000
G1 X63.490 Y61.669 E3.13017 F1200.000
G1 X65.607 Y60.141 E3.17847
G1 X67.043 Y59.367 E3.20864
G1 X69.483 Y58.439 E3.25693
G1 X71.069 Y58.063 E3.28710
G1 X73.537 Y57.811 E3.33299
G1 X74.301 Y57.766 E3.34714
G1 X127.280 Y57.846 E4.32727
G1 X129.857 Y58.262 E4.37556 F1200.000
G1 X131.419 Y58.730 E4.40573
G1 X133.801 Y59.799 E4.45403
G1 X135.188 Y60.655 E4.48420
G1 X137.212 Y62.304 E4.53249
G1 X138.331 Y63.490 E4.56267
G1 X139.859 Y65.607 E4.61096
G1 X140.633 Y67.043 E4.64113
G1 X140.680 Y67.165 E4.64355
G1 X141.561 Y69.483 E4.68943
G1 X141.937 Y71.069 E4.71960
G1 X142.234 Y74.301 E4.77963
G1 X142.154 Y127.280 E5.75975
G1 X141.738 Y129.857 E5.80805
G1 X141.270 Y131.419 E5.83822
G1 X140.201 Y133.801 E5.88651
G1 X139.345 Y135.189 E5.91668
G1 X137.696 Y137.212 E5.96498
G1 X136.510 Y138.331 E5.99515
G1 X134.393 Y139.859 E6.04344
G1 X132.958 Y140.633 E6.07362
G1 X130.518 Y141.561 E6.12191
G1 X128.930 Y141.937 E6.15209
G1 X125.699 Y142.234 E6.21211
G1 X72.721 Y142.155 E7.19223
G1 X70.143 Y141.738 E7.24053
G1 X68.581 Y141.270 E7.27070
G1 X66.199 Y140.201 E7.31900
G1 X64.811 Y139.345 E7.34917
G1 X62.788 Y137.696 E7.39746
G1 X61.669 Y136.510 E7.42763
G1 X60.141 Y134.393 E7.47593
G1 X59.367 Y132.958 E7.50610
G1 X58.439 Y130.518 E7.55440
G1 X58.063 Y128.930 E7.58457
G1 X57.766 Y125.699 E7.64460
G1 X57.846 Y72.720 E8.62472
G1 X58.262 Y70.143 E8.67302
G1 X58.730 Y68.581 E8.70319
G1 X59.799 Y66.199 E8.75148
G1 X60.655 Y64.812 E8.78165
G1 X62.264 Y62.837 E8.82878
G1 F1860.000 E5.82878
G92 E0
G1 X102.559 Y102.877 F6000.000
G1 E3.10000 F1860.000
G1 X101.727 Y103.441 E3.11859 F1200.000
G1 X100.778 Y103.771 E3.13719
G1 X99.775 Y103.844 E3.15578
G1 X98.788 Y103.654 E3.17438
G1 X97.883 Y103.216 E3.19297
G1 X97.123 Y102.559 E3.21157
G1 X96.559 Y101.727 E3.23016
G1 X96.229 Y100.778 E3.24876
G1 X96.156 Y99.775 E3.26735
G1 X96.346 Y98.788 E3.28595
G1 X96.784 Y97.883 E3.30454
G1 X97.441 Y97.123 E3.32314
G1 X98.273 Y96.559 E3.34173
G1 X99.222 Y96.229 E3.36033
G1 X100.225 Y96.156 E3.37892
G1 X100.320 Y96.175 E3.38070
G1 X101.212 Y96.346 E3.39752 F1200.000
G1 X102.117 Y96.784 E3.41611
G1 X102.877 Y97.441 E3.43470
G1 X103.441 Y98.273 E3.45330
G1 X103.771 Y99.222 E3.47189
G1 X103.844 Y100.225 E3.49049
G1 X103.654 Y101.212 E3.50908
G1 X103.216 Y102.117 E3.52768
G1 X102.600 Y102.829 E3.54511
G1 X102.393 Y102.691 F6000.000
G1 X101.615 Y103.218 E3.56250 F1200.000
G1 X100.727 Y103.527 E3.57989
G1 X99.790 Y103.595 E3.59728
G1 X98.867 Y103.418 E3.61467
G1 X98.021 Y103.008 E3.63206
G1 X97.309 Y102.393 E3.64945
G1 X96.782 Y101.615 E3.66684
G1 X96.473 Y100.727 E3.68423
G1 X96.405 Y99.790 E3.70162
G1 X96.582 Y98.867 E3.71901
G1 X96.992 Y98.021 E3.73640
G1 X97.607 Y97.309 E3.75379
G1 X98.385 Y96.782 E3.77118
G1 X99.273 Y96.473 E3.78857
G1 X100.146 Y96.410 E3.80478
G1 X100.210 Y96.405 E3.80596 F1200.000
G1 X101.133 Y96.582 E3.82335
G1 X101.979 Y96.992 E3.84074
G1 X102.691 Y97.607 E3.85814
G1 X103.218 Y98.385 E3.87553
G1 X103.527 Y99.273 E3.89292
G1 X103.595 Y100.210 E3.91031
G1 X103.418 Y101.133 E3.92770
G1 X103.008 Y101.979 E3.94509
G1 X102.434 Y102.643 E3.96131
G1 F1860.000 E0.96131
G92 E0
G1 X100.133 Y96.347 F6000.000
G1 X105.896 Y107.543 F6000.000
G1 E3.10000 F1860.000
G1 X104.579 Y108.494 E3.13006 F1200.000
G1 X102.224 Y109.390 E3.17667
G1 X99.718 Y109.646 E3.22327
G1 X97.231 Y109.244 E3.26988
G1 X94.933 Y108.212 E3.31648
G1 X92.980 Y106.621 E3.36308
G1 X91.506 Y104.579 E3.40969
G1 X90.610 Y102.224 E3.45629
G1 X90.354 Y99.718 E3.50290
G1 X90.756 Y97.231 E3.54950
G1 X91.788 Y94.933 E3.59610
G1 X93.379 Y92.980 E3.64271
G1 X95.421 Y91.506 E3.68931
G1 X97.776 Y90.610 E3.73591
G1 X100.197 Y90.363 E3.78095
G1 X100.282 Y90.354 E3.78252 F1200.000
G1 X102.769 Y90.756 E3.82912
G1 X105.067 Y91.788 E3.87573
G1 X107.020 Y93.379 E3.92233
G1 X108.494 Y95.421 E3.96894
G1 X109.390 Y97.776 E4.01554
G1 X109.646 Y100.282 E4.06214
G1 X109.244 Y102.769 E4.10875
G1 X108.212 Y105.067 E4.15535
G1 X106.621 Y107.020 E4.20195
G1 X105.947 Y107.506 E4.21733
G1 X106.041 Y107.744 F6000.000
G1 X104.697 Y108.714 E4.24799 F1200.000
G1 X102.282 Y109.633 E4.29580
G1 X99.711 Y109.895 E4.34361
G1 X97.160 Y109.483 E4.39142
G1 X94.802 Y108.425 E4.43923
G1 X92.799 Y106.792 E4.48704
G1 X91.286 Y104.697 E4.53484
G1 X90.367 Y102.282 E4.58265
G1 X90.105 Y99.711 E4.63046
G1 X90.517 Y97.160 E4.67827
G1 X91.575 Y94.802 E4.72608
G1 X93.208 Y92.799 E4.77388
G1 X95.303 Y91.286 E4.82169
G1 X97.718 Y90.367 E4.86950
G1 X100.289 Y90.105 E4.91731
G1 X102.724 Y90.498 E4.96295
G1 X102.840 Y90.517 E4.96512 F1200.000
G1 X105.198 Y91.575 E5.01292
G1 X107.201 Y93.208 E5.06073
G1 X108.714 Y95.303 E5.10854
G1 X109.633 Y97.718 E5.15635
G1 X109.895 Y100.289 E5.20416
G1 X109.483 Y102.840 E5.25197
G1 X108.425 Y105.198 E5.29977
G1 X106.792 Y107.201 E5.34758
G1 X106.092 Y107.707 E5.36356
G1 F1860.000 E2.36356
G92 E0
G1 X102.824 Y90.560 F6000.000
G1 X103.020 Y91.043 F6000.000
G1 E3.10000 F1860.000
G1 X108.893 Y96.916 E3.25366 F1200.000
G1 X109.109 Y97.485 F6000.000
G1 X102.498 Y90.873 E3.42662 F1200.000
G1 X102.078 Y90.806 E3.43449
G1 X109.251 Y97.979 E3.62216
G1 X109.291 Y98.371 E3.62946
G1 X101.658 Y90.738 E3.82916
G1 X101.237 Y90.670 E3.83704
G1 X109.331 Y98.763 E4.04878
G1 X109.371 Y99.155 E4.05607
G1 X100.817 Y90.602 E4.27986
G1 X100.397 Y90.534 E4.28773
G1 X109.411 Y99.548 E4.52355
G1 X109.451 Y99.940 E4.53085
G1 X100.049 Y90.538 E4.77683
G1 X99.729 Y90.571 E4.78277
G1 X109.478 Y100.320 E5.03784
G1 X109.429 Y100.623 E5.04352
G1 X99.410 Y90.603 E5.30567
G1 X99.090 Y90.636 E5.31161
G1 X109.380 Y100.926 E5.58084
G1 X109.331 Y101.230 E5.58652
G1 X98.770 Y90.669 E5.86283
G1 X98.451 Y90.701 E5.86878
G1 X109.282 Y101.533 E6.15217
G1 X109.233 Y101.836 E6.15785
G1 X98.131 Y90.734 E6.44832
G1 X97.812 Y90.767 E6.45426
G1 X109.184 Y102.139 E6.75181
G1 X109.135 Y102.443 E6.75749
G1 X97.557 Y90.864 E7.06043
G1 X97.301 Y90.961 E7.06549
G1 X109.082 Y102.741 E7.37370
G1 X108.973 Y102.984 E7.37863
G1 X97.046 Y91.058 E7.69067
G1 X96.791 Y91.155 E7.69572
G1 X108.864 Y103.228 E8.01158
G1 X108.754 Y103.471 E8.01651
G1 X103.638 Y98.354 E8.15037
G1 X103.825 Y98.894 F6000.000
G1 X108.645 Y103.714 E8.27648 F1200.000
G1 X108.536 Y103.957 E8.28141
G1 X103.941 Y99.361 E8.40165
G1 X103.968 Y99.741 E8.40869
G1 X108.427 Y104.200 E8.52535
G1 X108.318 Y104.443 E8.53028
G1 X103.996 Y100.121 E8.64337
G1 X103.964 Y100.442 E8.64933
G1 X108.209 Y104.686 E8.76038
G1 X108.100 Y104.929 E8.76531
G1 X103.908 Y100.737 E8.87499
G1 X103.851 Y101.033 E8.88056
G1 X107.952 Y105.134 E8.98787
G1 X107.794 Y105.328 E8.99250
G1 X103.781 Y101.315 E9.09749
G1 X103.666 Y101.553 E9.10237
G1 X107.636 Y105.522 E9.20622
G1 X107.478 Y105.717 E9.21086
G1 X103.551 Y101.790 E9.31359
G1 X103.436 Y102.027 E9.31846
G1 X107.320 Y105.911 E9.42006
G1 X107.161 Y106.105 E9.42470
G1 X103.309 Y102.252 E9.52548
G1 X103.146 Y102.441 E9.53010
G1 X107.003 Y106.299 E9.63103
G1 X106.845 Y106.493 E9.63566
G1 X102.983 Y102.630 E9.73672
G1 X102.819 Y102.819 E9.74134
G1 X106.687 Y106.687 E9.84253
G1 X106.517 Y106.869 E9.84715
G1 X102.653 Y103.005 E9.94823
G1 X102.443 Y103.148 E9.95292
G1 X106.330 Y107.034 E10.05460
G1 X106.125 Y107.182 E10.05927
G1 X102.233 Y103.290 E10.16109
G1 X102.023 Y103.432 E10.16578
G1 X105.920 Y107.329 E10.26773
G1 X105.716 Y107.477 E10.27240
G1 X101.814 Y103.575 E10.37450
G1 X101.556 Y103.669 E10.37958
G1 X105.511 Y107.625 E10.48307
G1 X105.307 Y107.772 E10.48774
G1 X101.294 Y103.760 E10.59272
G1 X101.033 Y103.851 E10.59784
G1 X105.102 Y107.920 E10.70431
G1 X104.898 Y108.068 E10.70897
G1 X100.761 Y103.932 E10.81719
G1 X100.433 Y103.956 E10.82328
G1 X104.693 Y108.216 E10.93474
G1 X104.485 Y108.360 E10.93942
G1 X100.105 Y103.979 E11.05402
G1 X99.776 Y104.003 E11.06011
G1 X104.230 Y108.457 E11.17664
G1 X103.975 Y108.554 E11.18169
G1 X99.344 Y103.923 E11.30284
G1 X98.908 Y103.840 E11.31105
G1 X103.719 Y108.651 E11.43693
G1 X103.464 Y108.748 E11.44198
G1 X98.322 Y103.606 E11.57652
G1 X97.199 Y102.835 F6000.000
G1 X103.209 Y108.845 E11.73377 F1200.000
G1 X102.954 Y108.942 E11.73883
G1 X91.027 Y97.016 E12.05086
G1 X91.136 Y96.772 E12.05579
G1 X96.947 Y102.583 E12.20783
G1 X96.362 Y101.646 F6000.000
G1 X91.246 Y96.529 E12.34169 F1200.000
G1 X91.355 Y96.286 E12.34662
G1 X96.175 Y101.106 E12.47273
G1 X96.059 Y100.639 E12.48164
G1 X91.464 Y96.043 E12.60188
G1 X91.573 Y95.800 E12.60681
G1 X96.032 Y100.259 E12.72347
G1 X96.004 Y99.879 E12.73051
G1 X91.682 Y95.557 E12.84359
G1 X91.791 Y95.314 E12.84852
G1 X96.036 Y99.558 E12.95958
G1 X96.092 Y99.263 E12.96515
G1 X91.900 Y95.071 E13.07482
G1 X92.048 Y94.866 E13.07949
G1 X96.149 Y98.967 E13.18680
G1 X96.219 Y98.685 E13.19218
G1 X92.206 Y94.672 E13.29717
G1 X92.364 Y94.478 E13.30180
G1 X96.334 Y98.447 E13.40566
G1 X96.449 Y98.210 E13.41054
G1 X92.522 Y94.283 E13.51327
G1 X92.680 Y94.089 E13.51790
G1 X96.564 Y97.973 E13.61950
G1 X96.691 Y97.748 E13.62428
G1 X92.839 Y93.895 E13.72507
G1 X92.997 Y93.701 E13.72970
G1 X96.854 Y97.559 E13.83062
G1 X97.017 Y97.370 E13.83524
G1 X93.155 Y93.507 E13.93630
G1 X93.313 Y93.313 E13.94093
G1 X97.181 Y97.181 E14.04213
G1 X97.347 Y96.995 E14.04674
G1 X93.483 Y93.131 E14.14783
G1 X93.670 Y92.966 E14.15244
G1 X97.557 Y96.852 E14.25412
G1 X97.767 Y96.710 E14.25881
G1 X93.875 Y92.818 E14.36063
G1 X94.080 Y92.671 E14.36530
G1 X97.977 Y96.568 E14.46726
G1 X98.186 Y96.425 E14.47195
G1 X94.284 Y92.523 E14.57404
G1 X94.489 Y92.375 E14.57871
G1 X98.444 Y96.331 E14.68220
G1 X98.706 Y96.240 E14.68732
G1 X94.693 Y92.228 E14.79230
G1 X94.898 Y92.080 E14.79697
G1 X98.967 Y96.149 E14.90344
G1 X99.239 Y96.068 E14.90868
G1 X95.102 Y91.932 E15.01689
G1 X95.307 Y91.784 E15.02156
G1 X99.567 Y96.045 E15.13302
G1 X99.895 Y96.021 E15.13911
G1 X95.515 Y91.640 E15.25371
G1 X95.770 Y91.543 E15.25876
G1 X100.224 Y95.997 E15.37528
G1 X100.656 Y96.077 E15.38342
G1 X96.025 Y91.446 E15.50457
G1 X96.281 Y91.349 E15.50962
G1 X101.092 Y96.160 E15.63550
G1 X101.678 Y96.395 F6000.000
G1 X96.536 Y91.252 E15.77005 F1200.000
G1 F1860.000 E12.77005
G92 E0
G1 X103.659 Y91.330 F6000.000
G1 E3.10000 F1860.000
G1 X108.676 Y96.348 E3.23128 F1200.000
G1 X108.460 Y95.779 F6000.000
G1 X104.298 Y91.617 E3.34017 F1200.000
G1 X104.937 Y91.904 F6000.000
G1 X107.891 Y94.858 E3.41747 F1200.000
G1 X106.977 Y93.592 F6000.000
G1 X106.749 Y93.364 E3.42343 F1200.000
G1 F1860.000 E0.42343
G92 E0
G1 X90.918 Y97.259 F6000.000
G1 E3.10000 F1860.000
G1 X102.699 Y109.039 E3.40822 F1200.000
G1 X102.443 Y109.136 E3.41327
G1 X90.865 Y97.557 E3.71621
G1 X90.816 Y97.861 E3.72189
G1 X102.188 Y109.233 E4.01944
G1 X101.869 Y109.266 E4.02538
G1 X90.767 Y98.164 E4.31585
G1 X90.718 Y98.467 E4.32153
G1 X101.549 Y109.299 E4.60493
G1 X101.230 Y109.331 E4.61087
G1 X90.669 Y98.770 E4.88718
G1 X90.620 Y99.074 E4.89286
G1 X100.910 Y109.364 E5.16209
G1 X100.590 Y109.397 E5.16804
G1 X90.571 Y99.377 E5.43018
G1 X90.522 Y99.680 E5.43587
G1 X100.271 Y109.429 E5.69093
G1 X99.951 Y109.462 E5.69688
G1 X90.549 Y100.060 E5.94286
G1 X90.589 Y100.452 E5.95015
G1 X99.603 Y109.466 E6.18598
G1 X99.183 Y109.398 E6.19385
G1 X90.629 Y100.845 E6.41763
G1 X90.669 Y101.237 E6.42493
G1 X98.763 Y109.330 E6.63667
G1 X98.342 Y109.262 E6.64455
G1 X90.709 Y101.629 E6.84425
G1 X90.749 Y102.021 E6.85155
G1 X97.922 Y109.194 E7.03922
G1 X97.502 Y109.127 E7.04709
G1 X90.891 Y102.515 E7.22006
G1 X91.107 Y103.084 F6000.000
G1 X96.980 Y108.957 E7.37372 F1200.000
G1 X96.341 Y108.670 F6000.000
G1 X91.324 Y103.652 E7.50500 F1200.000
G1 X91.540 Y104.221 F6000.000
G1 X95.702 Y108.383 E7.61389 F1200.000
G1 X95.063 Y108.096 F6000.000
G1 X92.108 Y105.142 E7.69120 F1200.000
G1 X93.023 Y106.408 F6000.000
G1 X93.251 Y106.636 E7.69716 F1200.000
G1 F1860.000 E4.69716
G92 E0
G1 X102.559 Y128.868 F6000.000
G1 E3.10000 F1860.000
G1 X101.727 Y129.433 E3.11859 F1200.000
G1 X100.778 Y129.762 E3.13719
G1 X99.775 Y129.835 E3.15578
G1 X98.788 Y129.646 E3.17438
G1 X97.883 Y129.208 E3.19297
G1 X97.123 Y128.550 E3.21157
G1 X96.559 Y127.719 E3.23016
G1 X96.229 Y126.769 E3.24876
G1 X96.156 Y125.767 E3.26735
G1 X96.346 Y124.779 E3.28595
G1 X96.784 Y123.875 E3.30454
G1 X97.441 Y123.115 E3.32314
G1 X98.273 Y122.550 E3.34173
G1 X99.222 Y122.221 E3.36033
G1 X100.225 Y122.148 E3.37892
G1 X100.320 Y122.166 E3.38070
G1 X101.212 Y122.337 E3.39752 F1200.000
G1 X102.117 Y122.775 E3.41611
G1 X102.877 Y123.433 E3.43470
G1 X103.441 Y124.264 E3.45330
G1 X103.771 Y125.214 E3.47189
G1 X103.844 Y126.216 E3.49049
G1 X103.654 Y127.203 E3.50908
G1 X103.216 Y128.108 E3.52768
G1 X102.600 Y128.821 E3.54511
G1 X102.393 Y128.682 F6000.000
G1 X101.615 Y129.210 E3.56250 F1200.000
G1 X100.727 Y129.518 E3.57989
G1 X99.790 Y129.586 E3.59728
G1 X98.867 Y129.409 E3.61467
G1 X98.021 Y128.999 E3.63206
G1 X97.309 Y128.385 E3.64945
G1 X96.782 Y127.607 E3.66684
G1 X96.473 Y126.719 E3.68423
G1 X96.405 Y125.781 E3.70162
G1 X96.582 Y124.858 E3.71901
G1 X96.992 Y124.012 E3.73640
G1 X97.607 Y123.301 E3.75379
G1 X98.385 Y122.773 E3.77118
G1 X99.273 Y122.465 E3.78857
G1 X100.146 Y122.401 E3.80478
G1 X100.210 Y122.397 E3.80596 F1200.000
G1 X101.133 Y122.574 E3.82335
G1 X101.979 Y122.983 E3.84074
G1 X102.691 Y123.598 E3.85814
G1 X103.218 Y124.376 E3.87553
G1 X103.527 Y125.264 E3.89292
G1 X103.595 Y126.202 E3.91031
G1 X103.418 Y127.125 E3.92770
G1 X103.008 Y127.971 E3.94509
G1 X102.434 Y128.634 E3.96131
G1 F1860.000 E0.96131
G92 E0
G1 X100.133 Y122.339 F6000.000
G1 X105.896 Y133.535 F6000.000
G1 E3.10000 F1860.000
G1 X104.579 Y134.486 E3.13006 F1200.000
G1 X102.224 Y135.381 E3.17667
G1 X99.718 Y135.637 E3.22327
G1 X97.231 Y135.236 E3.26988
G1 X94.933 Y134.204 E3.31648
G1 X92.980 Y132.613 E3.36308
G1 X91.506 Y130.570 E3.40969
G1 X90.610 Y128.216 E3.45629
G1 X90.354 Y125.710 E3.50290
G1 X90.756 Y123.223 E3.54950
G1 X91.788 Y120.925 E3.59610
G1 X93.379 Y118.972 E3.64271
G1 X95.421 Y117.497 E3.68931
G1 X97.776 Y116.602 E3.73591
G1 X100.197 Y116.354 E3.78095
G1 X100.282 Y116.346 E3.78252 F1200.000
G1 X102.769 Y116.747 E3.82912
G1 X105.067 Y117.779 E3.87573
G1 X107.020 Y119.370 E3.92233
G1 X108.494 Y121.413 E3.96894
G1 X109.390 Y123.767 E4.01554
G1 X109.646 Y126.273 E4.06214
G1 X109.244 Y128.760 E4.10875
G1 X108.212 Y131.058 E4.15535
G1 X106.621 Y133.011 E4.20195
G1 X105.947 Y133.498 E4.21733
G1 X106.041 Y133.735 F6000.000
G1 X104.697 Y134.705 E4.24799 F1200.000
G1 X102.282 Y135.624 E4.29580
G1 X99.711 Y135.886 E4.34361
G1 X97.160 Y135.474 E4.39142
G1 X94.802 Y134.416 E4.43923
G1 X92.799 Y132.784 E4.48704
G1 X91.286 Y130.689 E4.53484
G1 X90.367 Y128.273 E4.58265
G1 X90.105 Y125.702 E4.63046
G1 X90.517 Y123.151 E4.67827
G1 X91.575 Y120.794 E4.72608
G1 X93.208 Y118.790 E4.77388
G1 X95.303 Y117.278 E4.82169
G1 X97.718 Y116.359 E4.86950
G1 X100.289 Y116.097 E4.91731
G1 X102.724 Y116.490 E4.96295
G1 X102.840 Y116.509 E4.96512 F1200.000
G1 X105.198 Y117.567 E5.01292
G1 X107.201 Y119.199 E5.06073
G1 X108.714 Y121.294 E5.10854
G1 X109.633 Y123.710 E5.15635
G1 X109.895 Y126.281 E5.20416
G1 X109.483 Y128.832 E5.25197
G1 X108.425 Y131.189 E5.29977
G1 X106.792 Y133.193 E5.34758
G1 X106.092 Y133.698 E5.36356
G1 F1860.000 E2.36356
G92 E0
G1 X102.824 Y116.551 F6000.000
G1 X103.020 Y117.035 F6000.000
G1 E3.10000 F1860.000
G1 X108.893 Y122.907 E3.25366 F1200.000
G1 X109.109 Y123.476 F6000.000
G1 X102.498 Y116.865 E3.42662 F1200.000
G1 X102.078 Y116.797 E3.43449
G1 X109.251 Y123.970 E3.62216
G1 X109.291 Y124.362 E3.62946
G1 X101.658 Y116.729 E3.82916
G1 X101.237 Y116.661 E3.83704
G1 X109.331 Y124.755 E4.04878
G1 X109.371 Y125.147 E4.05607
G1 X100.817 Y116.594 E4.27986
G1 X100.397 Y116.526 E4.28773
