; generated by Slic3r 1.1.7 on 2014-12-07 at 13:49:04

; perimeters extrusion width = 0.42mm
; infill extrusion width = 0.74mm
; solid infill extrusion width = 0.71mm
; top infill extrusion width = 0.71mm
; support material extrusion width = 0.42mm

G21 ; set units to millimeters
M190 S60 ; wait for bed temperature to be reached
M104 S186 ; set temperature
G28 ; home all axes
M109 S186 ; wait for temperature to be reached
G90 ; use absolute coordinates
G92 E0
M82 ; use absolute distances for extrusion
M106 S127
G1 F1860.000 E-3.00000
G92 E0
G1 Z0.200 F6000.000
G1 X87.912 Y88.467 F6000.000
G1 E3.10000 F1860.000
G1 X89.192 Y87.259 E3.13256 F1200.000
G1 X91.309 Y85.731 E3.18085
G1 X92.858 Y84.896 E3.21342
G1 X95.298 Y83.968 E3.26171
G1 X97.011 Y83.562 E3.29427
G1 X99.608 Y83.297 E3.34256
G1 X101.367 Y83.349 E3.37512
G1 X103.944 Y83.765 E3.42342 F1200.000
G1 X105.630 Y84.270 E3.45598
G1 X108.012 Y85.339 E3.50427
G1 X109.509 Y86.263 E3.53683
G1 X111.533 Y87.912 E3.58512
G1 X112.741 Y89.192 E3.61769
G1 X114.269 Y91.309 E3.66598
G1 X115.104 Y92.858 E3.69854
G1 X115.150 Y92.980 E3.70096
G1 X116.032 Y95.298 E3.74684
G1 X116.438 Y97.011 E3.77939
G1 X116.703 Y99.608 E3.82769
G1 X116.651 Y101.367 E3.86025
G1 X116.235 Y103.944 E3.90854
G1 X115.730 Y105.630 E3.94110
G1 X114.661 Y108.012 E3.98940
G1 X113.737 Y109.509 E4.02196
G1 X112.088 Y111.533 E4.07025
G1 X110.808 Y112.741 E4.10281
G1 X108.691 Y114.269 E4.15110
G1 X107.142 Y115.104 E4.18366
G1 X104.702 Y116.032 E4.23196
G1 X102.989 Y116.438 E4.26452
G1 X100.392 Y116.703 E4.31282
G1 X98.633 Y116.651 E4.34537
G1 X96.056 Y116.235 E4.39367
G1 X94.370 Y115.730 E4.42622
G1 X91.988 Y114.661 E4.47452
G1 X90.491 Y113.737 E4.50708
G1 X88.467 Y112.088 E4.55538
G1 X87.259 Y110.808 E4.58793
G1 X85.731 Y108.691 E4.63623
G1 X84.896 Y107.142 E4.66879
G1 X83.968 Y104.702 E4.71708
G1 X83.562 Y102.989 E4.74965
G1 X83.297 Y100.392 E4.79794
G1 X83.349 Y98.633 E4.83050
G1 X83.765 Y96.056 E4.87879
G1 X84.270 Y94.370 E4.91135
G1 X85.339 Y91.988 E4.95965
G1 X86.263 Y90.491 E4.99220
G1 X87.872 Y88.516 E5.03933
G1 X88.104 Y88.623 F6000.000
G1 X89.337 Y87.460 E5.07070 F1200.000
G1 X91.454 Y85.932 E5.11900
G1 X92.946 Y85.127 E5.15036
G1 X95.386 Y84.199 E5.19866
G1 X97.036 Y83.808 E5.23002
G1 X99.633 Y83.543 E5.27832
G1 X101.327 Y83.593 E5.30968
G1 X103.905 Y84.009 E5.35798 F1200.000
G1 X105.529 Y84.496 E5.38934
G1 X107.910 Y85.565 E5.43764
G1 X109.353 Y86.455 E5.46900
G1 X111.377 Y88.104 E5.51730
G1 X112.540 Y89.337 E5.54866
G1 X114.068 Y91.454 E5.59696
G1 X114.873 Y92.946 E5.62832
G1 X115.801 Y95.386 E5.67662
G1 X116.192 Y97.036 E5.70798
G1 X116.457 Y99.633 E5.75628
G1 X116.407 Y101.328 E5.78764
G1 X115.991 Y103.905 E5.83594
G1 X115.504 Y105.529 E5.86730
G1 X114.435 Y107.910 E5.91560
G1 X113.545 Y109.353 E5.94696
G1 X111.896 Y111.377 E5.99526
G1 X110.663 Y112.540 E6.02662
G1 X108.546 Y114.068 E6.07492
G1 X107.054 Y114.873 E6.10628
G1 X104.614 Y115.801 E6.15458
G1 X102.964 Y116.192 E6.18595
G1 X100.367 Y116.457 E6.23424
G1 X98.673 Y116.407 E6.26560
G1 X96.095 Y115.991 E6.31390
G1 X94.471 Y115.505 E6.34526
G1 X92.090 Y114.435 E6.39356
G1 X90.647 Y113.545 E6.42493
G1 X88.623 Y111.896 E6.47322
G1 X87.460 Y110.663 E6.50458
G1 X85.932 Y108.546 E6.55288
G1 X85.127 Y107.054 E6.58424
G1 X84.199 Y104.614 E6.63254
G1 X83.808 Y102.964 E6.66391
G1 X83.543 Y100.367 E6.71220
G1 X83.593 Y98.673 E6.74357
G1 X84.009 Y96.095 E6.79186
G1 X84.496 Y94.471 E6.82323
G1 X85.565 Y92.090 E6.87152
G1 X86.455 Y90.647 E6.90288
G1 X88.064 Y88.672 E6.95001
G1 X88.295 Y88.779 F6000.000
G1 X89.482 Y87.660 E6.98019 F1200.000
G1 X91.598 Y86.132 E7.02848
G1 X93.034 Y85.358 E7.05865
G1 X95.474 Y84.430 E7.10695
G1 X97.061 Y84.054 E7.13712
G1 X99.658 Y83.789 E7.18542
G1 X101.288 Y83.837 E7.21559
G1 X103.865 Y84.253 E7.26388 F1200.000
G1 X105.427 Y84.721 E7.29405
G1 X107.809 Y85.790 E7.34235
G1 X109.197 Y86.646 E7.37252
G1 X111.221 Y88.295 E7.42081
G1 X112.340 Y89.482 E7.45099
G1 X113.868 Y91.599 E7.49928
G1 X114.642 Y93.034 E7.52945
G1 X114.688 Y93.156 E7.53187
G1 X115.570 Y95.474 E7.57775
G1 X115.946 Y97.061 E7.60792
G1 X116.211 Y99.658 E7.65621
G1 X116.163 Y101.288 E7.68639
G1 X115.747 Y103.865 E7.73468
G1 X115.279 Y105.427 E7.76485
G1 X114.210 Y107.809 E7.81315
G1 X113.354 Y109.197 E7.84332
G1 X111.705 Y111.221 E7.89161
G1 X110.518 Y112.340 E7.92178
G1 X108.402 Y113.868 E7.97008
G1 X106.966 Y114.642 E8.00025
G1 X104.526 Y115.570 E8.04854
G1 X102.939 Y115.946 E8.07872
G1 X100.342 Y116.211 E8.12701
G1 X98.712 Y116.163 E8.15718
G1 X96.135 Y115.747 E8.20548
G1 X94.573 Y115.279 E8.23565
G1 X92.191 Y114.210 E8.28394
G1 X90.803 Y113.354 E8.31412
G1 X88.779 Y111.705 E8.36241
G1 X87.660 Y110.518 E8.39258
G1 X86.132 Y108.402 E8.44088
G1 X85.358 Y106.966 E8.47105
G1 X84.430 Y104.526 E8.51934
G1 X84.054 Y102.939 E8.54952
G1 X83.789 Y100.342 E8.59781
G1 X83.837 Y98.712 E8.62798
G1 X84.253 Y96.135 E8.67628
G1 X84.721 Y94.573 E8.70645
G1 X85.790 Y92.191 E8.75474
G1 X86.646 Y90.803 E8.78491
G1 X88.256 Y88.828 E8.83204
G1 F1860.000 E5.83204
G92 E0
G1 X102.559 Y102.877 F6000.000
G1 E3.10000 F1860.000
G1 X101.727 Y103.441 E3.11859 F1200.000
G1 X100.778 Y103.771 E3.13719
G1 X99.775 Y103.844 E3.15578
G1 X98.788 Y103.654 E3.17438
G1 X97.883 Y103.216 E3.19297
G1 X97.123 Y102.559 E3.21157
G1 X96.559 Y101.727 E3.23016
G1 X96.229 Y100.778 E3.24876
G1 X96.156 Y99.775 E3.26735
G1 X96.346 Y98.788 E3.28595
G1 X96.784 Y97.883 E3.30454
G1 X97.441 Y97.123 E3.32314
G1 X98.273 Y96.559 E3.34173
G1 X99.222 Y96.229 E3.36033
G1 X100.225 Y96.156 E3.37892
G1 X100.320 Y96.175 E3.38070
G1 X101.212 Y96.346 E3.39752 F1200.000
G1 X102.117 Y96.784 E3.41611
G1 X102.877 Y97.441 E3.43470
G1 X103.441 Y98.273 E3.45330
G1 X103.771 Y99.222 E3.47189
G1 X103.844 Y100.225 E3.49049
G1 X103.654 Y101.212 E3.50908
G1 X103.216 Y102.117 E3.52768
G1 X102.600 Y102.829 E3.54511
G1 X102.393 Y102.691 F6000.000
G1 X101.615 Y103.218 E3.56250 F1200.000
G1 X100.727 Y103.527 E3.57989
G1 X99.790 Y103.595 E3.59728
G1 X98.867 Y103.418 E3.61467
G1 X98.021 Y103.008 E3.63206
G1 X97.309 Y102.393 E3.64945
G1 X96.782 Y101.615 E3.66684
G1 X96.473 Y100.727 E3.68423
G1 X96.405 Y99.790 E3.70162
G1 X96.582 Y98.867 E3.71901
G1 X96.992 Y98.021 E3.73640
G1 X97.607 Y97.309 E3.75379
G1 X98.385 Y96.782 E3.77118
G1 X99.273 Y96.473 E3.78857
G1 X100.146 Y96.410 E3.80478
G1 X100.210 Y96.405 E3.80596 F1200.000
G1 X101.133 Y96.582 E3.82335
G1 X101.979 Y96.992 E3.84074
G1 X102.691 Y97.607 E3.85814
G1 X103.218 Y98.385 E3.87553
G1 X103.527 Y99.273 E3.89292
G1 X103.595 Y100.210 E3.91031
G1 X103.418 Y101.133 E3.92770
G1 X103.008 Y101.979 E3.94509
G1 X102.434 Y102.643 E3.96131
G1 F1860.000 E0.96131
G92 E0
G1 X100.133 Y96.347 F6000.000
G1 X105.896 Y107.543 F6000.000
G1 E3.10000 F1860.000
G1 X104.579 Y108.494 E3.13006 F1200.000
G1 X102.224 Y109.390 E3.17667
G1 X99.718 Y109.646 E3.22327
G1 X97.231 Y109.244 E3.26988
G1 X94.933 Y108.212 E3.31648
G1 X92.980 Y106.621 E3.36308
G1 X91.506 Y104.579 E3.40969
G1 X90.610 Y102.224 E3.45629
G1 X90.354 Y99.718 E3.50290
G1 X90.756 Y97.231 E3.54950
G1 X91.788 Y94.933 E3.59610
G1 X93.379 Y92.980 E3.64271
G1 X95.421 Y91.506 E3.68931
G1 X97.776 Y90.610 E3.73591
G1 X100.197 Y90.363 E3.78095
G1 X100.282 Y90.354 E3.78252 F1200.000
G1 X102.769 Y90.756 E3.82912
G1 X105.067 Y91.788 E3.87573
G1 X107.020 Y93.379 E3.92233
G1 X108.494 Y95.421 E3.96894
G1 X109.390 Y97.776 E4.01554
G1 X109.646 Y100.282 E4.06214
G1 X109.244 Y102.769 E4.10875
G1 X108.212 Y105.067 E4.15535
G1 X106.621 Y107.020 E4.20195
G1 X105.947 Y107.506 E4.21733
G1 X106.041 Y107.744 F6000.000
G1 X104.697 Y108.714 E4.24799 F1200.000
G1 X102.282 Y109.633 E4.29580
G1 X99.711 Y109.895 E4.34361
G1 X97.160 Y109.483 E4.39142
G1 X94.802 Y108.425 E4.43923
G1 X92.799 Y106.792 E4.48704
G1 X91.286 Y104.697 E4.53484
G1 X90.367 Y102.282 E4.58265
G1 X90.105 Y99.711 E4.63046
G1 X90.517 Y97.160 E4.67827
G1 X91.575 Y94.802 E4.72608
G1 X93.208 Y92.799 E4.77388
G1 X95.303 Y91.286 E4.82169
G1 X97.718 Y90.367 E4.86950
G1 X100.289 Y90.105 E4.91731
G1 X102.724 Y90.498 E4.96295
G1 X102.840 Y90.517 E4.96512 F1200.000
G1 X105.198 Y91.575 E5.01292
G1 X107.201 Y93.208 E5.06073
G1 X108.714 Y95.303 E5.10854
G1 X109.633 Y97.718 E5.15635
G1 X109.895 Y100.289 E5.20416
G1 X109.483 Y102.840 E5.25197
G1 X108.425 Y105.198 E5.29977
G1 X106.792 Y107.201 E5.34758
G1 X106.092 Y107.707 E5.36356
G1 F1860.000 E2.36356
G92 E0
G1 X102.824 Y90.560 F6000.000
G1 X103.020 Y91.043 F6000.000
G1 E3.10000 F1860.000
G1 X108.893 Y96.916 E3.25366 F1200.000
G1 X109.109 Y97.485 F6000.000
G1 X102.498 Y90.873 E3.42662 F1200.000
G1 X102.078 Y90.806 E3.43449
G1 X109.251 Y97.979 E3.62216
G1 X109.291 Y98.371 E3.62946
G1 X101.658 Y90.738 E3.82916
G1 X101.237 Y90.670 E3.83704
G1 X109.331 Y98.763 E4.04878
G1 X109.371 Y99.155 E4.05607
G1 X100.817 Y90.602 E4.27986
G1 X100.397 Y90.534 E4.28773
G1 X109.411 Y99.548 E4.52355
G1 X109.451 Y99.940 E4.53085
G1 X100.049 Y90.538 E4.77683
G1 X99.729 Y90.571 E4.78277
G1 X109.478 Y100.320 E5.03784
G1 X109.429 Y100.623 E5.04352
G1 X99.410 Y90.603 E5.30567
G1 X99.090 Y90.636 E5.31161
G1 X109.380 Y100.926 E5.58084
G1 X109.331 Y101.230 E5.58652
G1 X98.770 Y90.669 E5.86283
G1 X98.451 Y90.701 E5.86878
G1 X109.282 Y101.533 E6.15217
G1 X109.233 Y101.836 E6.15785
G1 X98.131 Y90.734 E6.44832
G1 X97.812 Y90.767 E6.45426
G1 X109.184 Y102.139 E6.75181
G1 X109.135 Y102.443 E6.75749
G1 X97.557 Y90.864 E7.06043
G1 X97.301 Y90.961 E7.06549
G1 X109.082 Y102.741 E7.37370
G1 X108.973 Y102.984 E7.37863
G1 X97.046 Y91.058 E7.69067
G1 X96.791 Y91.155 E7.69572
G1 X108.864 Y103.228 E8.01158
G1 X108.754 Y103.471 E8.01651
G1 X103.638 Y98.354 E8.15037
G1 X103.825 Y98.894 F6000.000
G1 X108.645 Y103.714 E8.27648 F1200.000
G1 X108.536 Y103.957 E8.28141
G1 X103.941 Y99.361 E8.40165
G1 X103.968 Y99.741 E8.40869
G1 X108.427 Y104.200 E8.52535
G1 X108.318 Y104.443 E8.53028
G1 X103.996 Y100.121 E8.64337
G1 X103.964 Y100.442 E8.64933
G1 X108.209 Y104.686 E8.76038
G1 X108.100 Y104.929 E8.76531
G1 X103.908 Y100.737 E8.87499
G1 X103.851 Y101.033 E8.88056
G1 X107.952 Y105.134 E8.98787
G1 X107.794 Y105.328 E8.99250
G1 X103.781 Y101.315 E9.09749
G1 X103.666 Y101.553 E9.10237
G1 X107.636 Y105.522 E9.20622
G1 X107.478 Y105.717 E9.21086
G1 X103.551 Y101.790 E9.31359
G1 X103.436 Y102.027 E9.31846
G1 X107.320 Y105.911 E9.42006
G1 X107.161 Y106.105 E9.42470
G1 X103.309 Y102.252 E9.52548
G1 X103.146 Y102.441 E9.53010
G1 X107.003 Y106.299 E9.63103
G1 X106.845 Y106.493 E9.63566
G1 X102.983 Y102.630 E9.73672
G1 X102.819 Y102.819 E9.74134
G1 X106.687 Y106.687 E9.84253
G1 X106.517 Y106.869 E9.84715
G1 X102.653 Y103.005 E9.94823
G1 X102.443 Y103.148 E9.95292
G1 X106.330 Y107.034 E10.05460
G1 X106.125 Y107.182 E10.05927
G1 X102.233 Y103.290 E10.16109
G1 X102.023 Y103.432 E10.16578
G1 X105.920 Y107.329 E10.26773
G1 X105.716 Y107.477 E10.27240
G1 X101.814 Y103.575 E10.37450
G1 X101.556 Y103.669 E10.37958
G1 X105.511 Y107.625 E10.48307
G1 X105.307 Y107.772 E10.48774
G1 X101.294 Y103.760 E10.59272
G1 X101.033 Y103.851 E10.59784
G1 X105.102 Y107.920 E10.70431
G1 X104.898 Y108.068 E10.70897
G1 X100.761 Y103.932 E10.81719
G1 X100.433 Y103.956 E10.82328
G1 X104.693 Y108.216 E10.93474
G1 X104.485 Y108.360 E10.93942
G1 X100.105 Y103.979 E11.05402
G1 X99.776 Y104.003 E11.06011
G1 X104.230 Y108.457 E11.17664
G1 X103.975 Y108.554 E11.18169
G1 X99.344 Y103.923 E11.30284
G1 X98.908 Y103.840 E11.31105
G1 X103.719 Y108.651 E11.43693
G1 X103.464 Y108.748 E11.44198
G1 X98.322 Y103.606 E11.57652
G1 X97.199 Y102.835 F6000.000
G1 X103.209 Y108.845 E11.73377 F1200.000
G1 X102.954 Y108.942 E11.73883
G1 X91.027 Y97.016 E12.05086
G1 X91.136 Y96.772 E12.05579
G1 X96.947 Y102.583 E12.20783
G1 X96.362 Y101.646 F6000.000
G1 X91.246 Y96.529 E12.34169 F1200.000
G1 X91.355 Y96.286 E12.34662
G1 X96.175 Y101.106 E12.47273
G1 X96.059 Y100.639 E12.48164
G1 X91.464 Y96.043 E12.60188
G1 X91.573 Y95.800 E12.60681
G1 X96.032 Y100.259 E12.72347
G1 X96.004 Y99.879 E12.73051
G1 X91.682 Y95.557 E12.84359
G1 X91.791 Y95.314 E12.84852
G1 X96.036 Y99.558 E12.95958
G1 X96.092 Y99.263 E12.96515
G1 X91.900 Y95.071 E13.07482
G1 X92.048 Y94.866 E13.07949
G1 X96.149 Y98.967 E13.18680
G1 X96.219 Y98.685 E13.19218
G1 X92.206 Y94.672 E13.29717
G1 X92.364 Y94.478 E13.30180
G1 X96.334 Y98.447 E13.40566
G1 X96.449 Y98.210 E13.41054
G1 X92.522 Y94.283 E13.51327
G1 X92.680 Y94.089 E13.51790
G1 X96.564 Y97.973 E13.61950
G1 X96.691 Y97.748 E13.62428
G1 X92.839 Y93.895 E13.72507
G1 X92.997 Y93.701 E13.72970
G1 X96.854 Y97.559 E13.83062
G1 X97.017 Y97.370 E13.83524
G1 X93.155 Y93.507 E13.93630
G1 X93.313 Y93.313 E13.94093
G1 X97.181 Y97.181 E14.04213
G1 X97.347 Y96.995 E14.04674
G1 X93.483 Y93.131 E14.14783
G1 X93.670 Y92.966 E14.15244
G1 X97.557 Y96.852 E14.25412
G1 X97.767 Y96.710 E14.25881
G1 X93.875 Y92.818 E14.36063
G1 X94.080 Y92.671 E14.36530
G1 X97.977 Y96.568 E14.46726
G1 X98.186 Y96.425 E14.47195
G1 X94.284 Y92.523 E14.57404
G1 X94.489 Y92.375 E14.57871
G1 X98.444 Y96.331 E14.68220
G1 X98.706 Y96.240 E14.68732
G1 X94.693 Y92.228 E14.79230
G1 X94.898 Y92.080 E14.79697
G1 X98.967 Y96.149 E14.90344
G1 X99.239 Y96.068 E14.90868
G1 X95.102 Y91.932 E15.01689
G1 X95.307 Y91.784 E15.02156
G1 X99.567 Y96.045 E15.13302
G1 X99.895 Y96.021 E15.13911
G1 X95.515 Y91.640 E15.25371
G1 X95.770 Y91.543 E15.25876
G1 X100.224 Y95.997 E15.37528
G1 X100.656 Y96.077 E15.38342
G1 X96.025 Y91.446 E15.50457
G1 X96.281 Y91.349 E15.50962
G1 X101.092 Y96.160 E15.63550
G1 X101.678 Y96.395 F6000.000
G1 X96.536 Y91.252 E15.77005 F1200.000
G1 F1860.000 E12.77005
G92 E0
G1 X103.659 Y91.330 F6000.000
G1 E3.10000 F1860.000
G1 X108.676 Y96.348 E3.23128 F1200.000
G1 X108.460 Y95.779 F6000.000
G1 X104.298 Y91.617 E3.34017 F1200.000
G1 X104.937 Y91.904 F6000.000
G1 X107.891 Y94.858 E3.41747 F1200.000
G1 X106.977 Y93.592 F6000.000
G1 X106.749 Y93.364 E3.42343 F1200.000
G1 F1860.000 E0.42343
G92 E0
G1 X90.918 Y97.259 F6000.000
G1 E3.10000 F1860.000
G1 X102.699 Y109.039 E3.40822 F1200.000
G1 X102.443 Y109.136 E3.41327
G1 X90.865 Y97.557 E3.71621
G1 X90.816 Y97.861 E3.72189
G1 X102.188 Y109.233 E4.01944
G1 X101.869 Y109.266 E4.02538
G1 X90.767 Y98.164 E4.31585
G1 X90.718 Y98.467 E4.32153
G1 X101.549 Y109.299 E4.60493
G1 X101.230 Y109.331 E4.61087
G1 X90.669 Y98.770 E4.88718
G1 X90.620 Y99.074 E4.89286
G1 X100.910 Y109.364 E5.16209
G1 X100.590 Y109.397 E5.16804
G1 X90.571 Y99.377 E5.43018
G1 X90.522 Y99.680 E5.43587
G1 X100.271 Y109.429 E5.69093
G1 X99.951 Y109.462 E5.69688
G1 X90.549 Y100.060 E5.94286
G1 X90.589 Y100.452 E5.95015
G1 X99.603 Y109.466 E6.18598
G1 X99.183 Y109.398 E6.19385
G1 X90.629 Y100.845 E6.41763
G1 X90.669 Y101.237 E6.42493
G1 X98.763 Y109.330 E6.63667
G1 X98.342 Y109.262 E6.64455
G1 X90.709 Y101.629 E6.84425
G1 X90.749 Y102.021 E6.85155
G1 X97.922 Y109.194 E7.03922
G1 X97.502 Y109.127 E7.04709
G1 X90.891 Y102.515 E7.22006
G1 X91.107 Y103.084 F6000.000
G1 X96.980 Y108.957 E7.37372 F1200.000
G1 X96.341 Y108.670 F6000.000
G1 X91.324 Y103.652 E7.50500 F1200.000
G1 X91.540 Y104.221 F6000.000
G1 X95.702 Y108.383 E7.61389 F1200.000
G1 X95.063 Y108.096 F6000.000
G1 X92.108 Y105.142 E7.69120 F1200.000
G1 X93.023 Y106.408 F6000.000
G1 X93.251 Y106.636 E7.69716 F1200.000
M106 S255
M140 S50 ; set bed temperature
G1 F1860.000 E4.69716
G92 E0
G1 Z0.400 F6000.000
G1 X102.748 Y103.090 F6000.000
G1 E3.10000 F1860.000
G1 X101.855 Y103.696 E3.13393 F2046.809
G1 X100.835 Y104.050 E3.16786
G1 X99.758 Y104.128 E3.20180
G1 X98.698 Y103.925 E3.23573
G1 X97.727 Y103.455 E3.26966
G1 X96.910 Y102.748 E3.30359
G1 X96.304 Y101.855 E3.33752
G1 X95.950 Y100.835 E3.37145
G1 X95.872 Y99.759 E3.40538
G1 X96.075 Y98.698 E3.43932
G1 X96.545 Y97.727 E3.47325
G1 X97.252 Y96.910 E3.50718
G1 X98.145 Y96.304 E3.54111
G1 X99.165 Y95.950 E3.57504
G1 X100.241 Y95.872 E3.60897
G1 X100.413 Y95.905 E3.61447
G1 X101.302 Y96.075 E3.64291 F2046.809
G1 X102.273 Y96.545 E3.67684
G1 X103.090 Y97.252 E3.71077
G1 X103.696 Y98.145 E3.74470
G1 X104.050 Y99.165 E3.77863
G1 X104.128 Y100.242 E3.81256
G1 X103.925 Y101.302 E3.84650
G1 X103.455 Y102.273 E3.88043
G1 X102.790 Y103.042 E3.91238
G1 X102.467 Y102.773 F6000.000
G1 X101.665 Y103.317 E3.94283 F2046.809
