; generated by Slic3r 1.1.7 on 2015-03-14 at 00:38:19

; perimeters extrusion width = 0.40mm
; infill extrusion width = 0.42mm
; solid infill extrusion width = 0.42mm
; top infill extrusion width = 0.42mm
; support material extrusion width = 0.40mm

G21 ; set units to millimeters
M190 S110 ; wait for bed temperature to be reached
M104 S220 ; set temperature
M106 S255; Turn on Fan fully
G28 ; home all axes Start of G Code Slic3r
 
  
M109 S220 ; wait for temperature to be reached
G90 ; use absolute coordinates
G92 E0
M82 ; use absolute distances for extrusion
M106 S127
G1 F1980.000 E-4.00000
G92 E0
G1 Z0.300 F6000.000
G1 X38.355 Y68.608 F6000.000
G1 E4.00000 F1980.000
G1 X89.977 Y39.749 E6.45466 F1650.000
G1 X92.369 Y38.959 E6.55921
G1 X116.989 Y35.840 E7.58925
G1 X157.210 Y35.840 E9.25861
G1 X159.472 Y36.237 E9.35393
G1 X161.464 Y37.380 E9.44925 F1650.000
G1 X162.947 Y39.134 E9.54457
G1 X163.850 Y42.303 E9.68136
G1 X164.855 Y79.464 E11.22428
G1 X165.303 Y135.746 E13.56034
G1 X165.303 Y146.116 E13.99075
G1 X164.748 Y148.773 E14.10344
G1 X159.770 Y160.175 E14.61980
G1 X158.502 Y162.089 E14.71513
G1 X156.657 Y163.457 E14.81045
G1 X153.682 Y164.160 E14.93730
G1 X107.640 Y164.160 E16.84831
G1 X105.134 Y163.670 E16.95428
G1 X38.824 Y136.664 E19.92598
G1 X36.879 Y135.443 E20.02130
G1 X35.466 Y133.632 E20.11662
G1 X34.687 Y130.511 E20.25014
G1 X34.687 Y74.556 E22.57259
G1 X35.084 Y72.294 E22.66791
G1 X36.227 Y70.302 E22.76323
G1 X38.088 Y68.757 E22.86361
G1 X38.303 Y68.637 E22.87380
G1 F1980.000 E18.87380
G92 E0
G1 X38.512 Y68.889 F6000.000
G1 E4.00000 F1980.000
G1 X90.134 Y40.030 E6.45466 F1650.000
G1 X92.410 Y39.278 E6.55416
G1 X116.989 Y36.161 E7.58248
G1 X157.210 Y36.161 E9.25185
G1 X159.414 Y36.558 E9.34481
G1 X161.342 Y37.699 E9.43778 F1650.000
G1 X162.751 Y39.440 E9.53075
G1 X163.529 Y42.312 E9.65423
G1 X164.533 Y79.466 E11.19690
G1 X164.981 Y135.746 E13.53285
G1 X164.981 Y146.116 E13.96326
G1 X164.453 Y148.645 E14.07050
G1 X159.476 Y160.047 E14.58686
G1 X158.230 Y161.908 E14.67983
G1 X156.413 Y163.218 E14.77280
G1 X153.682 Y163.839 E14.88904
G1 X107.640 Y163.839 E16.80005
G1 X105.255 Y163.372 E16.90090
G1 X38.945 Y136.366 E19.87260
G1 X37.053 Y135.167 E19.96557
G1 X35.698 Y133.383 E20.05853
G1 X35.008 Y130.511 E20.18113
G1 X35.008 Y74.556 E22.50358
G1 X35.405 Y72.351 E22.59654
G1 X36.546 Y70.423 E22.68951
G1 X38.245 Y69.038 E22.78052
G1 X38.459 Y68.918 E22.79071
G1 F1980.000 E18.79071
G92 E0
G1 X153.601 Y88.693 F6000.000
G1 E4.00000 F1980.000
G1 X153.378 Y88.816 E4.01056 F900.000
G1 X153.142 Y88.910 E4.02114
G1 X152.895 Y88.973 E4.03170
G1 X152.642 Y89.005 E4.04227
G1 X152.388 Y89.005 E4.05284
G1 X152.135 Y88.973 E4.06340
G1 X151.888 Y88.910 E4.07398
G1 X151.652 Y88.816 E4.08455
G1 X151.429 Y88.694 E4.09511
G1 X151.223 Y88.544 E4.10568
G1 X151.037 Y88.369 E4.11625
G1 X150.875 Y88.173 E4.12682
G1 X150.738 Y87.958 E4.13739
G1 X150.630 Y87.728 E4.14795
G1 X150.551 Y87.486 E4.15852
G1 X150.503 Y87.236 E4.16909
G1 X150.487 Y86.981 E4.17966
G1 X150.503 Y86.727 E4.19023
G1 X150.551 Y86.477 E4.20079
G1 X150.630 Y86.235 E4.21136
G1 X150.738 Y86.005 E4.22193
G1 X150.875 Y85.790 E4.23250
G1 X151.037 Y85.594 E4.24307
G1 X151.223 Y85.419 E4.25364
G1 X151.429 Y85.270 E4.26421
G1 X151.652 Y85.147 E4.27477
G1 X151.888 Y85.053 E4.28534
G1 X152.135 Y84.990 E4.29591
G1 X152.388 Y84.958 E4.30648
G1 X152.642 Y84.958 E4.31705
G1 X152.837 Y84.983 E4.32521
G1 X153.142 Y85.053 E4.33817 F900.000
G1 X153.378 Y85.147 E4.34874
G1 X153.601 Y85.270 E4.35930
G1 X153.807 Y85.419 E4.36987
G1 X153.993 Y85.594 E4.38044
G1 X154.155 Y85.790 E4.39101
G1 X154.292 Y86.005 E4.40158
G1 X154.400 Y86.235 E4.41215
G1 X154.479 Y86.477 E4.42272
G1 X154.527 Y86.727 E4.43328
G1 X154.543 Y86.981 E4.44385
G1 X154.527 Y87.236 E4.45442
G1 X154.479 Y87.486 E4.46498
G1 X154.400 Y87.728 E4.47556
G1 X154.292 Y87.958 E4.48612
G1 X154.155 Y88.173 E4.49669
G1 X153.993 Y88.369 E4.50726
G1 X153.807 Y88.544 E4.51783
G1 X153.650 Y88.658 E4.52591
G1 F1980.000 E0.52591
G92 E0
G1 X153.429 Y88.422 F6000.000
G1 E4.00000 F1980.000
G1 X153.241 Y88.525 E4.00888 F720.000
G1 X153.042 Y88.604 E4.01778
G1 X152.835 Y88.657 E4.02667
G1 X152.622 Y88.684 E4.03556
G1 X152.408 Y88.684 E4.04444
G1 X152.195 Y88.657 E4.05333
G1 X151.988 Y88.604 E4.06222
G1 X151.789 Y88.525 E4.07111
G1 X151.601 Y88.422 E4.08000
G1 X151.428 Y88.296 E4.08889
G1 X151.272 Y88.149 E4.09778
G1 X151.135 Y87.984 E4.10667
G1 X151.020 Y87.803 E4.11556
G1 X150.929 Y87.609 E4.12445
G1 X150.863 Y87.406 E4.13334
G1 X150.823 Y87.195 E4.14223
G1 X150.810 Y86.981 E4.15112
G1 X150.823 Y86.768 E4.16001
G1 X150.863 Y86.557 E4.16890
G1 X150.929 Y86.354 E4.17779
G1 X151.020 Y86.160 E4.18668
G1 X151.135 Y85.979 E4.19557
G1 X151.272 Y85.814 E4.20445
G1 X151.428 Y85.667 E4.21334
G1 X151.601 Y85.541 E4.22224
G1 X151.789 Y85.438 E4.23112
G1 X151.988 Y85.359 E4.24001
G1 X152.195 Y85.306 E4.24890
G1 X152.408 Y85.279 E4.25779
G1 X152.622 Y85.279 E4.26668 F720.000
G1 X152.835 Y85.306 E4.27557
G1 X153.042 Y85.359 E4.28446
G1 X153.241 Y85.438 E4.29335
G1 X153.429 Y85.541 E4.30224
G1 X153.602 Y85.667 E4.31113
G1 X153.758 Y85.814 E4.32002
G1 X153.895 Y85.979 E4.32891
G1 X154.010 Y86.160 E4.33780
G1 X154.101 Y86.354 E4.34669
G1 X154.167 Y86.557 E4.35558
G1 X154.207 Y86.768 E4.36447
G1 X154.221 Y86.981 E4.37336
G1 X154.207 Y87.195 E4.38224
G1 X154.167 Y87.406 E4.39113
G1 X154.101 Y87.609 E4.40002
G1 X154.010 Y87.803 E4.40891
G1 X153.895 Y87.984 E4.41780
G1 X153.758 Y88.149 E4.42669
G1 X153.477 Y88.386 E4.44195
G1 F1980.000 E0.44195
G92 E0
G1 X152.377 Y85.068 F6000.000
G1 X152.642 Y116.062 F6000.000
G1 E4.00000 F1980.000
G1 X152.837 Y116.087 E4.00816 F900.000
G1 X153.142 Y116.157 E4.02112 F900.000
G1 X153.378 Y116.251 E4.03169
G1 X153.601 Y116.374 E4.04225
G1 X153.807 Y116.523 E4.05282
G1 X153.993 Y116.698 E4.06340
G1 X154.155 Y116.894 E4.07396
G1 X154.292 Y117.109 E4.08453
G1 X154.400 Y117.339 E4.09510
G1 X154.479 Y117.581 E4.10567
G1 X154.527 Y117.831 E4.11624
G1 X154.543 Y118.085 E4.12680
G1 X154.527 Y118.340 E4.13737
G1 X154.479 Y118.590 E4.14794
G1 X154.400 Y118.832 E4.15851
G1 X154.292 Y119.062 E4.16908
G1 X154.155 Y119.277 E4.17965
G1 X153.993 Y119.473 E4.19021
G1 X153.807 Y119.648 E4.20079
G1 X153.601 Y119.797 E4.21136
G1 X153.378 Y119.920 E4.22192
G1 X153.142 Y120.014 E4.23249
G1 X152.895 Y120.077 E4.24306
G1 X152.642 Y120.109 E4.25362
G1 X152.388 Y120.109 E4.26419
G1 X152.135 Y120.077 E4.27476
G1 X151.888 Y120.014 E4.28533
G1 X151.652 Y119.920 E4.29590
G1 X151.429 Y119.798 E4.30646
G1 X151.223 Y119.648 E4.31703
G1 X151.037 Y119.473 E4.32760
G1 X150.875 Y119.277 E4.33817
G1 X150.738 Y119.062 E4.34874
G1 X150.630 Y118.832 E4.35931
G1 X150.551 Y118.590 E4.36988
G1 X150.503 Y118.340 E4.38044
G1 X150.487 Y118.086 E4.39101
G1 X150.503 Y117.831 E4.40158
G1 X150.551 Y117.581 E4.41215
G1 X150.630 Y117.339 E4.42272
G1 X150.738 Y117.109 E4.43328
G1 X150.875 Y116.894 E4.44385
G1 X151.037 Y116.698 E4.45442
G1 X151.223 Y116.523 E4.46499
G1 X151.429 Y116.373 E4.47556
G1 X151.652 Y116.251 E4.48613
G1 X151.888 Y116.157 E4.49670
G1 X152.135 Y116.094 E4.50726
G1 X152.388 Y116.062 E4.51783
G1 X152.582 Y116.062 E4.52591
G1 F1980.000 E0.52591
G92 E0
G1 X152.622 Y116.383 F6000.000
G1 E4.00000 F1980.000
G1 X152.835 Y116.410 E4.00889 F720.000
G1 X153.042 Y116.463 E4.01778
G1 X153.241 Y116.542 E4.02667
G1 X153.429 Y116.645 E4.03555
G1 X153.602 Y116.771 E4.04444
G1 X153.758 Y116.918 E4.05334
G1 X153.895 Y117.083 E4.06222
G1 X154.010 Y117.264 E4.07112
G1 X154.101 Y117.458 E4.08000
G1 X154.167 Y117.661 E4.08890
G1 X154.207 Y117.872 E4.09778
G1 X154.221 Y118.085 E4.10667
G1 X154.207 Y118.299 E4.11556
G1 X154.167 Y118.510 E4.12445
G1 X154.101 Y118.713 E4.13334
G1 X154.010 Y118.907 E4.14223
G1 X153.895 Y119.088 E4.15112
G1 X153.758 Y119.253 E4.16001
G1 X153.602 Y119.400 E4.16890
G1 X153.429 Y119.526 E4.17779
G1 X153.241 Y119.629 E4.18668
G1 X153.042 Y119.708 E4.19557
G1 X152.835 Y119.761 E4.20446
G1 X152.622 Y119.788 E4.21335
G1 X152.371 Y119.783 E4.22379
G1 X151.988 Y119.708 E4.23997
G1 X151.789 Y119.629 E4.24886
G1 X151.601 Y119.526 E4.25775
G1 X151.428 Y119.400 E4.26664
G1 X151.272 Y119.253 E4.27553
G1 X151.135 Y119.088 E4.28442
G1 X151.020 Y118.907 E4.29331
G1 X150.929 Y118.713 E4.30220
G1 X150.863 Y118.510 E4.31109
G1 X150.823 Y118.299 E4.31998
G1 X150.810 Y118.085 E4.32887
G1 X150.823 Y117.872 E4.33776
G1 X150.863 Y117.661 E4.34664
G1 X150.929 Y117.458 E4.35554
G1 X151.020 Y117.264 E4.36442
G1 X151.135 Y117.083 E4.37332
G1 X151.272 Y116.918 E4.38220
G1 X151.428 Y116.771 E4.39109
G1 X151.601 Y116.645 E4.39999
G1 X151.789 Y116.542 E4.40887
G1 X151.988 Y116.463 E4.41776
G1 X152.195 Y116.410 E4.42665
G1 X152.408 Y116.383 E4.43554
G1 X152.562 Y116.383 E4.44194 F720.000
G1 F1980.000 E0.44194
G92 E0
G1 X152.408 Y116.229 F6000.000
G1 X141.063 Y105.079 F6000.000
G1 E4.00000 F1980.000
G1 X137.010 Y105.079 E4.16823 F900.000
G1 X137.010 Y99.988 E4.37950
G1 X141.063 Y99.988 E4.54773
G1 X141.063 Y105.019 E4.75651
G1 F1980.000 E0.75651
G92 E0
G1 X140.742 Y104.757 F6000.000
G1 E4.00000 F1980.000
G1 X137.331 Y104.757 E4.14155 F720.000
G1 X137.331 Y100.310 E4.32613
G1 X140.742 Y100.310 E4.46768
G1 X140.742 Y104.697 E4.64977
G1 F1980.000 E0.64977
G92 E0
G1 X140.742 Y105.157 F6000.000
G1 X116.318 Y95.582 F6000.000
G1 E4.00000 F1980.000
G1 X122.660 Y95.582 E4.26322 F900.000
G1 X122.660 Y120.890 E5.31362
G1 X116.318 Y120.890 E5.57684
G1 X116.278 Y121.098 E5.58564
G1 X116.553 Y121.241 E5.59850
G1 X116.719 Y121.370 E5.60723
G1 X116.865 Y121.522 E5.61597
G1 X116.989 Y121.692 E5.62472
G1 X117.087 Y121.878 E5.63345
G1 X117.160 Y122.076 E5.64219
G1 X117.203 Y122.282 E5.65094
G1 X117.218 Y122.492 E5.65967
G1 X117.203 Y122.702 E5.66841
G1 X117.160 Y122.908 E5.67715
G1 X117.087 Y123.106 E5.68590
G1 X116.989 Y123.292 E5.69463
G1 X116.865 Y123.462 E5.70337
G1 X116.719 Y123.614 E5.71212
G1 X116.553 Y123.743 E5.72084
G1 X116.370 Y123.849 E5.72959
G1 X116.175 Y123.928 E5.73834
G1 X115.971 Y123.978 E5.74708
G1 X115.761 Y124.000 E5.75582
G1 X115.551 Y123.993 E5.76455
G1 X115.344 Y123.956 E5.77329
G1 X115.143 Y123.891 E5.78204
G1 X114.954 Y123.799 E5.79077
G1 X114.779 Y123.681 E5.79952
G1 X114.623 Y123.541 E5.80825
G1 X114.467 Y123.346 E5.81860
G1 X114.376 Y123.201 E5.82572
G1 X114.290 Y123.008 E5.83446
G1 X114.232 Y122.806 E5.84321
G1 X114.203 Y122.597 E5.85193
G1 X114.203 Y122.386 E5.86069
G1 X114.232 Y122.178 E5.86942
G1 X114.290 Y121.976 E5.87816
G1 X114.376 Y121.783 E5.88690
G1 X114.487 Y121.605 E5.89564
G1 X114.623 Y121.443 E5.90439
G1 X114.779 Y121.302 E5.91312
G1 X114.954 Y121.185 E5.92186
G1 X115.150 Y121.089 E5.93092
G1 X115.104 Y120.890 E5.93941
G1 X108.653 Y120.890 E6.20714
G1 X108.653 Y95.582 E7.25754
G1 X115.104 Y95.582 E7.52527
G1 X115.150 Y95.383 E7.53376
G1 X114.954 Y95.287 E7.54281
G1 X114.779 Y95.169 E7.55156
G1 X114.623 Y95.028 E7.56029
G1 X114.487 Y94.867 E7.56903
G1 X114.376 Y94.688 E7.57777
G1 X114.279 Y94.459 E7.58812
G1 X114.232 Y94.294 E7.59524
G1 X114.203 Y94.085 E7.60397
G1 X114.203 Y93.874 E7.61273
G1 X114.232 Y93.666 E7.62146
G1 X114.290 Y93.464 E7.63021
G1 X114.376 Y93.271 E7.63894
G1 X114.487 Y93.093 E7.64768
G1 X114.623 Y92.931 E7.65642
G1 X114.779 Y92.790 E7.66516
G1 X114.954 Y92.673 E7.67390
G1 X115.143 Y92.580 E7.68264
G1 X115.343 Y92.515 E7.69138
G1 X115.551 Y92.479 E7.70012
G1 X115.761 Y92.471 E7.70886
G1 X115.971 Y92.493 E7.71760
G1 X116.175 Y92.544 E7.72634
G1 X116.334 Y92.609 E7.73347
G1 X116.553 Y92.729 E7.74382
G1 X116.719 Y92.858 E7.75255
G1 X116.865 Y93.010 E7.76129
G1 X116.989 Y93.180 E7.77003
G1 X117.087 Y93.366 E7.77876
G1 X117.160 Y93.564 E7.78751
G1 X117.203 Y93.770 E7.79626
G1 X117.218 Y93.980 E7.80499
G1 X117.203 Y94.190 E7.81372
G1 X117.160 Y94.396 E7.82248
G1 X117.087 Y94.594 E7.83122
G1 X116.989 Y94.780 E7.83995
G1 X116.865 Y94.950 E7.84869
G1 X116.719 Y95.102 E7.85743
G1 X116.553 Y95.231 E7.86617
G1 X116.278 Y95.374 E7.87903
G1 X116.307 Y95.523 E7.88533
G1 F1980.000 E3.88533
G92 E0
G1 X116.120 Y95.091 F6000.000
G1 E4.00000 F1980.000
G1 X115.915 Y95.149 E4.00885 F720.000
G1 X115.585 Y95.161 E4.02256
G1 X115.406 Y95.127 E4.03011
G1 X115.115 Y95.008 E4.04315
G1 X114.978 Y94.915 E4.05002
G1 X114.748 Y94.678 E4.06374
G1 X114.593 Y94.386 E4.07745
G1 X114.547 Y94.227 E4.08433
G1 X114.524 Y94.063 E4.09120
G1 X114.547 Y93.733 E4.10491
G1 X114.593 Y93.574 E4.11179
G1 X114.748 Y93.282 E4.12550
G1 X114.978 Y93.044 E4.13922
G1 X115.115 Y92.952 E4.14610
G1 X115.421 Y92.828 E4.15981
G1 X115.734 Y92.794 E4.17284
G1 X115.915 Y92.811 E4.18039 F720.000
G1 X116.075 Y92.851 E4.18727
G1 X116.358 Y92.987 E4.20030
G1 X116.503 Y93.098 E4.20785
G1 X116.715 Y93.351 E4.22157
G1 X116.850 Y93.653 E4.23528
G1 X116.884 Y93.815 E4.24216
G1 X116.884 Y94.145 E4.25587
G1 X116.850 Y94.307 E4.26275
G1 X116.715 Y94.609 E4.27646
G1 X116.503 Y94.862 E4.29018
G1 X116.373 Y94.964 E4.29705
G1 X116.176 Y95.069 E4.30630
G1 F1980.000 E0.30630
G92 E0
G1 X115.894 Y92.880 F6000.000
G1 X122.339 Y95.903 F6000.000
G1 E4.00000 F1980.000
G1 X122.339 Y120.568 E5.02372 F720.000
G1 X108.975 Y120.568 E5.57838
G1 X108.975 Y95.903 E6.60209
G1 X122.279 Y95.903 E7.15426
G1 F1980.000 E3.15426
G92 E0
G1 X122.139 Y96.250 F6000.000
G1 X116.007 Y121.346 F6000.000
G1 E4.00000 F1980.000
G1 X116.229 Y121.425 E4.00981 F720.000
G1 X116.373 Y121.508 E4.01668
G1 X116.618 Y121.729 E4.03039
G1 X116.715 Y121.863 E4.03727
G1 X116.850 Y122.165 E4.05098
G1 X116.884 Y122.327 E4.05786
G1 X116.884 Y122.657 E4.07157
G1 X116.850 Y122.819 E4.07845
G1 X116.715 Y123.121 E4.09216
G1 X116.618 Y123.255 E4.09904
G1 X116.373 Y123.476 E4.11275
G1 X116.075 Y123.621 E4.12647
G1 X115.750 Y123.678 E4.14018
G1 X115.585 Y123.673 E4.14705
G1 X115.264 Y123.593 E4.16077
G1 X115.115 Y123.520 E4.16765
G1 X114.978 Y123.427 E4.17452
G1 X114.844 Y123.304 E4.18207
G1 X114.660 Y123.049 E4.19510
G1 X114.593 Y122.898 E4.20198
G1 X114.524 Y122.575 E4.21569
G1 X114.524 Y122.409 E4.22257
G1 X114.593 Y122.086 E4.23628
G1 X114.748 Y121.794 E4.25000
G1 X114.855 Y121.667 E4.25688
G1 X114.978 Y121.556 E4.26375
G1 X115.264 Y121.391 E4.27746
G1 X115.421 Y121.340 E4.28434
G1 X115.734 Y121.306 E4.29737
G1 X115.948 Y121.331 E4.30634 F720.000
G1 F1980.000 E0.30634
G92 E0
G1 X115.750 Y121.090 F6000.000
G1 X146.341 Y125.079 F6000.000
G1 E4.00000 F1980.000
G1 X146.341 Y130.056 E4.20656 F900.000
G1 X104.786 Y130.056 E5.93133
G1 X104.786 Y75.011 E8.21595
G1 X146.341 Y75.011 E9.94073
G1 X146.346 Y79.988 E10.14729
G1 X157.741 Y79.988 E10.62023
G1 X157.741 Y125.079 E12.49173
G1 X146.401 Y125.079 E12.96237
G1 F1980.000 E8.96237
G92 E0
G1 X146.663 Y125.400 F6000.000
G1 E4.00000 F1980.000
G1 X146.663 Y130.377 E4.20656 F720.000
G1 X104.464 Y130.377 E5.95802
G1 X104.464 Y74.690 E8.26932
G1 X146.663 Y74.690 E10.02077
G1 X146.668 Y79.667 E10.22733
G1 X158.062 Y79.667 E10.70026
G1 X158.062 Y125.400 E12.59846
G1 X146.723 Y125.400 E13.06910
G1 F1980.000 E9.06910
G92 E0
G1 X146.263 Y125.400 F6000.000
G1 X154.675 Y117.495 F6000.000
G1 E4.00000 F1980.000
G1 X157.528 Y120.348 E4.16745 F900.000
G1 X157.528 Y120.804 E4.18636
G1 X154.752 Y118.029 E4.34926
G1 X154.722 Y118.454 E4.36695
G1 X157.528 Y121.260 E4.53165
G1 X157.528 Y121.715 E4.55057
G1 X154.629 Y118.817 E4.72070
G1 X154.493 Y119.136 E4.73511
G1 X157.528 Y122.171 E4.91327
G1 X157.528 Y122.627 E4.93218
G1 X154.317 Y119.416 E5.12065
G1 X154.105 Y119.660 E5.13406
G1 X157.528 Y123.083 E5.33494
G1 X157.528 Y123.538 E5.35385
G1 X153.861 Y119.872 E5.56906
G1 X153.584 Y120.050 E5.58275
G1 X157.528 Y123.994 E5.81425
G1 X157.528 Y124.450 E5.83316
G1 X153.270 Y120.192 E6.08308
G1 X152.912 Y120.290 E6.09849
G1 X157.488 Y124.866 E6.36709
G1 X157.032 Y124.866 E6.38600
G1 X152.488 Y120.322 E6.65271
G1 X151.964 Y120.253 E6.67468
G1 X156.576 Y124.866 E6.94544
G1 X156.121 Y124.866 E6.96436
G1 X106.479 Y75.224 E9.87818
G1 X106.023 Y75.224 E9.89709
G1 X155.665 Y124.866 E12.81091
G1 X155.209 Y124.866 E12.82983
G1 X105.568 Y75.224 E15.74364
G1 X105.112 Y75.224 E15.76256
G1 X154.753 Y124.866 E18.67637
G1 X154.298 Y124.866 E18.69529
G1 X104.999 Y75.567 E21.58900
G1 X104.999 Y76.023 E21.60791
G1 X153.842 Y124.866 E24.47487
