; generated by Slic3r 1.1.7 on 2015-03-03 at 20:27:17

; perimeters extrusion width = 0.40mm
; infill extrusion width = 0.67mm
; solid infill extrusion width = 0.26mm
; top infill extrusion width = 0.26mm

G21 ; set units to millimeters
M190 S60 ; wait for bed temperature to be reached
M104 S230 ; set temperature
G28 ; home all axes Start of G Code Slic3r
 
 
M109 S230 ; wait for temperature to be reached
G90 ; use absolute coordinates
G92 E0
M82 ; use absolute distances for extrusion
M106 S153
G1 F4200.000 E-3.00000
G92 E0
G1 Z0.200 F6000.000
G1 X71.610 Y65.353 F6000.000
G1 E3.00000 F4200.000
G1 X72.496 Y64.596 E3.03159 F1800.000
G1 X73.459 Y63.963 E3.06285
G1 X74.486 Y63.460 E3.09389
G1 X75.581 Y63.084 E3.12530
G1 X76.708 Y62.851 E3.15652
G1 X77.856 Y62.760 E3.18775
G1 X123.004 Y62.814 E4.41258
G1 X124.141 Y63.013 E4.44391
G1 X125.239 Y63.351 E4.47506
G1 X126.288 Y63.824 E4.50629
G1 X127.271 Y64.426 E4.53756
G1 X128.169 Y65.146 E4.56879
G1 X128.971 Y65.973 E4.60004
G1 X129.662 Y66.894 E4.63128
G1 X130.231 Y67.892 E4.66245
G1 X130.672 Y68.954 E4.69364
G1 X130.976 Y70.065 E4.72489
G1 X131.139 Y71.207 E4.75619
G1 X131.170 Y71.926 E4.77571
G1 X131.157 Y128.504 E6.31063
G1 X131.015 Y129.732 E6.34416
G1 X130.762 Y130.767 E6.37307
G1 X130.354 Y131.846 E6.40436
G1 X129.816 Y132.863 E6.43557
G1 X129.102 Y133.868 E6.46901
G1 X128.380 Y134.656 E6.49801
G1 X127.504 Y135.404 E6.52925
G1 X126.541 Y136.037 E6.56051
G1 X125.508 Y136.543 E6.59173
G1 X124.341 Y136.936 E6.62513
G1 X123.292 Y137.149 E6.65417
G1 X122.144 Y137.239 E6.68540
G1 X76.995 Y137.185 E7.91028
G1 X75.859 Y136.987 E7.94155
G1 X74.761 Y136.649 E7.97273
G1 X73.712 Y136.176 E8.00395
G1 X72.662 Y135.525 E8.03745
G1 X71.831 Y134.854 E8.06643
G1 X71.029 Y134.027 E8.09768
G1 X70.338 Y133.107 E8.12890
G1 X69.768 Y132.107 E8.16011
G1 X69.328 Y131.043 E8.19135
G1 X69.008 Y129.852 E8.22481
G1 X68.862 Y128.794 E8.25380
G1 X68.830 Y128.074 E8.27335
G1 X68.843 Y71.495 E9.80830
G1 X68.970 Y70.350 E9.83953
G1 X69.235 Y69.242 E9.87046
G1 X69.638 Y68.169 E9.90153
G1 X70.184 Y67.137 E9.93321
G1 X70.833 Y66.210 E9.96392
G1 X71.570 Y65.397 E9.99368
G1 X71.809 Y65.564 F6000.000
G1 X72.666 Y64.831 E10.02427 F1800.000
G1 X73.598 Y64.218 E10.05454
G1 X74.593 Y63.729 E10.08460
G1 X75.653 Y63.365 E10.11502
G1 X76.744 Y63.139 E10.14524
G1 X77.856 Y63.051 E10.17549
G1 X122.967 Y63.102 E11.39933
G1 X124.069 Y63.294 E11.42968
G1 X125.132 Y63.620 E11.45984
G1 X126.148 Y64.078 E11.49008
G1 X127.100 Y64.661 E11.52036
G1 X127.971 Y65.357 E11.55060
G1 X128.747 Y66.158 E11.58087
G1 X129.417 Y67.050 E11.61112
G1 X129.969 Y68.016 E11.64130
G1 X130.396 Y69.044 E11.67150
G1 X130.691 Y70.119 E11.70176
G1 X130.849 Y71.225 E11.73207
G1 X130.880 Y71.926 E11.75110
G1 X130.867 Y128.486 E13.28552
G1 X130.730 Y129.678 E13.31807
G1 X130.486 Y130.678 E13.34599
G1 X130.092 Y131.723 E13.37629
G1 X129.571 Y132.708 E13.40652
G1 X128.879 Y133.683 E13.43896
G1 X128.181 Y134.445 E13.46698
G1 X127.334 Y135.169 E13.49723
G1 X126.402 Y135.782 E13.52750
G1 X125.401 Y136.273 E13.55773
G1 X124.269 Y136.655 E13.59015
G1 X123.256 Y136.861 E13.61820
G1 X122.144 Y136.949 E13.64844
G1 X77.031 Y136.898 E14.87233
G1 X75.931 Y136.706 E14.90262
G1 X74.867 Y136.379 E14.93281
G1 X73.852 Y135.922 E14.96304
G1 X72.833 Y135.291 E14.99555
G1 X72.030 Y134.643 E15.02354
G1 X71.253 Y133.842 E15.05380
G1 X70.583 Y132.951 E15.08404
G1 X70.031 Y131.984 E15.11426
G1 X69.603 Y130.954 E15.14451
G1 X69.293 Y129.798 E15.17699
G1 X69.151 Y128.775 E15.20499
G1 X69.120 Y128.074 E15.22404
G1 X69.133 Y71.513 E16.75849
G1 X69.255 Y70.405 E16.78873
G1 X69.511 Y69.331 E16.81869
G1 X69.901 Y68.292 E16.84878
G1 X70.429 Y67.293 E16.87945
G1 X71.057 Y66.394 E16.90919
G1 X71.769 Y65.608 E16.93796
G1 X72.008 Y65.775 F6000.000
G1 X72.836 Y65.065 E16.96755 F1800.000
G1 X73.738 Y64.472 E16.99683
G1 X74.700 Y63.999 E17.02591
G1 X75.726 Y63.646 E17.05534
G1 X76.780 Y63.426 E17.08457
G1 X77.856 Y63.341 E17.11383
G1 X122.931 Y63.390 E18.33669
G1 X123.997 Y63.575 E18.36604
G1 X125.025 Y63.890 E18.39522
G1 X126.008 Y64.332 E18.42447
G1 X126.930 Y64.895 E18.45376
G1 X127.772 Y65.569 E18.48302
G1 X128.524 Y66.343 E18.51229
G1 X129.172 Y67.205 E18.54156
G1 X129.707 Y68.139 E18.57075
G1 X130.120 Y69.133 E18.59996
G1 X130.406 Y70.174 E18.62923
G1 X130.560 Y71.244 E18.65855
G1 X130.590 Y71.926 E18.67709
G1 X130.578 Y128.468 E20.21102
G1 X130.445 Y129.623 E20.24257
G1 X130.210 Y130.588 E20.26951
G1 X129.830 Y131.599 E20.29882
G1 X129.326 Y132.552 E20.32806
G1 X128.655 Y133.498 E20.35952
G1 X127.983 Y134.233 E20.38655
G1 X127.163 Y134.935 E20.41581
G1 X126.262 Y135.528 E20.44509
G1 X125.294 Y136.004 E20.47434
G1 X124.197 Y136.374 E20.50577
G1 X123.219 Y136.574 E20.53283
G1 X122.144 Y136.659 E20.56208
G1 X77.067 Y136.610 E21.78499
G1 X76.003 Y136.425 E21.81428
G1 X74.974 Y136.110 E21.84348
G1 X73.991 Y135.667 E21.87273
G1 X73.003 Y135.056 E21.90425
G1 X72.228 Y134.431 E21.93125
G1 X71.476 Y133.657 E21.96052
G1 X70.828 Y132.796 E21.98977
G1 X70.293 Y131.860 E22.01901
G1 X69.879 Y130.864 E22.04828
G1 X69.578 Y129.743 E22.07976
G1 X69.441 Y128.757 E22.10677
G1 X69.410 Y128.074 E22.12533
G1 X69.422 Y71.531 E23.65929
G1 X69.540 Y70.459 E23.68854
G1 X69.787 Y69.420 E23.71752
G1 X70.164 Y68.415 E23.74663
G1 X70.674 Y67.448 E23.77630
G1 X71.281 Y66.579 E23.80507
G1 X71.968 Y65.819 E23.83285
G1 F4200.000 E20.83285
G92 E0
G1 X108.710 Y123.364 F6000.000
G1 E3.00000 F4200.000
G1 X91.290 Y123.364 E3.47259 F1800.000
G1 X91.290 Y129.659 E3.64339
G1 X77.900 Y129.659 E4.00664
G1 X77.702 Y129.634 E4.01205
G1 X77.509 Y129.585 E4.01746
G1 X77.324 Y129.511 E4.02287
G1 X77.149 Y129.415 E4.02828
G1 X76.987 Y129.298 E4.03370
G1 X76.842 Y129.161 E4.03911
G1 X76.715 Y129.008 E4.04452
G1 X76.608 Y128.839 E4.04993
G1 X76.523 Y128.659 E4.05534
G1 X76.461 Y128.469 E4.06076
G1 X76.424 Y128.273 E4.06617
G1 X76.410 Y128.052 E4.07219
G1 X76.410 Y108.096 E4.61356
G1 X76.424 Y107.875 E4.61958
G1 X76.461 Y107.679 E4.62499
G1 X76.523 Y107.489 E4.63040
G1 X76.608 Y107.309 E4.63581
G1 X76.715 Y107.140 E4.64123
G1 X76.842 Y106.986 E4.64664
G1 X76.987 Y106.850 E4.65205
G1 X77.149 Y106.733 E4.65746
G1 X77.324 Y106.637 E4.66287
G1 X77.509 Y106.563 E4.66828
G1 X77.702 Y106.514 E4.67370
G1 X77.900 Y106.488 E4.67911
G1 X122.100 Y106.488 E5.87820
G1 X122.298 Y106.513 E5.88362
G1 X122.491 Y106.563 E5.88903
G1 X122.676 Y106.637 E5.89444
G1 X122.851 Y106.733 E5.89985
G1 X123.013 Y106.850 E5.90526
G1 X123.158 Y106.986 E5.91067
G1 X123.285 Y107.140 E5.91609
G1 X123.392 Y107.309 E5.92150
G1 X123.477 Y107.489 E5.92691
G1 X123.539 Y107.679 E5.93232
G1 X123.576 Y107.875 E5.93774
G1 X123.590 Y108.096 E5.94375
G1 X123.590 Y128.052 E6.48513
G1 X123.576 Y128.273 E6.49114
G1 X123.477 Y128.659 E6.50195
G1 X123.372 Y128.871 E6.50838
G1 X123.158 Y129.161 E6.51816
G1 X123.013 Y129.298 E6.52357
G1 X122.851 Y129.415 E6.52898
G1 X122.676 Y129.511 E6.53439
G1 X122.298 Y129.634 E6.54520
G1 X122.100 Y129.659 E6.55061
G1 X108.710 Y129.659 E6.91386
G1 X108.710 Y123.424 E7.08302
G1 X108.420 Y123.654 F6000.000
G1 X91.580 Y123.654 E7.53988 F1800.000
G1 X91.580 Y129.949 E7.71067
G1 X77.882 Y129.949 E8.08228
G1 X77.648 Y129.920 E8.08868
G1 X77.419 Y129.861 E8.09509
G1 X77.200 Y129.774 E8.10149
G1 X76.993 Y129.660 E8.10789
G1 X76.802 Y129.522 E8.11429
G1 X76.630 Y129.360 E8.12070
G1 X76.480 Y129.178 E8.12710
G1 X76.353 Y128.979 E8.13350
G1 X76.253 Y128.766 E8.13990
G1 X76.180 Y128.541 E8.14630
G1 X76.136 Y128.309 E8.15271
G1 X76.120 Y128.061 E8.15947
G1 X76.120 Y108.087 E8.70133
G1 X76.136 Y107.838 E8.70810
G1 X76.180 Y107.607 E8.71450
G1 X76.253 Y107.382 E8.72090
G1 X76.353 Y107.169 E8.72730
G1 X76.480 Y106.969 E8.73370
G1 X76.630 Y106.788 E8.74011
G1 X76.802 Y106.626 E8.74651
G1 X76.993 Y106.487 E8.75291
G1 X77.200 Y106.374 E8.75931
G1 X77.419 Y106.287 E8.76571
G1 X77.648 Y106.228 E8.77212
G1 X77.882 Y106.198 E8.77852
G1 X122.118 Y106.198 E9.97860
G1 X122.352 Y106.228 E9.98501
G1 X122.581 Y106.287 E9.99141
G1 X122.800 Y106.374 E9.99781
G1 X123.007 Y106.487 E10.00421
G1 X123.198 Y106.626 E10.01061
G1 X123.370 Y106.787 E10.01701
G1 X123.520 Y106.969 E10.02342
G1 X123.647 Y107.169 E10.02982
G1 X123.747 Y107.382 E10.03622
G1 X123.820 Y107.607 E10.04262
G1 X123.864 Y107.838 E10.04903
G1 X123.880 Y108.087 E10.05578
G1 X123.880 Y128.061 E10.59765
G1 X123.864 Y128.309 E10.60441
G1 X123.820 Y128.541 E10.61082
G1 X123.747 Y128.766 E10.61722
G1 X123.617 Y129.026 E10.62513
G1 X123.520 Y129.178 E10.63001
G1 X123.370 Y129.360 E10.63642
G1 X123.198 Y129.522 E10.64282
G1 X123.007 Y129.660 E10.64922
G1 X122.800 Y129.774 E10.65562
G1 X122.581 Y129.861 E10.66202
G1 X122.352 Y129.920 E10.66843
G1 X122.118 Y129.949 E10.67483
G1 X108.420 Y129.949 E11.04644
G1 X108.420 Y123.714 E11.21560
G1 X108.130 Y123.944 F6000.000
G1 X91.870 Y123.944 E11.65672 F1800.000
G1 X91.870 Y130.239 E11.82752
G1 X77.864 Y130.239 E12.20749
G1 X77.593 Y130.205 E12.21489
G1 X77.330 Y130.137 E12.22228
G1 X77.076 Y130.037 E12.22967
G1 X76.837 Y129.906 E12.23706
G1 X76.617 Y129.746 E12.24445
G1 X76.418 Y129.559 E12.25185
G1 X76.245 Y129.349 E12.25924
G1 X76.099 Y129.119 E12.26663
G1 X75.983 Y128.873 E12.27402
G1 X75.898 Y128.613 E12.28141
G1 X75.847 Y128.346 E12.28881
G1 X75.830 Y128.070 E12.29631
G1 X75.830 Y108.078 E12.83867
G1 X75.847 Y107.802 E12.84618
G1 X75.898 Y107.534 E12.85357
G1 X75.983 Y107.275 E12.86096
G1 X76.099 Y107.029 E12.86835
G1 X76.245 Y106.799 E12.87574
G1 X76.418 Y106.589 E12.88314
G1 X76.617 Y106.402 E12.89053
G1 X76.837 Y106.242 E12.89792
G1 X77.076 Y106.111 E12.90531
G1 X77.330 Y106.010 E12.91270
G1 X77.521 Y105.961 E12.91808
G1 X77.864 Y105.908 E12.92748
G1 X122.136 Y105.908 E14.12855
G1 X122.407 Y105.943 E14.13594
G1 X122.670 Y106.010 E14.14333
G1 X122.924 Y106.111 E14.15073
G1 X123.163 Y106.242 E14.15812
G1 X123.383 Y106.402 E14.16551
G1 X123.582 Y106.589 E14.17290
G1 X123.755 Y106.799 E14.18030
G1 X123.975 Y107.144 E14.19140
G1 X123.956 Y107.144 E14.19191
G1 X124.102 Y107.534 E14.20321
G1 X124.153 Y107.802 E14.21061
G1 X124.170 Y108.078 E14.21811
G1 X124.170 Y128.070 E14.76047
G1 X124.153 Y128.346 E14.76797
G1 X124.102 Y128.613 E14.77537
G1 X124.017 Y128.873 E14.78276
G1 X123.862 Y129.182 E14.79215
G1 X123.755 Y129.349 E14.79753
G1 X123.582 Y129.559 E14.80492
G1 X123.383 Y129.746 E14.81231
G1 X123.163 Y129.906 E14.81971
G1 X122.924 Y130.037 E14.82710
G1 X122.670 Y130.137 E14.83449
G1 X122.407 Y130.205 E14.84188
G1 X122.136 Y130.239 E14.84928
G1 X108.130 Y130.239 E15.22925
G1 X108.130 Y124.004 E15.39842
G1 X108.130 Y123.544 F6000.000
G1 X108.900 Y128.826 F6000.000
M204 S750
G1 X109.543 Y129.469 E15.42309 F1800.000
G1 X109.132 Y129.469 E15.43425
G1 X108.900 Y129.237 E15.44314
G1 X108.900 Y128.414 E15.46547
G1 X109.955 Y129.469 E15.50593
G1 X110.366 Y129.469 E15.51709
G1 X108.900 Y128.003 E15.57334
G1 X108.900 Y127.591 E15.58450
G1 X110.778 Y129.469 E15.65654
G1 X111.189 Y129.469 E15.66770
G1 X108.900 Y127.180 E15.75552
G1 X108.900 Y126.768 E15.76668
G1 X111.601 Y129.469 E15.87029
G1 X112.012 Y129.469 E15.88146
G1 X108.900 Y126.357 E16.00085
G1 X108.900 Y125.946 E16.01202
G1 X112.424 Y129.469 E16.14720
G1 X112.835 Y129.469 E16.15836
G1 X108.900 Y125.534 E16.30933
G1 X108.900 Y125.123 E16.32050
G1 X113.247 Y129.469 E16.48726
G1 X113.658 Y129.469 E16.49842
G1 X108.900 Y124.711 E16.68096
G1 X108.900 Y124.300 E16.69213
G1 X114.070 Y129.469 E16.89046
G1 X114.481 Y129.469 E16.90162
G1 X108.900 Y123.888 E17.11574
G1 X108.900 Y123.477 E17.12691
G1 X114.893 Y129.469 E17.35682
M204 S2000
G1 X123.389 Y107.926 F6000.000
M204 S750
G1 X122.149 Y106.686 E17.40439 F1800.000
G1 X121.729 Y106.679 E17.41576
G1 X123.400 Y108.349 E17.47984
G1 X123.400 Y108.760 E17.49100
G1 X121.318 Y106.679 E17.57087
G1 X120.907 Y106.679 E17.58203
G1 X123.400 Y109.172 E17.67769
G1 X123.400 Y109.583 E17.68885
G1 X120.495 Y106.679 E17.80029
G1 X120.084 Y106.679 E17.81145
G1 X123.400 Y109.995 E17.93868
G1 X123.400 Y110.406 E17.94984
G1 X119.672 Y106.679 E18.09286
G1 X119.261 Y106.679 E18.10402
G1 X123.400 Y110.818 E18.26282
G1 X123.400 Y111.229 E18.27399
G1 X118.849 Y106.679 E18.44857
G1 X118.438 Y106.679 E18.45974
G1 X123.400 Y111.641 E18.65011
G1 X123.400 Y112.052 E18.66128
G1 X118.026 Y106.679 E18.86744
G1 X117.615 Y106.679 E18.87860
G1 X123.400 Y112.464 E19.10056
G1 X123.400 Y112.875 E19.11172
G1 X117.203 Y106.679 E19.34946
G1 X116.792 Y106.679 E19.36062
G1 X123.400 Y113.287 E19.61415
G1 X123.400 Y113.698 E19.62531
G1 X116.380 Y106.679 E19.89462
G1 X115.969 Y106.679 E19.90579
G1 X123.400 Y114.110 E20.19089
G1 X123.400 Y114.521 E20.20205
G1 X115.557 Y106.679 E20.50294
G1 X115.146 Y106.679 E20.51410
G1 X123.400 Y114.933 E20.83077
G1 X123.400 Y115.344 E20.84194
G1 X114.734 Y106.679 E21.17440
G1 X114.323 Y106.679 E21.18556
G1 X123.400 Y115.756 E21.53381
G1 X123.400 Y116.167 E21.54497
G1 X113.911 Y106.679 E21.90901
G1 X113.500 Y106.679 E21.92017
G1 X123.400 Y116.579 E22.30000
G1 X123.400 Y116.990 E22.31116
G1 X113.088 Y106.679 E22.70677
G1 X112.677 Y106.679 E22.71793
G1 X123.400 Y117.402 E23.12933
G1 X123.400 Y117.813 E23.14050
G1 X112.265 Y106.679 E23.56768
G1 X111.854 Y106.679 E23.57884
G1 X123.400 Y118.225 E24.02182
G1 X123.400 Y118.636 E24.03298
G1 X111.442 Y106.679 E24.49174
G1 X111.031 Y106.679 E24.50290
G1 X123.400 Y119.048 E24.97745
G1 X123.400 Y119.459 E24.98861
G1 X110.619 Y106.679 E25.47895
G1 X110.208 Y106.679 E25.49011
G1 X123.400 Y119.871 E25.99623
G1 X123.400 Y120.282 E26.00740
G1 X109.796 Y106.679 E26.52930
G1 X109.385 Y106.679 E26.54047
G1 X123.400 Y120.694 E27.07816
G1 X123.400 Y121.105 E27.08933
G1 X108.973 Y106.679 E27.64281
G1 X108.562 Y106.679 E27.65397
G1 X123.400 Y121.516 E28.22324
G1 X123.400 Y121.928 E28.23441
G1 X108.150 Y106.679 E28.81946
G1 X107.739 Y106.679 E28.83063
G1 X123.400 Y122.339 E29.43147
G1 X123.400 Y122.751 E29.44264
G1 X107.327 Y106.679 E30.05927
G1 X106.916 Y106.679 E30.07043
G1 X123.400 Y123.162 E30.70285
G1 X123.400 Y123.574 E30.71401
G1 X106.505 Y106.679 E31.36222
G1 X106.093 Y106.679 E31.37338
G1 X123.400 Y123.985 E32.03738
G1 X123.400 Y124.397 E32.04854
G1 X105.682 Y106.679 E32.72832
G1 X105.270 Y106.679 E32.73949
G1 X123.400 Y124.808 E33.43506
G1 X123.400 Y125.220 E33.44622
G1 X104.859 Y106.679 E34.15757
G1 X104.447 Y106.679 E34.16874
G1 X123.400 Y125.631 E34.89588
G1 X123.400 Y126.043 E34.90704
G1 X104.036 Y106.679 E35.64997
G1 X103.624 Y106.679 E35.66114
G1 X123.400 Y126.454 E36.41986
G1 X123.400 Y126.866 E36.43102
G1 X103.213 Y106.679 E37.20552
G1 X102.801 Y106.679 E37.21669
G1 X123.400 Y127.277 E38.00698
G1 X123.400 Y127.689 E38.01814
G1 X102.390 Y106.679 E38.82422
G1 X101.978 Y106.679 E38.83538
G1 X123.396 Y128.097 E39.65713
G1 X123.343 Y128.455 E39.66695
G1 X101.567 Y106.679 E40.50243
G1 X101.155 Y106.679 E40.51359
G1 X123.224 Y128.748 E41.36031
G1 X123.043 Y128.978 E41.36826
G1 X100.744 Y106.679 E42.22381
G1 X100.332 Y106.679 E42.23498
G1 X122.837 Y129.184 E43.09842
G1 X122.583 Y129.341 E43.10653
G1 X99.921 Y106.679 E43.97602
G1 X99.509 Y106.679 E43.98718
G1 X122.273 Y129.442 E44.86054
G1 X121.888 Y129.469 E44.87100
G1 X99.098 Y106.679 E45.74538
G1 X98.686 Y106.679 E45.75654
G1 X121.477 Y129.469 E46.63092
G1 X121.065 Y129.469 E46.64209
G1 X98.275 Y106.679 E47.51647
G1 X97.863 Y106.679 E47.52763
G1 X120.654 Y129.469 E48.40201
G1 X120.242 Y129.469 E48.41318
G1 X97.452 Y106.679 E49.28756
G1 X97.040 Y106.679 E49.29872
G1 X119.831 Y129.469 E50.17310
G1 X119.419 Y129.469 E50.18426
G1 X96.629 Y106.679 E51.05865
G1 X96.217 Y106.679 E51.06981
G1 X119.008 Y129.469 E51.94419
G1 X118.596 Y129.469 E51.95535
G1 X95.806 Y106.679 E52.82973
G1 X95.394 Y106.679 E52.84090
G1 X118.185 Y129.469 E53.71528
G1 X117.773 Y129.469 E53.72644
G1 X94.983 Y106.679 E54.60082
G1 X94.571 Y106.679 E54.61199
G1 X117.362 Y129.469 E55.48637
G1 X116.950 Y129.469 E55.49753
G1 X94.160 Y106.679 E56.37191
G1 X93.748 Y106.679 E56.38307
G1 X116.539 Y129.469 E57.25746
G1 X116.127 Y129.469 E57.26862
G1 X93.337 Y106.679 E58.14300
G1 X92.925 Y106.679 E58.15416
G1 X115.716 Y129.469 E59.02854
G1 X115.304 Y129.469 E59.03971
G1 X92.514 Y106.679 E59.91409
G1 X92.102 Y106.679 E59.92525
