; generated by Slic3r 1.1.7 on 2015-03-12 at 19:52:47

; perimeters extrusion width = 0.40mm
; infill extrusion width = 0.42mm
; solid infill extrusion width = 0.42mm
; top infill extrusion width = 0.42mm
; support material extrusion width = 0.40mm

G21 ; set units to millimeters
M190 S110 ; wait for bed temperature to be reached
M104 S220 ; set temperature
M106 S255; Turn on Fan fully
G28 ; home all axes Start of G Code Slic3r
 
  
M109 S220 ; wait for temperature to be reached
G90 ; use absolute coordinates
G92 E0
M82 ; use absolute distances for extrusion
M106 S127
G1 F1980.000 E-4.00000
G92 E0
G1 Z0.300 F6000.000
G1 X22.448 Y54.521 F6000.000
G1 E4.00000 F1980.000
G1 X23.636 Y54.080 E4.05259 F1650.000
G1 X79.994 Y35.954 E6.50976
G1 X82.088 Y35.360 E6.60008
G1 X84.214 Y34.898 E6.69039
G1 X85.778 Y34.650 E6.75610
G1 X86.366 Y34.571 E6.78073
G1 X88.533 Y34.379 E6.87104
G1 X90.500 Y34.320 E6.95271
G1 X152.758 Y34.324 E9.53673
G1 X154.932 Y34.405 E9.62704 F1650.000
G1 X157.098 Y34.623 E9.71737
G1 X159.245 Y34.976 E9.80769
G1 X161.365 Y35.464 E9.89800
G1 X163.452 Y36.084 E9.98834
G1 X164.941 Y36.620 E10.05405
G1 X165.494 Y36.833 E10.07865
G1 X167.487 Y37.709 E10.16898
G1 X169.420 Y38.709 E10.25930
G1 X171.286 Y39.828 E10.34961
G1 X173.078 Y41.062 E10.43994
G1 X174.329 Y42.032 E10.50565
G1 X174.790 Y42.406 E10.53028
G1 X176.414 Y43.855 E10.62059
G1 X177.943 Y45.403 E10.71090
G1 X179.372 Y47.044 E10.80124
G1 X180.696 Y48.772 E10.89156
G1 X181.908 Y50.579 E10.98188
G1 X183.004 Y52.458 E11.07220
G1 X183.981 Y54.403 E11.16253
G1 X184.833 Y56.405 E11.25283
G1 X185.558 Y58.458 E11.34317
G1 X186.152 Y60.551 E11.43349
G1 X186.498 Y62.096 E11.49919
G1 X186.614 Y62.677 E11.52381
G1 X186.942 Y64.829 E11.61414
G1 X187.133 Y66.996 E11.70445
G1 X187.189 Y69.171 E11.79475
G1 X187.107 Y71.345 E11.88505
G1 X186.889 Y73.511 E11.97538
G1 X186.536 Y75.658 E12.06571
G1 X186.049 Y77.780 E12.15605
G1 X185.429 Y79.866 E12.24639
G1 X184.680 Y81.908 E12.33666
G1 X183.803 Y83.901 E12.42702
G1 X182.803 Y85.834 E12.51735
G1 X181.685 Y87.700 E12.60766
G1 X180.465 Y89.474 E12.69700
G1 X123.788 Y163.089 E16.55307
G1 X122.094 Y164.639 E16.64839
G1 X119.973 Y165.520 E16.74371
G1 X118.524 Y165.680 E16.80418
G1 X62.476 Y165.680 E19.13050
G1 X60.213 Y165.283 E19.22582
G1 X58.222 Y164.139 E19.32114
G1 X56.508 Y161.955 E19.43638
G1 X14.211 Y75.434 E23.43359
G1 X13.833 Y74.527 E23.47438
G1 X13.512 Y73.598 E23.51515
G1 X13.238 Y72.595 E23.55829
G1 X13.049 Y71.689 E23.59672
G1 X12.909 Y70.717 E23.63750
G1 X12.827 Y69.681 E23.68063
G1 X12.811 Y68.755 E23.71907
G1 X12.855 Y67.773 E23.75985
G1 X12.961 Y66.796 E23.80064
G1 X13.127 Y65.828 E23.84141
G1 X13.355 Y64.872 E23.88220
G1 X13.641 Y63.932 E23.92298
G1 X13.986 Y63.012 E23.96377
G1 X14.389 Y62.115 E24.00455
G1 X14.846 Y61.246 E24.04533
G1 X15.358 Y60.407 E24.08611
G1 X15.921 Y59.602 E24.12690
G1 X16.533 Y58.833 E24.16768
G1 X17.193 Y58.105 E24.20846
G1 X17.897 Y57.420 E24.24924
G1 X18.643 Y56.780 E24.29002
G1 X19.427 Y56.188 E24.33081
G1 X20.247 Y55.646 E24.37159
G1 X21.099 Y55.158 E24.41237
G1 X21.981 Y54.723 E24.45315
G1 X22.393 Y54.545 E24.47179
G1 F1980.000 E20.47179
G92 E0
G1 X22.576 Y54.816 F6000.000
G1 E4.00000 F1980.000
G1 X23.734 Y54.386 E4.05129 F1650.000
G1 X80.084 Y36.263 E6.50808
G1 X82.158 Y35.674 E6.59756
G1 X84.264 Y35.216 E6.68704
G1 X85.828 Y34.968 E6.75275
G1 X86.396 Y34.891 E6.77654
G1 X88.543 Y34.700 E6.86601
G1 X90.500 Y34.642 E6.94726
G1 X152.748 Y34.645 E9.53086
G1 X154.902 Y34.725 E9.62034 F1650.000
G1 X157.047 Y34.940 E9.70983
G1 X159.175 Y35.290 E9.79931
G1 X161.276 Y35.772 E9.88879
G1 X163.343 Y36.386 E9.97828
G1 X164.833 Y36.922 E10.04399
G1 X165.367 Y37.128 E10.06775
G1 X167.341 Y37.996 E10.15725
G1 X169.256 Y38.986 E10.24673
G1 X171.105 Y40.094 E10.33621
G1 X172.881 Y41.316 E10.42570
G1 X174.132 Y42.286 E10.49140
G1 X174.578 Y42.647 E10.51520
G1 X176.186 Y44.082 E10.60467
G1 X177.702 Y45.615 E10.69414
G1 X179.118 Y47.241 E10.78364
G1 X180.430 Y48.952 E10.87313
G1 X181.631 Y50.742 E10.96260
G1 X182.718 Y52.604 E11.05208
G1 X183.686 Y54.531 E11.14158
G1 X184.530 Y56.514 E11.23104
G1 X185.249 Y58.547 E11.32054
G1 X185.839 Y60.621 E11.41002
G1 X186.184 Y62.166 E11.47573
G1 X186.297 Y62.728 E11.49950
G1 X186.622 Y64.859 E11.58900
G1 X186.812 Y67.006 E11.67847
G1 X186.867 Y69.161 E11.76794
G1 X186.787 Y71.315 E11.85740
G1 X186.572 Y73.461 E11.94690
G1 X186.222 Y75.588 E12.03639
G1 X185.740 Y77.690 E12.12589
G1 X185.126 Y79.757 E12.21539
G1 X184.385 Y81.780 E12.30482
G1 X183.517 Y83.755 E12.39434
G1 X182.527 Y85.670 E12.48383
G1 X181.419 Y87.519 E12.57331
G1 X180.210 Y89.278 E12.66185
G1 X123.533 Y162.893 E16.51792
G1 X121.874 Y164.398 E16.61089
G1 X119.794 Y165.229 E16.70386
G1 X118.524 Y165.358 E16.75683
G1 X62.476 Y165.358 E19.08315
G1 X60.271 Y164.961 E19.17612
G1 X58.343 Y163.821 E19.26909
G1 X56.797 Y161.813 E19.37426
G1 X14.506 Y75.306 E23.37085
G1 X14.135 Y74.418 E23.41080
G1 X13.821 Y73.508 E23.45073
G1 X13.552 Y72.525 E23.49304
G1 X13.367 Y71.639 E23.53063
G1 X13.229 Y70.686 E23.57057
G1 X13.149 Y69.670 E23.61286
G1 X13.133 Y68.765 E23.65046
G1 X13.175 Y67.803 E23.69041
G1 X13.278 Y66.846 E23.73036
G1 X13.441 Y65.898 E23.77029
G1 X13.663 Y64.961 E23.81024
G1 X13.944 Y64.041 E23.85019
G1 X14.281 Y63.139 E23.89014
G1 X14.675 Y62.261 E23.93008
G1 X15.123 Y61.410 E23.97002
G1 X15.624 Y60.588 E24.00996
G1 X16.175 Y59.799 E24.04991
G1 X16.775 Y59.046 E24.08986
G1 X17.420 Y58.332 E24.12980
G1 X18.110 Y57.661 E24.16974
G1 X18.840 Y57.034 E24.20969
G1 X19.608 Y56.454 E24.24964
G1 X20.411 Y55.923 E24.28958
G1 X21.245 Y55.444 E24.32952
G1 X22.108 Y55.018 E24.36946
G1 X22.521 Y54.840 E24.38810
G1 F1980.000 E20.38810
G92 E0
G1 X93.246 Y72.743 F6000.000
G1 E4.00000 F1980.000
G1 X92.982 Y72.920 E4.01320 F900.000
G1 X92.489 Y73.190 E4.03653
G1 X91.944 Y73.406 E4.06088
G1 X91.375 Y73.552 E4.08523
G1 X90.793 Y73.626 E4.10958
G1 X90.207 Y73.626 E4.13393
G1 X89.625 Y73.552 E4.15828
G1 X89.056 Y73.406 E4.18263
G1 X88.511 Y73.190 E4.20698
G1 X87.997 Y72.908 E4.23133
G1 X87.522 Y72.563 E4.25568
G1 X87.094 Y72.161 E4.28003
G1 X86.721 Y71.709 E4.30438
G1 X86.543 Y71.445 E4.31758
G1 X86.273 Y70.952 E4.34091
G1 X86.057 Y70.407 E4.36526
G1 X85.911 Y69.839 E4.38961
G1 X85.838 Y69.257 E4.41396
G1 X85.838 Y68.670 E4.43831
G1 X85.911 Y68.088 E4.46265
G1 X86.057 Y67.520 E4.48701
G1 X86.273 Y66.974 E4.51136
G1 X86.543 Y66.481 E4.53468
G1 X86.721 Y66.217 E4.54789
G1 X87.094 Y65.765 E4.57224
G1 X87.522 Y65.364 E4.59659
G1 X87.997 Y65.019 E4.62094
G1 X88.511 Y64.736 E4.64529
G1 X89.056 Y64.520 E4.66964
G1 X89.625 Y64.374 E4.69399
G1 X90.207 Y64.301 E4.71834
G1 X90.769 Y64.300 E4.74167
G1 X91.375 Y64.374 E4.76703 F900.000
G1 X91.944 Y64.520 E4.79138
G1 X92.489 Y64.736 E4.81574
G1 X92.751 Y64.869 E4.82791
G1 X93.246 Y65.184 E4.85227
G1 X93.698 Y65.558 E4.87662
G1 X93.906 Y65.765 E4.88880
G1 X94.279 Y66.217 E4.91315
G1 X94.444 Y66.460 E4.92533
G1 X94.716 Y66.952 E4.94866
G1 X94.943 Y67.520 E4.97403
G1 X95.025 Y67.801 E4.98621
G1 X95.131 Y68.353 E5.00953
G1 X95.172 Y68.963 E5.03490
G1 X95.131 Y69.573 E5.06027
G1 X95.025 Y70.125 E5.08360
G1 X94.943 Y70.407 E5.09578
G1 X94.716 Y70.974 E5.12115
G1 X94.444 Y71.466 E5.14448
G1 X94.279 Y71.709 E5.15666
G1 X93.906 Y72.161 E5.18101
G1 X93.698 Y72.369 E5.19319
G1 X93.293 Y72.706 E5.21505
G1 F1980.000 E1.21505
G92 E0
G1 X93.057 Y72.483 F6000.000
G1 E4.00000 F1980.000
G1 X92.818 Y72.644 E4.01195 F720.000
G1 X92.352 Y72.899 E4.03402
G1 X91.844 Y73.100 E4.05669
G1 X91.315 Y73.236 E4.07936
G1 X90.773 Y73.305 E4.10204
G1 X90.227 Y73.305 E4.12471
G1 X89.685 Y73.236 E4.14738
G1 X89.156 Y73.100 E4.17006
G1 X88.648 Y72.899 E4.19273
G1 X88.169 Y72.636 E4.21540
G1 X87.727 Y72.315 E4.23808
G1 X87.329 Y71.941 E4.26075
G1 X86.981 Y71.520 E4.28343
G1 X86.820 Y71.282 E4.29537
G1 X86.564 Y70.815 E4.31744
G1 X86.363 Y70.307 E4.34012
G1 X86.227 Y69.778 E4.36279
G1 X86.159 Y69.236 E4.38546
G1 X86.159 Y68.690 E4.40814
G1 X86.227 Y68.148 E4.43081
G1 X86.363 Y67.619 E4.45348
G1 X86.564 Y67.111 E4.47616
G1 X86.820 Y66.645 E4.49822
G1 X86.981 Y66.406 E4.51017
G1 X87.329 Y65.985 E4.53285
G1 X87.522 Y65.792 E4.54419
G1 X87.943 Y65.444 E4.56686
G1 X88.404 Y65.151 E4.58954
G1 X88.899 Y64.919 E4.61221
G1 X89.418 Y64.750 E4.63488
G1 X89.955 Y64.647 E4.65756
G1 X90.485 Y64.614 E4.67962
G1 X91.045 Y64.647 E4.70290 F720.000
G1 X91.315 Y64.690 E4.71424
G1 X91.844 Y64.826 E4.73692
G1 X92.352 Y65.027 E4.75959
G1 X92.596 Y65.151 E4.77093
G1 X93.057 Y65.444 E4.79361
G1 X93.478 Y65.792 E4.81628
G1 X93.671 Y65.985 E4.82762
G1 X94.019 Y66.406 E4.85030
G1 X94.173 Y66.632 E4.86164
G1 X94.429 Y67.098 E4.88371
G1 X94.637 Y67.619 E4.90699
G1 X94.713 Y67.881 E4.91833
G1 X94.813 Y68.404 E4.94040
G1 X94.850 Y68.963 E4.96367
G1 X94.813 Y69.523 E4.98695
G1 X94.713 Y70.045 E5.00902
G1 X94.637 Y70.307 E5.02036
G1 X94.429 Y70.828 E5.04364
G1 X94.173 Y71.294 E5.06570
G1 X94.019 Y71.520 E5.07705
G1 X93.671 Y71.941 E5.09972
G1 X93.478 Y72.134 E5.11106
G1 X93.104 Y72.446 E5.13125
G1 F1980.000 E1.13125
G92 E0
G1 X90.451 Y64.215 F6000.000
G1 X106.078 Y91.644 F6000.000
G1 E4.00000 F1980.000
G1 X105.250 Y92.206 E4.04154 F900.000
G1 X103.762 Y93.087 E4.11331
G1 X102.221 Y93.872 E4.18509
G1 X100.634 Y94.558 E4.25687
G1 X99.007 Y95.144 E4.32865
G1 X97.346 Y95.627 E4.40043
G1 X95.658 Y96.004 E4.47220
G1 X93.950 Y96.274 E4.54398
G1 X92.228 Y96.437 E4.61576
G1 X90.500 Y96.492 E4.68754
G1 X88.771 Y96.437 E4.75932
G1 X87.050 Y96.274 E4.83109
G1 X85.342 Y96.004 E4.90287
G1 X83.654 Y95.627 E4.97465
G1 X81.993 Y95.144 E5.04642
G1 X80.366 Y94.558 E5.11820
G1 X78.779 Y93.872 E5.18998
G1 X77.238 Y93.087 E5.26176
G1 X75.750 Y92.206 E5.33354
G1 X74.319 Y91.234 E5.40531
G1 X72.953 Y90.174 E5.47709
G1 X71.542 Y88.917 E5.55554
G1 X70.433 Y87.808 E5.62064
G1 X69.289 Y86.510 E5.69241
G1 X68.229 Y85.144 E5.76419
G1 X67.257 Y83.714 E5.83597
G1 X66.377 Y82.225 E5.90775
G1 X65.592 Y80.684 E5.97952
G1 X64.905 Y79.097 E6.05130
G1 X64.319 Y77.470 E6.12308
G1 X63.837 Y75.809 E6.19486
G1 X63.459 Y74.122 E6.26663
G1 X63.186 Y72.380 E6.33982
G1 X63.026 Y70.692 E6.41019
G1 X62.972 Y68.963 E6.48196
G1 X63.026 Y67.235 E6.55374
G1 X63.189 Y65.513 E6.62552
G1 X63.459 Y63.805 E6.69730
G1 X63.837 Y62.117 E6.76907
G1 X64.319 Y60.457 E6.84085
G1 X64.905 Y58.829 E6.91263
G1 X65.592 Y57.242 E6.98441
G1 X66.377 Y55.701 E7.05618
G1 X67.257 Y54.213 E7.12796
G1 X68.229 Y52.783 E7.19974
G1 X69.289 Y51.416 E7.27152
G1 X70.433 Y50.119 E7.34330
G1 X71.656 Y48.896 E7.41507
G1 X72.953 Y47.752 E7.48685
G1 X74.319 Y46.692 E7.55863
G1 X75.750 Y45.720 E7.63041
G1 X77.238 Y44.840 E7.70219
G1 X78.779 Y44.055 E7.77396
G1 X80.366 Y43.368 E7.84574
G1 X81.993 Y42.782 E7.91752
G1 X83.654 Y42.300 E7.98929
G1 X85.342 Y41.923 E8.06107
G1 X87.050 Y41.652 E8.13285
G1 X88.771 Y41.489 E8.20463
G1 X90.339 Y41.440 E8.26972
G1 X92.229 Y41.489 E8.34817 F900.000
G1 X93.950 Y41.652 E8.41995
G1 X95.658 Y41.923 E8.49173
G1 X97.346 Y42.300 E8.56351
G1 X99.007 Y42.782 E8.63528
G1 X100.634 Y43.368 E8.70706
G1 X102.221 Y44.055 E8.77884
G1 X103.762 Y44.840 E8.85061
G1 X105.250 Y45.720 E8.92239
G1 X106.681 Y46.692 E8.99417
G1 X108.047 Y47.752 E9.06595
G1 X109.344 Y48.896 E9.13773
G1 X110.453 Y50.005 E9.20282
G1 X111.711 Y51.416 E9.28127
G1 X112.771 Y52.783 E9.35305
G1 X113.743 Y54.213 E9.42483
G1 X114.623 Y55.701 E9.49660
G1 X115.357 Y57.142 E9.56372
G1 X116.095 Y58.829 E9.64015
G1 X116.681 Y60.457 E9.71193
G1 X117.163 Y62.117 E9.78370
G1 X117.541 Y63.805 E9.85548
G1 X117.811 Y65.513 E9.92726
G1 X117.974 Y67.235 E9.99904
G1 X118.028 Y68.963 E10.07082
G1 X117.974 Y70.692 E10.14260
G1 X117.806 Y72.447 E10.21578
G1 X117.541 Y74.122 E10.28615
G1 X117.163 Y75.809 E10.35792
G1 X116.681 Y77.470 E10.42970
G1 X116.095 Y79.097 E10.50148
G1 X115.393 Y80.714 E10.57466
G1 X114.623 Y82.225 E10.64503
G1 X113.743 Y83.714 E10.71681
G1 X112.771 Y85.144 E10.78859
G1 X111.711 Y86.510 E10.86036
G1 X110.567 Y87.808 E10.93214
G1 X109.344 Y89.031 E11.00392
G1 X108.047 Y90.174 E11.07570
G1 X106.681 Y91.234 E11.14748
G1 X106.128 Y91.610 E11.17523
G1 F1980.000 E7.17523
G92 E0
G1 X106.259 Y91.910 F6000.000
G1 E4.00000 F1980.000
G1 X105.423 Y92.478 E4.04196 F720.000
G1 X103.917 Y93.368 E4.11457
G1 X102.358 Y94.163 E4.18719
G1 X100.752 Y94.857 E4.25980
G1 X99.106 Y95.450 E4.33242
G1 X97.426 Y95.938 E4.40504
G1 X95.719 Y96.320 E4.47765
G1 X93.991 Y96.594 E4.55027
G1 X92.249 Y96.758 E4.62289
G1 X90.500 Y96.813 E4.69550
G1 X88.751 Y96.758 E4.76812
G1 X87.009 Y96.594 E4.84074
G1 X85.281 Y96.320 E4.91335
G1 X83.574 Y95.938 E4.98597
G1 X81.894 Y95.450 E5.05858
G1 X80.248 Y94.857 E5.13120
G1 X78.642 Y94.163 E5.20381
G1 X77.083 Y93.368 E5.27643
G1 X75.577 Y92.478 E5.34905
G1 X74.130 Y91.494 E5.42166
G1 X72.748 Y90.422 E5.49428
G1 X71.435 Y89.265 E5.56690
G1 X70.198 Y88.028 E5.63951
G1 X69.041 Y86.715 E5.71213
G1 X67.969 Y85.333 E5.78475
G1 X66.986 Y83.886 E5.85736
G1 X66.095 Y82.380 E5.92998
G1 X65.301 Y80.821 E6.00260
G1 X64.606 Y79.215 E6.07521
G1 X64.013 Y77.569 E6.14783
G1 X63.525 Y75.889 E6.22044
G1 X63.143 Y74.182 E6.29306
G1 X62.870 Y72.454 E6.36568
G1 X62.705 Y70.712 E6.43829
G1 X62.650 Y68.963 E6.51091
G1 X62.705 Y67.215 E6.58353
G1 X62.870 Y65.473 E6.65614
G1 X63.143 Y63.745 E6.72876
G1 X63.525 Y62.037 E6.80137
G1 X64.013 Y60.357 E6.87399
G1 X64.606 Y58.711 E6.94661
G1 X65.301 Y57.105 E7.01922
G1 X66.095 Y55.546 E7.09184
G1 X66.986 Y54.041 E7.16445
G1 X67.969 Y52.593 E7.23707
G1 X69.041 Y51.211 E7.30969
G1 X70.198 Y49.899 E7.38230
G1 X71.435 Y48.662 E7.45492
G1 X72.748 Y47.504 E7.52754
G1 X74.130 Y46.432 E7.60015
G1 X75.577 Y45.449 E7.67277
G1 X77.083 Y44.558 E7.74539
G1 X78.642 Y43.764 E7.81800
G1 X80.248 Y43.069 E7.89062
G1 X81.894 Y42.476 E7.96324
G1 X83.574 Y41.988 E8.03585
G1 X85.281 Y41.607 E8.10847
G1 X87.009 Y41.333 E8.18108
G1 X88.751 Y41.168 E8.25370
G1 X90.500 Y41.113 E8.32632
G1 X92.078 Y41.163 E8.39183
G1 X93.991 Y41.333 E8.47154 F720.000
G1 X95.719 Y41.607 E8.54415
G1 X97.426 Y41.988 E8.61677
G1 X99.106 Y42.476 E8.68939
G1 X100.752 Y43.069 E8.76200
G1 X102.358 Y43.764 E8.83462
G1 X103.917 Y44.558 E8.90723
G1 X105.423 Y45.449 E8.97985
G1 X106.728 Y46.336 E9.04536
G1 X108.252 Y47.504 E9.12507
G1 X109.565 Y48.662 E9.19769
G1 X110.681 Y49.778 E9.26320
G1 X111.959 Y51.211 E9.34291
G1 X113.031 Y52.593 E9.41552
G1 X114.014 Y54.041 E9.48814
G1 X114.905 Y55.546 E9.56076
G1 X115.699 Y57.105 E9.63337
G1 X116.394 Y58.711 E9.70599
G1 X116.987 Y60.357 E9.77860
G1 X117.475 Y62.037 E9.85122
G1 X117.857 Y63.745 E9.92384
G1 X118.130 Y65.473 E9.99645
G1 X118.295 Y67.215 E10.06907
G1 X118.350 Y68.963 E10.14169
G1 X118.295 Y70.712 E10.21430
G1 X118.123 Y72.497 E10.28874
G1 X117.857 Y74.182 E10.35953
G1 X117.475 Y75.889 E10.43215
G1 X116.987 Y77.569 E10.50476
G1 X116.394 Y79.216 E10.57738
G1 X115.699 Y80.821 E10.64999
G1 X114.905 Y82.380 E10.72261
G1 X114.014 Y83.886 E10.79523
G1 X113.031 Y85.333 E10.86784
G1 X111.959 Y86.715 E10.94046
G1 X110.802 Y88.028 E11.01308
G1 X109.565 Y89.265 E11.08569
G1 X108.252 Y90.422 E11.15831
G1 X106.870 Y91.494 E11.23093
G1 X106.308 Y91.876 E11.25910
G1 F1980.000 E7.25910
G92 E0
G1 X92.431 Y41.350 F6000.000
G1 X99.738 Y43.272 F6000.000
G1 E4.00000 F1980.000
G1 X116.191 Y59.725 E4.96575 F900.000
G1 F1980.000 E0.96575
G92 E0
G1 X116.448 Y60.439 F6000.000
G1 E4.00000 F1980.000
G1 X99.025 Y43.015 E5.02271 F900.000
G1 X98.373 Y42.820 E5.05095
G1 X116.643 Y61.090 E6.12336
G1 X116.830 Y61.734 E6.15118
G1 X97.729 Y42.633 E7.27235
G1 X97.104 Y42.464 E7.29925
G1 X116.999 Y62.360 E8.46706
G1 X117.131 Y62.948 E8.49207
G1 X96.516 Y42.333 E9.70211
G1 X95.928 Y42.201 E9.72712
G1 X117.262 Y63.536 E10.97940
G1 X117.372 Y64.102 E11.00335
G1 X95.361 Y42.091 E12.29532
G1 X94.819 Y42.005 E12.31812
G1 X117.458 Y64.645 E13.64698
G1 X117.544 Y65.187 E13.66978
G1 X94.276 Y41.919 E15.03554
G1 X93.748 Y41.848 E15.05765
G1 X117.616 Y65.716 E16.45866
G1 X117.664 Y66.221 E16.47968
G1 X93.247 Y41.803 E17.91290
G1 X92.746 Y41.759 E17.93379
G1 X117.712 Y66.725 E19.39924
G1 X117.759 Y67.229 E19.42026
G1 X92.244 Y41.714 E20.91792
G1 X91.762 Y41.688 E20.93799
G1 X117.775 Y67.702 E22.46493
G1 X117.790 Y68.173 E22.48451
