; generated by Slic3r 1.1.7 on 2015-03-04 at 15:45:08

; perimeters extrusion width = 0.40mm
; infill extrusion width = 0.44mm
; solid infill extrusion width = 0.44mm
; top infill extrusion width = 0.44mm

G21 ; set units to millimeters
M190 S60 ; wait for bed temperature to be reached
M104 S230 ; set temperature
M106 S255; Turn on Fan fully
G28 ; home all axes Start of G Code Slic3r
 
  
M109 S230 ; wait for temperature to be reached
G90 ; use absolute coordinates
G92 E0
M82 ; use absolute distances for extrusion
M106 S255
G1 F1980.000 E-2.00000
G92 E0
G1 Z0.294 F6000.000
G1 X68.950 Y70.081 F6000.000
G1 E4.00000 F1980.000
G1 X70.718 Y68.498 E4.17842 F1800.000
G1 X72.910 Y67.586 E4.35684
G1 X74.500 Y67.406 E4.47708
G1 X125.500 Y67.406 E8.31018
G1 X127.840 Y67.803 E8.48860
G1 X129.919 Y68.950 E8.66702 F1800.000
G1 X131.502 Y70.718 E8.84544
G1 X132.414 Y72.910 E9.02386
G1 X132.594 Y74.500 E9.14410
G1 X132.594 Y125.500 E12.97720
G1 X132.197 Y127.840 E13.15562
G1 X131.050 Y129.919 E13.33404
G1 X129.282 Y131.502 E13.51246
G1 X127.090 Y132.414 E13.69088
G1 X125.500 Y132.594 E13.81112
G1 X74.500 Y132.594 E17.64422
G1 X72.160 Y132.197 E17.82264
G1 X70.081 Y131.050 E18.00106
G1 X68.498 Y129.282 E18.17948
G1 X67.586 Y127.090 E18.35790
G1 X67.406 Y125.500 E18.47814
G1 X67.406 Y74.500 E22.31124
G1 X67.803 Y72.160 E22.48966
G1 X68.921 Y70.134 E22.66357
G1 F1980.000 E20.66357
G92 E0
G1 X69.443 Y70.367 F6000.000
G1 E4.00000 F1980.000
G1 X69.492 Y70.282 E4.00737 F1800.000
G1 X71.242 Y68.821 E4.17872
G1 X74.500 Y67.953 E4.43210
G1 X125.500 Y67.953 E8.26519
G1 X127.745 Y68.350 E8.43654
G1 X129.718 Y69.492 E8.60790 F1800.000
G1 X131.179 Y71.242 E8.77925
G1 X132.047 Y74.500 E9.03263
G1 X132.047 Y125.500 E12.86572
G1 X131.650 Y127.745 E13.03707
G1 X130.508 Y129.718 E13.20842
G1 X128.758 Y131.179 E13.37977
G1 X125.500 Y132.047 E13.63316
G1 X74.500 Y132.047 E17.46625
G1 X72.255 Y131.650 E17.63760
G1 X70.282 Y130.508 E17.80895
G1 X68.821 Y128.758 E17.98030
G1 X67.953 Y125.500 E18.23368
G1 X67.953 Y74.500 E22.06678
G1 X68.350 Y72.255 E22.23813
G1 X69.413 Y70.419 E22.39760
G1 F1980.000 E20.39760
G92 E0
G1 X125.206 Y125.206 F6000.000
G1 E4.00000 F1980.000
G1 X74.794 Y125.206 E7.78895 F441.000
G1 X74.794 Y74.794 E11.57789
G1 X125.206 Y74.794 E15.36684
G1 X125.206 Y125.146 E19.15127
G1 X124.860 Y125.006 F6000.000
G1 X124.659 Y124.659 F6000.000
G1 X75.341 Y124.659 E22.85797 F630.000
G1 X75.341 Y75.341 E26.56466
G1 X124.659 Y75.341 E30.27136
G1 X124.659 Y124.599 E33.97354
G1 X106.142 Y115.607 F6000.000
G1 X106.047 Y115.761 E33.98712 F441.000
G1 X105.931 Y115.899 E34.00070
G1 X105.797 Y116.020 E34.01424
G1 X105.647 Y116.121 E34.02781
G1 X105.400 Y116.231 E34.04815
G1 X105.225 Y116.274 E34.06172
G1 X105.045 Y116.293 E34.07528
G1 X104.865 Y116.287 E34.08885
G1 X104.687 Y116.255 E34.10241
G1 X104.419 Y116.156 E34.12389
G1 X104.134 Y115.962 E34.14980
G1 X104.009 Y115.832 E34.16337
G1 X103.903 Y115.686 E34.17695
G1 X103.784 Y115.442 E34.19728
G1 X103.734 Y115.269 E34.21084
G1 X103.709 Y115.090 E34.22441
G1 X103.709 Y114.910 E34.23797
G1 X103.734 Y114.731 E34.25154
G1 X103.784 Y114.557 E34.26511
G1 X103.858 Y114.393 E34.27868
G1 X103.953 Y114.240 E34.29224
G1 X104.069 Y114.101 E34.30582
G1 X104.203 Y113.980 E34.31938
G1 X104.353 Y113.880 E34.33294
G1 X104.600 Y113.769 E34.35328
G1 X104.775 Y113.726 E34.36685
G1 X104.955 Y113.707 E34.38040
G1 X105.135 Y113.713 E34.39398 F441.000
G1 X105.313 Y113.745 E34.40753
G1 X105.567 Y113.837 E34.42788
G1 X105.724 Y113.927 E34.44144
G1 X105.866 Y114.038 E34.45500
G1 X105.991 Y114.168 E34.46857
G1 X106.097 Y114.314 E34.48215
G1 X106.216 Y114.558 E34.50247
G1 X106.266 Y114.731 E34.51604
G1 X106.291 Y114.910 E34.52960
G1 X106.291 Y115.090 E34.54318
G1 X106.266 Y115.269 E34.55674
G1 X106.169 Y115.553 E34.57932
G1 F1980.000 E32.57932
G92 E0
G1 X104.917 Y113.530 F6000.000
G1 X106.634 Y115.847 F6000.000
G1 E4.00000 F1980.000
G1 X106.411 Y116.184 E4.03038 F630.000
G1 X106.232 Y116.369 E4.04971
G1 X106.030 Y116.527 E4.06900
G1 X105.807 Y116.655 E4.08829
G1 X105.569 Y116.751 E4.10763
G1 X105.320 Y116.813 E4.12693
G1 X105.064 Y116.840 E4.14622
G1 X104.807 Y116.831 E4.16554
G1 X104.555 Y116.787 E4.18482
G1 X104.310 Y116.707 E4.20416
G1 X104.079 Y116.595 E4.22348
G1 X103.866 Y116.451 E4.24276
G1 X103.676 Y116.279 E4.26205
G1 X103.510 Y116.082 E4.28140
G1 X103.374 Y115.865 E4.30069
G1 X103.270 Y115.630 E4.32001
G1 X103.199 Y115.383 E4.33931
G1 X103.163 Y115.128 E4.35864
G1 X103.163 Y114.872 E4.37790
G1 X103.230 Y114.493 E4.40685
G1 X103.318 Y114.251 E4.42616
G1 X103.438 Y114.024 E4.44546
G1 X103.589 Y113.816 E4.46479
G1 X103.768 Y113.631 E4.48412
G1 X103.970 Y113.474 E4.50339
G1 X104.193 Y113.345 E4.52270
G1 X104.431 Y113.249 E4.54202
G1 X104.681 Y113.187 E4.56135
G1 X104.936 Y113.160 E4.58062
G1 X105.158 Y113.166 E4.59738
G1 X105.569 Y113.249 E4.62883 F630.000
G1 X105.807 Y113.345 E4.64817
G1 X106.030 Y113.473 E4.66747
G1 X106.324 Y113.720 E4.69637
G1 X106.490 Y113.918 E4.71570
G1 X106.626 Y114.136 E4.73504
G1 X106.730 Y114.370 E4.75434
G1 X106.801 Y114.617 E4.77364
G1 X106.841 Y115.000 E4.80257
G1 X106.801 Y115.383 E4.83150
G1 X106.730 Y115.630 E4.85081
G1 X106.661 Y115.793 E4.86415
G1 X105.045 Y86.293 F6000.000
G1 X104.775 Y86.274 E4.88448 F441.000
G1 X104.586 Y86.225 E4.89921
G1 X104.353 Y86.120 E4.91840
G1 X104.134 Y85.962 E4.93870
G1 X103.999 Y85.820 E4.95342
G1 X103.858 Y85.608 E4.97260
G1 X103.756 Y85.357 E4.99294
G1 X103.709 Y85.090 E5.01327
G1 X103.719 Y84.820 E5.03360
G1 X103.784 Y84.557 E5.05393
G1 X103.903 Y84.314 E5.07425
G1 X104.059 Y84.113 E5.09344
G1 X104.203 Y83.980 E5.10815
G1 X104.433 Y83.837 E5.12848
G1 X104.687 Y83.745 E5.14882
G1 X104.955 Y83.707 E5.16913
G1 X105.225 Y83.726 E5.18947 F441.000
G1 X105.400 Y83.769 E5.20303
G1 X105.647 Y83.879 E5.22337
G1 X105.866 Y84.038 E5.24369
G1 X106.047 Y84.239 E5.26403
G1 X106.142 Y84.393 E5.27760
G1 X106.244 Y84.643 E5.29792
G1 X106.291 Y84.910 E5.31825
G1 X106.281 Y85.180 E5.33858
G1 X106.216 Y85.443 E5.35891
G1 X106.142 Y85.607 E5.37248
G1 X105.991 Y85.832 E5.39282
G1 X105.797 Y86.020 E5.41314
G1 X105.567 Y86.163 E5.43346
G1 X105.313 Y86.255 E5.45382
G1 X105.105 Y86.289 E5.46963
G1 F1980.000 E3.46963
G92 E0
G1 X104.955 Y83.436 F6000.000
G1 X105.084 Y86.839 F6000.000
G1 E4.00000 F1980.000
G1 X104.807 Y86.831 E4.02077 F630.000
G1 X104.431 Y86.751 E4.04966
G1 X104.079 Y86.594 E4.07867
G1 X103.768 Y86.369 E4.10753
G1 X103.510 Y86.082 E4.13649
G1 X103.318 Y85.749 E4.16544
G1 X103.199 Y85.383 E4.19437
G1 X103.159 Y85.000 E4.22329
G1 X103.199 Y84.617 E4.25221
G1 X103.318 Y84.251 E4.28115
G1 X103.510 Y83.918 E4.31009
G1 X103.768 Y83.631 E4.33905
G1 X104.079 Y83.406 E4.36791
G1 X104.431 Y83.249 E4.39692
G1 X104.807 Y83.169 E4.42581
G1 X105.158 Y83.166 E4.45220
G1 X105.445 Y83.213 E4.47402 F630.000
G1 X105.808 Y83.345 E4.50302
G1 X106.134 Y83.549 E4.53192
G1 X106.324 Y83.721 E4.55120
G1 X106.490 Y83.918 E4.57053
G1 X106.682 Y84.251 E4.59947
G1 X106.801 Y84.617 E4.62840
G1 X106.841 Y85.000 E4.65734
G1 X106.801 Y85.383 E4.68628
G1 X106.682 Y85.749 E4.71521
G1 X106.490 Y86.082 E4.74414
G1 X106.324 Y86.279 E4.76348
G1 X106.134 Y86.451 E4.78275
G1 X105.808 Y86.655 E4.81164
G1 X105.445 Y86.787 E4.84066
G1 X105.144 Y86.835 E4.86360
G1 F1980.000 E2.86360
G92 E0
G1 X98.621 Y75.718 F6000.000
G1 E4.00000 F1980.000
G1 X105.861 Y82.957 E4.76947 F1500.000
G1 X104.910 Y82.783 E4.84207
G1 X97.845 Y75.718 E5.59306
G1 X97.069 Y75.718 E5.65141
G1 X104.263 Y82.912 E6.41611
G1 X103.745 Y83.171 E6.45961
G1 X96.292 Y75.718 E7.25180
G1 X95.516 Y75.718 E7.31016
G1 X103.337 Y83.539 E8.14145
G1 X103.026 Y84.004 E8.18352
G1 X94.739 Y75.718 E9.06427
G1 X93.963 Y75.718 E9.12262
G1 X102.824 Y84.579 E10.06448
G1 X102.816 Y85.347 E10.12225
G1 X93.187 Y75.718 E11.14581
G1 X92.410 Y75.718 E11.20416
G1 X124.282 Y107.590 E14.59188
G1 X124.282 Y106.813 E14.65024
G1 X104.649 Y87.180 E16.73704
G1 X105.422 Y87.176 E16.79508
G1 X124.282 Y106.037 E18.79980
G1 X124.282 Y105.261 E18.85816
G1 X105.995 Y86.974 E20.80189
G1 X106.464 Y86.666 E20.84402
G1 X124.282 Y104.484 E22.73797
G1 X124.282 Y103.708 E22.79632
G1 X106.827 Y86.253 E24.65162
G1 X107.085 Y85.734 E24.69516
G1 X124.282 Y102.931 E26.52310
G1 X124.282 Y102.155 E26.58145
G1 X107.212 Y85.085 E28.39584
G1 X107.031 Y84.127 E28.46911
G1 X124.282 Y101.379 E30.30278
G1 X124.282 Y100.602 E30.36114
G1 X99.398 Y75.718 E33.00614
G1 X100.174 Y75.718 E33.06450
G1 X124.282 Y99.826 E35.62698
G1 X124.282 Y99.050 E35.68534
G1 X100.951 Y75.718 E38.16530
G1 X101.727 Y75.718 E38.22365
G1 X124.282 Y98.273 E40.62109
G1 X124.282 Y97.497 E40.67944
G1 X102.503 Y75.718 E42.99436
G1 X103.280 Y75.718 E43.05271
G1 X124.282 Y96.720 E45.28510
G1 X124.282 Y95.944 E45.34345
G1 X104.056 Y75.718 E47.49332
G1 X104.832 Y75.718 E47.55167
G1 X124.282 Y95.168 E49.61902
G1 X124.282 Y94.391 E49.67737
G1 X105.609 Y75.718 E51.66219
G1 X106.385 Y75.718 E51.72054
G1 X124.282 Y93.615 E53.62284
G1 X124.282 Y92.838 E53.68119
G1 X107.162 Y75.718 E55.50097
G1 X107.938 Y75.718 E55.55932
G1 X124.282 Y92.062 E57.29657
G1 X124.282 Y91.286 E57.35492
G1 X108.714 Y75.718 E59.00965
G1 X109.491 Y75.718 E59.06800
G1 X124.282 Y90.509 E60.64020
G1 X124.282 Y89.733 E60.69855
G1 X110.267 Y75.718 E62.18823
G1 X111.044 Y75.718 E62.24658
G1 X124.282 Y88.956 E63.65374
G1 X124.282 Y88.180 E63.71209
G1 X111.820 Y75.718 E65.03672
G1 X112.596 Y75.718 E65.09507
G1 X124.282 Y87.404 E66.33718
G1 X124.282 Y86.627 E66.39553
G1 X113.373 Y75.718 E67.55512
G1 X114.149 Y75.718 E67.61347
G1 X124.282 Y85.851 E68.69053
G1 X124.282 Y85.074 E68.74888
G1 X114.926 Y75.718 E69.74342
G1 X115.702 Y75.718 E69.80177
G1 X124.282 Y84.298 E70.71378
G1 X124.282 Y83.522 E70.77214
G1 X116.478 Y75.718 E71.60163
G1 X117.255 Y75.718 E71.65998
G1 X124.282 Y82.745 E72.40694
G1 X124.282 Y81.969 E72.46530
G1 X118.031 Y75.718 E73.12974
G1 X118.808 Y75.718 E73.18809
G1 X124.282 Y81.192 E73.77001
G1 X124.282 Y80.416 E73.82836
G1 X119.584 Y75.718 E74.32776
G1 X120.360 Y75.718 E74.38611
G1 X124.282 Y79.640 E74.80298
G1 X124.282 Y78.863 E74.86133
G1 X121.137 Y75.718 E75.19568
G1 X121.913 Y75.718 E75.25403
G1 X124.282 Y78.087 E75.50585
G1 X124.282 Y77.310 E75.56421
G1 X122.690 Y75.718 E75.73351
G1 X123.466 Y75.718 E75.79186
G1 X124.282 Y76.534 E75.87863
G1 X124.282 Y75.758 E75.93699
G1 X124.242 Y75.718 E75.94124
G1 X91.634 Y75.718 F6000.000
G1 X124.282 Y108.366 E79.41148 F1500.000
G1 X124.282 Y109.143 E79.46984
G1 X90.857 Y75.718 E83.02261
G1 X90.081 Y75.718 E83.08096
G1 X124.282 Y109.919 E86.71625
G1 X124.282 Y110.695 E86.77461
G1 X89.305 Y75.718 E90.49242
G1 X88.528 Y75.718 E90.55078
G1 X124.282 Y111.472 E94.35112
G1 X124.282 Y112.248 E94.40947
G1 X87.752 Y75.718 E98.29234
G1 X86.975 Y75.718 E98.35069
G1 X124.282 Y113.025 E102.31608
G1 X124.282 Y113.801 E102.37443
G1 X86.199 Y75.718 E106.42234
G1 X85.423 Y75.718 E106.48069
G1 X124.282 Y114.577 E110.61113
G1 X124.282 Y115.354 E110.66948
G1 X84.646 Y75.718 E114.88244
G1 X83.870 Y75.718 E114.94079
G1 X124.282 Y116.130 E119.23628
G1 X124.282 Y116.907 E119.29463
G1 X83.093 Y75.718 E123.67264
G1 X82.317 Y75.718 E123.73099
G1 X124.282 Y117.683 E128.19152
G1 X124.282 Y118.459 E128.24987
G1 X81.541 Y75.718 E132.79293
G1 X80.764 Y75.718 E132.85128
G1 X124.282 Y119.236 E137.47686
G1 X124.282 Y120.012 E137.53521
G1 X79.988 Y75.718 E142.24331
G1 X79.211 Y75.718 E142.30166
G1 X124.282 Y120.789 E147.09229
G1 X124.282 Y121.565 E147.15064
G1 X78.435 Y75.718 E152.02379
G1 X77.659 Y75.718 E152.08214
G1 X124.282 Y122.341 E157.03781
G1 X124.282 Y123.118 E157.09617
G1 X76.882 Y75.718 E162.13436
G1 X76.106 Y75.718 E162.19272
G1 X124.282 Y123.894 E167.31344
G1 X123.894 Y124.282 E167.35470
G1 X75.718 Y76.106 E172.47542
G1 X75.718 Y76.882 E172.53377
G1 X123.118 Y124.282 E177.57196
G1 X122.341 Y124.282 E177.63032
G1 X75.718 Y77.659 E182.58599
G1 X75.718 Y78.435 E182.64434
G1 X121.565 Y124.282 E187.51749
G1 X120.789 Y124.282 E187.57584
G1 X75.718 Y79.211 E192.36647
G1 X75.718 Y79.988 E192.42482
G1 X120.012 Y124.282 E197.13292
G1 X119.236 Y124.282 E197.19128
G1 X75.718 Y80.764 E201.81685
G1 X75.718 Y81.541 E201.87521
G1 X118.459 Y124.282 E206.41826
G1 X117.683 Y124.282 E206.47661
G1 X75.718 Y82.317 E210.93714
G1 X75.718 Y83.093 E210.99550
G1 X105.459 Y112.835 E214.15673
G1 X104.665 Y112.817 E214.21640
G1 X75.718 Y83.870 E217.29326
G1 X75.718 Y84.646 E217.35161
G1 X104.067 Y112.995 E220.36487
G1 X103.593 Y113.298 E220.40712
G1 X75.718 Y85.423 E223.37003
G1 X75.718 Y86.199 E223.42838
G1 X103.216 Y113.697 E226.35119
G1 X102.938 Y114.195 E226.39407
G1 X75.718 Y86.975 E229.28729
G1 X75.718 Y87.752 E229.34564
G1 X102.798 Y114.832 E232.22398
G1 X102.914 Y115.724 E232.29163
G1 X75.718 Y88.528 E235.18232
G1 X75.718 Y89.305 E235.24068
G1 X110.695 Y124.282 E238.95849
G1 X111.472 Y124.282 E239.01685
G1 X104.284 Y117.095 E239.78080
G1 X105.168 Y117.202 E239.84766
G1 X112.248 Y124.282 E240.60027
G1 X113.025 Y124.282 E240.65862
G1 X105.802 Y117.060 E241.42631
G1 X106.302 Y116.783 E241.46925
G1 X113.801 Y124.282 E242.26633
G1 X114.577 Y124.282 E242.32469
G1 X106.703 Y116.408 E243.16164
G1 X107.009 Y115.937 E243.20384
G1 X115.354 Y124.282 E244.09087
G1 X116.130 Y124.282 E244.14922
G1 X107.185 Y115.337 E245.09998
G1 X107.160 Y114.536 E245.16028
G1 X116.907 Y124.282 E246.19628
G1 X109.919 Y124.282 F6000.000
G1 X75.718 Y90.081 E249.83157 F1500.000
G1 X75.718 Y90.857 E249.88993
G1 X109.143 Y124.282 E253.44270
G1 X108.366 Y124.282 E253.50105
G1 X75.718 Y91.634 E256.97130
G1 X75.718 Y92.410 E257.02965
G1 X107.590 Y124.282 E260.41737
G1 X106.813 Y124.282 E260.47572
G1 X75.718 Y93.187 E263.78092
G1 X75.718 Y93.963 E263.83928
G1 X106.037 Y124.282 E267.06195
G1 X105.261 Y124.282 E267.12030
G1 X75.718 Y94.739 E270.26045
G1 X75.718 Y95.516 E270.31881
G1 X104.484 Y124.282 E273.37644
G1 X103.708 Y124.282 E273.43479
G1 X75.718 Y96.292 E276.40989
G1 X75.718 Y97.069 E276.46825
G1 X102.931 Y124.282 E279.36083
G1 X102.155 Y124.282 E279.41918
G1 X75.718 Y97.845 E282.22924
G1 X75.718 Y98.621 E282.28759
G1 X101.379 Y124.282 E285.01512
G1 X100.602 Y124.282 E285.07347
G1 X75.718 Y99.398 E287.71848
G1 X75.718 Y100.174 E287.77684
G1 X99.826 Y124.282 E290.33932
G1 X99.050 Y124.282 E290.39767
G1 X75.718 Y100.950 E292.87764
G1 X75.718 Y101.727 E292.93599
G1 X98.273 Y124.282 E295.33343
G1 X97.497 Y124.282 E295.39178
G1 X75.718 Y102.503 E297.70670
G1 X75.718 Y103.280 E297.76505
G1 X96.720 Y124.282 E299.99744
G1 X95.944 Y124.282 E300.05579
G1 X75.718 Y104.056 E302.20566
G1 X75.718 Y104.832 E302.26401
G1 X95.168 Y124.282 E304.33136
G1 X94.391 Y124.282 E304.38971
G1 X75.718 Y105.609 E306.37453
G1 X75.718 Y106.385 E306.43288
G1 X93.615 Y124.282 E308.33518
G1 X92.838 Y124.282 E308.39353
G1 X75.718 Y107.162 E310.21330
G1 X75.718 Y107.938 E310.27166
G1 X92.062 Y124.282 E312.00890
G1 X91.286 Y124.282 E312.06726
G1 X75.718 Y108.714 E313.72198
G1 X75.718 Y109.491 E313.78034
G1 X90.509 Y124.282 E315.35254
G1 X89.733 Y124.282 E315.41089
G1 X75.718 Y110.267 E316.90057
G1 X75.718 Y111.044 E316.95892
G1 X88.956 Y124.282 E318.36607
G1 X88.180 Y124.282 E318.42443
G1 X75.718 Y111.820 E319.74906
G1 X75.718 Y112.596 E319.80741
G1 X87.404 Y124.282 E321.04952
G1 X86.627 Y124.282 E321.10787
G1 X75.718 Y113.373 E322.26745
G1 X75.718 Y114.149 E322.32581
G1 X85.851 Y124.282 E323.40287
G1 X85.074 Y124.282 E323.46122
G1 X75.718 Y114.926 E324.45576
G1 X75.718 Y115.702 E324.51411
G1 X84.298 Y124.282 E325.42612
G1 X83.522 Y124.282 E325.48447
G1 X75.718 Y116.478 E326.31396
G1 X75.718 Y117.255 E326.37231
G1 X82.745 Y124.282 E327.11928
G1 X81.969 Y124.282 E327.17763
G1 X75.718 Y118.031 E327.84207
G1 X75.718 Y118.808 E327.90043
G1 X81.192 Y124.282 E328.48234
G1 X80.416 Y124.282 E328.54070
G1 X75.718 Y119.584 E329.04009
G1 X75.718 Y120.360 E329.09844
G1 X79.640 Y124.282 E329.51531
G1 X78.863 Y124.282 E329.57367
G1 X75.718 Y121.137 E329.90801
G1 X75.718 Y121.913 E329.96637
G1 X78.087 Y124.282 E330.21819
G1 X77.310 Y124.282 E330.27654
G1 X75.718 Y122.690 E330.44584
G1 X75.718 Y123.466 E330.50419
G1 X76.534 Y124.282 E330.59097
G1 X75.758 Y124.282 E330.64932
G1 X75.718 Y124.242 E330.65357
