; generated by Slic3r 1.1.7 on 2014-12-09 at 18:21:02

; perimeters extrusion width = 0.42mm
; infill extrusion width = 0.74mm
; solid infill extrusion width = 0.71mm
; top infill extrusion width = 0.71mm
; support material extrusion width = 0.42mm

G21 ; set units to millimeters
M190 S60 ; wait for bed temperature to be reached
M104 S186 ; set temperature
G28 ; home all axes
M109 S186 ; wait for temperature to be reached
G90 ; use absolute coordinates
G92 E0
M82 ; use absolute distances for extrusion
G1 F1860.000 E-3.00000
G92 E0
G1 Z0.200 F6000.000
G1 X80.550 Y75.710 F6000.000
G1 E3.10000 F1860.000
G1 X82.307 Y74.204 E3.14280 F1200.000
G1 X84.469 Y73.381 E3.18561
G1 X85.750 Y73.258 E3.20942
G1 X106.250 Y73.258 E3.58867
G1 X108.529 Y73.655 E3.63147
G1 X110.540 Y74.800 E3.67428 F1200.000
G1 X112.350 Y77.129 E3.72885
G1 X120.350 Y94.129 E4.07644
G1 X120.992 Y97.000 E4.13086
G1 X120.992 Y117.000 E4.50086
G1 X120.595 Y119.279 E4.54367
G1 X119.450 Y121.290 E4.58647
G1 X117.693 Y122.796 E4.62928
G1 X116.617 Y123.312 E4.65136
G1 X108.617 Y126.312 E4.80943
G1 X106.250 Y126.742 E4.85393
G1 X85.750 Y126.742 E5.23319
G1 X83.471 Y126.345 E5.27599
G1 X81.460 Y125.200 E5.31880
G1 X79.954 Y123.443 E5.36160
G1 X79.131 Y121.281 E5.40441
G1 X79.008 Y120.000 E5.42821
G1 X79.008 Y80.000 E6.16822
G1 X79.405 Y77.721 E6.21103
G1 X80.519 Y75.764 E6.25266
G1 X80.773 Y75.840 F6000.000
G1 X80.795 Y75.802 E6.25347 F1200.000
G1 X82.543 Y74.353 E6.29547
G1 X85.750 Y73.506 E6.35685
G1 X106.250 Y73.506 E6.73610
G1 X108.486 Y73.902 E6.77811
G1 X110.448 Y75.045 E6.82011 F1200.000
G1 X112.126 Y77.235 E6.87116
G1 X120.126 Y94.235 E7.21874
G1 X120.744 Y97.000 E7.27117
G1 X120.744 Y117.000 E7.64117
G1 X120.348 Y119.236 E7.68318
G1 X119.205 Y121.198 E7.72518
G1 X116.530 Y123.081 E7.78570
G1 X108.530 Y126.081 E7.94377
G1 X106.250 Y126.494 E7.98664
G1 X85.750 Y126.494 E8.36590
G1 X83.514 Y126.098 E8.40790
G1 X81.552 Y124.955 E8.44991
G1 X80.103 Y123.207 E8.49191
G1 X79.256 Y120.000 E8.55329
G1 X79.256 Y80.000 E9.29329
G1 X79.652 Y77.764 E9.33530
G1 X80.741 Y75.894 E9.37534
G1 X80.995 Y75.972 F6000.000
G1 X81.040 Y75.896 E9.37696 F1200.000
G1 X82.778 Y74.505 E9.41815
G1 X85.750 Y73.753 E9.47487
G1 X106.250 Y73.753 E9.85412
G1 X108.441 Y74.150 E9.89532
G1 X110.354 Y75.290 E9.93651 F1200.000
G1 X111.903 Y77.340 E9.98405
G1 X119.903 Y94.340 E10.33164
G1 X120.497 Y97.000 E10.38206
G1 X120.497 Y117.000 E10.75207
G1 X120.100 Y119.191 E10.79326
G1 X118.960 Y121.104 E10.83445
G1 X116.444 Y122.849 E10.89112
G1 X108.444 Y125.849 E11.04919
G1 X106.250 Y126.247 E11.09043
G1 X85.750 Y126.247 E11.46968
G1 X83.559 Y125.850 E11.51088
G1 X81.646 Y124.710 E11.55207
G1 X80.255 Y122.972 E11.59326
G1 X79.503 Y120.000 E11.64998
G1 X79.503 Y80.000 E12.38999
G1 X79.900 Y77.809 E12.43118
G1 X80.962 Y76.026 E12.46959
G1 F1860.000 E9.46959
G92 E0
G1 X103.958 Y98.458 F6000.000
G1 E3.10000 F1860.000
G1 X100.542 Y98.458 E3.16319 F1200.000
G1 X98.835 Y95.500 E3.22637
G1 X100.542 Y92.542 E3.28956
G1 X103.958 Y92.542 E3.35275
G1 X105.665 Y95.500 E3.41593
G1 X103.989 Y98.403 E3.47796
G1 X103.885 Y98.871 F6000.000
G1 F1860.000 E0.47796
G92 E0
G1 X98.835 Y105.000 F6000.000
G1 E3.10000 F1860.000
G1 X100.542 Y102.042 E3.16319 F1200.000
G1 X103.958 Y102.042 E3.22637
G1 X105.665 Y105.000 E3.28956
G1 X103.958 Y107.958 E3.35275
G1 X100.542 Y107.958 E3.41593
G1 X98.866 Y105.055 E3.47796
G1 X98.513 Y104.730 F6000.000
G1 F1860.000 E0.47796
G92 E0
G1 X106.903 Y103.597 F6000.000
G1 E3.10000 F1860.000
G1 X106.903 Y101.403 E3.14060 F1200.000
G1 X110.597 Y101.403 E3.20894
G1 X110.597 Y103.597 E3.24954
G1 X106.966 Y103.597 E3.31672
G1 X107.150 Y103.350 F6000.000
G1 X107.150 Y101.650 E3.34817 F1200.000
G1 X110.350 Y101.650 E3.40738
G1 X110.350 Y103.350 E3.43883
G1 X107.213 Y103.350 E3.49686
G1 X106.730 Y103.350 F6000.000
G1 F1860.000 E0.49686
G92 E0
G1 X106.903 Y110.903 F6000.000
G1 E3.10000 F1860.000
G1 X110.597 Y110.903 E3.16835 F1200.000
G1 X110.597 Y113.097 E3.20894
G1 X106.903 Y113.097 E3.27729
G1 X106.903 Y110.966 E3.31672
G1 X107.150 Y111.150 F6000.000
G1 X110.350 Y111.150 E3.37593 F1200.000
G1 X110.350 Y112.850 E3.40738
G1 X107.150 Y112.850 E3.46658
G1 X107.150 Y111.213 E3.49686
G1 X107.150 Y110.730 F6000.000
G1 F1860.000 E0.49686
G92 E0
G1 X104.100 Y108.205 F6000.000
G1 E3.10000 F1860.000
G1 X105.951 Y105.000 E3.16847 F1200.000
G1 X104.100 Y101.795 E3.23694
G1 X100.400 Y101.795 E3.30540
G1 X98.744 Y104.663 E3.36667
G1 X98.597 Y104.623 E3.36947
G1 X98.597 Y95.877 E3.53129
G1 X98.744 Y95.837 E3.53410
G1 X100.400 Y98.705 E3.59536
G1 X104.100 Y98.705 E3.66383
G1 X105.756 Y95.837 E3.72510
G1 X105.903 Y95.877 E3.72790
G1 X105.903 Y97.347 E3.75511
G1 X113.903 Y97.347 E3.90311
G1 X113.903 Y116.653 E4.26027
G1 X105.903 Y116.653 E4.40827
G1 X105.903 Y119.653 E4.46377
G1 X98.597 Y119.653 E4.59893
G1 X98.597 Y105.377 E4.86304
G1 X98.744 Y105.337 E4.86585
G1 X100.400 Y108.205 E4.92711
G1 X104.037 Y108.205 E4.99441
G1 F1860.000 E1.99441
G92 E0
G1 X105.903 Y95.123 F6000.000
G1 E3.10000 F1860.000
G1 X105.756 Y95.163 E3.10281 F1200.000
G1 X104.100 Y92.295 E3.16407
G1 X100.400 Y92.295 E3.23254
G1 X98.744 Y95.163 E3.29380
G1 X98.597 Y95.123 E3.29661
G1 X98.597 Y80.347 E3.56997
G1 X105.903 Y80.347 E3.70513
G1 X105.903 Y95.060 E3.97733
G1 F1860.000 E0.97733
G92 E0
G1 X106.150 Y97.100 F6000.000
G1 E3.10000 F1860.000
G1 X114.150 Y97.100 E3.24800 F1200.000
G1 X114.150 Y116.900 E3.61431
G1 X106.150 Y116.900 E3.76231
G1 X106.150 Y119.900 E3.81781
G1 X98.350 Y119.900 E3.96211
G1 X98.350 Y80.100 E4.69842
G1 X106.150 Y80.100 E4.84272
G1 X106.150 Y97.037 E5.15606
G1 X106.150 Y97.520 F6000.000
G1 X105.744 Y97.277 F6000.000
G1 X105.341 Y96.874 E5.16658 F1200.000
G1 X105.470 Y96.652 E5.17134
G1 X105.744 Y96.925 E5.17850
G1 X105.744 Y96.574 E5.18500
G1 X105.599 Y96.429 E5.18880
G1 F1860.000 E2.18880
G92 E0
G1 X100.655 Y98.864 F6000.000
G1 E3.10000 F1860.000
G1 X103.427 Y101.636 E3.17251 F1200.000
G1 X103.778 Y101.636 E3.17901
G1 X101.006 Y98.864 E3.25152
G1 X101.358 Y98.864 E3.25802
G1 X113.744 Y111.250 E3.58207
G1 X113.744 Y111.601 F6000.000
G1 X104.759 Y102.616 E3.81715 F1200.000
G1 X105.239 Y103.448 F6000.000
G1 X113.744 Y111.953 E4.03966 F1200.000
G1 X113.744 Y112.304 E4.04616
G1 X105.719 Y104.279 E4.25612
G1 X106.118 Y105.030 F6000.000
G1 X113.744 Y112.656 E4.45564 F1200.000
G1 X113.744 Y113.007 E4.46214
G1 X105.989 Y105.252 E4.66503
G1 X105.860 Y105.475 E4.66979
G1 X113.744 Y113.358 E4.87603
G1 X113.744 Y113.710 E4.88253
G1 X105.732 Y105.698 E5.09215
G1 F1860.000 E2.09215
G92 E0
G1 X99.815 Y107.512 F6000.000
G1 E3.10000 F1860.000
G1 X98.756 Y106.453 E3.12770 F1200.000
G1 X98.847 Y105.841 F6000.000
G1 X98.756 Y106.101 E3.13281 F1200.000
G1 X99.335 Y106.680 E3.14796
G1 X98.756 Y106.804 E3.15891
G1 X108.446 Y116.494 E3.41242
G1 X108.797 Y116.494 E3.41892
G1 X100.668 Y108.364 E3.63160
G1 X101.019 Y108.364 E3.63811
G1 X109.149 Y116.494 E3.85079
G1 X109.500 Y116.494 E3.85729
G1 X101.371 Y108.364 E4.06998
G1 X101.722 Y108.364 E4.07648
G1 X109.851 Y116.494 E4.28917
G1 X110.203 Y116.494 E4.29567
G1 X106.966 Y113.256 E4.38037
G1 X106.744 Y113.034 F6000.000
G1 X102.073 Y108.364 E4.50255 F1200.000
G1 X102.425 Y108.364 E4.50905
G1 X106.744 Y112.683 E4.62204
G1 X106.744 Y112.332 E4.62854
G1 X102.776 Y108.364 E4.73234
G1 X103.128 Y108.364 E4.73884
G1 X106.744 Y111.980 E4.83345
G1 X106.744 Y111.629 E4.83995
G1 X103.479 Y108.364 E4.92536
G1 X103.830 Y108.364 E4.93186
G1 X106.744 Y111.278 E5.00808
G1 X106.744 Y110.926 E5.01458
G1 X104.182 Y108.364 E5.08161
G1 X104.317 Y108.148 E5.08632
G1 X106.912 Y110.744 E5.15422
G1 X107.264 Y110.744 E5.16073
G1 X104.446 Y107.926 E5.23445
G1 X104.574 Y107.703 E5.23921
G1 X107.615 Y110.744 E5.31877
G1 X107.967 Y110.744 E5.32527
G1 X104.703 Y107.480 E5.41066
G1 X104.832 Y107.257 E5.41542
G1 X108.318 Y110.744 E5.50663
G1 X108.669 Y110.744 E5.51313
G1 X104.960 Y107.034 E5.61017
G1 X105.089 Y106.812 E5.61493
G1 X109.021 Y110.744 E5.71780
G1 X109.372 Y110.744 E5.72430
G1 X105.217 Y106.589 E5.83300
G1 X105.346 Y106.366 E5.83776
G1 X109.723 Y110.744 E5.95229
G1 X110.075 Y110.744 E5.95879
G1 X105.475 Y106.143 E6.07914
G1 X105.603 Y105.921 E6.08390
G1 X110.426 Y110.744 E6.21008
G1 X110.756 Y111.074 F6000.000
G1 X113.744 Y114.061 E6.28824 F1200.000
G1 X113.744 Y114.412 E6.29474
G1 X110.756 Y111.425 E6.37289
G1 X110.756 Y111.777 E6.37939
G1 X113.744 Y114.764 E6.45755
G1 X113.744 Y115.115 E6.46405
G1 X110.756 Y112.128 E6.54220
G1 X110.756 Y112.479 E6.54870
G1 X113.744 Y115.467 E6.62686
G1 X113.744 Y115.818 E6.63336
G1 X110.756 Y112.831 E6.71151
G1 X110.756 Y113.182 E6.71801
G1 X113.744 Y116.169 E6.79616
G1 X113.710 Y116.487 E6.80208
G1 X110.479 Y113.256 E6.88660
G1 X110.128 Y113.256 E6.89310
G1 X113.365 Y116.494 E6.97780
G1 X113.014 Y116.494 E6.98430
G1 X109.777 Y113.256 E7.06899
G1 X109.425 Y113.256 E7.07549
G1 X112.662 Y116.494 E7.16019
G1 X112.311 Y116.494 E7.16669
G1 X109.074 Y113.256 E7.25138
G1 X108.722 Y113.256 E7.25788
G1 X111.960 Y116.494 E7.34258
G1 X111.608 Y116.494 E7.34908
G1 X108.371 Y113.256 E7.43377
G1 X108.020 Y113.256 E7.44027
G1 X111.257 Y116.494 E7.52497
G1 X110.906 Y116.494 E7.53147
G1 X107.668 Y113.256 E7.61616
G1 X107.317 Y113.256 E7.62266
G1 X110.554 Y116.494 E7.70736
G1 F1860.000 E4.70736
G92 E0
G1 X108.095 Y116.494 F6000.000
G1 E3.10000 F1860.000
G1 X98.756 Y107.155 E3.34432 F1200.000
G1 X98.756 Y107.507 E3.35082
G1 X107.743 Y116.494 E3.58594
G1 X107.392 Y116.494 E3.59244
G1 X98.756 Y107.858 E3.81837
G1 X98.756 Y108.210 E3.82487
G1 X107.040 Y116.494 E4.04160
G1 X106.689 Y116.494 E4.04810
G1 X98.756 Y108.561 E4.25565
G1 X98.756 Y108.912 E4.26215
G1 X106.338 Y116.494 E4.46050
G1 X105.986 Y116.494 E4.46700
G1 X98.756 Y109.264 E4.65615
G1 X98.756 Y109.615 E4.66266
G1 X105.744 Y116.602 E4.84546
G1 X105.744 Y116.954 E4.85196
G1 X98.756 Y109.966 E5.03477
G1 X98.756 Y110.318 E5.04127
G1 X105.744 Y117.305 E5.22408
G1 X105.744 Y117.656 E5.23058
G1 X98.756 Y110.669 E5.41338
G1 X98.756 Y111.021 E5.41988
G1 X105.744 Y118.008 E5.60269
G1 X105.744 Y118.359 E5.60919
G1 X98.756 Y111.372 E5.79200
G1 X98.756 Y111.723 E5.79850
G1 X105.744 Y118.711 E5.98131
G1 X105.744 Y119.062 E5.98781
G1 X98.756 Y112.075 E6.17061
G1 X98.756 Y112.426 E6.17711
G1 X105.744 Y119.413 E6.35992
G1 X105.473 Y119.494 E6.36515
G1 X98.756 Y112.777 E6.54087
G1 X98.756 Y113.129 E6.54737
G1 X105.121 Y119.494 E6.71389
G1 X104.770 Y119.494 E6.72039
G1 X98.756 Y113.480 E6.87772
G1 X98.756 Y113.832 E6.88422
G1 X104.418 Y119.494 E7.03235
G1 X104.067 Y119.494 E7.03886
G1 X98.756 Y114.183 E7.17780
G1 X98.756 Y114.534 E7.18430
G1 X103.716 Y119.494 E7.31405
G1 X103.364 Y119.494 E7.32055
G1 X98.756 Y114.886 E7.44111
G1 X98.756 Y115.237 E7.44761
G1 X103.013 Y119.494 E7.55897
G1 X102.662 Y119.494 E7.56547
G1 X98.756 Y115.588 E7.66764
G1 X98.756 Y115.940 E7.67414
G1 X102.310 Y119.494 E7.76712
G1 X101.959 Y119.494 E7.77362
G1 X98.756 Y116.291 E7.85740
G1 X98.756 Y116.643 E7.86390
G1 X101.607 Y119.494 E7.93850
G1 X101.256 Y119.494 E7.94500
G1 X98.756 Y116.994 E8.01039
G1 X98.756 Y117.345 E8.01689
G1 X100.905 Y119.494 E8.07310
G1 X100.553 Y119.494 E8.07960
G1 X98.756 Y117.697 E8.12661
G1 X98.756 Y118.048 E8.13311
G1 X100.202 Y119.494 E8.17093
G1 X99.851 Y119.494 E8.17743
G1 X98.756 Y118.399 E8.20606
G1 X98.756 Y118.751 E8.21256
G1 X99.499 Y119.494 E8.23199
G1 X99.148 Y119.494 E8.23849
G1 X98.756 Y119.102 E8.24873
G1 X98.756 Y119.454 E8.25523
G1 X98.796 Y119.494 E8.25628
G1 F1860.000 E5.25628
G92 E0
G1 X98.756 Y103.993 F6000.000
G1 E3.10000 F1860.000
G1 X98.877 Y104.114 E3.10315 F1200.000
G1 X99.006 Y103.891 E3.10791
G1 X98.756 Y103.642 E3.11443
G1 X98.756 Y103.290 E3.12093
G1 X99.134 Y103.668 E3.13082
G1 X99.263 Y103.445 E3.13557
G1 X98.756 Y102.939 E3.14882
G1 X98.756 Y102.588 E3.15532
G1 X99.391 Y103.223 E3.17194
G1 X99.520 Y103.000 E3.17670
G1 X98.756 Y102.236 E3.19667
G1 X98.756 Y101.885 E3.20317
G1 X99.649 Y102.777 E3.22652
G1 X99.777 Y102.554 E3.23128
G1 X98.756 Y101.533 E3.25799
G1 X98.756 Y101.182 E3.26449
G1 X99.906 Y102.332 E3.29456
G1 X100.034 Y102.109 E3.29932
G1 X98.756 Y100.831 E3.33276
G1 X98.756 Y100.479 E3.33926
G1 X100.163 Y101.886 E3.37606
G1 X100.292 Y101.663 E3.38082
G1 X98.756 Y100.128 E3.42099
G1 X98.756 Y99.777 E3.42749
G1 X100.616 Y101.636 E3.47613
G1 X100.967 Y101.636 E3.48263
G1 X98.756 Y99.425 E3.54046
G1 X98.756 Y99.074 E3.54696
G1 X101.318 Y101.636 E3.61399
G1 X101.670 Y101.636 E3.62049
G1 X98.756 Y98.722 E3.69671
G1 X98.756 Y98.371 E3.70321
G1 X102.021 Y101.636 E3.78862
G1 X102.372 Y101.636 E3.79512
G1 X98.756 Y98.020 E3.88972
G1 X98.756 Y97.668 E3.89622
G1 X102.724 Y101.636 E4.00002
G1 X103.075 Y101.636 E4.00652
G1 X98.756 Y97.317 E4.11951
G1 X98.756 Y96.966 E4.12602
G1 X99.833 Y98.042 E4.15418
G1 X99.353 Y97.211 F6000.000
G1 X98.756 Y96.614 E4.16979 F1200.000
G1 X98.873 Y96.379 E4.17464
G1 X98.837 Y96.344 E4.17558
G1 F1860.000 E1.17558
G92 E0
G1 X113.704 Y97.506 F6000.000
G1 E3.10000 F1860.000
G1 X113.744 Y97.546 E3.10105 F1200.000
G1 X113.744 Y97.898 E3.10755
G1 X113.352 Y97.506 E3.11779
G1 X113.001 Y97.506 E3.12429
G1 X113.744 Y98.249 E3.14372
G1 X113.744 Y98.601 E3.15022
G1 X112.649 Y97.506 E3.17885
G1 X112.298 Y97.506 E3.18535
G1 X113.744 Y98.952 E3.22317
G1 X113.744 Y99.303 E3.22967
G1 X111.947 Y97.506 E3.27668
G1 X111.595 Y97.506 E3.28318
G1 X113.744 Y99.655 E3.33938
G1 X113.744 Y100.006 E3.34588
G1 X111.244 Y97.506 E3.41128
G1 X110.893 Y97.506 E3.41778
G1 X113.744 Y100.357 E3.49237
G1 X113.744 Y100.709 E3.49888
G1 X110.541 Y97.506 E3.58266
G1 X110.190 Y97.506 E3.58916
G1 X113.744 Y101.060 E3.68214
G1 X113.744 Y101.412 E3.68864
G1 X109.838 Y97.506 E3.79081
G1 X109.487 Y97.506 E3.79731
G1 X113.744 Y101.763 E3.90867
G1 X113.744 Y102.114 E3.91517
G1 X109.136 Y97.506 E4.03573
G1 X108.784 Y97.506 E4.04223
G1 X113.744 Y102.466 E4.17198
G1 X113.744 Y102.817 E4.17848
G1 X108.433 Y97.506 E4.31742
G1 X108.082 Y97.506 E4.32392
G1 X113.744 Y103.168 E4.47206
G1 X113.744 Y103.520 E4.47856
G1 X107.730 Y97.506 E4.63589
G1 X107.379 Y97.506 E4.64239
G1 X113.744 Y103.871 E4.80891
G1 X113.744 Y104.223 E4.81541
G1 X107.027 Y97.506 E4.99113
G1 X106.676 Y97.506 E4.99763
G1 X110.413 Y101.244 E5.09541
G1 X110.062 Y101.244 E5.10191
G1 X106.325 Y97.506 E5.19968
G1 X105.973 Y97.506 E5.20618
G1 X109.711 Y101.244 E5.30396
G1 X109.359 Y101.244 E5.31046
G1 X105.213 Y97.097 E5.41894
G1 X105.084 Y97.320 E5.42370
G1 X109.008 Y101.244 E5.52636
G1 X108.656 Y101.244 E5.53286
G1 X104.955 Y97.543 E5.62969
G1 X104.827 Y97.765 E5.63445
G1 X108.305 Y101.244 E5.72545
G1 X107.954 Y101.244 E5.73195
G1 X104.698 Y97.988 E5.81712
G1 X104.570 Y98.211 E5.82188
G1 X107.602 Y101.244 E5.90122
G1 X107.251 Y101.244 E5.90772
G1 X104.441 Y98.434 E5.98124
G1 X104.312 Y98.656 E5.98600
G1 X106.900 Y101.244 E6.05369
G1 X106.744 Y101.439 E6.05831
G1 X104.169 Y98.864 E6.12567
G1 X103.817 Y98.864 E6.13217
G1 X106.744 Y101.790 E6.20873
G1 X106.744 Y102.142 E6.21523
G1 X103.466 Y98.864 E6.30098
G1 X103.115 Y98.864 E6.30748
G1 X106.744 Y102.493 E6.40242
G1 X106.744 Y102.845 E6.40892
G1 X102.763 Y98.864 E6.51306
G1 X102.412 Y98.864 E6.51956
G1 X106.744 Y103.196 E6.63289
G1 X106.744 Y103.547 E6.63939
G1 X102.061 Y98.864 E6.76191
G1 X101.709 Y98.864 E6.76841
G1 X113.744 Y110.899 E7.08327
G1 X113.744 Y110.547 E7.08977
G1 X106.953 Y103.756 E7.26744
G1 X107.304 Y103.756 E7.27394
G1 X113.744 Y110.196 E7.44242
G1 X113.744 Y109.845 E7.44892
G1 X107.655 Y103.756 E7.60821
G1 X108.007 Y103.756 E7.61471
G1 X113.744 Y109.493 E7.76480
G1 X113.744 Y109.142 E7.77130
G1 X108.358 Y103.756 E7.91220
G1 X108.710 Y103.756 E7.91870
G1 X113.744 Y108.790 E8.05040
G1 X113.744 Y108.439 E8.05690
G1 X109.061 Y103.756 E8.17941
G1 X109.412 Y103.756 E8.18592
G1 X113.744 Y108.088 E8.29923
G1 X113.744 Y107.736 E8.30574
G1 X109.764 Y103.756 E8.40986
G1 X110.115 Y103.756 E8.41636
G1 X113.744 Y107.385 E8.51129
G1 X113.744 Y107.034 E8.51780
G1 X110.466 Y103.756 E8.60353
G1 X110.756 Y103.695 E8.60902
G1 X113.744 Y106.682 E8.68717
G1 X113.744 Y106.331 E8.69367
G1 X110.756 Y103.344 E8.77183
G1 X110.756 Y102.992 E8.77833
G1 X113.744 Y105.979 E8.85648
G1 X113.744 Y105.628 E8.86298
