; generated by Slic3r 1.1.7 on 2014-12-09 at 20:40:51

; perimeters extrusion width = 0.42mm
; infill extrusion width = 0.74mm
; solid infill extrusion width = 0.71mm
; top infill extrusion width = 0.71mm
; support material extrusion width = 0.42mm

G21 ; set units to millimeters
M190 S65 ; wait for bed temperature to be reached
M104 S186 ; set temperature
G28 ; home all axes
M109 S186 ; wait for temperature to be reached
G90 ; use absolute coordinates
G92 E0
M82 ; use absolute distances for extrusion
G1 F1860.000 E-3.00000
G92 E0
G1 Z0.200 F6000.000
G1 X88.980 Y75.236 F6000.000
G1 E3.10000 F1860.000
G1 X90.872 Y73.904 E3.14280 F1200.000
G1 X93.750 Y73.258 E3.19738
G1 X114.250 Y73.258 E3.57663
G1 X116.529 Y73.655 E3.61944
G1 X118.540 Y74.800 E3.66224 F1200.000
G1 X120.046 Y76.557 E3.70505
G1 X120.869 Y78.719 E3.74785
G1 X120.992 Y80.000 E3.77166
G1 X120.992 Y120.000 E4.51167
G1 X120.595 Y122.279 E4.55447
G1 X119.450 Y124.290 E4.59728
G1 X117.693 Y125.796 E4.64008
G1 X115.531 Y126.619 E4.68288
G1 X114.250 Y126.742 E4.70669
G1 X93.750 Y126.742 E5.08595
G1 X91.383 Y126.312 E5.13045
G1 X83.383 Y123.312 E5.28852
G1 X81.388 Y122.140 E5.33132
G1 X79.907 Y120.363 E5.37413
G1 X79.114 Y118.189 E5.41693
G1 X79.008 Y117.000 E5.43902
G1 X79.008 Y97.000 E5.80902
G1 X79.650 Y94.129 E5.86344
G1 X87.650 Y77.129 E6.21103
G1 X88.944 Y75.288 E6.25266
G1 X89.185 Y75.381 F6000.000
G1 X91.054 Y74.092 E6.29467 F1200.000
G1 X93.750 Y73.506 E6.34571
G1 X114.250 Y73.506 E6.72497
G1 X116.486 Y73.902 E6.76698
G1 X118.448 Y75.045 E6.80898 F1200.000
G1 X119.897 Y76.793 E6.85099
G1 X120.744 Y80.000 E6.91236
G1 X120.744 Y120.000 E7.65237
G1 X120.348 Y122.236 E7.69437
G1 X119.205 Y124.198 E7.73638
G1 X117.457 Y125.647 E7.77839
G1 X114.250 Y126.494 E7.83976
G1 X93.750 Y126.494 E8.21901
G1 X91.470 Y126.081 E8.26189
G1 X83.470 Y123.081 E8.41995
G1 X81.516 Y121.924 E8.46196
G1 X80.079 Y120.166 E8.50397
G1 X79.256 Y117.000 E8.56448
G1 X79.256 Y97.000 E8.93449
G1 X79.874 Y94.235 E8.98691
G1 X87.874 Y77.235 E9.33450
G1 X89.148 Y75.432 E9.37534
G1 X89.389 Y75.526 F6000.000
G1 X91.235 Y74.281 E9.41653 F1200.000
G1 X93.750 Y73.753 E9.46407
G1 X114.250 Y73.753 E9.84332
G1 X116.441 Y74.150 E9.88452
G1 X118.354 Y75.290 E9.92571 F1200.000
G1 X119.745 Y77.028 E9.96690
G1 X120.497 Y80.000 E10.02362
G1 X120.497 Y120.000 E10.76363
G1 X120.100 Y122.191 E10.80482
G1 X118.960 Y124.104 E10.84601
G1 X117.222 Y125.495 E10.88721
G1 X114.250 Y126.247 E10.94392
G1 X93.750 Y126.247 E11.32318
G1 X91.556 Y125.849 E11.36442
G1 X83.556 Y122.849 E11.52249
G1 X81.644 Y121.709 E11.56368
G1 X80.254 Y119.970 E11.60487
G1 X79.503 Y117.000 E11.66154
G1 X79.503 Y97.000 E12.03155
G1 X80.097 Y94.340 E12.08197
G1 X88.097 Y77.340 E12.42956
G1 X89.353 Y75.578 E12.46959
G1 F1860.000 E9.46959
G92 E0
G1 X112.546 Y97.796 F6000.000
G1 E3.10000 F1860.000
G1 X112.310 Y98.010 E3.10590 F1200.000
G1 X112.054 Y98.200 E3.11179
G1 X111.781 Y98.364 E3.11769
G1 X111.493 Y98.500 E3.12358
G1 X111.193 Y98.608 E3.12948
G1 X110.884 Y98.685 E3.13538
G1 X110.568 Y98.732 E3.14127
G1 X110.250 Y98.748 E3.14717
G1 X109.932 Y98.732 E3.15306
G1 X109.616 Y98.685 E3.15896
G1 X109.307 Y98.608 E3.16486
G1 X109.007 Y98.500 E3.17075
G1 X108.719 Y98.364 E3.17665
G1 X108.446 Y98.200 E3.18255
G1 X108.190 Y98.010 E3.18844
G1 X107.954 Y97.796 E3.19434
G1 X107.721 Y97.535 E3.20081
G1 X107.550 Y97.304 E3.20613
G1 X107.386 Y97.031 E3.21202
G1 X107.250 Y96.743 E3.21792
G1 X107.142 Y96.443 E3.22382
G1 X107.060 Y96.103 E3.23029
G1 X107.018 Y95.818 E3.23561
G1 X107.002 Y95.500 E3.24150
G1 X107.018 Y95.182 E3.24740
G1 X107.065 Y94.866 E3.25329
G1 X107.142 Y94.557 E3.25919
G1 X107.250 Y94.257 E3.26509
G1 X107.386 Y93.969 E3.27098
G1 X107.550 Y93.696 E3.27688
G1 X107.740 Y93.440 E3.28278
G1 X107.954 Y93.204 E3.28867
G1 X108.190 Y92.990 E3.29457
G1 X108.446 Y92.800 E3.30046
G1 X108.719 Y92.636 E3.30636
G1 X109.007 Y92.500 E3.31226
G1 X109.278 Y92.403 E3.31757
G1 X109.616 Y92.315 E3.32405
G1 X109.932 Y92.268 E3.32994
G1 X110.250 Y92.252 E3.33584
G1 X110.537 Y92.266 E3.34115
G1 X110.884 Y92.315 E3.34763 F1200.000
G1 X111.193 Y92.392 E3.35352
G1 X111.493 Y92.500 E3.35942
G1 X111.781 Y92.636 E3.36532
G1 X112.054 Y92.800 E3.37121
G1 X112.310 Y92.990 E3.37711
G1 X112.546 Y93.204 E3.38300
G1 X112.760 Y93.440 E3.38890
G1 X112.950 Y93.696 E3.39480
G1 X113.114 Y93.969 E3.40069
G1 X113.250 Y94.257 E3.40659
G1 X113.358 Y94.557 E3.41249
G1 X113.428 Y94.836 E3.41780
G1 X113.482 Y95.182 E3.42428
G1 X113.496 Y95.531 E3.43075
G1 X113.482 Y95.818 E3.43607
G1 X113.435 Y96.134 E3.44196
G1 X113.358 Y96.443 E3.44786
G1 X113.250 Y96.743 E3.45375
G1 X113.114 Y97.031 E3.45965
G1 X112.950 Y97.304 E3.46555
G1 X112.760 Y97.560 E3.47144
G1 X112.589 Y97.750 E3.47617
G1 X112.371 Y97.621 F6000.000
G1 X112.153 Y97.819 E3.48162 F1200.000
G1 X111.917 Y97.995 E3.48707
G1 X111.664 Y98.146 E3.49251
G1 X111.398 Y98.272 E3.49796
G1 X111.121 Y98.371 E3.50341
G1 X110.835 Y98.442 E3.50885
G1 X110.544 Y98.486 E3.51430
G1 X110.250 Y98.500 E3.51975
G1 X109.956 Y98.486 E3.52519
G1 X109.665 Y98.442 E3.53064
G1 X109.379 Y98.371 E3.53609
G1 X109.102 Y98.272 E3.54153
G1 X108.836 Y98.146 E3.54698
G1 X108.583 Y97.995 E3.55243
G1 X108.347 Y97.819 E3.55787
G1 X108.129 Y97.621 E3.56332
G1 X107.919 Y97.388 E3.56912
G1 X107.755 Y97.167 E3.57421
G1 X107.604 Y96.914 E3.57966
G1 X107.478 Y96.648 E3.58511
G1 X107.379 Y96.371 E3.59055
G1 X107.305 Y96.066 E3.59635
G1 X107.264 Y95.794 E3.60145
G1 X107.250 Y95.500 E3.60689
G1 X107.264 Y95.206 E3.61234
G1 X107.308 Y94.915 E3.61779
G1 X107.379 Y94.629 E3.62323
G1 X107.478 Y94.352 E3.62868
G1 X107.604 Y94.086 E3.63413
G1 X107.755 Y93.833 E3.63957
G1 X107.931 Y93.597 E3.64502
G1 X108.129 Y93.379 E3.65047
G1 X108.347 Y93.181 E3.65591
G1 X108.583 Y93.005 E3.66136
G1 X108.836 Y92.854 E3.66681
G1 X109.102 Y92.728 E3.67225
G1 X109.379 Y92.629 E3.67770
G1 X109.665 Y92.558 E3.68315
G1 X109.956 Y92.514 E3.68860
G1 X110.231 Y92.501 E3.69369
G1 X110.544 Y92.514 E3.69949 F1200.000
G1 X110.835 Y92.558 E3.70493
G1 X111.121 Y92.629 E3.71038
G1 X111.398 Y92.728 E3.71583
G1 X111.664 Y92.854 E3.72127
G1 X111.917 Y93.005 E3.72672
G1 X112.153 Y93.181 E3.73217
G1 X112.371 Y93.379 E3.73761
G1 X112.569 Y93.597 E3.74306
G1 X112.745 Y93.833 E3.74851
G1 X112.896 Y94.086 E3.75396
G1 X113.022 Y94.352 E3.75940
G1 X113.121 Y94.629 E3.76485
G1 X113.188 Y94.896 E3.76994
G1 X113.236 Y95.206 E3.77574
G1 X113.249 Y95.519 E3.78154
G1 X113.236 Y95.794 E3.78663
G1 X113.192 Y96.085 E3.79208
G1 X113.121 Y96.371 E3.79753
G1 X113.022 Y96.648 E3.80297
G1 X112.896 Y96.914 E3.80842
G1 X112.745 Y97.167 E3.81387
G1 X112.569 Y97.403 E3.81931
G1 X112.414 Y97.575 E3.82359
G1 F1860.000 E0.82359
G92 E0
G1 X110.193 Y92.190 F6000.000
G1 X111.193 Y101.892 F6000.000
G1 E3.10000 F1860.000
G1 X111.493 Y102.000 E3.10590 F1200.000
G1 X111.781 Y102.136 E3.11179
G1 X112.054 Y102.300 E3.11769
G1 X112.310 Y102.490 E3.12359
G1 X112.546 Y102.704 E3.12948
G1 X112.760 Y102.940 E3.13538
G1 X112.950 Y103.196 E3.14127
G1 X113.114 Y103.469 E3.14717
G1 X113.250 Y103.757 E3.15307
G1 X113.358 Y104.057 E3.15896
G1 X113.435 Y104.366 E3.16486
G1 X113.482 Y104.682 E3.17075
G1 X113.498 Y105.000 E3.17665
G1 X113.482 Y105.318 E3.18255
G1 X113.428 Y105.664 E3.18902
G1 X113.358 Y105.943 E3.19434
G1 X113.250 Y106.243 E3.20023
G1 X113.114 Y106.531 E3.20613
G1 X112.950 Y106.804 E3.21202
G1 X112.760 Y107.060 E3.21792
G1 X112.546 Y107.296 E3.22382
G1 X112.310 Y107.510 E3.22971
G1 X112.054 Y107.700 E3.23561
G1 X111.781 Y107.864 E3.24150
G1 X111.493 Y108.000 E3.24740
G1 X111.193 Y108.108 E3.25330
G1 X110.884 Y108.185 E3.25919
G1 X110.568 Y108.232 E3.26509
G1 X110.250 Y108.248 E3.27099
G1 X109.932 Y108.232 E3.27688
G1 X109.616 Y108.185 E3.28278
G1 X109.307 Y108.108 E3.28867
G1 X109.007 Y108.000 E3.29457
G1 X108.719 Y107.864 E3.30047
G1 X108.446 Y107.700 E3.30636
G1 X108.190 Y107.510 E3.31226
G1 X107.954 Y107.296 E3.31816
G1 X107.740 Y107.060 E3.32405
G1 X107.550 Y106.804 E3.32995
G1 X107.386 Y106.531 E3.33584
G1 X107.250 Y106.243 E3.34174
G1 X107.142 Y105.943 E3.34764
G1 X107.065 Y105.634 E3.35353
G1 X107.018 Y105.318 E3.35943
G1 X107.002 Y105.000 E3.36532
G1 X107.018 Y104.682 E3.37122
G1 X107.065 Y104.366 E3.37712
G1 X107.142 Y104.057 E3.38301
G1 X107.250 Y103.757 E3.38891
G1 X107.386 Y103.469 E3.39481
G1 X107.550 Y103.196 E3.40070
G1 X107.740 Y102.940 E3.40660
G1 X107.954 Y102.704 E3.41249
G1 X108.190 Y102.490 E3.41839
G1 X108.446 Y102.300 E3.42429
G1 X108.719 Y102.136 E3.43018
G1 X109.007 Y102.000 E3.43608
G1 X109.307 Y101.892 E3.44198
G1 X109.616 Y101.815 E3.44787
G1 X109.932 Y101.768 E3.45377
G1 X110.250 Y101.752 E3.45966
G1 X110.537 Y101.766 E3.46498
G1 X110.884 Y101.815 E3.47145 F1200.000
G1 X111.132 Y101.877 E3.47618
G1 X111.121 Y102.129 F6000.000
G1 X111.398 Y102.228 E3.48163 F1200.000
G1 X111.664 Y102.354 E3.48708
G1 X111.917 Y102.505 E3.49252
G1 X112.153 Y102.681 E3.49797
G1 X112.371 Y102.879 E3.50342
G1 X112.569 Y103.097 E3.50886
G1 X112.745 Y103.333 E3.51431
G1 X112.896 Y103.586 E3.51976
G1 X113.022 Y103.852 E3.52520
G1 X113.121 Y104.129 E3.53065
G1 X113.192 Y104.415 E3.53610
G1 X113.236 Y104.706 E3.54155
G1 X113.250 Y105.000 E3.54699
G1 X113.236 Y105.294 E3.55244
G1 X113.192 Y105.585 E3.55789
G1 X113.121 Y105.871 E3.56333
G1 X113.022 Y106.148 E3.56878
G1 X112.896 Y106.414 E3.57423
G1 X112.745 Y106.667 E3.57967
G1 X112.569 Y106.903 E3.58512
G1 X112.371 Y107.121 E3.59057
G1 X112.153 Y107.319 E3.59601
G1 X111.917 Y107.495 E3.60146
G1 X111.664 Y107.646 E3.60691
G1 X111.398 Y107.772 E3.61235
G1 X111.121 Y107.871 E3.61780
G1 X110.835 Y107.942 E3.62325
G1 X110.544 Y107.986 E3.62869
G1 X110.250 Y108.000 E3.63414
G1 X109.956 Y107.986 E3.63959
G1 X109.646 Y107.938 E3.64539
G1 X109.379 Y107.871 E3.65048
G1 X109.102 Y107.772 E3.65593
G1 X108.836 Y107.646 E3.66137
G1 X108.583 Y107.495 E3.66682
G1 X108.347 Y107.319 E3.67227
G1 X108.129 Y107.121 E3.67771
G1 X107.931 Y106.903 E3.68316
G1 X107.755 Y106.667 E3.68861
G1 X107.604 Y106.414 E3.69405
G1 X107.478 Y106.148 E3.69950
G1 X107.379 Y105.871 E3.70495
G1 X107.308 Y105.585 E3.71039
G1 X107.264 Y105.294 E3.71584
G1 X107.250 Y105.000 E3.72129
G1 X107.264 Y104.706 E3.72673
G1 X107.308 Y104.415 E3.73218
G1 X107.379 Y104.129 E3.73763
G1 X107.478 Y103.852 E3.74307
G1 X107.604 Y103.586 E3.74852
G1 X107.755 Y103.333 E3.75397
G1 X107.931 Y103.097 E3.75942
G1 X108.129 Y102.879 E3.76486
G1 X108.347 Y102.681 E3.77031
G1 X108.583 Y102.505 E3.77576
G1 X108.836 Y102.354 E3.78120
G1 X109.102 Y102.228 E3.78665
G1 X109.379 Y102.129 E3.79210
G1 X109.665 Y102.058 E3.79754
G1 X109.956 Y102.014 E3.80299
G1 X110.231 Y102.001 E3.80808
G1 X110.544 Y102.014 E3.81388 F1200.000
G1 X110.835 Y102.058 E3.81933
G1 X111.060 Y102.114 E3.82361
G1 X110.091 Y101.720 F6000.000
G1 F1860.000 E0.82361
G92 E0
G1 X113.903 Y119.653 F6000.000
G1 E3.10000 F1860.000
G1 X106.597 Y119.653 E3.23515 F1200.000
G1 X106.597 Y80.347 E3.96232
G1 X113.903 Y80.347 E4.09747
G1 X113.903 Y119.590 E4.82347
G1 X114.150 Y119.900 F6000.000
G1 X106.350 Y119.900 E4.96777 F1200.000
G1 X106.350 Y80.100 E5.70408
G1 X114.150 Y80.100 E5.84838
G1 X114.150 Y119.837 E6.58352
G1 X113.786 Y119.690 F6000.000
G1 F1860.000 E3.58352
G92 E0
G1 X113.744 Y114.492 F6000.000
G1 E3.10000 F1860.000
G1 X106.756 Y107.505 E3.28281 F1200.000
G1 X106.756 Y107.154 E3.28931
G1 X113.744 Y114.141 E3.47212
G1 X113.744 Y113.789 E3.47862
G1 X106.756 Y106.802 E3.66142
G1 X106.756 Y106.451 E3.66792
G1 X113.744 Y113.438 E3.85073
G1 F1860.000 E0.85073
G92 E0
G1 X113.699 Y106.365 F6000.000
G1 E3.10000 F1860.000
G1 X113.744 Y106.409 E3.10117 F1200.000
G1 X113.744 Y106.761 E3.10767
G1 X113.362 Y106.379 E3.11765
G1 X113.248 Y106.617 E3.12252
G1 X113.744 Y107.112 E3.13548
G1 X113.744 Y107.464 E3.14199
G1 X113.117 Y106.837 E3.15839
G1 X112.971 Y107.043 E3.16306
G1 X113.744 Y107.815 E3.18326
G1 X113.744 Y108.167 E3.18976
G1 X112.815 Y107.238 E3.21407
G1 X112.646 Y107.421 E3.21867
G1 X113.744 Y108.518 E3.24738
G1 X113.744 Y108.869 E3.25388
G1 X112.462 Y107.588 E3.28741
G1 X112.265 Y107.742 E3.29204
G1 X113.744 Y109.221 E3.33072
G1 X113.744 Y109.572 E3.33723
G1 X112.056 Y107.885 E3.38137
G1 X111.835 Y108.015 E3.38613
G1 X113.744 Y109.924 E3.43607
G1 X113.744 Y110.275 E3.44257
G1 X111.596 Y108.128 E3.49875
G1 X111.341 Y108.224 E3.50380
G1 X113.744 Y110.627 E3.56666
G1 X113.744 Y110.978 E3.57316
G1 X111.069 Y108.303 E3.64315
G1 X110.776 Y108.362 E3.64867
G1 X113.744 Y111.329 E3.72630
G1 X113.744 Y111.681 E3.73280
G1 X110.459 Y108.397 E3.81873
G1 X110.112 Y108.400 E3.82516
G1 X113.744 Y112.032 E3.92019
G1 X113.744 Y112.384 E3.92669
G1 X109.722 Y108.362 E4.03192
G1 X109.271 Y108.263 E4.04045
G1 X113.744 Y112.735 E4.15745
G1 X113.744 Y113.087 E4.16395
G1 X108.678 Y108.021 E4.29649
G1 X106.756 Y107.857 F6000.000
G1 X113.744 Y114.844 E4.47930 F1200.000
G1 X113.744 Y115.195 E4.48580
G1 X106.756 Y108.208 E4.66861
G1 X106.756 Y108.559 E4.67511
G1 X113.744 Y115.547 E4.85792
G1 X113.744 Y115.898 E4.86442
G1 X106.756 Y108.911 E5.04722
G1 X106.756 Y109.262 E5.05373
G1 X113.744 Y116.249 E5.23653
G1 X113.744 Y116.601 E5.24303
G1 X106.756 Y109.614 E5.42584
G1 X106.756 Y109.965 E5.43234
G1 X113.744 Y116.952 E5.61515
G1 X113.744 Y117.304 E5.62165
G1 X106.756 Y110.317 E5.80446
G1 X106.756 Y110.668 E5.81096
G1 X113.744 Y117.655 E5.99377
G1 X113.744 Y118.007 E6.00027
G1 X106.756 Y111.019 E6.18307
G1 X106.756 Y111.371 E6.18958
G1 X113.744 Y118.358 E6.37238
G1 X113.744 Y118.709 E6.37888
G1 X106.756 Y111.722 E6.56169
G1 X106.756 Y112.074 E6.56819
G1 X113.744 Y119.061 E6.75100
G1 X113.744 Y119.412 E6.75750
G1 X106.756 Y112.425 E6.94031
G1 X106.756 Y112.776 E6.94681
G1 X113.474 Y119.494 E7.12255
G1 X113.122 Y119.494 E7.12905
G1 X106.756 Y113.128 E7.29560
G1 X106.756 Y113.479 E7.30210
G1 X112.771 Y119.494 E7.45945
G1 X112.419 Y119.494 E7.46595
G1 X106.756 Y113.831 E7.61411
G1 X106.756 Y114.182 E7.62061
G1 X112.068 Y119.494 E7.75958
G1 X111.716 Y119.494 E7.76608
G1 X106.756 Y114.534 E7.89585
G1 X106.756 Y114.885 E7.90235
G1 X111.365 Y119.494 E8.02292
G1 X111.014 Y119.494 E8.02942
G1 X106.756 Y115.236 E8.14080
G1 X106.756 Y115.588 E8.14730
G1 X110.662 Y119.494 E8.24949
G1 X110.311 Y119.494 E8.25599
G1 X106.756 Y115.939 E8.34898
G1 X106.756 Y116.291 E8.35548
G1 X109.959 Y119.494 E8.43928
G1 X109.608 Y119.494 E8.44578
G1 X106.756 Y116.642 E8.52038
G1 X106.756 Y116.994 E8.52689
G1 X109.256 Y119.494 E8.59229
G1 X108.905 Y119.494 E8.59879
G1 X106.756 Y117.345 E8.65501
G1 X106.756 Y117.696 E8.66151
G1 X108.554 Y119.494 E8.70853
G1 X108.202 Y119.494 E8.71503
G1 X106.756 Y118.048 E8.75285
G1 X106.756 Y118.399 E8.75936
G1 X107.851 Y119.494 E8.78798
G1 X107.499 Y119.494 E8.79449
G1 X106.756 Y118.751 E8.81392
G1 X106.756 Y119.102 E8.82042
G1 X107.148 Y119.494 E8.83066
G1 X106.796 Y119.494 E8.83717
G1 X106.756 Y119.454 E8.83821
G1 F1860.000 E5.83821
G92 E0
G1 X107.229 Y106.572 F6000.000
G1 E3.10000 F1860.000
G1 X106.989 Y106.332 E3.10627 F1200.000
G1 F1860.000 E0.10627
G92 E0
G1 X113.596 Y106.186 F6000.000
G1 E3.10000 F1860.000
G1 X113.687 Y105.413 E3.11896 F1200.000
G1 X113.690 Y105.413 F6000.000
G1 X113.690 Y104.587 E3.12940 F1200.000
G1 X113.687 Y104.587 F6000.000
G1 X113.596 Y103.814 E3.14835 F1200.000
G1 F1860.000 E0.14835
G92 E0
G1 X106.904 Y103.814 F6000.000
G1 E3.10000 F1860.000
G1 X106.813 Y104.587 E3.11896 F1200.000
G1 X106.810 Y104.587 F6000.000
G1 X106.810 Y105.413 E3.12940 F1200.000
G1 X106.813 Y105.413 F6000.000
G1 X106.904 Y106.186 E3.14836 F1200.000
G1 F1860.000 E0.14836
G92 E0
G1 X106.904 Y96.686 F6000.000
G1 E3.10000 F1860.000
G1 X106.813 Y95.913 E3.11896 F1200.000
G1 X106.810 Y95.913 F6000.000
G1 X106.810 Y95.087 E3.12940 F1200.000
G1 X106.813 Y95.087 F6000.000
G1 X106.904 Y94.314 E3.14836 F1200.000
G1 F1860.000 E0.14836
G92 E0
G1 X113.687 Y95.913 F6000.000
G1 E3.10000 F1860.000
G1 X113.596 Y96.686 E3.11896 F1200.000
G1 X113.690 Y95.913 F6000.000
G1 X113.690 Y95.087 E3.12940 F1200.000
G1 X113.687 Y95.087 F6000.000
G1 X113.596 Y94.314 E3.14835 F1200.000
G1 F1860.000 E0.14835
G92 E0
G1 X113.699 Y96.865 F6000.000
G1 E3.10000 F1860.000
G1 X113.744 Y96.909 E3.10117 F1200.000
G1 X113.744 Y97.260 E3.10765
