; generated by Slic3r 1.1.7 on 2014-12-06 at 09:20:33

; perimeters extrusion width = 0.42mm
; infill extrusion width = 0.74mm
; solid infill extrusion width = 0.71mm
; top infill extrusion width = 0.71mm

G21 ; set units to millimeters
M190 S60 ; wait for bed temperature to be reached
M104 S186 ; set temperature
G28 ; home all axes
M109 S186 ; wait for temperature to be reached
G90 ; use absolute coordinates
G92 E0
M82 ; use absolute distances for extrusion
M106 S127
G1 F1860.000 E-3.00000
G92 E0
G1 Z0.200 F6000.000
G1 X75.095 Y85.802 F6000.000
G1 E3.10000 F1860.000
G1 X76.843 Y84.353 E3.14201 F1200.000
G1 X80.050 Y83.506 E3.20338
G1 X100.050 Y83.506 E3.57338
G1 X101.330 Y83.633 E3.59718
G1 X121.230 Y87.633 E3.97269 F1200.000
G1 X123.343 Y88.463 E4.01470
G1 X125.042 Y89.969 E4.05671
G1 X126.118 Y91.968 E4.09871
G1 X126.444 Y94.000 E4.13678
G1 X126.444 Y110.000 E4.43278
G1 X126.048 Y112.236 E4.47479
G1 X124.905 Y114.198 E4.51679
G1 X123.157 Y115.647 E4.55880
G1 X119.950 Y116.494 E4.62017
G1 X80.050 Y116.494 E5.35833
G1 X77.814 Y116.098 E5.40034
G1 X75.852 Y114.955 E5.44234
G1 X74.403 Y113.207 E5.48435
G1 X73.556 Y110.000 E5.54572
G1 X73.556 Y90.000 E5.91572
G1 X73.952 Y87.764 E5.95773
G1 X75.063 Y85.856 E5.99857
G1 X75.317 Y85.934 F6000.000
G1 X75.340 Y85.896 E5.99939 F1200.000
G1 X77.078 Y84.505 E6.04058
G1 X80.050 Y83.753 E6.09730
G1 X100.050 Y83.753 E6.46730
G1 X101.281 Y83.875 E6.49019
G1 X121.181 Y87.875 E6.86571 F1200.000
G1 X123.251 Y88.696 E6.90690
G1 X124.901 Y90.191 E6.94810
G1 X125.923 Y92.169 E6.98929
G1 X126.197 Y94.000 E7.02354
G1 X126.197 Y110.000 E7.31954
G1 X125.800 Y112.191 E7.36074
G1 X124.660 Y114.104 E7.40193
G1 X122.922 Y115.495 E7.44312
G1 X119.950 Y116.247 E7.49984
G1 X80.050 Y116.247 E8.23800
G1 X77.859 Y115.850 E8.27919
G1 X75.946 Y114.710 E8.32038
G1 X74.555 Y112.972 E8.36158
G1 X73.803 Y110.000 E8.41829
G1 X73.803 Y90.000 E8.78830
G1 X74.200 Y87.809 E8.82949
G1 X75.285 Y85.989 E8.86870
G1 F1860.000 E5.86870
G92 E0
G1 X119.603 Y109.653 F6000.000
G1 E3.10000 F1860.000
G1 X104.297 Y109.653 E3.38316 F1200.000
G1 X104.297 Y94.347 E3.66631
G1 X119.603 Y94.347 E3.94947
G1 X119.603 Y109.590 E4.23146
G1 X119.850 Y109.900 F6000.000
G1 X104.050 Y109.900 E4.52376 F1200.000
G1 X104.050 Y94.100 E4.81607
G1 X119.850 Y94.100 E5.10837
G1 X119.850 Y109.837 E5.39951
G1 X119.486 Y109.690 F6000.000
G1 F1860.000 E2.39951
G92 E0
G1 X104.456 Y109.454 F6000.000
G1 E3.10000 F1860.000
G1 X104.496 Y109.494 E3.10105 F1200.000
G1 X104.848 Y109.494 E3.10755
G1 X104.456 Y109.102 E3.11780
G1 X104.456 Y108.750 E3.12431
G1 X105.200 Y109.494 E3.14376
G1 X105.552 Y109.494 E3.15026
G1 X104.456 Y108.398 E3.17891
G1 X104.456 Y108.047 E3.18542
G1 X105.903 Y109.494 E3.22327
G1 X106.255 Y109.494 E3.22978
G1 X104.456 Y107.695 E3.27684
G1 X104.456 Y107.343 E3.28334
G1 X106.607 Y109.494 E3.33960
G1 X106.958 Y109.494 E3.34610
G1 X104.456 Y106.992 E3.41156
G1 X104.456 Y106.640 E3.41807
G1 X107.310 Y109.494 E3.49273
G1 X107.662 Y109.494 E3.49923
G1 X104.456 Y106.288 E3.58309
G1 X104.456 Y105.937 E3.58960
G1 X108.013 Y109.494 E3.68266
G1 X108.365 Y109.494 E3.68917
G1 X104.456 Y105.585 E3.79143
G1 X104.456 Y105.233 E3.79794
G1 X108.717 Y109.494 E3.90940
G1 X109.068 Y109.494 E3.91591
G1 X104.456 Y104.882 E4.03658
G1 X104.456 Y104.530 E4.04308
G1 X109.420 Y109.494 E4.17295
G1 X109.772 Y109.494 E4.17946
G1 X104.456 Y104.178 E4.31853
G1 X104.456 Y103.826 E4.32504
G1 X110.124 Y109.494 E4.47331
G1 X110.475 Y109.494 E4.47981
G1 X104.456 Y103.475 E4.63729
G1 X104.456 Y103.123 E4.64379
G1 X110.827 Y109.494 E4.81047
G1 X111.179 Y109.494 E4.81697
G1 X104.456 Y102.771 E4.99285
G1 X104.456 Y102.420 E4.99936
G1 X111.530 Y109.494 E5.18443
G1 X111.882 Y109.494 E5.19094
G1 X104.456 Y102.068 E5.38522
G1 X104.456 Y101.716 E5.39173
G1 X112.234 Y109.494 E5.59521
G1 X112.585 Y109.494 E5.60171
G1 X104.456 Y101.365 E5.81440
G1 X104.456 Y101.013 E5.82090
G1 X112.937 Y109.494 E6.04279
G1 X113.289 Y109.494 E6.04929
G1 X104.456 Y100.661 E6.28038
G1 X104.456 Y100.309 E6.28689
G1 X113.641 Y109.494 E6.52717
G1 X113.992 Y109.494 E6.53368
G1 X104.456 Y99.958 E6.78317
G1 X104.456 Y99.606 E6.78967
G1 X114.344 Y109.494 E7.04836
G1 X114.696 Y109.494 E7.05487
G1 X104.456 Y99.254 E7.32276
G1 X104.456 Y98.903 E7.32927
G1 X115.047 Y109.494 E7.60636
G1 X115.399 Y109.494 E7.61287
G1 X104.456 Y98.551 E7.89916
G1 X104.456 Y98.199 E7.90567
G1 X115.751 Y109.494 E8.20117
G1 X116.102 Y109.494 E8.20767
G1 X104.456 Y97.848 E8.51237
G1 X104.456 Y97.496 E8.51888
G1 X116.454 Y109.494 E8.83278
G1 X116.806 Y109.494 E8.83928
G1 X104.456 Y97.144 E9.16239
G1 X104.456 Y96.792 E9.16889
G1 X117.158 Y109.494 E9.50119
G1 X117.509 Y109.494 E9.50770
G1 X104.456 Y96.441 E9.84921
G1 X104.456 Y96.089 E9.85571
G1 X117.861 Y109.494 E10.20642
G1 X118.213 Y109.494 E10.21292
G1 X104.456 Y95.737 E10.57283
G1 X104.456 Y95.386 E10.57934
G1 X118.564 Y109.494 E10.94845
G1 X118.916 Y109.494 E10.95495
G1 X104.456 Y95.034 E11.33326
G1 X104.456 Y94.682 E11.33977
G1 X119.268 Y109.494 E11.72728
G1 X119.444 Y109.318 E11.73188
G1 X104.632 Y94.506 E12.11940
G1 X104.984 Y94.506 E12.12590
G1 X119.444 Y108.966 E12.50421
G1 X119.444 Y108.614 E12.51072
G1 X105.336 Y94.506 E12.87983
G1 X105.687 Y94.506 E12.88634
G1 X119.444 Y108.263 E13.24624
G1 X119.444 Y107.911 E13.25275
G1 X106.039 Y94.506 E13.60346
G1 X106.391 Y94.506 E13.60996
G1 X119.444 Y107.559 E13.95147
G1 X119.444 Y107.208 E13.95797
G1 X106.742 Y94.506 E14.29028
G1 X107.094 Y94.506 E14.29678
G1 X119.444 Y106.856 E14.61988
G1 X119.444 Y106.504 E14.62639
G1 X107.446 Y94.506 E14.94029
G1 X107.798 Y94.506 E14.94680
G1 X119.444 Y106.152 E15.25149
G1 X119.444 Y105.801 E15.25800
G1 X108.149 Y94.506 E15.55350
G1 X108.501 Y94.506 E15.56000
G1 X119.444 Y105.449 E15.84630
G1 X119.444 Y105.097 E15.85280
G1 X108.853 Y94.506 E16.12990
G1 X109.204 Y94.506 E16.13640
G1 X119.444 Y104.746 E16.40430
G1 X119.444 Y104.394 E16.41080
G1 X109.556 Y94.506 E16.66949
G1 X109.908 Y94.506 E16.67600
G1 X119.444 Y104.042 E16.92549
G1 X119.444 Y103.691 E16.93199
G1 X110.259 Y94.506 E17.17228
G1 X110.611 Y94.506 E17.17879
G1 X119.444 Y103.339 E17.40987
G1 X119.444 Y102.987 E17.41638
G1 X110.963 Y94.506 E17.63826
G1 X111.315 Y94.506 E17.64477
G1 X119.444 Y102.635 E17.85745
G1 X119.444 Y102.284 E17.86396
G1 X111.666 Y94.506 E18.06744
G1 X112.018 Y94.506 E18.07395
G1 X119.444 Y101.932 E18.26823
G1 X119.444 Y101.580 E18.27473
G1 X112.370 Y94.506 E18.45981
G1 X112.721 Y94.506 E18.46632
G1 X119.444 Y101.229 E18.64219
G1 X119.444 Y100.877 E18.64870
G1 X113.073 Y94.506 E18.81537
G1 X113.425 Y94.506 E18.82188
G1 X119.444 Y100.525 E18.97935
G1 X119.444 Y100.174 E18.98586
G1 X113.776 Y94.506 E19.13413
G1 X114.128 Y94.506 E19.14064
G1 X119.444 Y99.822 E19.27971
G1 X119.444 Y99.470 E19.28622
G1 X114.480 Y94.506 E19.41608
G1 X114.832 Y94.506 E19.42259
G1 X119.444 Y99.118 E19.54326
G1 X119.444 Y98.767 E19.54976
G1 X115.183 Y94.506 E19.66123
G1 X115.535 Y94.506 E19.66774
G1 X119.444 Y98.415 E19.77000
G1 X119.444 Y98.063 E19.77651
G1 X115.887 Y94.506 E19.86957
G1 X116.238 Y94.506 E19.87607
G1 X119.444 Y97.712 E19.95993
G1 X119.444 Y97.360 E19.96644
G1 X116.590 Y94.506 E20.04110
G1 X116.942 Y94.506 E20.04761
G1 X119.444 Y97.008 E20.11306
G1 X119.444 Y96.657 E20.11957
G1 X117.293 Y94.506 E20.17583
G1 X117.645 Y94.506 E20.18233
G1 X119.444 Y96.305 E20.22939
G1 X119.444 Y95.953 E20.23589
G1 X117.997 Y94.506 E20.27375
G1 X118.348 Y94.506 E20.28025
G1 X119.444 Y95.602 E20.30890
G1 X119.444 Y95.250 E20.31541
G1 X118.700 Y94.506 E20.33486
G1 X119.052 Y94.506 E20.34137
G1 X119.444 Y94.898 E20.35162
G1 X119.444 Y94.546 E20.35812
G1 X119.404 Y94.506 E20.35917
G1 F1860.000 E17.35917
G92 E0
G1 X99.703 Y109.653 F6000.000
G1 E3.10000 F1860.000
G1 X80.397 Y109.653 E3.45716 F1200.000
G1 X80.397 Y90.347 E3.81431
G1 X99.703 Y90.347 E4.17147
G1 X99.703 Y109.590 E4.52746
G1 X99.950 Y109.900 F6000.000
G1 X80.150 Y109.900 E4.89377 F1200.000
G1 X80.150 Y90.100 E5.26007
G1 X99.950 Y90.100 E5.62638
G1 X99.950 Y109.837 E5.99152
G1 X99.586 Y109.690 F6000.000
G1 F1860.000 E2.99152
G92 E0
G1 X80.596 Y109.494 F6000.000
G1 E3.10000 F1860.000
G1 X80.556 Y109.454 E3.10105 F1200.000
G1 X80.556 Y109.103 E3.10754
G1 X80.947 Y109.494 E3.11776
G1 X81.298 Y109.494 E3.12426
G1 X80.556 Y108.752 E3.14366
G1 X80.556 Y108.401 E3.15015
G1 X81.649 Y109.494 E3.17874
G1 X82.000 Y109.494 E3.18523
G1 X80.556 Y108.050 E3.22300
G1 X80.556 Y107.699 E3.22949
G1 X82.351 Y109.494 E3.27644
G1 X82.702 Y109.494 E3.28293
G1 X80.556 Y107.348 E3.33905
G1 X80.556 Y106.997 E3.34554
G1 X83.053 Y109.494 E3.41085
G1 X83.403 Y109.494 E3.41734
G1 X80.556 Y106.647 E3.49183
G1 X80.556 Y106.296 E3.49832
G1 X83.754 Y109.494 E3.58199
G1 X84.105 Y109.494 E3.58848
G1 X80.556 Y105.945 E3.68132
G1 X80.556 Y105.594 E3.68781
G1 X84.456 Y109.494 E3.78984
G1 X84.807 Y109.494 E3.79633
G1 X80.556 Y105.243 E3.90754
G1 X80.556 Y104.892 E3.91403
G1 X85.158 Y109.494 E4.03442
G1 X85.509 Y109.494 E4.04091
G1 X80.556 Y104.541 E4.17047
G1 X80.556 Y104.190 E4.17697
G1 X85.860 Y109.494 E4.31571
G1 X86.210 Y109.494 E4.32220
G1 X80.556 Y103.840 E4.47013
G1 X80.556 Y103.489 E4.47662
G1 X86.561 Y109.494 E4.63373
G1 X86.912 Y109.494 E4.64022
G1 X80.556 Y103.138 E4.80650
G1 X80.556 Y102.787 E4.81300
G1 X87.263 Y109.494 E4.98846
G1 X87.614 Y109.494 E4.99495
G1 X80.556 Y102.436 E5.17960
G1 X80.556 Y102.085 E5.18609
G1 X87.965 Y109.494 E5.37992
G1 X88.316 Y109.494 E5.38641
G1 X80.556 Y101.734 E5.58941
G1 X80.556 Y101.383 E5.59591
G1 X88.667 Y109.494 E5.80809
G1 X89.017 Y109.494 E5.81458
G1 X80.556 Y101.033 E6.03595
G1 X80.556 Y100.682 E6.04244
G1 X89.368 Y109.494 E6.27299
G1 X89.719 Y109.494 E6.27948
G1 X80.556 Y100.331 E6.51920
G1 X80.556 Y99.980 E6.52570
G1 X90.070 Y109.494 E6.77460
G1 X90.421 Y109.494 E6.78109
G1 X80.556 Y99.629 E7.03918
G1 X80.556 Y99.278 E7.04567
G1 X90.772 Y109.494 E7.31294
G1 X91.123 Y109.494 E7.31943
G1 X80.556 Y98.927 E7.59587
G1 X80.556 Y98.577 E7.60236
G1 X91.473 Y109.494 E7.88799
G1 X91.824 Y109.494 E7.89448
G1 X80.556 Y98.226 E8.18929
G1 X80.556 Y97.875 E8.19578
G1 X92.175 Y109.494 E8.49977
G1 X92.526 Y109.494 E8.50626
G1 X80.556 Y97.524 E8.81942
G1 X80.556 Y97.173 E8.82591
G1 X92.877 Y109.494 E9.14826
G1 X93.228 Y109.494 E9.15475
G1 X80.556 Y96.822 E9.48628
G1 X80.556 Y96.471 E9.49277
G1 X93.579 Y109.494 E9.83348
G1 X93.930 Y109.494 E9.83997
G1 X80.556 Y96.120 E10.18985
G1 X80.556 Y95.770 E10.19634
G1 X94.280 Y109.494 E10.55541
G1 X94.631 Y109.494 E10.56190
G1 X80.556 Y95.419 E10.93015
G1 X80.556 Y95.068 E10.93664
G1 X94.982 Y109.494 E11.31406
G1 X95.333 Y109.494 E11.32056
G1 X80.556 Y94.717 E11.70716
G1 X80.556 Y94.366 E11.71365
G1 X95.684 Y109.494 E12.10944
G1 X96.035 Y109.494 E12.11593
G1 X80.556 Y94.015 E12.52090
G1 X80.556 Y93.664 E12.52739
G1 X96.386 Y109.494 E12.94153
G1 X96.737 Y109.494 E12.94802
G1 X80.556 Y93.313 E13.37135
G1 X80.556 Y92.963 E13.37784
G1 X97.087 Y109.494 E13.81035
G1 X97.438 Y109.494 E13.81684
G1 X80.556 Y92.612 E14.25852
G1 X80.556 Y92.261 E14.26502
G1 X97.789 Y109.494 E14.71588
G1 X98.140 Y109.494 E14.72237
G1 X80.556 Y91.910 E15.18242
G1 X80.556 Y91.559 E15.18891
G1 X98.491 Y109.494 E15.65814
G1 X98.842 Y109.494 E15.66463
G1 X80.556 Y91.208 E16.14303
G1 X80.556 Y90.857 E16.14952
G1 X99.193 Y109.494 E16.63711
G1 X99.524 Y109.474 E16.64324
G1 X80.576 Y90.526 E17.13896
G1 X80.907 Y90.506 E17.14509
G1 X99.544 Y109.143 E17.63268
G1 X99.544 Y108.792 E17.63917
G1 X81.258 Y90.506 E18.11758
G1 X81.609 Y90.506 E18.12407
G1 X99.544 Y108.441 E18.59330
G1 X99.544 Y108.090 E18.59979
G1 X81.960 Y90.506 E19.05983
G1 X82.311 Y90.506 E19.06632
G1 X99.544 Y107.739 E19.51719
G1 X99.544 Y107.388 E19.52368
G1 X82.662 Y90.506 E19.96537
G1 X83.013 Y90.506 E19.97186
G1 X99.544 Y107.037 E20.40436
G1 X99.544 Y106.687 E20.41086
G1 X83.363 Y90.506 E20.83418
G1 X83.714 Y90.506 E20.84067
G1 X99.544 Y106.336 E21.25482
G1 X99.544 Y105.985 E21.26131
G1 X84.065 Y90.506 E21.66628
G1 X84.416 Y90.506 E21.67277
G1 X99.544 Y105.634 E22.06855
G1 X99.544 Y105.283 E22.07504
G1 X84.767 Y90.506 E22.46165
G1 X85.118 Y90.506 E22.46814
G1 X99.544 Y104.932 E22.84557
G1 X99.544 Y104.581 E22.85206
G1 X85.469 Y90.506 E23.22030
G1 X85.820 Y90.506 E23.22680
G1 X99.544 Y104.230 E23.58586
G1 X99.544 Y103.880 E23.59235
G1 X86.170 Y90.506 E23.94224
G1 X86.521 Y90.506 E23.94873
G1 X99.544 Y103.529 E24.28944
G1 X99.544 Y103.178 E24.29593
G1 X86.872 Y90.506 E24.62745
G1 X87.223 Y90.506 E24.63395
G1 X99.544 Y102.827 E24.95629
G1 X99.544 Y102.476 E24.96278
G1 X87.574 Y90.506 E25.27595
G1 X87.925 Y90.506 E25.28244
G1 X99.544 Y102.125 E25.58643
G1 X99.544 Y101.774 E25.59292
G1 X88.276 Y90.506 E25.88772
G1 X88.627 Y90.506 E25.89421
G1 X99.544 Y101.423 E26.17984
G1 X99.544 Y101.073 E26.18633
G1 X88.977 Y90.506 E26.46278
G1 X89.328 Y90.506 E26.46927
G1 X99.544 Y100.722 E26.73654
G1 X99.544 Y100.371 E26.74303
G1 X89.679 Y90.506 E27.00111
G1 X90.030 Y90.506 E27.00760
G1 X99.544 Y100.020 E27.25651
G1 X99.544 Y99.669 E27.26300
G1 X90.381 Y90.506 E27.50273
G1 X90.732 Y90.506 E27.50922
G1 X99.544 Y99.318 E27.73977
G1 X99.544 Y98.967 E27.74626
G1 X91.083 Y90.506 E27.96762
G1 X91.433 Y90.506 E27.97411
G1 X99.544 Y98.617 E28.18630
G1 X99.544 Y98.266 E28.19279
G1 X91.784 Y90.506 E28.39580
G1 X92.135 Y90.506 E28.40229
G1 X99.544 Y97.915 E28.59612
G1 X99.544 Y97.564 E28.60261
G1 X92.486 Y90.506 E28.78725
G1 X92.837 Y90.506 E28.79374
G1 X99.544 Y97.213 E28.96921
G1 X99.544 Y96.862 E28.97570
G1 X93.188 Y90.506 E29.14199
G1 X93.539 Y90.506 E29.14848
G1 X99.544 Y96.511 E29.30559
G1 X99.544 Y96.160 E29.31208
G1 X93.890 Y90.506 E29.46000
G1 X94.240 Y90.506 E29.46649
G1 X99.544 Y95.810 E29.60524
G1 X99.544 Y95.459 E29.61173
G1 X94.591 Y90.506 E29.74130
G1 X94.942 Y90.506 E29.74779
G1 X99.544 Y95.108 E29.86818
G1 X99.544 Y94.757 E29.87467
G1 X95.293 Y90.506 E29.98587
G1 X95.644 Y90.506 E29.99237
G1 X99.544 Y94.406 E30.09439
G1 X99.544 Y94.055 E30.10088
G1 X95.995 Y90.506 E30.19373
G1 X96.346 Y90.506 E30.20022
G1 X99.544 Y93.704 E30.28389
G1 X99.544 Y93.353 E30.29038
G1 X96.697 Y90.506 E30.36487
G1 X97.047 Y90.506 E30.37136
G1 X99.544 Y93.003 E30.43666
G1 X99.544 Y92.652 E30.44315
G1 X97.398 Y90.506 E30.49928
G1 X97.749 Y90.506 E30.50577
G1 X99.544 Y92.301 E30.55272
G1 X99.544 Y91.950 E30.55921
G1 X98.100 Y90.506 E30.59698
G1 X98.451 Y90.506 E30.60347
G1 X99.544 Y91.599 E30.63205
G1 X99.544 Y91.248 E30.63854
G1 X98.802 Y90.506 E30.65795
G1 X99.153 Y90.506 E30.66444
G1 X99.544 Y90.897 E30.67467
G1 X99.544 Y90.546 E30.68116
G1 X99.504 Y90.506 E30.68221
M106 S211
M140 S50 ; set bed temperature
G1 F1860.000 E27.68221
G92 E0
G1 Z0.400 F6000.000
G1 X104.580 Y109.370 F6000.000
G1 E3.10000 F1860.000
G1 X104.580 Y94.630 E3.56329 F2400.000
G1 X119.320 Y94.630 E4.02658
G1 X119.320 Y109.370 E4.48987
G1 X104.643 Y109.370 E4.95118
G1 X104.160 Y109.790 F6000.000
G1 X104.160 Y94.210 E5.44087 F2400.000
G1 X119.740 Y94.210 E5.93057
G1 X119.740 Y109.790 E6.42026
G1 X104.223 Y109.790 E6.90797
G1 X104.370 Y109.426 F6000.000
G1 F1860.000 E3.90797
G92 E0
G1 X104.966 Y94.976 F6000.000
G1 E3.10000 F1860.000
G1 X104.926 Y95.016 E3.10284 F2100.000
G1 X104.926 Y95.982 E3.15136
G1 X105.932 Y94.976 E3.22281
G1 X106.898 Y94.976 E3.27133
G1 X104.926 Y96.948 E3.41140
G1 X104.926 Y97.914 E3.45992
G1 X107.864 Y94.976 E3.66860
G1 X108.830 Y94.976 E3.71712
G1 X104.926 Y98.880 E3.99442
G1 X104.926 Y99.846 E4.04293
G1 X109.796 Y94.976 E4.38885
G1 X110.762 Y94.976 E4.43736
G1 X104.926 Y100.812 E4.85189
G1 X104.926 Y101.778 E4.90041
G1 X111.728 Y94.976 E5.38355
G1 X112.695 Y94.976 E5.43206
G1 X104.926 Y102.745 E5.98382
G1 X104.926 Y103.711 E6.03233
G1 X113.661 Y94.976 E6.65270
G1 X114.627 Y94.976 E6.70122
G1 X104.926 Y104.677 E7.39020
G1 X104.926 Y105.643 E7.43872
G1 X115.593 Y94.976 E8.19632
G1 X116.559 Y94.976 E8.24483
G1 X104.926 Y106.609 E9.07105
G1 X104.926 Y107.575 E9.11956
G1 X117.525 Y94.976 E10.01439
G1 X118.491 Y94.976 E10.06290
G1 X104.926 Y108.541 E11.02634
G1 X105.409 Y109.024 E11.06065
G1 X118.974 Y95.459 E12.02409
G1 X118.974 Y96.425 E12.07261
G1 X106.375 Y109.024 E12.96743
G1 X107.341 Y109.024 E13.01595
G1 X118.974 Y97.391 E13.84216
