; generated by Slic3r 1.1.7 on 2015-02-21 at 12:54:27

; perimeters extrusion width = 0.47mm
; infill extrusion width = 0.62mm
; solid infill extrusion width = 0.62mm
; top infill extrusion width = 0.62mm
; support material extrusion width = 0.47mm

G21 ; set units to millimeters
M190 S60 ; wait for bed temperature to be reached
M104 S230 ; set temperature
G28 ; home all axes Start of G Code Slic3r
 
 
M109 S230 ; wait for temperature to be reached
G90 ; use absolute coordinates
G92 E0
M82 ; use absolute distances for extrusion
G1 F4200.000 E-3.00000
G92 E0
G1 Z0.294 F7800.000
G1 X23.176 Y23.177 F7800.000
G1 E3.00000 F4200.000
G1 X32.431 Y14.031 E4.00480 F1800.000
G1 X33.527 Y13.145 E4.11362
G1 X34.513 Y12.496 E4.20480
G1 X36.692 Y11.540 E4.38851
G1 X39.064 Y11.354 E4.57222
G1 X41.364 Y11.960 E4.75593
G1 X43.463 Y13.412 E4.95306 F1800.000
G1 X186.738 Y156.687 E20.59984
G1 X188.116 Y158.626 E20.78355
G1 X188.778 Y160.911 E20.96726
G1 X188.651 Y163.287 E21.15097
G1 X188.031 Y164.992 E21.29110
G1 X186.728 Y166.810 E21.46385
G1 X176.885 Y176.762 E22.54471
G1 X172.561 Y181.083 E23.01676
G1 X170.538 Y183.023 E23.23325
G1 X168.569 Y184.359 E23.41696
G1 X166.271 Y184.973 E23.60067
G1 X163.899 Y184.796 E23.78437
G1 X161.717 Y183.848 E23.96808
G1 X160.570 Y182.917 E24.08214
G1 X17.686 Y40.034 E39.68623
G1 X16.309 Y38.095 E39.86994
G1 X15.646 Y35.810 E40.05365
G1 X15.773 Y33.434 E40.23736
G1 X16.355 Y31.804 E40.37101
G1 X17.652 Y29.215 E40.59462
G1 X18.984 Y27.370 E40.77035
G1 X23.127 Y23.227 E41.22277
G1 X23.574 Y23.575 F7800.000
G1 X32.826 Y14.431 E42.22731 F1800.000
G1 X33.835 Y13.614 E42.32755
G1 X34.822 Y12.966 E42.41873
G1 X36.919 Y12.063 E42.59499
G1 X39.197 Y11.934 E42.77125
G1 X41.383 Y12.592 E42.94750
G1 X43.066 Y13.810 E43.10794 F1800.000
G1 X186.340 Y157.084 E58.75472
G1 X187.649 Y158.954 E58.93098
G1 X188.238 Y161.160 E59.10723
G1 X188.036 Y163.433 E59.28349
G1 X187.529 Y164.740 E59.39177
G1 X186.328 Y166.415 E59.55089
G1 X176.487 Y176.364 E60.63151
G1 X172.172 Y180.677 E61.10264
G1 X170.148 Y182.617 E61.31913
G1 X168.251 Y183.886 E61.49539
G1 X166.034 Y184.428 E61.67164
G1 X163.765 Y184.178 E61.84790
G1 X160.967 Y182.520 E62.09906
G1 X18.084 Y39.636 E77.70315
G1 X16.775 Y37.766 E77.87941
G1 X16.186 Y35.561 E78.05567
G1 X16.388 Y33.288 E78.23193
G1 X16.857 Y32.056 E78.33371
G1 X18.155 Y29.467 E78.55732
G1 X19.381 Y27.767 E78.71918
G1 X23.524 Y23.625 E79.17160
G1 F4200.000 E76.17160
G92 E0
G1 X172.436 Y168.570 F7800.000
G1 E3.00000 F4200.000
G1 X31.430 Y27.564 E18.39905 F441.000
G1 X34.637 Y24.357 E18.74927
G1 X175.643 Y165.363 E34.14832
G1 X172.486 Y168.520 E34.49309
G1 X172.315 Y168.116 F7800.000
G1 X172.436 Y167.775 F7800.000
G1 X32.225 Y27.564 E49.80532 F630.000
G1 X34.637 Y25.152 E50.06870
G1 X174.848 Y165.363 E65.38092
G1 X172.486 Y167.725 E65.63886
G1 X172.436 Y167.198 F7800.000
G1 X32.802 Y27.564 E80.88814 F1500.000
G1 X33.261 Y27.105 E80.93825
G1 X172.895 Y166.739 E96.18753
G1 X173.354 Y166.281 E96.23763
G1 X33.719 Y26.646 E111.48691
G1 X34.178 Y26.187 E111.53702
G1 X173.813 Y165.822 E126.78630
G1 X174.272 Y165.363 E126.83641
G1 X34.637 Y25.728 E142.08568
G1 F4200.000 E139.08568
G92 E0
G1 X36.074 Y20.501 F7800.000
G1 E3.00000 F4200.000
G1 X36.112 Y20.425 E3.00687 F900.000
G1 X37.439 Y19.099 F7800.000
G1 X36.515 Y20.942 E3.17442 F900.000
G1 X37.442 Y20.412 E3.26118
G1 X38.426 Y18.450 E3.43954
G1 X38.867 Y18.891 E3.49021
G1 X37.883 Y20.853 E3.66856
G1 X38.324 Y21.294 E3.71923
G1 X39.307 Y19.332 E3.89758
G1 X39.748 Y19.773 E3.94825
G1 X38.765 Y21.735 E4.12661
G1 X39.206 Y22.176 E4.17727
G1 X40.189 Y20.214 E4.35563
G1 X40.630 Y20.654 E4.40629
G1 X39.647 Y22.617 E4.58465
G1 X40.087 Y23.057 E4.63532
G1 X41.071 Y21.095 E4.81367
G1 X41.512 Y21.536 E4.86434
G1 X40.528 Y23.498 E5.04269
G1 X40.969 Y23.939 E5.09336
G1 X41.953 Y21.977 E5.27172
G1 X42.393 Y22.418 E5.32238
G1 X41.410 Y24.380 E5.50074
G1 X41.851 Y24.821 E5.55140
G1 X42.834 Y22.859 E5.72976
G1 X43.275 Y23.299 E5.78043
G1 X42.292 Y25.262 E5.95878
G1 X42.732 Y25.702 E6.00945
G1 X43.716 Y23.740 E6.18780
G1 X44.157 Y24.181 E6.23847
G1 X43.173 Y26.143 E6.41683
G1 X43.614 Y26.584 E6.46749
G1 X44.598 Y24.622 E6.64585
G1 X45.038 Y25.063 E6.69651
G1 X44.055 Y27.025 E6.87487
G1 X44.496 Y27.466 E6.92554
G1 X45.479 Y25.504 E7.10389
G1 X45.920 Y25.945 E7.15456
G1 X44.937 Y27.907 E7.33291
G1 X45.378 Y28.347 E7.38358
G1 X46.361 Y26.385 E7.56194
G1 X46.802 Y26.826 E7.61260
G1 X45.818 Y28.788 E7.79096
G1 X46.259 Y29.229 E7.84162
G1 X47.243 Y27.267 E8.01998
G1 X47.683 Y27.708 E8.07064
G1 X46.700 Y29.670 E8.24900
G1 X47.141 Y30.111 E8.29967
G1 X48.124 Y28.149 E8.47802
G1 X48.565 Y28.590 E8.52869
G1 X47.582 Y30.552 E8.70705
G1 X48.023 Y30.993 E8.75771
G1 X49.006 Y29.030 E8.93607
G1 X49.447 Y29.471 E8.98673
G1 X48.463 Y31.433 E9.16509
G1 X48.904 Y31.874 E9.21575
G1 X49.888 Y29.912 E9.39411
G1 X50.329 Y30.353 E9.44478
G1 X49.345 Y32.315 E9.62313
G1 X49.786 Y32.756 E9.67380
G1 X50.769 Y30.794 E9.85215
G1 X51.210 Y31.235 E9.90282
G1 X50.227 Y33.197 E10.08118
G1 X50.668 Y33.638 E10.13184
G1 X51.651 Y31.676 E10.31020
G1 X52.092 Y32.116 E10.36086
G1 X51.109 Y34.078 E10.53922
G1 X51.549 Y34.519 E10.58988
G1 X52.533 Y32.557 E10.76824
G1 X52.974 Y32.998 E10.81891
G1 X51.990 Y34.960 E10.99726
G1 X52.431 Y35.401 E11.04793
G1 X53.414 Y33.439 E11.22628
G1 X53.855 Y33.880 E11.27695
G1 X52.872 Y35.842 E11.45531
G1 X53.313 Y36.283 E11.50597
G1 X54.296 Y34.321 E11.68433
G1 X54.737 Y34.761 E11.73499
G1 X53.754 Y36.724 E11.91335
G1 X54.194 Y37.164 E11.96401
G1 X55.178 Y35.202 E12.14237
G1 X55.619 Y35.643 E12.19303
G1 X54.635 Y37.605 E12.37139
G1 X55.076 Y38.046 E12.42206
G1 X56.060 Y36.084 E12.60041
G1 X56.500 Y36.525 E12.65108
G1 X55.517 Y38.487 E12.82943
G1 X55.958 Y38.928 E12.88010
G1 X56.941 Y36.966 E13.05846
G1 X57.382 Y37.407 E13.10912
G1 X56.399 Y39.369 E13.28748
G1 X56.840 Y39.809 E13.33814
G1 X57.823 Y37.847 E13.51650
G1 X58.264 Y38.288 E13.56716
G1 X57.280 Y40.250 E13.74552
G1 X57.721 Y40.691 E13.79619
G1 X58.705 Y38.729 E13.97454
G1 X59.145 Y39.170 E14.02521
G1 X58.162 Y41.132 E14.20356
G1 X58.603 Y41.573 E14.25423
G1 X59.586 Y39.611 E14.43258
G1 X60.027 Y40.052 E14.48325
G1 X59.044 Y42.014 E14.66161
G1 X59.485 Y42.455 E14.71227
G1 X60.468 Y40.492 E14.89063
G1 X60.909 Y40.933 E14.94129
G1 X59.925 Y42.895 E15.11965
G1 X60.366 Y43.336 E15.17031
G1 X61.350 Y41.374 E15.34867
G1 X61.791 Y41.815 E15.39934
G1 X60.807 Y43.777 E15.57769
G1 X61.248 Y44.218 E15.62836
G1 X62.231 Y42.256 E15.80671
G1 X62.672 Y42.697 E15.85738
G1 X61.689 Y44.659 E16.03574
G1 X62.130 Y45.100 E16.08640
G1 X63.113 Y43.137 E16.26476
G1 X63.554 Y43.578 E16.31542
G1 X62.570 Y45.540 E16.49378
G1 X63.011 Y45.981 E16.54444
G1 X63.995 Y44.019 E16.72280
G1 X64.436 Y44.460 E16.77346
G1 X63.452 Y46.422 E16.95182
G1 X63.893 Y46.863 E17.00249
G1 X64.876 Y44.901 E17.18084
G1 X65.317 Y45.342 E17.23151
G1 X64.334 Y47.304 E17.40986
G1 X64.775 Y47.745 E17.46053
G1 X65.758 Y45.783 E17.63889
G1 X66.199 Y46.223 E17.68955
G1 X65.216 Y48.185 E17.86791
G1 X65.656 Y48.626 E17.91857
G1 X66.640 Y46.664 E18.09693
G1 X67.081 Y47.105 E18.14759
G1 X66.097 Y49.067 E18.32595
G1 X66.538 Y49.508 E18.37661
G1 X67.521 Y47.546 E18.55497
G1 X67.962 Y47.987 E18.60564
G1 X66.979 Y49.949 E18.78399
G1 X67.420 Y50.390 E18.83466
G1 X68.403 Y48.428 E19.01301
G1 X68.844 Y48.868 E19.06368
G1 X67.861 Y50.831 E19.24204
G1 X68.301 Y51.271 E19.29270
G1 X69.285 Y49.309 E19.47106
G1 X69.726 Y49.750 E19.52172
G1 X68.742 Y51.712 E19.70008
G1 X69.183 Y52.153 E19.75074
G1 X70.167 Y50.191 E19.92910
G1 X70.607 Y50.632 E19.97976
G1 X69.624 Y52.594 E20.15812
G1 X70.065 Y53.035 E20.20879
G1 X71.048 Y51.073 E20.38714
G1 X71.489 Y51.514 E20.43781
G1 X70.506 Y53.476 E20.61616
G1 X70.947 Y53.916 E20.66683
G1 X71.930 Y51.954 E20.84519
G1 X72.371 Y52.395 E20.89585
G1 X71.387 Y54.357 E21.07421
G1 X71.828 Y54.798 E21.12487
G1 X72.812 Y52.836 E21.30323
G1 X73.252 Y53.277 E21.35389
G1 X72.269 Y55.239 E21.53225
G1 X72.710 Y55.680 E21.58292
G1 X73.693 Y53.718 E21.76127
G1 X74.134 Y54.159 E21.81194
G1 X73.151 Y56.121 E21.99029
G1 X73.592 Y56.562 E22.04096
G1 X74.575 Y54.599 E22.21931
G1 X75.016 Y55.040 E22.26998
G1 X74.032 Y57.002 E22.44834
G1 X74.473 Y57.443 E22.49900
G1 X75.457 Y55.481 E22.67736
G1 X75.898 Y55.922 E22.72802
G1 X74.914 Y57.884 E22.90638
G1 X75.355 Y58.325 E22.95704
G1 X76.338 Y56.363 E23.13540
G1 X76.779 Y56.804 E23.18607
G1 X75.796 Y58.766 E23.36442
G1 X76.237 Y59.207 E23.41509
G1 X77.220 Y57.245 E23.59344
G1 X77.661 Y57.685 E23.64411
G1 X76.677 Y59.647 E23.82247
G1 X77.118 Y60.088 E23.87313
G1 X78.102 Y58.126 E24.05149
G1 X78.543 Y58.567 E24.10215
G1 X77.559 Y60.529 E24.28051
G1 X78.000 Y60.970 E24.33117
G1 X78.983 Y59.008 E24.50953
G1 X79.424 Y59.449 E24.56019
G1 X78.441 Y61.411 E24.73855
G1 X78.882 Y61.852 E24.78922
G1 X79.865 Y59.890 E24.96757
G1 X80.306 Y60.330 E25.01824
G1 X79.323 Y62.293 E25.19659
G1 X79.763 Y62.733 E25.24726
G1 X80.747 Y60.771 E25.42562
G1 X81.188 Y61.212 E25.47628
G1 X80.204 Y63.174 E25.65464
G1 X80.645 Y63.615 E25.70530
G1 X81.629 Y61.653 E25.88366
G1 X82.069 Y62.094 E25.93432
G1 X81.086 Y64.056 E26.11268
G1 X81.527 Y64.497 E26.16335
G1 X82.510 Y62.535 E26.34170
G1 X82.951 Y62.975 E26.39237
G1 X81.968 Y64.938 E26.57072
G1 X82.408 Y65.378 E26.62139
G1 X83.392 Y63.416 E26.79975
G1 X83.833 Y63.857 E26.85041
G1 X82.849 Y65.819 E27.02877
G1 X83.290 Y66.260 E27.07943
G1 X84.274 Y64.298 E27.25779
G1 X84.714 Y64.739 E27.30845
G1 X83.731 Y66.701 E27.48681
G1 X84.172 Y67.142 E27.53747
G1 X85.155 Y65.180 E27.71583
G1 X85.596 Y65.621 E27.76650
G1 X84.613 Y67.583 E27.94485
G1 X85.054 Y68.023 E27.99552
G1 X86.037 Y66.061 E28.17387
G1 X86.478 Y66.502 E28.22454
G1 X85.494 Y68.464 E28.40290
G1 X85.935 Y68.905 E28.45356
G1 X86.919 Y66.943 E28.63192
G1 X87.359 Y67.384 E28.68258
G1 X86.376 Y69.346 E28.86094
G1 X86.817 Y69.787 E28.91160
G1 X87.800 Y67.825 E29.08996
G1 X88.241 Y68.266 E29.14063
G1 X87.258 Y70.228 E29.31898
G1 X87.699 Y70.669 E29.36965
G1 X88.682 Y68.706 E29.54800
G1 X89.123 Y69.147 E29.59867
G1 X88.139 Y71.109 E29.77703
G1 X88.580 Y71.550 E29.82769
G1 X89.564 Y69.588 E30.00605
G1 X90.005 Y70.029 E30.05671
G1 X89.021 Y71.991 E30.23507
G1 X89.462 Y72.432 E30.28573
G1 X90.445 Y70.470 E30.46409
G1 X90.886 Y70.911 E30.51476
G1 X89.903 Y72.873 E30.69311
G1 X90.344 Y73.314 E30.74378
G1 X91.327 Y71.352 E30.92213
G1 X91.768 Y71.792 E30.97280
G1 X90.785 Y73.754 E31.15116
G1 X91.225 Y74.195 E31.20182
G1 X92.209 Y72.233 E31.38018
G1 X92.650 Y72.674 E31.43084
G1 X91.666 Y74.636 E31.60920
G1 X92.107 Y75.077 E31.65986
G1 X93.090 Y73.115 E31.83822
G1 X93.531 Y73.556 E31.88888
G1 X92.548 Y75.518 E32.06724
G1 X92.989 Y75.959 E32.11791
G1 X93.972 Y73.997 E32.29626
G1 X94.413 Y74.437 E32.34693
G1 X93.430 Y76.400 E32.52528
G1 X93.870 Y76.840 E32.57595
G1 X94.854 Y74.878 E32.75431
G1 X95.295 Y75.319 E32.80497
G1 X94.311 Y77.281 E32.98333
G1 X94.752 Y77.722 E33.03399
G1 X95.736 Y75.760 E33.21235
G1 X96.176 Y76.201 E33.26301
G1 X95.193 Y78.163 E33.44137
G1 X95.634 Y78.604 E33.49204
G1 X96.617 Y76.642 E33.67039
G1 X97.058 Y77.082 E33.72106
G1 X96.075 Y79.045 E33.89941
G1 X96.515 Y79.485 E33.95008
G1 X97.499 Y77.523 E34.12844
G1 X97.940 Y77.964 E34.17910
G1 X96.956 Y79.926 E34.35746
G1 X97.397 Y80.367 E34.40812
G1 X98.381 Y78.405 E34.58648
G1 X98.821 Y78.846 E34.63714
G1 X97.838 Y80.808 E34.81550
G1 X98.279 Y81.249 E34.86617
G1 X99.262 Y79.287 E35.04452
G1 X99.703 Y79.728 E35.09519
G1 X98.720 Y81.690 E35.27354
G1 X99.161 Y82.130 E35.32421
G1 X100.144 Y80.168 E35.50257
G1 X100.585 Y80.609 E35.55323
G1 X99.601 Y82.571 E35.73159
G1 X100.042 Y83.012 E35.78225
G1 X101.026 Y81.050 E35.96061
G1 X101.466 Y81.491 E36.01127
G1 X100.483 Y83.453 E36.18963
G1 X100.924 Y83.894 E36.24030
G1 X101.907 Y81.932 E36.41865
G1 X102.348 Y82.373 E36.46932
G1 X101.365 Y84.335 E36.64767
G1 X101.806 Y84.776 E36.69834
G1 X102.789 Y82.813 E36.87670
G1 X103.230 Y83.254 E36.92736
G1 X102.246 Y85.216 E37.10572
G1 X102.687 Y85.657 E37.15638
G1 X103.671 Y83.695 E37.33474
G1 X104.112 Y84.136 E37.38540
G1 X103.128 Y86.098 E37.56376
G1 X103.569 Y86.539 E37.61443
G1 X104.552 Y84.577 E37.79278
G1 X104.993 Y85.018 E37.84345
G1 X104.010 Y86.980 E38.02180
G1 X104.451 Y87.421 E38.07247
G1 X105.434 Y85.459 E38.25083
G1 X105.875 Y85.899 E38.30149
G1 X104.892 Y87.861 E38.47985
G1 X105.332 Y88.302 E38.53051
G1 X106.316 Y86.340 E38.70887
G1 X106.757 Y86.781 E38.75953
G1 X105.773 Y88.743 E38.93789
G1 X106.214 Y89.184 E38.98856
G1 X107.197 Y87.222 E39.16691
G1 X107.638 Y87.663 E39.21758
G1 X106.655 Y89.625 E39.39593
G1 X107.096 Y90.066 E39.44660
G1 X108.079 Y88.104 E39.62496
G1 X108.520 Y88.544 E39.67562
G1 X107.537 Y90.507 E39.85398
G1 X107.977 Y90.947 E39.90464
G1 X108.961 Y88.985 E40.08300
G1 X109.402 Y89.426 E40.13366
G1 X108.418 Y91.388 E40.31202
G1 X108.859 Y91.829 E40.36269
G1 X109.843 Y89.867 E40.54104
G1 X110.283 Y90.308 E40.59171
G1 X109.300 Y92.270 E40.77006
G1 X109.741 Y92.711 E40.82073
G1 X110.724 Y90.749 E40.99909
G1 X111.165 Y91.190 E41.04975
G1 X110.182 Y93.152 E41.22811
G1 X110.623 Y93.592 E41.27877
G1 X111.606 Y91.630 E41.45713
G1 X112.047 Y92.071 E41.50779
G1 X111.063 Y94.033 E41.68615
G1 X111.504 Y94.474 E41.73682
G1 X112.488 Y92.512 E41.91517
G1 X112.928 Y92.953 E41.96584
G1 X111.945 Y94.915 E42.14419
G1 X112.386 Y95.356 E42.19486
G1 X113.369 Y93.394 E42.37322
G1 X113.810 Y93.835 E42.42388
G1 X112.827 Y95.797 E42.60224
G1 X113.268 Y96.238 E42.65290
G1 X114.251 Y94.275 E42.83126
G1 X114.692 Y94.716 E42.88192
G1 X113.708 Y96.678 E43.06028
G1 X114.149 Y97.119 E43.11095
G1 X115.133 Y95.157 E43.28930
G1 X115.574 Y95.598 E43.33997
G1 X114.590 Y97.560 E43.51832
G1 X115.031 Y98.001 E43.56899
G1 X116.014 Y96.039 E43.74735
G1 X116.455 Y96.480 E43.79801
G1 X115.472 Y98.442 E43.97637
G1 X115.913 Y98.883 E44.02703
G1 X116.896 Y96.920 E44.20539
G1 X117.337 Y97.361 E44.25605
G1 X116.353 Y99.323 E44.43441
G1 X116.794 Y99.764 E44.48508
G1 X117.778 Y97.802 E44.66343
G1 X118.219 Y98.243 E44.71410
G1 X117.235 Y100.205 E44.89245
G1 X117.676 Y100.646 E44.94312
G1 X118.659 Y98.684 E45.12148
G1 X119.100 Y99.125 E45.17214
G1 X118.117 Y101.087 E45.35050
G1 X118.558 Y101.528 E45.40116
G1 X119.541 Y99.566 E45.57952
G1 X119.982 Y100.006 E45.63018
G1 X118.999 Y101.968 E45.80854
G1 X119.439 Y102.409 E45.85921
G1 X120.423 Y100.447 E46.03756
G1 X120.864 Y100.888 E46.08823
G1 X119.880 Y102.850 E46.26658
G1 X120.321 Y103.291 E46.31725
G1 X121.304 Y101.329 E46.49561
G1 X121.745 Y101.770 E46.54627
G1 X120.762 Y103.732 E46.72463
G1 X121.203 Y104.173 E46.77529
G1 X122.186 Y102.211 E46.95365
G1 X122.627 Y102.651 E47.00431
G1 X121.644 Y104.614 E47.18267
G1 X122.084 Y105.054 E47.23334
G1 X123.068 Y103.092 E47.41169
G1 X123.509 Y103.533 E47.46236
G1 X122.525 Y105.495 E47.64071
G1 X122.966 Y105.936 E47.69138
G1 X123.950 Y103.974 E47.86974
G1 X124.390 Y104.415 E47.92040
G1 X123.407 Y106.377 E48.09876
G1 X123.848 Y106.818 E48.14942
G1 X124.831 Y104.856 E48.32778
G1 X125.272 Y105.297 E48.37844
G1 X124.289 Y107.259 E48.55680
G1 X124.730 Y107.699 E48.60747
G1 X125.713 Y105.737 E48.78582
G1 X126.154 Y106.178 E48.83649
G1 X125.170 Y108.140 E49.01485
G1 X125.611 Y108.581 E49.06551
G1 X126.595 Y106.619 E49.24387
G1 X127.035 Y107.060 E49.29453
G1 X126.052 Y109.022 E49.47289
G1 X126.493 Y109.463 E49.52355
G1 X127.476 Y107.501 E49.70191
G1 X127.917 Y107.942 E49.75258
G1 X126.934 Y109.904 E49.93093
G1 X127.375 Y110.345 E49.98160
G1 X128.358 Y108.382 E50.15995
G1 X128.799 Y108.823 E50.21062
G1 X127.815 Y110.785 E50.38898
G1 X128.256 Y111.226 E50.43964
G1 X129.240 Y109.264 E50.61800
G1 X129.681 Y109.705 E50.66866
G1 X128.697 Y111.667 E50.84702
G1 X129.138 Y112.108 E50.89768
G1 X130.121 Y110.146 E51.07604
G1 X130.562 Y110.587 E51.12671
G1 X129.579 Y112.549 E51.30506
G1 X130.020 Y112.990 E51.35573
G1 X131.003 Y111.027 E51.53408
G1 X131.444 Y111.468 E51.58475
G1 X130.460 Y113.430 E51.76311
G1 X130.901 Y113.871 E51.81377
G1 X131.885 Y111.909 E51.99213
G1 X132.326 Y112.350 E52.04279
G1 X131.342 Y114.312 E52.22115
G1 X131.783 Y114.753 E52.27181
G1 X132.766 Y112.791 E52.45017
G1 X133.207 Y113.232 E52.50084
G1 X132.224 Y115.194 E52.67919
