; generated by Slic3r 1.1.7 on 2015-02-21 at 12:53:55

; perimeters extrusion width = 0.47mm
; infill extrusion width = 0.62mm
; solid infill extrusion width = 0.62mm
; top infill extrusion width = 0.62mm
; support material extrusion width = 0.47mm

G21 ; set units to millimeters
M190 S60 ; wait for bed temperature to be reached
M104 S230 ; set temperature
G28 ; home all axes Start of G Code Slic3r
 
 
M109 S230 ; wait for temperature to be reached
G90 ; use absolute coordinates
G92 E0
M82 ; use absolute distances for extrusion
G1 F4200.000 E-3.00000
G92 E0
G1 Z0.294 F7800.000
G1 X17.356 Y41.448 F7800.000
G1 E3.00000 F4200.000
G1 X18.642 Y40.909 E3.10769 F1800.000
G1 X20.258 Y40.724 E3.23330
G1 X164.643 Y40.724 E14.38300
G1 X166.989 Y41.121 E14.56671
G1 X169.073 Y42.268 E14.75042 F1800.000
G1 X170.663 Y44.038 E14.93413
G1 X171.582 Y46.232 E15.11784
G1 X171.767 Y47.848 E15.24346
G1 X171.767 Y152.114 E23.29510
G1 X171.370 Y154.460 E23.47881
G1 X170.223 Y156.544 E23.66252
G1 X168.453 Y158.134 E23.84623
G1 X166.259 Y159.053 E24.02994
G1 X164.645 Y159.238 E24.15541
G1 X20.260 Y159.276 E35.30513
G1 X17.914 Y158.880 E35.48884
G1 X15.830 Y157.733 E35.67255
G1 X14.239 Y155.964 E35.85626
G1 X13.320 Y153.770 E36.03997
G1 X13.134 Y152.152 E36.16573
G1 X13.134 Y47.848 E44.22032
G1 X13.531 Y45.502 E44.40403
G1 X14.678 Y43.418 E44.58774
G1 X16.448 Y41.828 E44.77145
G1 X17.291 Y41.475 E44.84202
G1 X17.509 Y42.020 F7800.000
G1 X20.258 Y41.286 E45.06178 F1800.000
G1 X164.643 Y41.286 E56.21149
G1 X166.891 Y41.683 E56.38774
G1 X168.866 Y42.826 E56.56400 F1800.000
G1 X170.331 Y44.576 E56.74026
G1 X171.205 Y47.848 E57.00178
G1 X171.205 Y152.114 E65.05343
G1 X170.808 Y154.362 E65.22969
G1 X169.665 Y156.338 E65.40595
G1 X167.915 Y157.802 E65.58220
G1 X164.645 Y158.676 E65.84359
G1 X20.260 Y158.714 E76.99331
G1 X18.012 Y158.318 E77.16957
G1 X16.036 Y157.176 E77.34583
G1 X14.570 Y155.425 E77.52209
G1 X13.696 Y152.152 E77.78374
G1 X13.696 Y47.848 E85.83833
G1 X14.093 Y45.600 E86.01459
G1 X15.236 Y43.624 E86.19084
G1 X16.986 Y42.160 E86.36710
G1 X17.440 Y42.038 E86.40341
G1 F4200.000 E83.40341
G92 E0
G1 X164.349 Y151.820 F7800.000
G1 E3.00000 F4200.000
G1 X20.552 Y151.858 E14.10435 F441.000
G1 X20.552 Y52.052 E21.81159
G1 X20.552 Y48.142 E22.11356
G1 X164.349 Y48.142 E33.21790
G1 X164.349 Y151.750 E41.21874
G1 X163.942 Y151.585 F7800.000
G1 X163.787 Y151.258 F7800.000
G1 X21.114 Y151.296 E52.23626 F630.000
G1 X21.114 Y52.052 E59.90007
G1 X21.114 Y48.704 E60.15862
G1 X163.787 Y48.704 E71.17613
G1 X163.787 Y151.188 E79.09016
G1 X163.359 Y49.091 F7800.000
G1 X163.399 Y49.131 E79.09452 F1500.000
G1 X163.399 Y49.928 E79.15601
G1 X162.563 Y49.091 E79.24733
G1 X161.767 Y49.091 E79.30881
G1 X163.399 Y50.724 E79.48708
G1 X163.399 Y51.520 E79.54857
G1 X160.971 Y49.091 E79.81379
G1 X160.175 Y49.091 E79.87527
G1 X163.399 Y52.316 E80.22744
G1 X163.399 Y53.112 E80.28893
G1 X159.378 Y49.091 E80.72805
G1 X158.582 Y49.091 E80.78954
G1 X163.399 Y53.909 E81.31561
G1 X163.399 Y54.705 E81.37709
G1 X157.786 Y49.091 E81.99012
G1 X156.990 Y49.091 E82.05160
G1 X163.399 Y55.501 E82.75158
G1 X163.399 Y56.297 E82.81306
G1 X156.194 Y49.091 E83.59999
G1 X155.398 Y49.091 E83.66148
G1 X163.399 Y57.093 E84.53535
G1 X163.399 Y57.890 E84.59684
G1 X154.601 Y49.091 E85.55767
G1 X153.805 Y49.091 E85.61915
G1 X163.399 Y58.686 E86.66693
G1 X163.399 Y59.482 E86.72841
G1 X153.009 Y49.091 E87.86315
G1 X152.213 Y49.091 E87.92463
G1 X163.399 Y60.278 E89.14631
G1 X163.399 Y61.074 E89.20780
G1 X151.417 Y49.091 E90.51643
G1 X150.620 Y49.091 E90.57791
G1 X163.399 Y61.871 E91.97350
G1 X163.399 Y62.667 E92.03498
G1 X149.824 Y49.091 E93.51752
G1 X149.028 Y49.091 E93.57900
G1 X163.399 Y63.463 E95.14848
G1 X163.399 Y64.259 E95.20997
G1 X148.232 Y49.091 E96.86641
G1 X147.436 Y49.091 E96.92789
G1 X163.399 Y65.055 E98.67128
G1 X163.399 Y65.852 E98.73276
G1 X146.639 Y49.091 E100.56310
G1 X145.843 Y49.091 E100.62458
G1 X163.399 Y66.648 E102.54187
G1 X163.399 Y67.444 E102.60336
G1 X145.047 Y49.091 E104.60760
G1 X144.251 Y49.091 E104.66908
G1 X163.399 Y68.240 E106.76027
G1 X163.399 Y69.036 E106.82176
G1 X143.455 Y49.091 E108.99990
G1 X142.658 Y49.091 E109.06138
G1 X163.399 Y69.832 E111.32647
G1 X163.399 Y70.629 E111.38796
G1 X141.862 Y49.091 E113.74000
G1 X141.066 Y49.091 E113.80149
G1 X163.399 Y71.425 E116.24048
G1 X163.399 Y72.221 E116.30196
G1 X140.270 Y49.091 E118.82791
G1 X139.474 Y49.091 E118.88939
G1 X163.399 Y73.017 E121.50229
G1 X163.399 Y73.813 E121.56378
G1 X138.678 Y49.091 E124.26362
G1 X137.881 Y49.091 E124.32511
G1 X163.399 Y74.610 E127.11191
G1 X163.399 Y75.406 E127.17339
G1 X137.085 Y49.091 E130.04714
G1 X136.289 Y49.091 E130.10862
G1 X163.399 Y76.202 E133.06932
G1 X163.399 Y76.998 E133.13081
G1 X135.493 Y49.091 E136.17846
G1 X134.697 Y49.091 E136.23994
G1 X163.399 Y77.794 E139.37455
G1 X163.399 Y78.591 E139.43603
G1 X133.900 Y49.091 E142.65758
G1 X133.104 Y49.091 E142.71907
G1 X163.399 Y79.387 E146.02757
G1 X163.399 Y80.183 E146.08905
G1 X132.308 Y49.091 E149.48451
G1 X131.512 Y49.091 E149.54599
G1 X163.399 Y80.979 E153.02840
G1 X163.399 Y81.775 E153.08988
G1 X130.716 Y49.091 E156.65924
G1 X129.919 Y49.091 E156.72072
G1 X163.399 Y82.572 E160.37703
G1 X163.399 Y83.368 E160.43852
G1 X129.123 Y49.091 E164.18177
G1 X128.327 Y49.091 E164.24326
G1 X163.399 Y84.164 E168.07347
G1 X163.399 Y84.960 E168.13495
G1 X127.531 Y49.091 E172.05211
G1 X126.735 Y49.091 E172.11360
G1 X163.399 Y85.756 E176.11771
G1 X163.399 Y86.553 E176.17919
G1 X125.938 Y49.091 E180.27025
G1 X125.142 Y49.091 E180.33174
G1 X163.399 Y87.349 E184.50975
G1 X163.399 Y88.145 E184.57124
G1 X124.346 Y49.091 E188.83620
G1 X123.550 Y49.091 E188.89768
G1 X163.399 Y88.941 E193.24960
G1 X163.399 Y89.737 E193.31108
G1 X122.754 Y49.091 E197.74995
G1 X121.957 Y49.091 E197.81143
G1 X163.399 Y90.533 E202.33725
G1 X163.399 Y91.330 E202.39873
G1 X121.161 Y49.091 E207.01150
G1 X120.365 Y49.091 E207.07299
G1 X163.399 Y92.126 E211.77271
G1 X163.399 Y92.922 E211.83419
G1 X119.569 Y49.091 E216.62086
G1 X118.773 Y49.091 E216.68234
G1 X163.399 Y93.718 E221.55596
G1 X163.399 Y94.514 E221.61745
G1 X117.977 Y49.091 E226.57802
G1 X117.180 Y49.091 E226.63950
G1 X163.399 Y95.311 E231.68703
G1 X163.399 Y96.107 E231.74851
G1 X116.384 Y49.091 E236.88298
G1 X115.588 Y49.091 E236.94447
G1 X163.399 Y96.903 E242.16589
G1 X163.399 Y97.699 E242.22738
G1 X114.792 Y49.091 E247.53575
G1 X113.996 Y49.091 E247.59723
G1 X163.399 Y98.495 E252.99256
G1 X163.399 Y99.292 E253.05405
G1 X113.199 Y49.091 E258.53632
G1 X112.403 Y49.091 E258.59781
G1 X163.399 Y100.088 E264.16704
G1 X163.399 Y100.884 E264.22852
G1 X111.607 Y49.091 E269.88470
G1 X110.811 Y49.091 E269.94618
G1 X163.399 Y101.680 E275.68931
G1 X163.399 Y102.476 E275.75080
G1 X110.015 Y49.091 E281.58088
G1 X109.218 Y49.091 E281.64236
G1 X163.399 Y103.273 E287.55939
G1 X163.399 Y104.069 E287.62088
G1 X108.422 Y49.091 E293.62486
G1 X107.626 Y49.091 E293.68634
G1 X163.399 Y104.865 E299.77728
G1 X163.399 Y105.661 E299.83876
G1 X106.830 Y49.091 E306.01664
G1 X106.034 Y49.091 E306.07813
G1 X163.399 Y106.457 E312.34296
G1 X163.399 Y107.253 E312.40445
G1 X105.237 Y49.091 E318.75623
G1 X104.441 Y49.091 E318.81772
G1 X163.399 Y108.050 E325.25646
G1 X163.399 Y108.846 E325.31794
G1 X103.645 Y49.091 E331.84363
G1 X102.849 Y49.091 E331.90511
G1 X163.399 Y109.642 E338.51775
G1 X163.399 Y110.438 E338.57924
G1 X102.053 Y49.091 E345.27883
G1 X101.256 Y49.091 E345.34031
G1 X163.399 Y111.234 E352.12685
G1 X163.399 Y112.031 E352.18833
G1 X100.460 Y49.091 E359.06183
G1 X99.664 Y49.091 E359.12331
G1 X163.399 Y112.827 E366.08375
G1 X163.399 Y113.623 E366.14524
G1 X98.868 Y49.091 E373.19263
G1 X98.072 Y49.091 E373.25411
G1 X163.399 Y114.419 E380.38846
G1 X163.399 Y115.215 E380.44994
G1 X97.276 Y49.091 E387.67124
G1 X96.479 Y49.091 E387.73272
G1 X163.399 Y116.012 E395.04097
G1 X163.399 Y116.808 E395.10245
G1 X95.683 Y49.091 E402.49765
G1 X94.887 Y49.091 E402.55913
G1 X163.399 Y117.604 E410.04128
G1 X163.399 Y118.400 E410.10277
G1 X94.091 Y49.091 E417.67187
G1 X93.295 Y49.091 E417.73335
G1 X163.399 Y119.196 E425.38940
G1 X163.399 Y119.993 E425.45088
G1 X92.498 Y49.091 E433.19389
G1 X91.702 Y49.091 E433.25537
G1 X163.399 Y120.789 E441.08532
G1 X163.399 Y121.585 E441.14681
G1 X90.906 Y49.091 E449.06371
G1 X90.110 Y49.091 E449.12519
G1 X163.399 Y122.381 E457.12905
G1 X163.399 Y123.177 E457.19053
G1 X89.314 Y49.091 E465.28134
G1 X88.517 Y49.091 E465.34282
G1 X163.399 Y123.974 E473.52058
G1 X163.399 Y124.770 E473.58206
G1 X87.721 Y49.091 E481.84677
G1 X86.925 Y49.091 E481.90825
G1 X163.399 Y125.566 E490.25991
G1 X163.399 Y126.362 E490.32139
G1 X86.129 Y49.091 E498.76000
G1 X85.333 Y49.091 E498.82148
G1 X163.399 Y127.158 E507.34704
G1 X163.399 Y127.954 E507.40853
G1 X84.536 Y49.091 E516.02104
G1 X83.740 Y49.091 E516.08252
G1 X163.399 Y128.751 E524.78198
G1 X163.399 Y129.547 E524.84347
G1 X82.944 Y49.091 E533.62988
G1 X82.148 Y49.091 E533.69136
G1 X163.399 Y130.343 E542.56473
G1 X163.399 Y131.139 E542.62621
G1 X81.352 Y49.091 E551.58653
G1 X80.556 Y49.091 E551.64801
G1 X163.399 Y131.935 E560.69527
G1 X163.399 Y132.732 E560.75676
G1 X79.759 Y49.091 E569.89097
G1 X78.963 Y49.091 E569.95246
G1 X163.399 Y133.528 E579.17363
G1 X163.399 Y134.324 E579.23511
G1 X78.167 Y49.091 E588.54323
G1 X77.371 Y49.091 E588.60471
G1 X163.399 Y135.120 E597.99978
G1 X163.399 Y135.916 E598.06126
G1 X76.575 Y49.091 E607.54328
G1 X75.778 Y49.091 E607.60477
G1 X163.399 Y136.713 E617.17374
G1 X163.399 Y137.509 E617.23522
G1 X74.982 Y49.091 E626.89114
G1 X74.186 Y49.091 E626.95263
G1 X163.399 Y138.305 E636.69550
G1 X163.399 Y139.101 E636.75698
G1 X73.390 Y49.091 E646.58681
G1 X72.594 Y49.091 E646.64829
G1 X163.399 Y139.897 E656.56507
G1 X163.399 Y140.694 E656.62655
G1 X71.797 Y49.091 E666.63027
G1 X71.001 Y49.091 E666.69176
G1 X163.399 Y141.490 E676.78243
G1 X163.399 Y142.286 E676.84392
G1 X70.205 Y49.091 E687.02155
G1 X69.409 Y49.091 E687.08303
G1 X163.399 Y143.082 E697.34761
G1 X163.399 Y143.878 E697.40909
G1 X68.613 Y49.091 E707.76062
G1 X67.816 Y49.091 E707.82210
G1 X163.399 Y144.675 E718.26058
G1 X163.399 Y145.471 E718.32207
G1 X67.020 Y49.091 E728.84750
G1 X66.224 Y49.091 E728.90898
G1 X163.399 Y146.267 E739.52136
G1 X163.399 Y147.063 E739.58285
G1 X65.428 Y49.091 E750.28218
G1 X64.632 Y49.091 E750.34366
G1 X163.399 Y147.859 E761.12995
G1 X163.399 Y148.655 E761.19143
G1 X63.835 Y49.091 E772.06467
G1 X63.039 Y49.091 E772.12615
G1 X163.399 Y149.452 E783.08634
G1 X163.399 Y150.248 E783.14782
G1 X62.243 Y49.091 E794.19496
G1 X61.447 Y49.091 E794.25644
G1 X163.226 Y150.871 E805.37162
G1 X162.430 Y150.871 E805.43308
G1 X60.651 Y49.091 E816.54828
G1 X59.855 Y49.091 E816.60977
G1 X161.634 Y150.871 E827.72499
G1 X160.838 Y150.872 E827.78646
G1 X59.058 Y49.091 E838.90170
G1 X58.262 Y49.091 E838.96319
G1 X160.042 Y150.872 E850.07846
G1 X159.246 Y150.872 E850.13992
G1 X57.466 Y49.091 E861.25521
G1 X56.670 Y49.091 E861.31670
G1 X158.450 Y150.872 E872.43201
G1 X157.654 Y150.872 E872.49348
G1 X55.874 Y49.091 E883.60882
G1 X55.077 Y49.091 E883.67030
G1 X156.858 Y150.873 E894.78566
G1 X156.062 Y150.873 E894.84713
G1 X54.281 Y49.091 E905.96251
G1 X53.485 Y49.091 E906.02399
G1 X155.266 Y150.873 E917.13940
G1 X154.470 Y150.873 E917.20087
G1 X52.689 Y49.091 E928.31630
G1 X51.893 Y49.091 E928.37778
G1 X153.675 Y150.873 E939.49323
G1 X152.879 Y150.874 E939.55470
G1 X51.096 Y49.091 E950.67017
G1 X50.300 Y49.091 E950.73166
G1 X152.083 Y150.874 E961.84715
G1 X151.287 Y150.874 E961.90862
G1 X49.504 Y49.091 E973.02414
G1 X48.708 Y49.091 E973.08562
G1 X150.491 Y150.874 E984.20117
G1 X149.695 Y150.874 E984.26263
G1 X47.912 Y49.091 E995.37820
G1 X47.115 Y49.091 E995.43968
G1 X148.899 Y150.875 E1006.55527
G1 X148.103 Y150.875 E1006.61674
G1 X46.319 Y49.091 E1017.73235
G1 X45.523 Y49.091 E1017.79384
G1 X147.307 Y150.875 E1028.90947
G1 X146.511 Y150.875 E1028.97094
G1 X44.727 Y49.091 E1040.08660
G1 X43.931 Y49.091 E1040.14808
G1 X145.715 Y150.875 E1051.26376
G1 X144.919 Y150.876 E1051.32523
G1 X43.134 Y49.091 E1062.44093
G1 X42.338 Y49.091 E1062.50241
G1 X144.123 Y150.876 E1073.61814
G1 X143.327 Y150.876 E1073.67961
G1 X41.542 Y49.091 E1084.79536
G1 X40.746 Y49.091 E1084.85684
G1 X142.531 Y150.876 E1095.97261
G1 X141.735 Y150.877 E1096.03408
G1 X39.950 Y49.091 E1107.14987
G1 X39.154 Y49.091 E1107.21136
G1 X140.939 Y150.877 E1118.32717
G1 X140.143 Y150.877 E1118.38864
G1 X38.357 Y49.091 E1129.50448
G1 X37.561 Y49.091 E1129.56597
G1 X139.347 Y150.877 E1140.68183
G1 X138.551 Y150.877 E1140.74330
G1 X36.765 Y49.091 E1151.85918
G1 X35.969 Y49.091 E1151.92067
G1 X137.755 Y150.878 E1163.03658
G1 X136.959 Y150.878 E1163.09804
G1 X35.173 Y49.091 E1174.21397
G1 X34.376 Y49.091 E1174.27546
G1 X136.163 Y150.878 E1185.39141
G1 X135.367 Y150.878 E1185.45288
G1 X33.580 Y49.091 E1196.56886
G1 X32.784 Y49.091 E1196.63034
G1 X134.571 Y150.878 E1207.74634
G1 X133.775 Y150.879 E1207.80781
G1 X31.988 Y49.091 E1218.92383
G1 X31.192 Y49.091 E1218.98532
G1 X132.979 Y150.879 E1230.10136
G1 X132.183 Y150.879 E1230.16283
G1 X30.395 Y49.091 E1241.27890
G1 X29.599 Y49.091 E1241.34038
G1 X131.387 Y150.879 E1252.45648
G1 X130.591 Y150.879 E1252.51794
G1 X28.803 Y49.091 E1263.63406
G1 X28.007 Y49.091 E1263.69554
G1 X129.795 Y150.880 E1274.81168
G1 X128.999 Y150.880 E1274.87315
G1 X27.211 Y49.091 E1285.98931
G1 X26.414 Y49.091 E1286.05079
G1 X128.203 Y150.880 E1297.16698
G1 X127.407 Y150.880 E1297.22844
G1 X25.618 Y49.091 E1308.34465
G1 X24.822 Y49.091 E1308.40613
G1 X126.611 Y150.881 E1319.52236
G1 X125.815 Y150.881 E1319.58383
G1 X24.026 Y49.091 E1330.70008
G1 X23.230 Y49.091 E1330.76157
G1 X125.019 Y150.881 E1341.87784
G1 X124.223 Y150.881 E1341.93931
G1 X22.433 Y49.091 E1353.05561
G1 X21.637 Y49.091 E1353.11709
G1 X123.427 Y150.881 E1364.23341
G1 X122.631 Y150.882 E1364.29488
G1 X21.502 Y49.752 E1375.33910
G1 X21.502 Y50.548 E1375.40058
G1 X121.835 Y150.882 E1386.35788
G1 X121.039 Y150.882 E1386.41935
G1 X21.502 Y51.344 E1397.28971
G1 X21.502 Y52.140 E1397.35120
G1 X120.243 Y150.882 E1408.13463
G1 X119.447 Y150.882 E1408.19610
G1 X21.502 Y52.937 E1418.89261
G1 X21.502 Y53.733 E1418.95409
G1 X118.651 Y150.883 E1429.56368
G1 X117.855 Y150.883 E1429.62514
G1 X21.502 Y54.529 E1440.14780
G1 X21.502 Y55.325 E1440.20928
G1 X117.059 Y150.883 E1450.64501
G1 X116.263 Y150.883 E1450.70648
G1 X21.502 Y56.121 E1461.05527
G1 X21.502 Y56.918 E1461.11676
G1 X115.467 Y150.883 E1471.37863
G1 X114.671 Y150.884 E1471.44009
G1 X21.502 Y57.714 E1481.61504
G1 X21.502 Y58.510 E1481.67652
G1 X113.875 Y150.884 E1491.76453
G1 X113.079 Y150.884 E1491.82600
G1 X21.502 Y59.306 E1501.82709
G1 X21.502 Y60.102 E1501.88857
G1 X112.283 Y150.884 E1511.80273
G1 X111.487 Y150.885 E1511.86420
G1 X21.502 Y60.899 E1521.69143
G1 X21.502 Y61.695 E1521.75291
G1 X110.691 Y150.885 E1531.49321
G1 X109.895 Y150.885 E1531.55468
G1 X21.502 Y62.491 E1541.20805
G1 X21.502 Y63.287 E1541.26954
G1 X109.100 Y150.885 E1550.83598
G1 X108.304 Y150.885 E1550.89745
G1 X21.502 Y64.083 E1560.37697
G1 X21.502 Y64.880 E1560.43845
G1 X107.508 Y150.886 E1569.83104
G1 X106.712 Y150.886 E1569.89251
G1 X21.502 Y65.676 E1579.19817
G1 X21.502 Y66.472 E1579.25966
G1 X105.916 Y150.886 E1588.47839
G1 X105.120 Y150.886 E1588.53986
G1 X21.502 Y67.268 E1597.67167
G1 X21.502 Y68.064 E1597.73315
G1 X104.324 Y150.886 E1606.77803
G1 X103.528 Y150.887 E1606.83949
G1 X21.502 Y68.860 E1615.79745
G1 X21.502 Y69.657 E1615.85893
G1 X102.732 Y150.887 E1624.72995
G1 X101.936 Y150.887 E1624.79142
G1 X21.502 Y70.453 E1633.57551
G1 X21.502 Y71.249 E1633.63700
G1 X101.140 Y150.887 E1642.33416
G1 X100.344 Y150.887 E1642.39563
G1 X21.502 Y72.045 E1651.00587
G1 X21.502 Y72.841 E1651.06735
G1 X99.548 Y150.888 E1659.59066
G1 X98.752 Y150.888 E1659.65213
G1 X21.502 Y73.638 E1668.08851
G1 X21.502 Y74.434 E1668.15000
G1 X97.956 Y150.888 E1676.49945
G1 X97.160 Y150.888 E1676.56092
G1 X21.502 Y75.230 E1684.82344
G1 X21.502 Y76.026 E1684.88493
G1 X96.364 Y150.888 E1693.06053
G1 X95.568 Y150.889 E1693.12199
G1 X21.502 Y76.822 E1701.21066
G1 X21.501 Y77.619 E1701.27215
G1 X94.772 Y150.889 E1709.27389
