; generated by Slic3r 1.1.7 on 2015-02-21 at 12:53:39

; perimeters extrusion width = 0.47mm
; infill extrusion width = 0.62mm
; solid infill extrusion width = 0.62mm
; top infill extrusion width = 0.62mm
; support material extrusion width = 0.47mm

G21 ; set units to millimeters
M190 S60 ; wait for bed temperature to be reached
M104 S230 ; set temperature
G28 ; home all axes Start of G Code Slic3r
 
 
M109 S230 ; wait for temperature to be reached
G90 ; use absolute coordinates
G92 E0
M82 ; use absolute distances for extrusion
G1 F4200.000 E-3.00000
G92 E0
G1 Z0.294 F7800.000
G1 X18.614 Y45.114 F7800.000
G1 E3.00000 F4200.000
G1 X20.233 Y44.928 E3.12584 F1800.000
G1 X56.326 Y44.943 E5.91300
G1 X164.618 Y44.987 E14.27556 F1800.000
G1 X166.963 Y45.385 E14.45926
G1 X169.047 Y46.533 E14.64297
G1 X170.636 Y48.303 E14.82668
G1 X171.554 Y50.498 E15.01039
G1 X171.739 Y52.111 E15.13579
G1 X171.739 Y147.949 E22.53656
G1 X171.342 Y150.294 E22.72027
G1 X170.195 Y152.378 E22.90398
G1 X168.425 Y153.968 E23.08769
G1 X166.231 Y154.887 E23.27140
G1 X164.615 Y155.073 E23.39702
G1 X20.230 Y155.073 E34.54672
G1 X17.885 Y154.676 E34.73043
G1 X15.800 Y153.528 E34.91414
G1 X14.210 Y151.759 E35.09785
G1 X13.291 Y149.565 E35.28156
G1 X13.106 Y147.949 E35.40718
G1 X13.106 Y52.053 E42.81247
G1 X13.503 Y49.707 E42.99618
G1 X14.650 Y47.623 E43.17989
G1 X16.420 Y46.033 E43.36360
G1 X18.549 Y45.141 E43.54187
G1 X18.815 Y45.869 F7800.000
G1 X20.233 Y45.490 E43.65515 F1800.000
G1 X56.325 Y45.505 E46.44230
G1 X164.618 Y45.549 E54.80486 F1800.000
G1 X166.865 Y45.947 E54.98112
G1 X168.841 Y47.090 E55.15738
G1 X170.305 Y48.841 E55.33364
G1 X171.177 Y52.111 E55.59496
G1 X171.177 Y147.949 E62.99573
G1 X170.780 Y150.196 E63.17199
G1 X169.637 Y152.172 E63.34825
G1 X167.887 Y153.637 E63.52451
G1 X164.615 Y154.511 E63.78603
G1 X20.230 Y154.511 E74.93573
G1 X17.982 Y154.114 E75.11199
G1 X16.007 Y152.971 E75.28825
G1 X14.542 Y151.220 E75.46451
G1 X13.668 Y147.949 E75.72603
G1 X13.668 Y52.053 E83.13132
G1 X14.065 Y49.805 E83.30758
G1 X15.208 Y47.829 E83.48384
G1 X16.958 Y46.364 E83.66010
G1 X18.747 Y45.887 E83.80310
G1 F4200.000 E80.80310
G92 E0
G1 X164.321 Y147.655 F7800.000
G1 E3.00000 F4200.000
G1 X20.524 Y147.655 E14.10434 F441.000
G1 X20.524 Y102.103 E17.62199
G1 X20.524 Y52.346 E21.46426
G1 X164.321 Y52.405 E32.56861
G1 X164.321 Y147.584 E39.91858
G1 X163.914 Y147.420 F7800.000
G1 X163.759 Y147.093 F7800.000
G1 X21.086 Y147.093 E50.93609 F630.000
G1 X21.086 Y102.103 E54.41032
G1 X21.086 Y52.909 E58.20915
G1 X163.759 Y52.967 E69.22667
G1 X163.759 Y147.022 E76.48983
G1 X163.332 Y53.354 F7800.000
G1 X163.372 Y53.394 E76.49420 F1500.000
G1 X163.372 Y54.191 E76.55576
G1 X162.534 Y53.354 E76.64722
G1 X161.737 Y53.353 E76.70881
G1 X163.372 Y54.988 E76.88737
G1 X163.372 Y55.786 E76.94893
G1 X160.939 Y53.353 E77.21458
G1 X160.142 Y53.353 E77.27616
G1 X163.372 Y56.583 E77.62891
G1 X163.372 Y57.380 E77.69047
G1 X159.344 Y53.352 E78.13031
G1 X158.547 Y53.352 E78.19189
G1 X163.372 Y58.177 E78.71883
G1 X163.372 Y58.974 E78.78039
G1 X157.749 Y53.352 E79.39441
G1 X156.952 Y53.351 E79.45600
G1 X163.372 Y59.771 E80.15712
G1 X163.372 Y60.569 E80.21868
G1 X156.154 Y53.351 E81.00690
G1 X155.357 Y53.351 E81.06848
G1 X163.372 Y61.366 E81.94379
G1 X163.372 Y62.163 E82.00535
G1 X154.559 Y53.351 E82.96776
G1 X153.762 Y53.350 E83.02934
G1 X163.372 Y62.960 E84.07884
G1 X163.372 Y63.757 E84.14040
G1 X152.964 Y53.350 E85.27699
G1 X152.166 Y53.350 E85.33858
G1 X163.372 Y64.555 E86.56227
G1 X163.372 Y65.352 E86.62383
G1 X151.369 Y53.349 E87.93461
G1 X150.571 Y53.349 E87.99619
G1 X163.372 Y66.149 E89.39407
G1 X163.372 Y66.946 E89.45563
G1 X149.774 Y53.349 E90.94060
G1 X148.976 Y53.348 E91.00218
G1 X163.372 Y67.743 E92.57424
G1 X163.372 Y68.541 E92.63580
G1 X148.179 Y53.348 E94.29496
G1 X147.381 Y53.348 E94.35655
G1 X163.372 Y69.338 E96.10280
G1 X163.372 Y70.135 E96.16436
G1 X146.584 Y53.347 E97.99770
G1 X145.786 Y53.347 E98.05929
G1 X163.372 Y70.932 E99.97973
G1 X163.372 Y71.729 E100.04129
G1 X144.989 Y53.347 E102.04882
G1 X144.191 Y53.346 E102.11041
G1 X163.372 Y72.526 E104.20503
G1 X163.372 Y73.324 E104.26659
G1 X143.394 Y53.346 E106.44832
G1 X142.596 Y53.346 E106.50990
G1 X163.372 Y74.121 E108.77872
G1 X163.372 Y74.918 E108.84028
G1 X141.799 Y53.345 E111.19619
G1 X141.001 Y53.345 E111.25777
G1 X163.372 Y75.715 E113.70078
G1 X163.372 Y76.512 E113.76234
G1 X140.204 Y53.345 E116.29243
G1 X139.406 Y53.344 E116.35402
G1 X163.372 Y77.310 E118.97121
G1 X163.372 Y78.107 E119.03277
G1 X138.609 Y53.344 E121.73706
G1 X137.811 Y53.344 E121.79864
G1 X163.372 Y78.904 E124.59002
G1 X163.372 Y79.701 E124.65158
G1 X137.014 Y53.343 E127.53006
G1 X136.216 Y53.343 E127.59164
G1 X163.372 Y80.498 E130.55721
G1 X163.372 Y81.295 E130.61877
G1 X135.419 Y53.343 E133.67144
G1 X134.621 Y53.343 E133.73302
G1 X163.372 Y82.093 E136.87278
G1 X163.372 Y82.890 E136.93434
G1 X133.824 Y53.342 E140.16119
G1 X133.026 Y53.342 E140.22277
G1 X163.372 Y83.687 E143.53672
G1 X163.372 Y84.484 E143.59828
G1 X132.229 Y53.342 E146.99932
G1 X131.431 Y53.341 E147.06090
G1 X163.372 Y85.281 E150.54904
G1 X163.372 Y86.079 E150.61060
G1 X130.634 Y53.341 E154.18582
G1 X129.836 Y53.341 E154.24741
G1 X163.372 Y86.876 E157.90973
G1 X163.372 Y87.673 E157.97129
G1 X129.039 Y53.340 E161.72071
G1 X128.241 Y53.340 E161.78229
G1 X163.372 Y88.470 E165.61880
G1 X163.372 Y89.267 E165.68036
G1 X127.444 Y53.340 E169.60397
G1 X126.646 Y53.339 E169.66555
G1 X163.372 Y90.064 E173.67625
G1 X163.372 Y90.862 E173.73781
G1 X125.849 Y53.339 E177.83560
G1 X125.051 Y53.339 E177.89719
G1 X163.372 Y91.659 E182.08207
G1 X163.372 Y92.456 E182.14363
G1 X124.254 Y53.338 E186.41561
G1 X123.456 Y53.338 E186.47720
G1 X163.372 Y93.253 E190.83627
G1 X163.372 Y94.050 E190.89783
G1 X122.659 Y53.338 E195.34400
G1 X121.861 Y53.337 E195.40559
G1 X163.372 Y94.848 E199.93885
G1 X163.372 Y95.645 E200.00041
G1 X121.064 Y53.337 E204.62077
G1 X120.266 Y53.337 E204.68235
G1 X163.372 Y96.442 E209.38980
G1 X163.372 Y97.239 E209.45136
G1 X119.469 Y53.336 E214.24591
G1 X118.671 Y53.336 E214.30749
G1 X163.372 Y98.036 E219.18913
G1 X163.372 Y98.833 E219.25069
G1 X117.874 Y53.336 E224.21942
G1 X117.076 Y53.335 E224.28101
G1 X163.372 Y99.631 E229.33684
G1 X163.372 Y100.428 E229.39840
G1 X116.279 Y53.335 E234.54132
G1 X115.481 Y53.335 E234.60290
G1 X163.372 Y101.225 E239.83292
G1 X163.372 Y102.022 E239.89448
G1 X114.684 Y53.334 E245.21159
G1 X113.886 Y53.334 E245.27317
G1 X163.372 Y102.819 E250.67738
G1 X163.372 Y103.617 E250.73894
G1 X113.089 Y53.334 E256.23024
G1 X112.291 Y53.334 E256.29182
G1 X163.372 Y104.414 E261.87021
G1 X163.372 Y105.211 E261.93177
G1 X111.494 Y53.333 E267.59726
G1 X110.696 Y53.333 E267.65884
G1 X163.372 Y106.008 E273.41142
G1 X163.372 Y106.805 E273.47298
G1 X109.899 Y53.333 E279.31266
G1 X109.101 Y53.332 E279.37424
G1 X163.372 Y107.602 E285.30101
G1 X163.372 Y108.400 E285.36257
G1 X108.304 Y53.332 E291.37643
G1 X107.506 Y53.332 E291.43802
G1 X163.372 Y109.197 E297.53898
G1 X163.372 Y109.994 E297.60054
G1 X106.709 Y53.331 E303.78859
G1 X105.911 Y53.331 E303.85017
G1 X163.372 Y110.791 E310.12532
G1 X163.372 Y111.588 E310.18688
G1 X105.114 Y53.331 E316.54912
G1 X104.316 Y53.330 E316.61070
G1 X163.372 Y112.386 E323.06003
G1 X163.372 Y113.183 E323.12159
G1 X103.519 Y53.330 E329.65802
G1 X102.721 Y53.330 E329.71961
G1 X163.372 Y113.980 E336.34313
G1 X163.372 Y114.777 E336.40469
G1 X101.924 Y53.329 E343.11530
G1 X101.126 Y53.329 E343.17689
G1 X163.372 Y115.574 E349.97460
G1 X163.372 Y116.371 E350.03616
G1 X100.329 Y53.329 E356.92096
G1 X99.531 Y53.328 E356.98255
G1 X163.372 Y117.169 E363.95444
G1 X163.372 Y117.966 E364.01600
G1 X98.734 Y53.328 E371.07500
G1 X97.936 Y53.328 E371.13658
G1 X163.372 Y118.763 E378.28267
G1 X163.372 Y119.560 E378.34423
G1 X97.139 Y53.327 E385.57741
G1 X96.341 Y53.327 E385.63899
G1 X163.372 Y120.357 E392.95927
G1 X163.372 Y121.155 E393.02083
G1 X95.544 Y53.327 E400.42819
G1 X94.746 Y53.326 E400.48978
G1 X163.372 Y121.952 E407.98424
G1 X163.372 Y122.749 E408.04580
G1 X93.949 Y53.326 E415.62736
G1 X93.151 Y53.326 E415.68894
G1 X163.372 Y123.546 E423.35759
G1 X163.372 Y124.343 E423.41915
G1 X92.354 Y53.326 E431.17490
G1 X91.556 Y53.325 E431.23648
G1 X163.372 Y125.140 E439.07932
G1 X163.372 Y125.938 E439.14088
G1 X90.759 Y53.325 E447.07081
G1 X89.961 Y53.325 E447.13240
G1 X163.372 Y126.735 E455.14943
G1 X163.372 Y127.532 E455.21099
G1 X89.164 Y53.324 E463.31511
G1 X88.366 Y53.324 E463.37669
G1 X163.372 Y128.329 E471.56791
G1 X163.372 Y129.126 E471.62947
G1 X87.569 Y53.324 E479.90778
G1 X86.771 Y53.323 E479.96936
G1 X163.372 Y129.924 E488.33477
G1 X163.372 Y130.721 E488.39633
G1 X85.974 Y53.323 E496.84882
G1 X85.176 Y53.323 E496.91041
G1 X163.372 Y131.518 E505.45000
G1 X163.372 Y132.315 E505.51156
G1 X84.379 Y53.322 E514.13825
G1 X83.581 Y53.322 E514.19983
G1 X163.372 Y133.112 E522.91361
G1 X163.372 Y133.910 E522.97517
G1 X82.784 Y53.322 E531.77604
G1 X81.986 Y53.321 E531.83763
G1 X163.372 Y134.707 E540.72560
G1 X163.372 Y135.504 E540.78716
G1 X81.189 Y53.321 E549.76222
G1 X80.391 Y53.321 E549.82380
G1 X163.372 Y136.301 E558.88596
G1 X163.372 Y137.098 E558.94752
G1 X79.594 Y53.320 E568.09677
G1 X78.796 Y53.320 E568.15836
G1 X163.372 Y137.895 E577.39470
G1 X163.372 Y138.693 E577.45626
G1 X77.999 Y53.320 E586.77970
G1 X77.201 Y53.319 E586.84128
G1 X163.372 Y139.490 E596.25182
G1 X163.372 Y140.287 E596.31338
G1 X76.404 Y53.319 E605.81100
G1 X75.606 Y53.319 E605.87259
G1 X163.372 Y141.084 E615.45731
G1 X163.372 Y141.881 E615.51887
G1 X74.809 Y53.318 E625.19068
G1 X74.011 Y53.318 E625.25227
G1 X163.372 Y142.679 E635.01118
G1 X163.372 Y143.476 E635.07274
G1 X73.214 Y53.318 E644.91874
G1 X72.416 Y53.318 E644.98033
G1 X163.372 Y144.273 E654.91342
G1 X163.372 Y145.070 E654.97498
G1 X71.619 Y53.317 E664.99518
G1 X70.821 Y53.317 E665.05676
G1 X163.372 Y145.867 E675.16405
G1 X163.372 Y146.664 E675.22561
G1 X70.024 Y53.317 E685.41999
G1 X69.226 Y53.316 E685.48157
G1 X162.615 Y146.705 E695.68042
G1 X161.818 Y146.705 E695.74198
G1 X68.429 Y53.316 E705.94086
G1 X67.631 Y53.316 E706.00244
G1 X161.021 Y146.705 E716.20136
G1 X160.223 Y146.705 E716.26292
G1 X66.834 Y53.315 E726.46187
G1 X66.036 Y53.315 E726.52346
G1 X159.426 Y146.705 E736.72244
G1 X158.629 Y146.705 E736.78400
G1 X65.239 Y53.315 E746.98303
G1 X64.441 Y53.314 E747.04461
G1 X157.832 Y146.705 E757.24367
G1 X157.035 Y146.705 E757.30523
G1 X63.644 Y53.314 E767.50432
G1 X62.846 Y53.314 E767.56590
G1 X156.237 Y146.705 E777.76503
G1 X155.440 Y146.705 E777.82659
G1 X62.049 Y53.313 E788.02575
G1 X61.251 Y53.313 E788.08734
G1 X154.643 Y146.705 E798.28653
G1 X153.846 Y146.705 E798.34809
G1 X60.454 Y53.313 E808.54732
G1 X59.656 Y53.312 E808.60891
G1 X153.049 Y146.705 E818.80818
G1 X152.252 Y146.705 E818.86974
G1 X58.859 Y53.312 E829.06904
G1 X58.061 Y53.312 E829.13062
G1 X151.454 Y146.705 E839.32996
G1 X150.657 Y146.705 E839.39152
G1 X57.264 Y53.311 E849.59089
G1 X56.466 Y53.311 E849.65248
G1 X149.860 Y146.705 E859.85188
G1 X149.063 Y146.705 E859.91344
G1 X55.669 Y53.311 E870.11288
G1 X54.871 Y53.310 E870.17447
G1 X148.266 Y146.705 E880.37394
G1 X147.468 Y146.705 E880.43550
G1 X54.074 Y53.310 E890.63502
G1 X53.276 Y53.310 E890.69660
G1 X146.671 Y146.705 E900.89615
G1 X145.874 Y146.705 E900.95771
G1 X52.479 Y53.310 E911.15729
G1 X51.681 Y53.309 E911.21887
G1 X145.077 Y146.705 E921.41849
G1 X144.280 Y146.705 E921.48005
G1 X50.884 Y53.309 E931.67970
G1 X50.086 Y53.309 E931.74128
G1 X143.483 Y146.705 E941.94097
G1 X142.685 Y146.705 E942.00253
G1 X49.289 Y53.308 E952.20225
G1 X48.491 Y53.308 E952.26384
G1 X141.888 Y146.705 E962.46359
G1 X141.091 Y146.705 E962.52515
G1 X47.694 Y53.308 E972.72494
G1 X46.896 Y53.307 E972.78653
G1 X140.294 Y146.705 E982.98635
G1 X139.497 Y146.705 E983.04791
G1 X46.099 Y53.307 E993.24778
G1 X45.301 Y53.307 E993.30936
G1 X138.699 Y146.705 E1003.50926
G1 X137.902 Y146.705 E1003.57082
G1 X44.504 Y53.306 E1013.77075
G1 X43.706 Y53.306 E1013.83233
G1 X137.105 Y146.705 E1024.03230
G1 X136.308 Y146.705 E1024.09386
G1 X42.909 Y53.306 E1034.29386
G1 X42.111 Y53.305 E1034.35544
G1 X135.511 Y146.705 E1044.55548
G1 X134.714 Y146.705 E1044.61704
G1 X41.314 Y53.305 E1054.81711
G1 X40.516 Y53.305 E1054.87870
G1 X133.916 Y146.705 E1065.07880
G1 X133.119 Y146.705 E1065.14036
G1 X39.719 Y53.304 E1075.34050
G1 X38.921 Y53.304 E1075.40209
G1 X132.322 Y146.705 E1085.60226
G1 X131.525 Y146.705 E1085.66382
G1 X38.124 Y53.304 E1095.86403
G1 X37.326 Y53.303 E1095.92562
G1 X130.728 Y146.705 E1106.12586
G1 X129.930 Y146.705 E1106.18742
G1 X36.529 Y53.303 E1116.38771
G1 X35.731 Y53.303 E1116.44929
G1 X129.133 Y146.705 E1126.64961
G1 X128.336 Y146.705 E1126.71117
G1 X34.934 Y53.302 E1136.91152
G1 X34.136 Y53.302 E1136.97310
G1 X127.539 Y146.705 E1147.17349
G1 X126.742 Y146.705 E1147.23505
G1 X33.339 Y53.302 E1157.43547
G1 X32.541 Y53.302 E1157.49705
G1 X125.945 Y146.705 E1167.69751
G1 X125.147 Y146.705 E1167.75907
G1 X31.744 Y53.301 E1177.95956
G1 X30.946 Y53.301 E1178.02114
G1 X124.350 Y146.705 E1188.22167
G1 X123.553 Y146.705 E1188.28323
G1 X30.149 Y53.301 E1198.48379
G1 X29.351 Y53.300 E1198.54537
G1 X122.756 Y146.705 E1208.74597
G1 X121.959 Y146.705 E1208.80753
G1 X28.554 Y53.300 E1219.00816
G1 X27.756 Y53.300 E1219.06974
G1 X121.161 Y146.705 E1229.27041
G1 X120.364 Y146.705 E1229.33197
G1 X26.959 Y53.299 E1239.53267
G1 X26.161 Y53.299 E1239.59426
G1 X119.567 Y146.705 E1249.79499
G1 X118.770 Y146.705 E1249.85655
G1 X25.364 Y53.299 E1260.05732
G1 X24.566 Y53.298 E1260.11891
G1 X117.973 Y146.705 E1270.31971
G1 X117.176 Y146.705 E1270.38127
G1 X23.769 Y53.298 E1280.58211
G1 X22.971 Y53.298 E1280.64370
G1 X116.378 Y146.705 E1290.84457
G1 X115.581 Y146.705 E1290.90613
G1 X22.173 Y53.297 E1301.10706
G1 X21.474 Y53.395 E1301.16162
G1 X114.784 Y146.705 E1311.35192
G1 X113.987 Y146.705 E1311.41348
G1 X21.474 Y54.192 E1321.51672
G1 X21.474 Y54.989 E1321.57828
G1 X113.190 Y146.705 E1331.59445
G1 X112.392 Y146.705 E1331.65601
G1 X21.474 Y55.786 E1341.58513
G1 X21.474 Y56.583 E1341.64669
G1 X111.595 Y146.705 E1351.48875
G1 X110.798 Y146.705 E1351.55031
G1 X21.474 Y57.380 E1361.30531
G1 X21.474 Y58.178 E1361.36687
G1 X110.001 Y146.705 E1371.03481
G1 X109.204 Y146.705 E1371.09637
G1 X21.474 Y58.975 E1380.67725
G1 X21.474 Y59.772 E1380.73881
G1 X108.407 Y146.705 E1390.23263
G1 X107.609 Y146.705 E1390.29419
G1 X21.474 Y60.569 E1399.70095
G1 X21.474 Y61.366 E1399.76251
G1 X106.812 Y146.705 E1409.08222
G1 X106.015 Y146.705 E1409.14378
G1 X21.474 Y62.164 E1418.37642
G1 X21.474 Y62.961 E1418.43798
G1 X105.218 Y146.705 E1427.58357
G1 X104.421 Y146.705 E1427.64513
G1 X21.474 Y63.758 E1436.70365
G1 X21.474 Y64.555 E1436.76521
G1 X103.623 Y146.705 E1445.73668
G1 X102.826 Y146.705 E1445.79824
G1 X21.474 Y65.352 E1454.68265
G1 X21.474 Y66.150 E1454.74421
G1 X102.029 Y146.705 E1463.54155
G1 X101.232 Y146.705 E1463.60311
G1 X21.474 Y66.947 E1472.31340
G1 X21.474 Y67.744 E1472.37496
G1 X100.435 Y146.705 E1480.99819
G1 X99.638 Y146.705 E1481.05975
G1 X21.474 Y68.541 E1489.59592
G1 X21.474 Y69.338 E1489.65748
G1 X98.840 Y146.705 E1498.10659
G1 X98.043 Y146.705 E1498.16815
G1 X21.474 Y70.135 E1506.53021
G1 X21.474 Y70.933 E1506.59177
G1 X97.246 Y146.705 E1514.86676
G1 X96.449 Y146.705 E1514.92832
G1 X21.474 Y71.730 E1523.11625
G1 X21.474 Y72.527 E1523.17781
G1 X95.652 Y146.705 E1531.27869
G1 X94.854 Y146.705 E1531.34025
G1 X21.474 Y73.324 E1539.35406
G1 X21.474 Y74.121 E1539.41562
G1 X94.057 Y146.705 E1547.34238
G1 X93.260 Y146.705 E1547.40394
G1 X21.474 Y74.919 E1555.24364
G1 X21.474 Y75.716 E1555.30520
G1 X92.463 Y146.705 E1563.05783
G1 X91.666 Y146.705 E1563.11939
G1 X21.474 Y76.513 E1570.78497
G1 X21.474 Y77.310 E1570.84653
G1 X90.868 Y146.705 E1578.42505
G1 X90.071 Y146.705 E1578.48661
G1 X21.474 Y78.107 E1585.97807
G1 X21.474 Y78.904 E1586.03963
G1 X89.274 Y146.705 E1593.44403
G1 X88.477 Y146.705 E1593.50559
G1 X21.474 Y79.702 E1600.82293
G1 X21.474 Y80.499 E1600.88449
G1 X87.680 Y146.705 E1608.11478
G1 X86.883 Y146.705 E1608.17634
G1 X21.474 Y81.296 E1615.31956
G1 X21.474 Y82.093 E1615.38112
