; generated by Slic3r 1.1.7 on 2015-02-21 at 12:47:49

; perimeters extrusion width = 0.47mm
; infill extrusion width = 0.62mm
; solid infill extrusion width = 0.62mm
; top infill extrusion width = 0.62mm
; support material extrusion width = 0.47mm

G21 ; set units to millimeters
M190 S60 ; wait for bed temperature to be reached
M104 S230 ; set temperature
G28 ; home all axes Start of G Code Slic3r
 
 
M109 S230 ; wait for temperature to be reached
G90 ; use absolute coordinates
G92 E0
M82 ; use absolute distances for extrusion
G1 F4200.000 E-3.00000
G92 E0
G1 Z0.294 F7800.000
G1 X26.239 Y31.093 F7800.000
G1 E3.00000 F4200.000
G1 X57.428 Y5.690 E6.10631 F1800.000
G1 X59.497 Y4.516 E6.29002
G1 X61.357 Y4.112 E6.43700
G1 X62.453 Y4.024 E6.52187
G1 X64.823 Y4.232 E6.70558
G1 X66.992 Y5.209 E6.88929 F1800.000
G1 X68.058 Y6.085 E6.99584
G1 X194.172 Y132.079 E20.76202
G1 X195.550 Y134.018 E20.94573
G1 X196.214 Y136.303 E21.12944
G1 X196.088 Y138.678 E21.31315
G1 X195.560 Y140.200 E21.43749
G1 X172.295 Y188.719 E25.59274
G1 X171.349 Y190.606 E25.75573
G1 X170.019 Y192.451 E25.93138
G1 X167.040 Y195.301 E26.24972
G1 X165.393 Y196.489 E26.40655
G1 X163.258 Y197.539 E26.59026
G1 X161.791 Y197.813 E26.70552
G1 X140.254 Y199.531 E28.37395
G1 X137.884 Y199.321 E28.55766
G1 X135.715 Y198.343 E28.74137
G1 X134.652 Y197.469 E28.84769
G1 X2.224 Y65.156 E43.30368
G1 X0.845 Y63.217 E43.48739
G1 X0.182 Y60.932 E43.67110
G1 X0.308 Y58.557 E43.85481
G1 X1.209 Y56.355 E44.03852
G1 X2.220 Y55.080 E44.16415
G1 X25.176 Y32.105 E46.67225
G1 X26.188 Y31.142 E46.78009
G1 X26.594 Y31.529 F7800.000
G1 X57.783 Y6.125 E49.88640 F1800.000
G1 X59.776 Y5.014 E50.06266
G1 X61.402 Y4.672 E50.19095
G1 X62.498 Y4.584 E50.27582
G1 X64.770 Y4.800 E50.45208
G1 X67.661 Y6.483 E50.71035 F1800.000
G1 X193.774 Y132.477 E64.47653
G1 X195.084 Y134.347 E64.65279
G1 X195.674 Y136.552 E64.82904
G1 X195.473 Y138.825 E65.00530
G1 X195.054 Y139.957 E65.09849
G1 X171.792 Y188.467 E69.25299
G1 X170.847 Y190.354 E69.41597
G1 X169.621 Y192.053 E69.57776
G1 X166.711 Y194.845 E69.88915
G1 X165.064 Y196.033 E70.04598
G1 X163.009 Y197.026 E70.22224
G1 X161.746 Y197.253 E70.32129
G1 X140.209 Y198.970 E71.98972
G1 X137.937 Y198.753 E72.16598
G1 X135.049 Y197.071 E72.42405
G1 X2.621 Y64.758 E86.88004
G1 X1.312 Y62.889 E87.05629
G1 X0.722 Y60.684 E87.23255
G1 X0.923 Y58.410 E87.40881
G1 X2.617 Y55.478 E87.67034
G1 X25.574 Y32.502 E90.17844
G1 X26.543 Y31.578 E90.28185
G1 F4200.000 E87.28185
G92 E0
G1 X159.777 Y165.699 F7800.000
G1 E3.00000 F4200.000
G1 X33.969 Y40.005 E16.73308 F441.000
G1 F4200.000 E13.73308
G92 E0
G1 X138.341 Y187.578 F7800.000
G1 E3.00000 F4200.000
G1 X159.861 Y166.030 E5.35169 F441.000
G1 X162.758 Y168.923 E5.66789
G1 X139.687 Y192.014 E8.18847
G1 X7.675 Y60.116 E22.59909
G1 X30.738 Y37.033 E25.11889
G1 X33.632 Y39.927 E25.43493
G1 X12.046 Y61.530 E27.79325
G1 X138.291 Y187.528 E41.56679
G1 X138.674 Y187.910 F7800.000
G1 X138.341 Y188.373 F7800.000
G1 X159.861 Y166.825 E43.91848 F630.000
G1 X161.963 Y168.924 E44.14786
G1 X139.687 Y191.219 E46.58162
G1 X8.470 Y60.115 E60.90541
G1 X30.739 Y37.828 E63.33836
G1 X32.837 Y39.927 E63.56757
G1 X11.251 Y61.531 E65.92593
G1 X138.292 Y188.323 E79.78631
G1 X139.686 Y190.643 F7800.000
G1 X138.352 Y189.308 E79.93202 F1500.000
G1 X138.754 Y188.906 E79.97593
G1 X140.088 Y190.241 E80.12166
G1 X140.490 Y189.839 E80.16557
G1 X138.957 Y188.306 E80.33299
G1 X139.359 Y187.904 E80.37690
G1 X140.892 Y189.437 E80.54432
G1 X141.294 Y189.035 E80.58823
G1 X139.761 Y187.502 E80.75565
G1 X140.163 Y187.100 E80.79956
G1 X141.696 Y188.633 E80.96698
G1 X142.098 Y188.231 E81.01089
G1 X140.565 Y186.697 E81.17831
G1 X140.967 Y186.295 E81.22222
G1 X142.500 Y187.829 E81.38964
G1 X142.902 Y187.427 E81.43355
G1 X141.369 Y185.893 E81.60097
G1 X141.771 Y185.491 E81.64488
G1 X143.304 Y187.024 E81.81230
G1 X143.706 Y186.622 E81.85621
G1 X142.173 Y185.089 E82.02363
G1 X142.575 Y184.687 E82.06754
G1 X144.108 Y186.220 E82.23496
G1 X144.510 Y185.818 E82.27887
G1 X142.977 Y184.285 E82.44629
G1 X143.379 Y183.883 E82.49020
G1 X144.912 Y185.416 E82.65762
G1 X145.314 Y185.014 E82.70153
G1 X143.781 Y183.481 E82.86895
G1 X144.183 Y183.079 E82.91286
G1 X145.716 Y184.612 E83.08028
G1 X146.119 Y184.210 E83.12419
G1 X144.585 Y182.677 E83.29161
G1 X144.987 Y182.275 E83.33552
G1 X146.521 Y183.808 E83.50294
G1 X146.923 Y183.406 E83.54685
G1 X145.389 Y181.873 E83.71427
G1 X145.792 Y181.471 E83.75818
G1 X147.325 Y183.004 E83.92560
G1 X147.727 Y182.602 E83.96951
G1 X146.194 Y181.069 E84.13693
G1 X146.596 Y180.667 E84.18084
G1 X148.129 Y182.200 E84.34826
G1 X148.531 Y181.798 E84.39217
G1 X146.998 Y180.265 E84.55960
G1 X147.400 Y179.863 E84.60350
G1 X148.933 Y181.396 E84.77093
G1 X149.335 Y180.994 E84.81483
G1 X147.802 Y179.461 E84.98226
G1 X148.204 Y179.059 E85.02616
G1 X149.737 Y180.592 E85.19359
G1 X150.139 Y180.190 E85.23749
G1 X148.606 Y178.657 E85.40492
G1 X149.008 Y178.255 E85.44882
G1 X150.541 Y179.788 E85.61625
G1 X150.943 Y179.386 E85.66015
G1 X149.410 Y177.853 E85.82758
G1 X149.812 Y177.451 E85.87148
G1 X151.345 Y178.984 E86.03891
G1 X151.747 Y178.582 E86.08281
G1 X150.214 Y177.049 E86.25024
G1 X150.616 Y176.647 E86.29414
G1 X152.149 Y178.180 E86.46157
G1 X152.551 Y177.778 E86.50547
G1 X151.018 Y176.245 E86.67290
G1 X151.420 Y175.843 E86.71680
G1 X152.953 Y177.376 E86.88423
G1 X153.355 Y176.974 E86.92813
G1 X151.822 Y175.441 E87.09556
G1 X152.224 Y175.039 E87.13946
G1 X153.757 Y176.572 E87.30689
G1 X154.159 Y176.170 E87.35079
G1 X152.626 Y174.637 E87.51822
G1 X153.028 Y174.235 E87.56212
G1 X154.561 Y175.768 E87.72955
G1 X154.963 Y175.366 E87.77345
G1 X153.430 Y173.833 E87.94088
G1 X153.832 Y173.431 E87.98478
G1 X155.365 Y174.964 E88.15221
G1 X155.767 Y174.562 E88.19611
G1 X154.234 Y173.029 E88.36354
G1 X154.636 Y172.626 E88.40744
G1 X156.169 Y174.160 E88.57487
G1 X156.571 Y173.758 E88.61877
G1 X155.038 Y172.224 E88.78620
G1 X155.440 Y171.822 E88.83010
G1 X156.973 Y173.356 E88.99753
G1 X157.375 Y172.953 E89.04143
G1 X155.842 Y171.420 E89.20886
G1 X156.244 Y171.018 E89.25276
G1 X157.777 Y172.551 E89.42019
G1 X158.179 Y172.149 E89.46410
G1 X156.646 Y170.616 E89.63152
G1 X157.048 Y170.214 E89.67543
G1 X158.581 Y171.747 E89.84285
G1 X158.983 Y171.345 E89.88676
G1 X157.450 Y169.812 E90.05418
G1 X157.852 Y169.410 E90.09809
G1 X159.385 Y170.943 E90.26551
G1 X159.787 Y170.541 E90.30942
G1 X158.254 Y169.008 E90.47684
G1 X158.656 Y168.606 E90.52075
G1 X160.190 Y170.139 E90.68817
G1 X160.592 Y169.737 E90.73208
G1 X159.058 Y168.204 E90.89950
G1 X159.460 Y167.802 E90.94341
G1 X160.994 Y169.335 E91.11083
G1 X161.396 Y168.933 E91.15474
G1 X159.863 Y167.400 E91.32216
G1 F4200.000 E88.32216
G92 E0
G1 X30.739 Y38.405 F7800.000
G1 E3.00000 F4200.000
G1 X32.269 Y39.935 E3.16717 F1500.000
G1 X31.868 Y40.337 E3.21106
G1 X30.337 Y38.806 E3.37823
G1 X29.935 Y39.208 E3.42212
G1 X31.466 Y40.739 E3.58930
G1 X31.064 Y41.141 E3.63319
G1 X29.533 Y39.610 E3.80036
G1 X29.131 Y40.012 E3.84425
G1 X30.662 Y41.543 E4.01142
G1 X30.260 Y41.945 E4.05531
G1 X28.729 Y40.414 E4.22248
G1 X28.327 Y40.816 E4.26637
G1 X29.858 Y42.347 E4.43354
G1 X29.456 Y42.749 E4.47743
G1 X27.926 Y41.218 E4.64460
G1 X27.524 Y41.620 E4.68849
G1 X29.054 Y43.150 E4.85567
G1 X28.653 Y43.552 E4.89956
G1 X27.122 Y42.022 E5.06673
G1 X26.720 Y42.423 E5.11062
G1 X28.251 Y43.954 E5.27779
G1 X27.849 Y44.356 E5.32168
G1 X26.318 Y42.825 E5.48885
G1 X25.916 Y43.227 E5.53274
G1 X27.447 Y44.758 E5.69991
G1 X27.045 Y45.160 E5.74380
G1 X25.514 Y43.629 E5.91097
G1 X25.112 Y44.031 E5.95486
G1 X26.643 Y45.562 E6.12204
G1 X26.241 Y45.964 E6.16593
G1 X24.710 Y44.433 E6.33310
G1 X24.309 Y44.835 E6.37699
G1 X25.839 Y46.365 E6.54416
G1 X25.437 Y46.767 E6.58805
G1 X23.907 Y45.237 E6.75522
G1 X23.505 Y45.638 E6.79911
G1 X25.036 Y47.169 E6.96628
G1 X24.634 Y47.571 E7.01017
G1 X23.103 Y46.040 E7.17734
G1 X22.701 Y46.442 E7.22123
G1 X24.232 Y47.973 E7.38841
G1 X23.830 Y48.375 E7.43230
G1 X22.299 Y46.844 E7.59947
G1 X21.897 Y47.246 E7.64336
G1 X23.428 Y48.777 E7.81053
G1 X23.026 Y49.179 E7.85442
G1 X21.495 Y47.648 E8.02159
G1 X21.094 Y48.050 E8.06548
G1 X22.624 Y49.580 E8.23265
G1 X22.222 Y49.982 E8.27654
G1 X20.692 Y48.452 E8.44372
G1 X20.290 Y48.853 E8.48760
G1 X21.821 Y50.384 E8.65478
G1 X21.419 Y50.786 E8.69867
G1 X19.888 Y49.255 E8.86584
G1 X19.486 Y49.657 E8.90973
G1 X21.017 Y51.188 E9.07690
G1 X20.615 Y51.590 E9.12079
G1 X19.084 Y50.059 E9.28796
G1 X18.682 Y50.461 E9.33185
G1 X20.213 Y51.992 E9.49902
G1 X19.811 Y52.394 E9.54291
G1 X18.280 Y50.863 E9.71009
G1 X17.879 Y51.265 E9.75397
G1 X19.409 Y52.796 E9.92115
G1 X19.007 Y53.197 E9.96504
G1 X17.477 Y51.667 E10.13221
G1 X17.075 Y52.069 E10.17610
G1 X18.606 Y53.599 E10.34327
G1 X18.204 Y54.001 E10.38716
G1 X16.673 Y52.470 E10.55433
G1 X16.271 Y52.872 E10.59822
G1 X17.802 Y54.403 E10.76539
G1 X17.400 Y54.805 E10.80928
G1 X15.869 Y53.274 E10.97646
G1 X15.467 Y53.676 E11.02034
G1 X16.998 Y55.207 E11.18752
G1 X16.596 Y55.609 E11.23141
G1 X15.065 Y54.078 E11.39858
G1 X14.664 Y54.480 E11.44247
G1 X16.194 Y56.011 E11.60964
G1 X15.792 Y56.412 E11.65353
G1 X14.262 Y54.882 E11.82070
G1 X13.860 Y55.284 E11.86459
G1 X15.391 Y56.814 E12.03176
G1 X14.989 Y57.216 E12.07565
G1 X13.458 Y55.685 E12.24283
G1 X13.056 Y56.087 E12.28671
G1 X14.587 Y57.618 E12.45389
G1 X14.185 Y58.020 E12.49778
G1 X12.654 Y56.489 E12.66495
G1 X12.252 Y56.891 E12.70884
G1 X13.783 Y58.422 E12.87601
G1 X13.381 Y58.824 E12.91990
G1 X11.850 Y57.293 E13.08707
G1 X11.448 Y57.695 E13.13096
G1 X12.979 Y59.226 E13.29813
G1 X12.577 Y59.627 E13.34202
G1 X11.047 Y58.097 E13.50920
G1 X10.645 Y58.499 E13.55308
G1 X12.175 Y60.029 E13.72026
G1 X11.774 Y60.431 E13.76415
G1 X10.243 Y58.900 E13.93132
G1 X9.841 Y59.302 E13.97521
G1 X11.372 Y60.833 E14.14238
G1 X10.785 Y61.050 E14.19068
G1 X9.439 Y59.704 E14.33768
G1 X9.037 Y60.106 E14.38157
G1 X10.384 Y61.452 E14.52860
G1 X10.711 Y61.673 F7800.000
G1 X138.165 Y188.947 E22.73092 F600.000
G1 F4200.000 E19.73092
G92 E0
G1 X152.118 Y181.608 F7800.000
G1 E3.00000 F4200.000
G1 X152.771 Y180.305 E3.09410 F1800.000
G1 X154.881 Y178.194 F7800.000
G1 X152.819 Y182.308 E3.39121 F1800.000
G1 X153.519 Y183.008 E3.45515
G1 X156.820 Y176.422 E3.93078
G1 X157.521 Y177.122 E3.99471
G1 X154.220 Y183.709 E4.47037
G1 X154.920 Y184.409 E4.53432
G1 X158.222 Y177.821 E5.01002
G1 X158.922 Y178.522 E5.07397
G1 X155.621 Y185.109 E5.54965
G1 X156.321 Y185.809 E5.61359
G1 X159.623 Y179.222 E6.08926
G1 X160.323 Y179.923 E6.15321
G1 X157.022 Y186.510 E6.62885
G1 X157.722 Y187.210 E6.69280
G1 X161.023 Y180.623 E7.16843
G1 X161.724 Y181.324 E7.23237
G1 X158.423 Y187.910 E7.70798
G1 X159.123 Y188.610 E7.77192
G1 X162.424 Y182.024 E8.24752
G1 X163.124 Y182.725 E8.31146
G1 X159.824 Y189.311 E8.78704
G1 X160.524 Y190.011 E8.85098
G1 X163.825 Y183.425 E9.32653
G1 X164.525 Y184.126 E9.39048
G1 X161.225 Y190.711 E9.86601
G1 X162.872 Y189.523 E9.99712
G1 X165.225 Y184.826 E10.33627
G1 X165.926 Y185.527 F7800.000
G1 X164.980 Y187.414 E10.47252 F1800.000
G1 F4200.000 E7.47252
G92 E0
G1 X151.451 Y172.450 F7800.000
G1 E3.00000 F4200.000
G1 X150.830 Y173.689 E3.08948 F1800.000
G1 X149.907 Y173.433 E3.15133
G1 X148.721 Y175.799 E3.32214
G1 X147.795 Y175.549 E3.38407
G1 X147.663 Y175.812 E3.40305
G1 F4200.000 E0.40305
G92 E0
G1 X176.142 Y148.361 F7800.000
G1 E3.00000 F4200.000
G1 X175.441 Y147.661 E3.06394 F1800.000
G1 X174.272 Y149.993 E3.23237
G1 X173.572 Y149.293 E3.29631
G1 X174.741 Y146.961 E3.46472
G1 X174.040 Y146.261 E3.52866
G1 X172.871 Y148.592 E3.69704
G1 X172.171 Y147.892 E3.76099
G1 X173.340 Y145.561 E3.92935
G1 X172.639 Y144.861 E3.99329
G1 X171.471 Y147.192 E4.16163
G1 X170.770 Y146.491 E4.22557
G1 X171.938 Y144.161 E4.39390
G1 X171.238 Y143.460 E4.45783
G1 X170.070 Y145.791 E4.62613
G1 X169.369 Y145.091 E4.69008
G1 X170.537 Y142.760 E4.85835
G1 X169.837 Y142.060 E4.92229
G1 X168.669 Y144.390 E5.09055
G1 X167.968 Y143.690 E5.15449
G1 X169.136 Y141.360 E5.32272
G1 X168.435 Y140.660 E5.38666
G1 X167.268 Y142.990 E5.55487
G1 X166.567 Y142.289 E5.61882
G1 X167.735 Y139.960 E5.78701
G1 X167.034 Y139.260 E5.85095
G1 X165.867 Y141.589 E6.01911
G1 X165.167 Y140.889 E6.08306
G1 X166.334 Y138.560 E6.25121
G1 X165.633 Y137.860 E6.31514
G1 X164.466 Y140.188 E6.48327
G1 X163.766 Y139.488 E6.54721
G1 X164.932 Y137.160 E6.71532
G1 X164.232 Y136.460 E6.77925
G1 X163.065 Y138.788 E6.94734
G1 X162.365 Y138.087 E7.01128
G1 X163.531 Y135.760 E7.17934
G1 X162.831 Y135.060 E7.24328
G1 X161.664 Y137.387 E7.41131
G1 X160.964 Y136.687 E7.47526
G1 X162.130 Y134.360 E7.64328
G1 X161.429 Y133.660 E7.70721
G1 X160.263 Y135.986 E7.87521
G1 X159.563 Y135.286 E7.93915
G1 X160.729 Y132.960 E8.10712
G1 X160.028 Y132.260 E8.17106
G1 X158.863 Y134.586 E8.33901
G1 X158.162 Y133.885 E8.40296
G1 X159.328 Y131.560 E8.57089
G1 X158.627 Y130.860 E8.63482
G1 X157.462 Y133.185 E8.80275
G1 X156.761 Y132.485 E8.86668
G1 X157.926 Y130.160 E9.03460
G1 X157.226 Y129.460 E9.09854
G1 X156.060 Y131.785 E9.26646
G1 X155.360 Y131.085 E9.33040
G1 X156.525 Y128.760 E9.49832
G1 X155.825 Y128.060 E9.56226
G1 X154.659 Y130.385 E9.73018
G1 X153.959 Y129.685 E9.79412
G1 X155.124 Y127.360 E9.96204
G1 X154.423 Y126.660 E10.02598
G1 X153.258 Y128.985 E10.19391
G1 X152.557 Y128.285 E10.25784
G1 X153.723 Y125.960 E10.42577
G1 X153.022 Y125.260 E10.48971
G1 X151.857 Y127.585 E10.65763
G1 X151.156 Y126.885 E10.72157
G1 X152.322 Y124.560 E10.88950
G1 X151.621 Y123.860 E10.95344
G1 X150.456 Y126.185 E11.12137
G1 X149.755 Y125.485 E11.18530
G1 X150.920 Y123.160 E11.35323
G1 X150.220 Y122.460 E11.41717
G1 X149.054 Y124.785 E11.58510
G1 X148.354 Y124.085 E11.64904
G1 X149.519 Y121.760 E11.81697
G1 X148.819 Y121.060 E11.88090
G1 X147.653 Y123.385 E12.04884
G1 X146.952 Y122.685 E12.11277
G1 X148.118 Y120.359 E12.28071
G1 X147.417 Y119.659 E12.34464
G1 X146.252 Y121.985 E12.51258
G1 X145.551 Y121.285 E12.57651
G1 X146.717 Y118.959 E12.74445
G1 X146.016 Y118.259 E12.80839
G1 X144.851 Y120.585 E12.97632
G1 X144.150 Y119.885 E13.04026
G1 X145.316 Y117.559 E13.20819
G1 X144.615 Y116.859 E13.27213
G1 X143.449 Y119.185 E13.44007
G1 X142.749 Y118.485 E13.50402
G1 X143.915 Y116.159 E13.67193
G1 X143.214 Y115.459 E13.73587
G1 X142.049 Y117.784 E13.90377
G1 X141.348 Y117.084 E13.96771
G1 X142.513 Y114.759 E14.13558
G1 X141.813 Y114.059 E14.19952
G1 X140.648 Y116.383 E14.36737
G1 X139.947 Y115.683 E14.43132
G1 X141.112 Y113.359 E14.59914
G1 X140.412 Y112.659 E14.66308
G1 X139.247 Y114.983 E14.83089
G1 X138.547 Y114.282 E14.89483
G1 X139.711 Y111.959 E15.06262
G1 X139.010 Y111.259 E15.12655
G1 X137.846 Y113.582 E15.29431
G1 X137.146 Y112.881 E15.35826
G1 X138.310 Y110.559 E15.52600
G1 X137.609 Y109.859 E15.58994
G1 X136.445 Y112.181 E15.75765
G1 X135.745 Y111.481 E15.82160
G1 X136.909 Y109.158 E15.98929
G1 X136.208 Y108.458 E16.05323
G1 X135.044 Y110.780 E16.22090
G1 X134.344 Y110.080 E16.28484
G1 X135.508 Y107.758 E16.45249
G1 X134.807 Y107.058 E16.51643
G1 X133.644 Y109.380 E16.68405
G1 X132.943 Y108.679 E16.74800
G1 X134.106 Y106.358 E16.91560
G1 X133.406 Y105.658 E16.97954
G1 X132.243 Y107.979 E17.14712
G1 X131.542 Y107.278 E17.21106
G1 X132.705 Y104.958 E17.37862
G1 X132.005 Y104.258 E17.44256
G1 X130.842 Y106.578 E17.61010
G1 X130.141 Y105.878 E17.67404
G1 X131.304 Y103.558 E17.84155
G1 X130.604 Y102.858 E17.90549
G1 X129.441 Y105.177 E18.07298
G1 X128.741 Y104.477 E18.13693
G1 X129.903 Y102.158 E18.30440
G1 X129.202 Y101.458 E18.36833
G1 X128.040 Y103.777 E18.53579
G1 X127.340 Y103.076 E18.59973
G1 X128.502 Y100.758 E18.76717
G1 X127.801 Y100.058 E18.83111
G1 X126.639 Y102.376 E18.99855
G1 X125.939 Y101.676 E19.06249
G1 X127.101 Y99.357 E19.22992
G1 X126.400 Y98.657 E19.29386
G1 X125.238 Y100.976 E19.46128
G1 X124.538 Y100.276 E19.52522
G1 X125.700 Y97.957 E19.69263
G1 X124.999 Y97.257 E19.75657
G1 X123.837 Y99.575 E19.92398
G1 X123.137 Y98.875 E19.98792
G1 X124.298 Y96.557 E20.15531
G1 X123.598 Y95.857 E20.21925
G1 X122.436 Y98.175 E20.38664
G1 X121.735 Y97.475 E20.45058
G1 X122.897 Y95.157 E20.61796
G1 X122.197 Y94.457 E20.68190
G1 X121.035 Y96.775 E20.84927
G1 X120.334 Y96.075 E20.91321
