; generated by Slic3r 1.1.7 on 2015-02-21 at 12:53:03

; perimeters extrusion width = 0.47mm
; infill extrusion width = 0.62mm
; solid infill extrusion width = 0.62mm
; top infill extrusion width = 0.62mm
; support material extrusion width = 0.47mm

G21 ; set units to millimeters
M190 S60 ; wait for bed temperature to be reached
M104 S230 ; set temperature
G28 ; home all axes Start of G Code Slic3r
 
 
M109 S230 ; wait for temperature to be reached
G90 ; use absolute coordinates
G92 E0
M82 ; use absolute distances for extrusion
G1 F4200.000 E-3.00000
G92 E0
G1 Z0.294 F7800.000
G1 X17.979 Y42.934 F7800.000
G1 E3.00000 F4200.000
G1 X18.703 Y42.630 E3.06063 F1800.000
G1 X20.320 Y42.445 E3.18626
G1 X179.613 Y42.445 E15.48724
G1 X181.959 Y42.842 E15.67095
G1 X184.043 Y43.989 E15.85466 F1800.000
G1 X185.633 Y45.759 E16.03837
G1 X186.552 Y47.953 E16.22208
G1 X186.738 Y49.567 E16.34757
G1 X186.758 Y150.439 E24.13706
G1 X186.340 Y152.780 E24.32077
G1 X185.174 Y154.854 E24.50448
G1 X183.391 Y156.429 E24.68819
G1 X181.188 Y157.328 E24.87190
G1 X179.636 Y157.500 E24.99252
G1 X20.321 Y157.538 E37.29513
G1 X17.975 Y157.142 E37.47884
G1 X15.891 Y155.995 E37.66255
G1 X14.301 Y154.226 E37.84626
G1 X13.381 Y152.032 E38.02997
G1 X13.195 Y150.414 E38.15570
G1 X13.195 Y49.569 E45.94316
G1 X13.592 Y47.223 E46.12687
G1 X14.740 Y45.139 E46.31058
G1 X16.509 Y43.549 E46.49429
G1 X17.914 Y42.961 E46.61192
G1 X18.153 Y43.585 F7800.000
G1 X20.320 Y43.007 E46.78507 F1800.000
G1 X179.613 Y43.007 E59.08606
G1 X181.861 Y43.404 E59.26231
G1 X183.837 Y44.547 E59.43857 F1800.000
G1 X185.302 Y46.297 E59.61483
G1 X186.175 Y49.567 E59.87624
G1 X186.196 Y150.434 E67.66533
G1 X185.779 Y152.678 E67.84159
G1 X184.619 Y154.643 E68.01785
G1 X182.855 Y156.092 E68.19411
G1 X179.636 Y156.937 E68.45115
G1 X20.321 Y156.976 E80.75376
G1 X18.073 Y156.580 E80.93002
G1 X16.097 Y155.437 E81.10628
G1 X14.632 Y153.687 E81.28253
G1 X13.757 Y150.414 E81.54416
G1 X13.757 Y49.569 E89.33162
G1 X14.154 Y47.321 E89.50788
G1 X15.297 Y45.346 E89.68414
G1 X17.048 Y43.881 E89.86039
G1 X18.085 Y43.604 E89.94333
G1 F4200.000 E86.94333
G92 E0
G1 X179.341 Y150.082 F7800.000
G1 E3.00000 F4200.000
G1 X20.613 Y150.120 E15.25725 F441.000
G1 X20.613 Y49.863 E22.99935
G1 X179.320 Y49.863 E35.25498
G1 X179.341 Y150.011 E42.98864
G1 X178.934 Y149.847 F7800.000
G1 X178.778 Y149.519 F7800.000
G1 X21.176 Y149.558 E55.15906 F630.000
G1 X21.176 Y50.425 E62.81432
G1 X178.758 Y50.425 E74.98313
G1 X178.778 Y149.449 E82.62997
G1 X178.330 Y50.812 F7800.000
G1 X178.370 Y50.852 E82.63434 F1500.000
G1 X178.370 Y51.650 E82.69591
G1 X177.533 Y50.812 E82.78736
G1 X176.736 Y50.812 E82.84891
G1 X178.370 Y52.447 E83.02743
G1 X178.371 Y53.244 E83.08900
G1 X175.939 Y50.812 E83.35459
G1 X175.141 Y50.812 E83.41615
G1 X178.371 Y54.042 E83.76882
G1 X178.371 Y54.839 E83.83039
G1 X174.344 Y50.812 E84.27012
G1 X173.547 Y50.812 E84.33168
G1 X178.371 Y55.636 E84.85849
G1 X178.371 Y56.434 E84.92006
G1 X172.750 Y50.812 E85.53394
G1 X171.953 Y50.812 E85.59550
G1 X178.371 Y57.231 E86.29645
G1 X178.372 Y58.028 E86.35802
G1 X171.156 Y50.812 E87.14605
G1 X170.359 Y50.812 E87.20761
G1 X178.372 Y58.826 E88.08271
G1 X178.372 Y59.623 E88.14428
G1 X169.561 Y50.812 E89.10645
G1 X168.764 Y50.812 E89.16801
G1 X178.372 Y60.420 E90.21726
G1 X178.372 Y61.218 E90.27883
G1 X167.967 Y50.812 E91.41515
G1 X167.170 Y50.812 E91.47670
G1 X178.372 Y62.015 E92.70010
G1 X178.373 Y62.812 E92.76166
G1 X166.373 Y50.812 E94.07213
G1 X165.576 Y50.812 E94.13369
G1 X178.373 Y63.609 E95.53122
G1 X178.373 Y64.407 E95.59279
G1 X164.779 Y50.812 E97.07740
G1 X163.982 Y50.812 E97.13896
G1 X178.373 Y65.204 E98.71064
G1 X178.373 Y66.001 E98.77221
G1 X163.184 Y50.812 E100.43097
G1 X162.387 Y50.812 E100.49253
G1 X178.373 Y66.799 E102.23835
G1 X178.374 Y67.596 E102.29992
G1 X161.590 Y50.812 E104.13283
G1 X160.793 Y50.812 E104.19438
G1 X178.374 Y68.393 E106.11436
G1 X178.374 Y69.191 E106.17593
G1 X159.996 Y50.812 E108.18297
G1 X159.199 Y50.812 E108.24453
G1 X178.374 Y69.988 E110.33865
G1 X178.374 Y70.785 E110.40022
G1 X158.402 Y50.812 E112.58141
G1 X157.604 Y50.812 E112.64297
G1 X178.374 Y71.583 E114.91123
G1 X178.375 Y72.380 E114.97280
G1 X156.807 Y50.812 E117.32814
G1 X156.010 Y50.812 E117.38970
G1 X178.375 Y73.177 E119.83211
G1 X178.375 Y73.974 E119.89368
G1 X155.213 Y50.812 E122.42316
G1 X154.416 Y50.812 E122.48472
G1 X178.375 Y74.772 E125.10127
G1 X178.375 Y75.569 E125.16284
G1 X153.619 Y50.812 E127.86647
G1 X152.822 Y50.812 E127.92803
G1 X178.375 Y76.366 E130.71873
G1 X178.376 Y77.164 E130.78030
G1 X152.024 Y50.812 E133.65807
G1 X151.227 Y50.812 E133.71963
G1 X178.376 Y77.961 E136.68448
G1 X178.376 Y78.758 E136.74605
G1 X150.430 Y50.812 E139.79797
G1 X149.633 Y50.812 E139.85952
G1 X178.376 Y79.556 E142.99851
G1 X178.376 Y80.353 E143.06008
G1 X148.836 Y50.812 E146.28615
G1 X148.039 Y50.812 E146.34771
G1 X178.376 Y81.150 E149.66084
G1 X178.377 Y81.948 E149.72241
G1 X147.242 Y50.812 E153.12262
G1 X146.444 Y50.812 E153.18418
G1 X178.377 Y82.745 E156.67146
G1 X178.377 Y83.542 E156.73303
G1 X145.647 Y50.812 E160.30739
G1 X144.850 Y50.812 E160.36895
G1 X178.377 Y84.339 E164.03038
G1 X178.377 Y85.137 E164.09195
G1 X144.053 Y50.812 E167.84045
G1 X143.256 Y50.812 E167.90200
G1 X178.377 Y85.934 E171.73758
G1 X178.378 Y86.731 E171.79915
G1 X142.459 Y50.812 E175.72179
G1 X141.662 Y50.812 E175.78335
G1 X178.378 Y87.529 E179.79307
G1 X178.378 Y88.326 E179.85464
G1 X140.864 Y50.812 E183.95143
G1 X140.067 Y50.812 E184.01299
G1 X178.378 Y89.123 E188.19686
G1 X178.378 Y89.921 E188.25842
G1 X139.270 Y50.812 E192.52936
G1 X138.473 Y50.812 E192.59092
G1 X178.378 Y90.718 E196.94893
G1 X178.379 Y91.515 E197.01050
G1 X137.676 Y50.812 E201.45558
G1 X136.879 Y50.812 E201.51714
G1 X178.379 Y92.313 E206.04930
G1 X178.379 Y93.110 E206.11087
G1 X136.082 Y50.812 E210.73009
G1 X135.284 Y50.812 E210.79165
G1 X178.379 Y93.907 E215.49795
G1 X178.379 Y94.704 E215.55952
G1 X134.487 Y50.812 E220.35290
G1 X133.690 Y50.812 E220.41445
G1 X178.379 Y95.502 E225.29490
G1 X178.380 Y96.299 E225.35647
G1 X132.893 Y50.812 E230.32399
G1 X132.096 Y50.812 E230.38555
G1 X178.380 Y97.096 E235.44014
G1 X178.380 Y97.894 E235.50171
G1 X131.299 Y50.812 E240.64337
G1 X130.502 Y50.812 E240.70493
G1 X178.380 Y98.691 E245.93367
G1 X178.380 Y99.488 E245.99524
G1 X129.705 Y50.812 E251.31105
G1 X128.907 Y50.812 E251.37261
G1 X178.380 Y100.286 E256.77549
G1 X178.381 Y101.083 E256.83706
G1 X128.110 Y50.812 E262.32702
G1 X127.313 Y50.812 E262.38857
G1 X178.381 Y101.880 E267.96560
G1 X178.381 Y102.678 E268.02717
G1 X126.516 Y50.812 E273.69127
G1 X125.719 Y50.812 E273.75283
G1 X178.381 Y103.475 E279.50400
G1 X178.381 Y104.272 E279.56557
G1 X124.922 Y50.812 E285.40382
G1 X124.125 Y50.812 E285.46538
G1 X178.381 Y105.069 E291.39070
G1 X178.382 Y105.867 E291.45227
G1 X123.327 Y50.812 E297.46466
G1 X122.530 Y50.812 E297.52622
G1 X178.382 Y106.664 E303.62568
G1 X178.382 Y107.461 E303.68725
G1 X121.733 Y50.812 E309.87379
G1 X120.936 Y50.812 E309.93535
G1 X178.382 Y108.259 E316.20896
G1 X178.382 Y109.056 E316.27053
G1 X120.139 Y50.812 E322.63121
G1 X119.342 Y50.812 E322.69277
G1 X178.382 Y109.853 E329.14052
G1 X178.383 Y110.651 E329.20209
G1 X118.545 Y50.812 E335.73692
G1 X117.747 Y50.812 E335.79848
G1 X178.383 Y111.448 E342.42038
G1 X178.383 Y112.245 E342.48195
G1 X116.950 Y50.812 E349.19092
G1 X116.153 Y50.812 E349.25248
G1 X178.383 Y113.043 E356.04853
G1 X178.383 Y113.840 E356.11010
G1 X115.356 Y50.812 E362.99322
G1 X114.559 Y50.812 E363.05478
G1 X178.383 Y114.637 E370.02497
G1 X178.384 Y115.434 E370.08654
G1 X113.762 Y50.812 E377.14380
G1 X112.965 Y50.812 E377.20536
G1 X178.384 Y116.232 E384.34970
G1 X178.384 Y117.029 E384.41127
G1 X112.167 Y50.812 E391.64268
G1 X111.370 Y50.812 E391.70424
G1 X178.384 Y117.826 E399.02272
G1 X178.384 Y118.624 E399.08429
G1 X110.573 Y50.812 E406.48985
G1 X109.776 Y50.812 E406.55140
G1 X178.384 Y119.421 E414.04403
G1 X178.385 Y120.218 E414.10560
G1 X108.979 Y50.812 E421.68530
G1 X108.182 Y50.812 E421.74686
G1 X178.385 Y121.016 E429.41363
G1 X178.385 Y121.813 E429.47520
G1 X107.385 Y50.812 E437.22905
G1 X106.587 Y50.812 E437.29061
G1 X178.385 Y122.610 E445.13153
G1 X178.385 Y123.407 E445.19310
G1 X105.790 Y50.812 E453.12109
G1 X104.993 Y50.812 E453.18265
G1 X178.386 Y124.205 E461.19771
G1 X178.386 Y125.002 E461.25928
G1 X104.196 Y50.812 E469.36142
G1 X103.399 Y50.812 E469.42298
G1 X178.386 Y125.799 E477.61219
G1 X178.386 Y126.597 E477.67376
G1 X102.602 Y50.812 E485.95004
G1 X101.805 Y50.812 E486.01160
G1 X178.386 Y127.394 E494.37496
G1 X178.386 Y128.191 E494.43652
G1 X101.007 Y50.812 E502.88695
G1 X100.210 Y50.812 E502.94851
G1 X178.387 Y128.989 E511.48601
G1 X178.387 Y129.786 E511.54758
G1 X99.413 Y50.812 E520.17216
G1 X98.616 Y50.812 E520.23371
G1 X178.387 Y130.583 E528.94536
G1 X178.387 Y131.381 E529.00693
G1 X97.819 Y50.812 E537.80565
G1 X97.022 Y50.812 E537.86721
G1 X178.387 Y132.178 E546.75300
G1 X178.387 Y132.975 E546.81457
G1 X96.225 Y50.812 E555.78744
G1 X95.428 Y50.812 E555.84899
G1 X178.388 Y133.772 E564.90893
G1 X178.388 Y134.570 E564.97050
G1 X94.630 Y50.812 E574.11751
G1 X93.833 Y50.812 E574.17907
G1 X178.388 Y135.367 E583.41315
G1 X178.388 Y136.164 E583.47472
G1 X93.036 Y50.812 E592.79588
G1 X92.239 Y50.812 E592.85744
G1 X178.388 Y136.962 E602.26567
G1 X178.388 Y137.759 E602.32724
G1 X91.442 Y50.812 E611.82254
G1 X90.645 Y50.812 E611.88409
G1 X178.389 Y138.556 E621.46647
G1 X178.389 Y139.354 E621.52804
G1 X89.848 Y50.812 E631.19749
G1 X89.050 Y50.812 E631.25904
G1 X178.389 Y140.151 E641.01556
G1 X178.389 Y140.948 E641.07713
G1 X88.253 Y50.812 E650.92073
G1 X87.456 Y50.812 E650.98228
G1 X178.389 Y141.746 E660.91295
G1 X178.389 Y142.543 E660.97452
G1 X86.659 Y50.812 E670.99226
G1 X85.862 Y50.812 E671.05381
G1 X178.390 Y143.340 E681.15863
G1 X178.390 Y144.137 E681.22020
G1 X85.065 Y50.812 E691.41208
G1 X84.268 Y50.812 E691.47364
G1 X178.390 Y144.935 E701.75259
G1 X178.390 Y145.732 E701.81416
G1 X83.470 Y50.812 E712.18019
G1 X82.673 Y50.812 E712.24175
G1 X178.390 Y146.529 E722.69485
G1 X178.390 Y147.327 E722.75642
G1 X81.876 Y50.812 E733.29660
G1 X81.079 Y50.812 E733.35815
G1 X178.391 Y148.124 E743.98540
G1 X178.391 Y148.921 E744.04697
G1 X80.282 Y50.812 E754.76129
G1 X79.485 Y50.812 E754.82285
G1 X177.804 Y149.132 E765.56018
G1 X177.007 Y149.132 E765.62172
G1 X78.688 Y50.812 E776.35908
G1 X77.890 Y50.812 E776.42064
G1 X176.210 Y149.132 E787.15802
G1 X175.413 Y149.133 E787.21956
G1 X77.093 Y50.812 E797.95696
G1 X76.296 Y50.812 E798.01851
G1 X174.617 Y149.133 E808.75593
G1 X173.820 Y149.133 E808.81748
G1 X75.499 Y50.812 E819.55492
G1 X74.702 Y50.812 E819.61648
G1 X173.023 Y149.133 E830.35394
G1 X172.226 Y149.133 E830.41548
G1 X73.905 Y50.812 E841.15296
G1 X73.108 Y50.812 E841.21452
G1 X171.429 Y149.134 E851.95203
G1 X170.632 Y149.134 E852.01357
G1 X72.310 Y50.812 E862.75110
G1 X71.513 Y50.812 E862.81265
G1 X169.835 Y149.134 E873.55020
G1 X169.038 Y149.134 E873.61174
G1 X70.716 Y50.812 E884.34931
G1 X69.919 Y50.812 E884.41087
G1 X168.241 Y149.134 E895.14846
G1 X167.444 Y149.135 E895.21000
G1 X69.122 Y50.812 E905.94761
G1 X68.325 Y50.812 E906.00917
G1 X166.647 Y149.135 E916.74680
G1 X165.850 Y149.135 E916.80835
G1 X67.528 Y50.812 E927.54600
G1 X66.730 Y50.812 E927.60756
G1 X165.053 Y149.135 E938.34523
G1 X164.256 Y149.135 E938.40678
G1 X65.933 Y50.812 E949.14447
G1 X65.136 Y50.812 E949.20603
G1 X163.459 Y149.136 E959.94375
G1 X162.662 Y149.136 E960.00529
G1 X64.339 Y50.812 E970.74303
G1 X63.542 Y50.812 E970.80459
G1 X161.865 Y149.136 E981.54235
G1 X161.068 Y149.136 E981.60389
G1 X62.745 Y50.812 E992.34167
G1 X61.948 Y50.812 E992.40323
G1 X160.272 Y149.136 E1003.14103
G1 X159.475 Y149.137 E1003.20257
G1 X61.150 Y50.812 E1013.94040
G1 X60.353 Y50.812 E1014.00196
G1 X158.678 Y149.137 E1024.73980
G1 X157.881 Y149.137 E1024.80134
G1 X59.556 Y50.812 E1035.53921
G1 X58.759 Y50.812 E1035.60077
G1 X157.084 Y149.137 E1046.33866
G1 X156.287 Y149.137 E1046.40020
G1 X57.962 Y50.812 E1057.13811
G1 X57.165 Y50.812 E1057.19966
G1 X155.490 Y149.138 E1067.93760
G1 X154.693 Y149.138 E1067.99914
G1 X56.368 Y50.812 E1078.73709
G1 X55.571 Y50.812 E1078.79865
G1 X153.896 Y149.138 E1089.53662
G1 X153.099 Y149.138 E1089.59816
G1 X54.773 Y50.812 E1100.33616
G1 X53.976 Y50.812 E1100.39771
G1 X152.302 Y149.138 E1111.13573
G1 X151.505 Y149.139 E1111.19727
G1 X53.179 Y50.812 E1121.93531
G1 X52.382 Y50.812 E1121.99687
G1 X150.708 Y149.139 E1132.73492
G1 X149.911 Y149.139 E1132.79647
G1 X51.585 Y50.812 E1143.53455
G1 X50.788 Y50.812 E1143.59610
G1 X149.114 Y149.139 E1154.33420
G1 X148.317 Y149.139 E1154.39575
G1 X49.991 Y50.812 E1165.13387
G1 X49.193 Y50.812 E1165.19543
G1 X147.520 Y149.139 E1175.93357
G1 X146.723 Y149.140 E1175.99511
G1 X48.396 Y50.812 E1186.73328
G1 X47.599 Y50.812 E1186.79483
G1 X145.927 Y149.140 E1197.53302
G1 X145.130 Y149.140 E1197.59456
G1 X46.802 Y50.812 E1208.33277
G1 X46.005 Y50.812 E1208.39433
G1 X144.333 Y149.140 E1219.13255
G1 X143.536 Y149.140 E1219.19410
G1 X45.208 Y50.812 E1229.93235
G1 X44.411 Y50.812 E1229.99390
G1 X142.739 Y149.141 E1240.73217
G1 X141.942 Y149.141 E1240.79372
G1 X43.613 Y50.812 E1251.53201
G1 X42.816 Y50.812 E1251.59357
G1 X141.145 Y149.141 E1262.33188
G1 X140.348 Y149.141 E1262.39342
G1 X42.019 Y50.812 E1273.13176
G1 X41.222 Y50.812 E1273.19331
G1 X139.551 Y149.141 E1283.93167
G1 X138.754 Y149.142 E1283.99321
G1 X40.425 Y50.812 E1294.73159
G1 X39.628 Y50.812 E1294.79315
G1 X137.957 Y149.142 E1305.53154
G1 X137.160 Y149.142 E1305.59309
G1 X38.831 Y50.812 E1316.33151
G1 X38.033 Y50.812 E1316.39306
G1 X136.363 Y149.142 E1327.13150
G1 X135.566 Y149.142 E1327.19305
G1 X37.236 Y50.812 E1337.93151
G1 X36.439 Y50.812 E1337.99307
G1 X134.769 Y149.143 E1348.73155
G1 X133.972 Y149.143 E1348.79309
G1 X35.642 Y50.812 E1359.53160
G1 X34.845 Y50.812 E1359.59315
G1 X133.175 Y149.143 E1370.33168
G1 X132.378 Y149.143 E1370.39322
G1 X34.048 Y50.812 E1381.13177
G1 X33.251 Y50.812 E1381.19333
G1 X131.581 Y149.143 E1391.93190
G1 X130.785 Y149.144 E1391.99344
G1 X32.453 Y50.812 E1402.73203
G1 X31.656 Y50.812 E1402.79358
G1 X129.988 Y149.144 E1413.53220
G1 X129.191 Y149.144 E1413.59374
G1 X30.859 Y50.812 E1424.33237
G1 X30.062 Y50.812 E1424.39393
G1 X128.394 Y149.144 E1435.13258
G1 X127.597 Y149.144 E1435.19412
G1 X29.265 Y50.812 E1445.93280
G1 X28.468 Y50.812 E1445.99436
G1 X126.800 Y149.145 E1456.73305
G1 X126.003 Y149.145 E1456.79459
G1 X27.671 Y50.812 E1467.53331
G1 X26.873 Y50.812 E1467.59487
G1 X125.206 Y149.145 E1478.33361
G1 X124.409 Y149.145 E1478.39515
G1 X26.076 Y50.812 E1489.13391
G1 X25.279 Y50.812 E1489.19547
G1 X123.612 Y149.145 E1499.93425
G1 X122.815 Y149.146 E1499.99579
G1 X24.482 Y50.812 E1510.73459
G1 X23.685 Y50.812 E1510.79615
G1 X122.018 Y149.146 E1521.53497
G1 X121.221 Y149.146 E1521.59652
G1 X22.888 Y50.812 E1532.33536
G1 X22.091 Y50.812 E1532.39692
G1 X120.424 Y149.146 E1543.13579
G1 X119.627 Y149.146 E1543.19733
G1 X21.563 Y51.082 E1553.90678
G1 X21.563 Y51.879 E1553.96833
G1 X118.830 Y149.146 E1564.59075
G1 X118.033 Y149.147 E1564.65229
G1 X21.563 Y52.676 E1575.18767
G1 X21.563 Y53.473 E1575.24923
G1 X117.236 Y149.147 E1585.69758
G1 X116.440 Y149.147 E1585.75912
G1 X21.563 Y54.271 E1596.12043
G1 X21.563 Y55.068 E1596.18199
G1 X115.643 Y149.147 E1606.45627
G1 X114.846 Y149.147 E1606.51781
G1 X21.563 Y55.865 E1616.70506
G1 X21.563 Y56.662 E1616.76662
G1 X114.049 Y149.148 E1626.86683
G1 X113.252 Y149.148 E1626.92838
G1 X21.563 Y57.459 E1636.94156
G1 X21.563 Y58.256 E1637.00312
G1 X112.455 Y149.148 E1646.92926
G1 X111.658 Y149.148 E1646.99081
G1 X21.563 Y59.053 E1656.82992
G1 X21.563 Y59.851 E1656.89148
G1 X110.861 Y149.148 E1666.64356
G1 X110.064 Y149.149 E1666.70510
G1 X21.563 Y60.648 E1676.37015
G1 X21.563 Y61.445 E1676.43171
G1 X109.267 Y149.149 E1686.00973
G1 X108.470 Y149.149 E1686.07127
G1 X21.563 Y62.242 E1695.56225
G1 X21.563 Y63.039 E1695.62381
G1 X107.673 Y149.149 E1705.02776
G1 X106.876 Y149.149 E1705.08930
G1 X21.563 Y63.836 E1714.40622
G1 X21.563 Y64.633 E1714.46778
G1 X106.079 Y149.150 E1723.69766
G1 X105.282 Y149.150 E1723.75920
