; generated by Slic3r 1.1.7 on 2015-02-21 at 12:53:17

; perimeters extrusion width = 0.47mm
; infill extrusion width = 0.62mm
; solid infill extrusion width = 0.62mm
; top infill extrusion width = 0.62mm
; support material extrusion width = 0.47mm

G21 ; set units to millimeters
M190 S60 ; wait for bed temperature to be reached
M104 S230 ; set temperature
G28 ; home all axes Start of G Code Slic3r
 
 
M109 S230 ; wait for temperature to be reached
G90 ; use absolute coordinates
G92 E0
M82 ; use absolute distances for extrusion
G1 F4200.000 E-3.00000
G92 E0
G1 Z0.294 F7800.000
G1 X18.267 Y43.620 F7800.000
G1 E3.00000 F4200.000
G1 X18.715 Y43.432 E3.03751 F1800.000
G1 X20.334 Y43.247 E3.16335
G1 X39.877 Y43.254 E4.67255
G1 X179.607 Y43.311 E15.46278 F1800.000
G1 X181.953 Y43.710 E15.64649
G1 X184.036 Y44.858 E15.83020
G1 X185.625 Y46.628 E16.01391
G1 X186.543 Y48.823 E16.19762
G1 X186.728 Y50.434 E16.32286
G1 X186.749 Y149.628 E23.98283
G1 X186.352 Y151.974 E24.16654
G1 X185.205 Y154.058 E24.35025
G1 X183.436 Y155.649 E24.53396
G1 X181.242 Y156.568 E24.71767
G1 X179.625 Y156.754 E24.84339
G1 X20.331 Y156.754 E37.14440
G1 X17.985 Y156.357 E37.32811
G1 X15.901 Y155.209 E37.51182
G1 X14.311 Y153.440 E37.69552
G1 X13.392 Y151.246 E37.87923
G1 X13.206 Y149.630 E38.00486
G1 X13.206 Y50.371 E45.66980
G1 X13.604 Y48.025 E45.85351
G1 X14.751 Y45.941 E46.03722
G1 X16.520 Y44.351 E46.22093
G1 X18.202 Y43.647 E46.36169
G1 X18.451 Y44.311 F7800.000
G1 X20.333 Y43.809 E46.51213 F1800.000
G1 X39.877 Y43.817 E48.02133
G1 X179.607 Y43.874 E58.81156 F1800.000
G1 X181.854 Y44.272 E58.98782
G1 X183.830 Y45.415 E59.16408
G1 X185.294 Y47.166 E59.34034
G1 X186.166 Y50.434 E59.60152
G1 X186.187 Y149.628 E67.26149
G1 X185.790 Y151.876 E67.43775
G1 X184.648 Y153.852 E67.61401
G1 X182.898 Y155.317 E67.79027
G1 X179.625 Y156.192 E68.05187
G1 X20.331 Y156.192 E80.35289
G1 X18.083 Y155.795 E80.52914
G1 X16.107 Y154.652 E80.70540
G1 X14.642 Y152.901 E80.88166
G1 X13.768 Y149.630 E81.14319
G1 X13.769 Y50.371 E88.80813
G1 X14.165 Y48.123 E88.98439
G1 X15.308 Y46.148 E89.16065
G1 X17.059 Y44.683 E89.33691
G1 X18.383 Y44.329 E89.44274
G1 F4200.000 E86.44274
G92 E0
G1 X179.331 Y149.336 F7800.000
G1 E3.00000 F4200.000
G1 X20.624 Y149.336 E15.25565 F441.000
G1 X20.624 Y50.665 E22.87522
G1 X179.310 Y50.729 E35.12927
G1 X179.331 Y149.265 E42.73841
G1 X178.924 Y149.101 F7800.000
G1 X178.769 Y148.774 F7800.000
G1 X21.187 Y148.774 E54.90722 F630.000
G1 X21.187 Y51.227 E62.43994
G1 X178.748 Y51.291 E74.60718
G1 X178.769 Y148.703 E82.12950
G1 X178.321 Y51.679 F7800.000
G1 X178.361 Y51.719 E82.13387 F1500.000
G1 X178.361 Y52.516 E82.19542
G1 X177.523 Y51.679 E82.28687
G1 X176.726 Y51.678 E82.34844
G1 X178.361 Y53.313 E82.52697
G1 X178.361 Y54.110 E82.58852
G1 X175.929 Y51.678 E82.85414
G1 X175.132 Y51.678 E82.91570
G1 X178.361 Y54.907 E83.26840
G1 X178.362 Y55.704 E83.32995
G1 X174.335 Y51.677 E83.76973
G1 X173.537 Y51.677 E83.83129
G1 X178.362 Y56.501 E84.35815
G1 X178.362 Y57.298 E84.41970
G1 X172.740 Y51.677 E85.03364
G1 X171.943 Y51.676 E85.09521
G1 X178.362 Y58.095 E85.79623
G1 X178.362 Y58.892 E85.85778
G1 X171.146 Y51.676 E86.64589
G1 X170.348 Y51.676 E86.70745
G1 X178.362 Y59.689 E87.58264
G1 X178.363 Y60.487 E87.64419
G1 X169.551 Y51.675 E88.60646
G1 X168.754 Y51.675 E88.66802
G1 X178.363 Y61.284 E89.71737
G1 X178.363 Y62.081 E89.77893
G1 X167.957 Y51.675 E90.91536
G1 X167.160 Y51.674 E90.97692
G1 X178.363 Y62.878 E92.20044
G1 X178.363 Y63.675 E92.26199
G1 X166.362 Y51.674 E93.57258
G1 X165.565 Y51.674 E93.63415
G1 X178.363 Y64.472 E95.03183
G1 X178.364 Y65.269 E95.09338
G1 X164.768 Y51.673 E96.57814
G1 X163.971 Y51.673 E96.63970
G1 X178.364 Y66.066 E98.21154
G1 X178.364 Y66.863 E98.27309
G1 X163.173 Y51.673 E99.93202
G1 X162.376 Y51.672 E99.99358
G1 X178.364 Y67.660 E101.73959
G1 X178.364 Y68.457 E101.80114
G1 X161.579 Y51.672 E103.63422
G1 X160.782 Y51.672 E103.69579
G1 X178.364 Y69.254 E105.61596
G1 X178.365 Y70.051 E105.67751
G1 X159.985 Y51.671 E107.68476
G1 X159.187 Y51.671 E107.74632
G1 X178.365 Y70.848 E109.84065
G1 X178.365 Y71.645 E109.90220
G1 X158.390 Y51.671 E112.08362
G1 X157.593 Y51.670 E112.14518
G1 X178.365 Y72.443 E114.41368
G1 X178.365 Y73.240 E114.47523
G1 X156.796 Y51.670 E116.83081
G1 X155.998 Y51.670 E116.89237
G1 X178.365 Y74.037 E119.33503
G1 X178.366 Y74.834 E119.39658
G1 X155.201 Y51.669 E121.92632
G1 X154.404 Y51.669 E121.98789
G1 X178.366 Y75.631 E124.60471
G1 X178.366 Y76.428 E124.66626
G1 X153.607 Y51.669 E127.37016
G1 X152.810 Y51.668 E127.43173
G1 X178.366 Y77.225 E130.22271
G1 X178.366 Y78.022 E130.28427
G1 X152.012 Y51.668 E133.16233
G1 X151.215 Y51.668 E133.22390
G1 X178.366 Y78.819 E136.18905
G1 X178.367 Y79.616 E136.25060
G1 X150.418 Y51.667 E139.30283
G1 X149.621 Y51.667 E139.36439
G1 X178.367 Y80.413 E142.50371
G1 X178.367 Y81.210 E142.56526
G1 X148.823 Y51.667 E145.79165
G1 X148.026 Y51.666 E145.85322
G1 X178.367 Y82.007 E149.16670
G1 X178.367 Y82.804 E149.22825
G1 X147.229 Y51.666 E152.62881
G1 X146.432 Y51.666 E152.69037
G1 X178.367 Y83.601 E156.17801
G1 X178.368 Y84.399 E156.23956
G1 X145.635 Y51.665 E159.81428
G1 X144.837 Y51.665 E159.87585
G1 X178.368 Y85.196 E163.53765
G1 X178.368 Y85.993 E163.59920
G1 X144.040 Y51.665 E167.34809
G1 X143.243 Y51.665 E167.40965
G1 X178.368 Y86.790 E171.24562
G1 X178.368 Y87.587 E171.30717
G1 X142.446 Y51.664 E175.23022
G1 X141.648 Y51.664 E175.29178
G1 X178.368 Y88.384 E179.30192
G1 X178.369 Y89.181 E179.36347
G1 X140.851 Y51.664 E183.46068
G1 X140.054 Y51.663 E183.52224
G1 X178.369 Y89.978 E187.70654
G1 X178.369 Y90.775 E187.76809
G1 X139.257 Y51.663 E192.03947
G1 X138.460 Y51.663 E192.10103
G1 X178.369 Y91.572 E196.45949
G1 X178.369 Y92.369 E196.52104
G1 X137.662 Y51.662 E200.96658
G1 X136.865 Y51.662 E201.02815
G1 X178.369 Y93.166 E205.56077
G1 X178.370 Y93.963 E205.62232
G1 X136.068 Y51.662 E210.24202
G1 X135.271 Y51.661 E210.30359
G1 X178.370 Y94.760 E215.01037
G1 X178.370 Y95.557 E215.07192
G1 X134.473 Y51.661 E219.86579
G1 X133.676 Y51.661 E219.92735
G1 X178.370 Y96.354 E224.80830
G1 X178.370 Y97.152 E224.86985
G1 X132.879 Y51.660 E229.83789
G1 X132.082 Y51.660 E229.89945
G1 X178.370 Y97.949 E234.95456
G1 X178.371 Y98.746 E235.01611
G1 X131.285 Y51.660 E240.15831
G1 X130.487 Y51.659 E240.21987
G1 X178.371 Y99.543 E245.44915
G1 X178.371 Y100.340 E245.51070
G1 X129.690 Y51.659 E250.82706
G1 X128.893 Y51.659 E250.88862
G1 X178.371 Y101.137 E256.29206
G1 X178.371 Y101.934 E256.35361
G1 X128.096 Y51.658 E261.84413
G1 X127.298 Y51.658 E261.90570
G1 X178.371 Y102.731 E267.48330
G1 X178.372 Y103.528 E267.54485
G1 X126.501 Y51.658 E273.20954
G1 X125.704 Y51.657 E273.27110
G1 X178.372 Y104.325 E279.02287
G1 X178.372 Y105.122 E279.08442
G1 X124.907 Y51.657 E284.92327
G1 X124.109 Y51.657 E284.98483
G1 X178.372 Y105.919 E290.91076
G1 X178.372 Y106.716 E290.97231
G1 X123.312 Y51.656 E296.98533
G1 X122.515 Y51.656 E297.04689
G1 X178.372 Y107.513 E303.14699
G1 X178.373 Y108.310 E303.20854
G1 X121.718 Y51.656 E309.39571
G1 X120.921 Y51.655 E309.45728
G1 X178.373 Y109.108 E315.73153
G1 X178.373 Y109.905 E315.79308
G1 X120.123 Y51.655 E322.15442
G1 X119.326 Y51.655 E322.21599
G1 X178.373 Y110.702 E328.66441
G1 X178.373 Y111.499 E328.72596
G1 X118.529 Y51.654 E335.26146
G1 X117.732 Y51.654 E335.32303
G1 X178.373 Y112.296 E341.94561
G1 X178.374 Y113.093 E342.00716
G1 X116.934 Y51.654 E348.71683
G1 X116.137 Y51.653 E348.77839
G1 X178.374 Y113.890 E355.57514
G1 X178.374 Y114.687 E355.63669
G1 X115.340 Y51.653 E362.52052
G1 X114.543 Y51.653 E362.58209
G1 X178.374 Y115.484 E369.55300
G1 X178.374 Y116.281 E369.61455
G1 X113.746 Y51.652 E376.67255
G1 X112.948 Y51.652 E376.73411
G1 X178.374 Y117.078 E383.87918
G1 X178.375 Y117.875 E383.94074
G1 X112.151 Y51.652 E391.17289
G1 X111.354 Y51.652 E391.23446
G1 X178.375 Y118.672 E398.55370
G1 X178.375 Y119.469 E398.61525
G1 X110.557 Y51.651 E406.02157
G1 X109.759 Y51.651 E406.08313
G1 X178.375 Y120.266 E413.57653
G1 X178.375 Y121.063 E413.63809
G1 X108.962 Y51.651 E421.21857
G1 X108.165 Y51.650 E421.28013
G1 X178.375 Y121.861 E428.94770
G1 X178.376 Y122.658 E429.00925
G1 X107.368 Y51.650 E436.76390
G1 X106.571 Y51.650 E436.82546
G1 X178.376 Y123.455 E444.66719
G1 X178.376 Y124.252 E444.72874
G1 X105.773 Y51.649 E452.65756
G1 X104.976 Y51.649 E452.71912
G1 X178.376 Y125.049 E460.73501
G1 X178.376 Y125.846 E460.79656
G1 X104.179 Y51.649 E468.89954
G1 X103.382 Y51.648 E468.96110
G1 X178.376 Y126.643 E477.15116
G1 X178.377 Y127.440 E477.21271
G1 X102.584 Y51.648 E485.48985
G1 X101.787 Y51.648 E485.55141
G1 X178.377 Y128.237 E493.91563
G1 X178.377 Y129.034 E493.97719
G1 X100.990 Y51.647 E502.42849
G1 X100.193 Y51.647 E502.49005
G1 X178.377 Y129.831 E511.02844
G1 X178.377 Y130.628 E511.08999
G1 X99.396 Y51.647 E519.71545
G1 X98.598 Y51.646 E519.77702
G1 X178.377 Y131.425 E528.48956
G1 X178.378 Y132.222 E528.55111
G1 X97.801 Y51.646 E537.35074
G1 X97.004 Y51.646 E537.41231
G1 X178.378 Y133.019 E546.29902
G1 X178.378 Y133.817 E546.36057
G1 X96.207 Y51.645 E555.33436
G1 X95.409 Y51.645 E555.39593
G1 X178.378 Y134.614 E564.45680
G1 X178.378 Y135.411 E564.51835
G1 X94.612 Y51.645 E573.66631
G1 X93.815 Y51.644 E573.72787
G1 X178.378 Y136.208 E582.96291
G1 X178.379 Y137.005 E583.02446
G1 X93.018 Y51.644 E592.34658
G1 X92.221 Y51.644 E592.40815
G1 X178.379 Y137.802 E601.81735
G1 X178.379 Y138.599 E601.87890
G1 X91.423 Y51.643 E611.37518
G1 X90.626 Y51.643 E611.43675
G1 X178.379 Y139.396 E621.02011
G1 X178.379 Y140.193 E621.08166
G1 X89.829 Y51.643 E630.75211
G1 X89.032 Y51.642 E630.81368
G1 X178.379 Y140.990 E640.57120
G1 X178.380 Y141.787 E640.63276
G1 X88.234 Y51.642 E650.47737
G1 X87.437 Y51.642 E650.53893
G1 X178.380 Y142.584 E660.47062
G1 X178.380 Y143.381 E660.53217
G1 X86.640 Y51.641 E670.55095
G1 X85.843 Y51.641 E670.61251
G1 X178.380 Y144.178 E680.71837
G1 X178.380 Y144.975 E680.77992
G1 X85.046 Y51.641 E690.97286
G1 X84.248 Y51.640 E691.03442
G1 X178.380 Y145.773 E701.31444
G1 X178.381 Y146.570 E701.37599
G1 X83.451 Y51.640 E711.74309
G1 X82.654 Y51.640 E711.80466
G1 X178.381 Y147.367 E722.25884
G1 X178.381 Y148.164 E722.32039
G1 X81.857 Y51.639 E732.86166
G1 X81.059 Y51.639 E732.92322
G1 X177.806 Y148.386 E743.48879
G1 X177.009 Y148.386 E743.55033
G1 X80.262 Y51.639 E754.11594
G1 X79.465 Y51.639 E754.17750
G1 X176.212 Y148.386 E764.74314
G1 X175.415 Y148.386 E764.80468
G1 X78.668 Y51.638 E775.37036
G1 X77.871 Y51.638 E775.43192
G1 X174.619 Y148.386 E785.99764
G1 X173.822 Y148.386 E786.05918
G1 X77.073 Y51.638 E796.62493
G1 X76.276 Y51.637 E796.68649
G1 X173.025 Y148.386 E807.25227
G1 X172.228 Y148.386 E807.31381
G1 X75.479 Y51.637 E817.87963
G1 X74.682 Y51.637 E817.94120
G1 X171.431 Y148.386 E828.50705
G1 X170.634 Y148.386 E828.56859
G1 X73.884 Y51.636 E839.13448
G1 X73.087 Y51.636 E839.19604
G1 X169.837 Y148.386 E849.76197
G1 X169.040 Y148.386 E849.82351
G1 X72.290 Y51.636 E860.38947
G1 X71.493 Y51.635 E860.45104
G1 X168.243 Y148.386 E871.01703
G1 X167.447 Y148.386 E871.07857
G1 X70.696 Y51.635 E881.64461
G1 X69.898 Y51.635 E881.70617
G1 X166.650 Y148.386 E892.27224
G1 X165.853 Y148.386 E892.33378
G1 X69.101 Y51.634 E902.89988
G1 X68.304 Y51.634 E902.96145
G1 X165.056 Y148.386 E913.52759
G1 X164.259 Y148.386 E913.58912
G1 X67.507 Y51.634 E924.15530
G1 X66.709 Y51.633 E924.21686
G1 X163.462 Y148.386 E934.78308
G1 X162.665 Y148.386 E934.84461
G1 X65.912 Y51.633 E945.41086
G1 X65.115 Y51.633 E945.47242
G1 X161.868 Y148.386 E956.03871
G1 X161.071 Y148.386 E956.10025
G1 X64.318 Y51.632 E966.66656
G1 X63.520 Y51.632 E966.72813
G1 X160.274 Y148.386 E977.29448
G1 X159.478 Y148.386 E977.35602
G1 X62.723 Y51.632 E987.92241
G1 X61.926 Y51.631 E987.98397
G1 X158.681 Y148.386 E998.55040
G1 X157.884 Y148.386 E998.61194
G1 X61.129 Y51.631 E1009.17840
G1 X60.332 Y51.631 E1009.23996
G1 X157.087 Y148.386 E1019.80646
G1 X156.290 Y148.386 E1019.86799
G1 X59.534 Y51.630 E1030.43453
G1 X58.737 Y51.630 E1030.49609
G1 X155.493 Y148.386 E1041.06266
G1 X154.696 Y148.386 E1041.12419
G1 X57.940 Y51.630 E1051.69080
G1 X57.143 Y51.629 E1051.75236
G1 X153.899 Y148.386 E1062.31900
G1 X153.102 Y148.386 E1062.38054
G1 X56.345 Y51.629 E1072.94721
G1 X55.548 Y51.629 E1073.00878
G1 X152.305 Y148.386 E1083.57548
G1 X151.509 Y148.386 E1083.63702
G1 X54.751 Y51.628 E1094.20377
G1 X53.954 Y51.628 E1094.26533
G1 X150.712 Y148.386 E1104.83211
G1 X149.915 Y148.386 E1104.89365
G1 X53.157 Y51.628 E1115.46047
G1 X52.359 Y51.627 E1115.52203
G1 X149.118 Y148.386 E1126.08888
G1 X148.321 Y148.386 E1126.15042
G1 X51.562 Y51.627 E1136.71731
G1 X50.765 Y51.627 E1136.77887
G1 X147.524 Y148.386 E1147.34579
G1 X146.727 Y148.386 E1147.40733
G1 X49.968 Y51.626 E1157.97429
G1 X49.170 Y51.626 E1158.03585
G1 X145.930 Y148.386 E1168.60285
G1 X145.133 Y148.386 E1168.66439
G1 X48.373 Y51.626 E1179.23142
G1 X47.576 Y51.625 E1179.29298
G1 X144.336 Y148.386 E1189.86004
G1 X143.540 Y148.386 E1189.92158
G1 X46.779 Y51.625 E1200.48868
G1 X45.982 Y51.625 E1200.55025
G1 X142.743 Y148.386 E1211.11738
G1 X141.946 Y148.386 E1211.17892
G1 X45.184 Y51.625 E1221.74609
G1 X44.387 Y51.624 E1221.80766
G1 X141.149 Y148.386 E1232.37486
G1 X140.352 Y148.386 E1232.43640
G1 X43.590 Y51.624 E1243.00365
G1 X42.793 Y51.624 E1243.06521
G1 X139.555 Y148.386 E1253.63249
G1 X138.758 Y148.386 E1253.69403
G1 X41.995 Y51.623 E1264.26134
G1 X41.198 Y51.623 E1264.32290
G1 X137.961 Y148.386 E1274.89025
G1 X137.164 Y148.386 E1274.95179
G1 X40.401 Y51.623 E1285.51918
G1 X39.604 Y51.622 E1285.58074
G1 X136.367 Y148.386 E1296.14816
G1 X135.571 Y148.386 E1296.20970
G1 X38.807 Y51.622 E1306.77715
G1 X38.009 Y51.622 E1306.83872
G1 X134.774 Y148.386 E1317.40621
G1 X133.977 Y148.386 E1317.46775
G1 X37.212 Y51.621 E1328.03527
G1 X36.415 Y51.621 E1328.09683
G1 X133.180 Y148.386 E1338.66440
G1 X132.383 Y148.386 E1338.72593
G1 X35.618 Y51.621 E1349.29353
G1 X34.820 Y51.620 E1349.35509
G1 X131.586 Y148.386 E1359.92272
G1 X130.789 Y148.386 E1359.98426
G1 X34.023 Y51.620 E1370.55192
G1 X33.226 Y51.620 E1370.61349
G1 X129.992 Y148.386 E1381.18119
G1 X129.195 Y148.386 E1381.24273
G1 X32.429 Y51.619 E1391.81046
G1 X31.632 Y51.619 E1391.87202
G1 X128.399 Y148.386 E1402.43979
G1 X127.602 Y148.386 E1402.50133
G1 X30.834 Y51.619 E1413.06914
G1 X30.037 Y51.618 E1413.13070
G1 X126.805 Y148.386 E1423.69854
G1 X126.008 Y148.386 E1423.76008
G1 X29.240 Y51.618 E1434.32795
G1 X28.443 Y51.618 E1434.38951
G1 X125.211 Y148.386 E1444.95742
G1 X124.414 Y148.386 E1445.01896
G1 X27.646 Y51.617 E1455.58691
G1 X26.848 Y51.617 E1455.64847
G1 X123.617 Y148.386 E1466.21645
G1 X122.820 Y148.386 E1466.27799
G1 X26.051 Y51.617 E1476.84600
G1 X25.254 Y51.616 E1476.90756
G1 X122.023 Y148.386 E1487.47561
G1 X121.226 Y148.386 E1487.53715
G1 X24.457 Y51.616 E1498.10523
G1 X23.659 Y51.616 E1498.16680
G1 X120.430 Y148.386 E1508.73492
G1 X119.633 Y148.386 E1508.79645
G1 X22.862 Y51.616 E1519.36461
G1 X22.065 Y51.615 E1519.42617
G1 X118.836 Y148.386 E1529.99436
G1 X118.039 Y148.386 E1530.05590
G1 X21.574 Y51.921 E1540.59065
G1 X21.574 Y52.718 E1540.65219
G1 X117.242 Y148.386 E1551.09992
G1 X116.445 Y148.386 E1551.16146
G1 X21.574 Y53.515 E1561.52216
G1 X21.574 Y54.312 E1561.58370
G1 X115.648 Y148.386 E1571.85737
G1 X114.851 Y148.386 E1571.91891
G1 X21.574 Y55.109 E1582.10555
G1 X21.574 Y55.906 E1582.16709
G1 X114.054 Y148.386 E1592.26671
G1 X113.257 Y148.386 E1592.32824
G1 X21.574 Y56.703 E1602.34083
G1 X21.574 Y57.500 E1602.40237
G1 X112.461 Y148.386 E1612.32793
G1 X111.664 Y148.386 E1612.38947
G1 X21.574 Y58.297 E1622.22800
G1 X21.574 Y59.093 E1622.28954
G1 X110.867 Y148.386 E1632.04105
G1 X110.070 Y148.386 E1632.10258
G1 X21.574 Y59.890 E1641.76706
G1 X21.574 Y60.687 E1641.82860
G1 X109.273 Y148.386 E1651.40605
G1 X108.476 Y148.386 E1651.46758
G1 X21.574 Y61.484 E1660.95801
G1 X21.574 Y62.281 E1661.01954
G1 X107.679 Y148.386 E1670.42294
G1 X106.882 Y148.386 E1670.48447
G1 X21.574 Y63.078 E1679.80084
G1 X21.574 Y63.875 E1679.86238
G1 X106.085 Y148.386 E1689.09171
G1 X105.288 Y148.386 E1689.15325
G1 X21.574 Y64.672 E1698.29556
G1 X21.574 Y65.469 E1698.35710
