; generated by Slic3r 1.1.7 on 2014-12-08 at 16:37:35

; perimeters extrusion width = 0.42mm
; infill extrusion width = 0.74mm
; solid infill extrusion width = 0.71mm
; top infill extrusion width = 0.71mm
; support material extrusion width = 0.42mm

G21 ; set units to millimeters
M190 S60 ; wait for bed temperature to be reached
M104 S186 ; set temperature
G28 ; home all axes
M109 S186 ; wait for temperature to be reached
G90 ; use absolute coordinates
G92 E0
M82 ; use absolute distances for extrusion
M106 S127
G1 F1860.000 E-3.00000
G92 E0
G1 Z0.200 F6000.000
G1 X76.288 Y60.997 F6000.000
G1 E3.10000 F1860.000
G1 X78.178 Y59.662 E3.14280 F1200.000
G1 X81.063 Y59.013 E3.19752
G1 X121.563 Y59.013 E3.94678
G1 X123.843 Y59.410 E3.98959
G1 X125.854 Y60.555 E4.03239 F1200.000
G1 X127.359 Y62.311 E4.07520
G1 X128.296 Y65.396 E4.13484
G1 X131.742 Y130.268 E5.33667
G1 X131.742 Y134.245 E5.41025
G1 X131.345 Y136.525 E5.45305
G1 X130.200 Y138.536 E5.49586
G1 X128.443 Y140.041 E5.53866
G1 X126.281 Y140.864 E5.58147
G1 X125.000 Y140.987 E5.60527
G1 X75.000 Y140.987 E6.53028
G1 X72.721 Y140.590 E6.57309
G1 X70.710 Y139.445 E6.61589
G1 X69.204 Y137.689 E6.65870
G1 X68.381 Y135.526 E6.70150
G1 X68.258 Y134.245 E6.72531
G1 X68.288 Y129.614 E6.81099
G1 X74.351 Y65.124 E8.00933
G1 X74.960 Y62.892 E8.05214
G1 X76.251 Y61.048 E8.09378
G1 X76.498 Y61.147 F6000.000
G1 X76.523 Y61.111 E8.09458 F1200.000
G1 X78.399 Y59.832 E8.13659
G1 X81.063 Y59.260 E8.18701
G1 X121.563 Y59.260 E8.93626
G1 X123.799 Y59.657 E8.97827
G1 X125.761 Y60.800 E9.02028 F1200.000
G1 X127.211 Y62.547 E9.06228
G1 X128.049 Y65.409 E9.11745
G1 X131.494 Y130.268 E10.31904
G1 X131.494 Y134.245 E10.39262
G1 X131.097 Y136.481 E10.43463
G1 X129.955 Y138.443 E10.47663
G1 X128.207 Y139.892 E10.51864
G1 X125.000 Y140.740 E10.58001
G1 X75.000 Y140.740 E11.50502
G1 X72.764 Y140.343 E11.54703
G1 X70.802 Y139.200 E11.58903
G1 X69.353 Y137.453 E11.63104
G1 X68.506 Y134.245 E11.69241
G1 X68.534 Y129.637 E11.77766
G1 X74.598 Y65.147 E12.97601
G1 X75.202 Y62.958 E13.01802
G1 X76.461 Y61.198 E13.05805
G1 X76.706 Y61.299 F6000.000
G1 X76.758 Y61.228 E13.05968 F1200.000
G1 X78.619 Y60.006 E13.10087
G1 X81.063 Y59.508 E13.14702
G1 X121.563 Y59.508 E13.89628
G1 X123.754 Y59.904 E13.93748
G1 X125.667 Y61.044 E13.97867 F1200.000
G1 X127.058 Y62.783 E14.01986
G1 X127.802 Y65.422 E14.07060
G1 X131.247 Y130.268 E15.27194
G1 X131.247 Y134.245 E15.34552
G1 X130.850 Y136.436 E15.38672
G1 X129.710 Y138.349 E15.42791
G1 X127.972 Y139.740 E15.46910
G1 X125.000 Y140.492 E15.52582
G1 X75.000 Y140.492 E16.45083
G1 X72.809 Y140.096 E16.49202
G1 X70.896 Y138.956 E16.53322
G1 X69.505 Y137.217 E16.57441
G1 X68.753 Y134.245 E16.63113
G1 X68.780 Y129.660 E16.71595
G1 X74.844 Y65.170 E17.91429
G1 X75.444 Y63.026 E17.95549
G1 X76.669 Y61.350 E17.99389
G1 F1860.000 E14.99389
G92 E0
G1 X118.640 Y76.296 F6000.000
G1 E3.10000 F1860.000
G1 X118.245 Y76.660 E3.10993 F1200.000
G1 X117.769 Y76.908 E3.11986
G1 X117.245 Y77.025 E3.12979
G1 X116.709 Y77.002 E3.13972
G1 X116.197 Y76.841 E3.14966
G1 X115.744 Y76.554 E3.15959
G1 X115.381 Y76.158 E3.16952
G1 X115.132 Y75.682 E3.17945
G1 X115.015 Y75.159 E3.18938
G1 X115.038 Y74.622 E3.19931
G1 X115.199 Y74.110 E3.20924
G1 X115.486 Y73.657 E3.21917
G1 X115.882 Y73.294 E3.22911
G1 X116.358 Y73.045 E3.23904
G1 X116.881 Y72.928 E3.24897
G1 X117.350 Y72.948 E3.25764
G1 X117.418 Y72.951 E3.25890 F1200.000
G1 X117.930 Y73.112 E3.26883
G1 X118.383 Y73.400 E3.27876
G1 X118.746 Y73.795 E3.28869
G1 X118.995 Y74.271 E3.29862
G1 X119.112 Y74.795 E3.30855
G1 X119.089 Y75.331 E3.31849
G1 X118.928 Y75.843 E3.32842
G1 X118.674 Y76.243 E3.33718
G1 X118.449 Y76.136 F6000.000
G1 X118.102 Y76.455 E3.34591 F1200.000
G1 X117.684 Y76.674 E3.35464
G1 X117.223 Y76.777 E3.36336
G1 X116.787 Y76.758 E3.37143
G1 X116.302 Y76.615 E3.38080
G1 X115.904 Y76.362 E3.38952
G1 X115.585 Y76.015 E3.39825
G1 X115.366 Y75.597 E3.40698
G1 X115.264 Y75.137 E3.41570
G1 X115.283 Y74.665 E3.42443
G1 X115.425 Y74.215 E3.43316
G1 X115.678 Y73.817 E3.44188
G1 X116.025 Y73.498 E3.45061
G1 X116.443 Y73.279 E3.45934
G1 X116.869 Y73.184 E3.46741
G1 X117.375 Y73.197 E3.47677 F1200.000
G1 X117.825 Y73.338 E3.48550
G1 X118.223 Y73.591 E3.49423
G1 X118.542 Y73.938 E3.50295
G1 X118.761 Y74.356 E3.51168
G1 X118.863 Y74.817 E3.52041
G1 X118.843 Y75.288 E3.52913
G1 X118.702 Y75.738 E3.53786
G1 X118.483 Y76.083 E3.54542
G1 F1860.000 E0.54542
G92 E0
G1 X116.789 Y72.772 F6000.000
G1 X121.216 Y81.702 F6000.000
G1 E3.10000 F1860.000
G1 X116.595 Y81.702 E3.18550 F1200.000
G1 X112.911 Y76.440 E3.30432
G1 X112.911 Y66.102 E3.49559
G1 X121.216 Y66.102 E3.64924
G1 X121.216 Y81.639 E3.93668
G1 X121.463 Y81.949 F6000.000
G1 X116.466 Y81.949 E4.02913 F1200.000
G1 X112.663 Y76.518 E4.15178
G1 X112.663 Y65.855 E4.34906
G1 X121.463 Y65.855 E4.51186
G1 X121.463 Y81.886 E4.80844
G1 X121.100 Y81.739 F6000.000
G1 X119.856 Y81.543 F6000.000
G1 X113.070 Y74.756 E4.98600 F1200.000
G1 X113.070 Y75.106 E4.99247
G1 X119.507 Y81.543 E5.16088
G1 X119.157 Y81.543 E5.16735
G1 X113.070 Y75.456 E5.32660
G1 X113.070 Y75.806 E5.33307
G1 X118.807 Y81.543 E5.48317
G1 X118.457 Y81.543 E5.48965
G1 X113.070 Y76.155 E5.63059
G1 X113.338 Y76.774 F6000.000
G1 X118.107 Y81.543 E5.75537 F1200.000
G1 X117.757 Y81.543 E5.76184
G1 X114.155 Y77.940 E5.85608
G1 X114.972 Y79.107 F6000.000
G1 X117.408 Y81.543 E5.91980 F1200.000
G1 X117.058 Y81.543 E5.92627
G1 X115.789 Y80.274 E5.95945
G1 X116.607 Y81.441 F6000.000
G1 X116.708 Y81.543 E5.96211 F1200.000
G1 F1860.000 E2.96211
G92 E0
G1 X116.452 Y77.088 F6000.000
G1 E3.10000 F1860.000
G1 X120.906 Y81.543 E3.21654 F1200.000
G1 X121.057 Y81.344 E3.22116
G1 X116.882 Y77.169 E3.33039
G1 X117.247 Y77.184 E3.33715
G1 X121.057 Y80.994 E3.43683
G1 X121.057 Y80.644 E3.44330
G1 X117.536 Y77.123 E3.53542
G1 X117.822 Y77.059 E3.54084
G1 X121.057 Y80.294 E3.62548
G1 X121.057 Y79.945 E3.63195
G1 X118.052 Y76.940 E3.71057
G1 X118.282 Y76.820 E3.71536
G1 X121.057 Y79.595 E3.78796
G1 X121.057 Y79.245 E3.79444
G1 X118.476 Y76.664 E3.86197
G1 X118.658 Y76.496 E3.86655
G1 X121.057 Y78.895 E3.92931
G1 X121.057 Y78.545 E3.93578
G1 X118.821 Y76.309 E3.99429
G1 X118.957 Y76.095 E3.99897
G1 X121.057 Y78.195 E4.05392
G1 X121.057 Y77.846 E4.06039
G1 X119.085 Y75.874 E4.11198
G1 X119.169 Y75.608 E4.11714
G1 X121.057 Y77.496 E4.16654
G1 X121.057 Y77.146 E4.17301
G1 X119.248 Y75.337 E4.22033
G1 X119.262 Y75.001 E4.22655
G1 X121.057 Y76.796 E4.27350
G1 X121.057 Y76.446 E4.27998
G1 X119.237 Y74.627 E4.32759
G1 X119.112 Y74.152 E4.33667
G1 X121.057 Y76.096 E4.38755
G1 F1860.000 E1.38755
G92 E0
G1 X115.777 Y76.763 F6000.000
G1 E3.10000 F1860.000
G1 X120.556 Y81.543 E3.22505 F1200.000
G1 X120.206 Y81.543 E3.23152
G1 X113.070 Y74.406 E3.41823
G1 X113.070 Y74.056 E3.42470
G1 X115.233 Y76.219 E3.48129
G1 X114.947 Y75.584 F6000.000
G1 X113.070 Y73.707 E3.53040 F1200.000
G1 X113.070 Y73.357 E3.53687
G1 X114.856 Y75.143 E3.58361
G1 X114.871 Y74.808 E3.58983
G1 X113.070 Y73.007 E3.63694
G1 X113.070 Y72.657 E3.64341
G1 X114.910 Y74.497 E3.69156
G1 X114.994 Y74.231 E3.69673
G1 X113.070 Y72.307 E3.74706
G1 X113.070 Y71.957 E3.75353
G1 X115.093 Y73.980 E3.80645
G1 X115.228 Y73.766 E3.81114
G1 X113.070 Y71.608 E3.86762
G1 X113.070 Y71.258 E3.87409
G1 X115.365 Y73.553 E3.93413
G1 X115.547 Y73.385 E3.93871
G1 X113.070 Y70.908 E4.00352
G1 X113.070 Y70.558 E4.00999
G1 X115.729 Y73.218 E4.07957
G1 X115.943 Y73.082 E4.08426
G1 X113.070 Y70.208 E4.15944
G1 X113.070 Y69.858 E4.16592
G1 X116.173 Y72.962 E4.24711
G1 X116.428 Y72.866 E4.25214
G1 X113.070 Y69.509 E4.33999
G1 X113.070 Y69.159 E4.34646
G1 X116.714 Y72.803 E4.44180
G1 X117.036 Y72.776 E4.44779
G1 X113.070 Y68.809 E4.55157
G1 X113.070 Y68.459 E4.55804
G1 X117.402 Y72.791 E4.67138
G1 X117.894 Y72.934 E4.68087
G1 X113.070 Y68.109 E4.80709
G1 X113.070 Y67.759 E4.81356
G1 X121.057 Y75.747 E5.02253
G1 X121.057 Y75.397 E5.02900
G1 X113.070 Y67.410 E5.23797
G1 X113.070 Y67.060 E5.24444
G1 X121.057 Y75.047 E5.45341
G1 X121.057 Y74.697 E5.45989
G1 X113.070 Y66.710 E5.66886
G1 X113.070 Y66.360 E5.67533
G1 X121.057 Y74.347 E5.88430
G1 X121.057 Y73.997 E5.89077
G1 X113.321 Y66.261 E6.09318
G1 X113.671 Y66.261 E6.09965
G1 X121.057 Y73.648 E6.29290
G1 X121.057 Y73.298 E6.29937
G1 X114.020 Y66.261 E6.48347
G1 X114.370 Y66.261 E6.48994
G1 X121.057 Y72.948 E6.66489
G1 X121.057 Y72.598 E6.67136
G1 X114.720 Y66.261 E6.83716
G1 X115.070 Y66.261 E6.84363
G1 X121.057 Y72.248 E7.00027
G1 X121.057 Y71.898 E7.00674
G1 X115.420 Y66.261 E7.15423
G1 X115.770 Y66.261 E7.16070
G1 X121.057 Y71.549 E7.29904
G1 X121.057 Y71.199 E7.30551
G1 X116.119 Y66.261 E7.43470
G1 X116.469 Y66.261 E7.44117
G1 X121.057 Y70.849 E7.56120
G1 X121.057 Y70.499 E7.56767
G1 X116.819 Y66.261 E7.67855
G1 X117.169 Y66.261 E7.68502
G1 X121.057 Y70.149 E7.78675
G1 X121.057 Y69.800 E7.79322
G1 X117.519 Y66.261 E7.88579
G1 X117.869 Y66.261 E7.89226
G1 X121.057 Y69.450 E7.97568
G1 X121.057 Y69.100 E7.98216
G1 X118.218 Y66.261 E8.05642
G1 X118.568 Y66.261 E8.06290
G1 X121.057 Y68.750 E8.12801
G1 X121.057 Y68.400 E8.13448
G1 X118.918 Y66.261 E8.19044
G1 X119.268 Y66.261 E8.19692
G1 X121.057 Y68.050 E8.24373
G1 X121.057 Y67.701 E8.25020
G1 X119.618 Y66.261 E8.28786
G1 X119.968 Y66.261 E8.29433
G1 X121.057 Y67.351 E8.32283
G1 X121.057 Y67.001 E8.32930
G1 X120.317 Y66.261 E8.34866
G1 X120.667 Y66.261 E8.35513
G1 X121.057 Y66.651 E8.36533
G1 X121.057 Y66.301 E8.37180
G1 X121.017 Y66.261 E8.37285
G1 F1860.000 E5.37285
G92 E0
G1 X88.099 Y75.492 F6000.000
G1 E3.10000 F1860.000
G1 X87.897 Y76.002 E3.11014 F1200.000
G1 X87.569 Y76.441 E3.12029
G1 X87.139 Y76.781 E3.13043
G1 X86.635 Y76.998 E3.14057
G1 X86.092 Y77.077 E3.15072
G1 X85.616 Y77.021 E3.15959
G1 X85.548 Y77.013 E3.16086
G1 X85.039 Y76.810 E3.17100
G1 X84.599 Y76.482 E3.18114
G1 X84.259 Y76.052 E3.19129
G1 X84.042 Y75.548 E3.20143
G1 X83.963 Y75.006 E3.21157
G1 X84.027 Y74.461 E3.22172
G1 X84.230 Y73.952 E3.23186
G1 X84.558 Y73.512 E3.24200
G1 X84.988 Y73.172 E3.25215
G1 X85.492 Y72.956 E3.26229
G1 X86.034 Y72.877 E3.27243
G1 X86.292 Y72.907 E3.27723
G1 X86.579 Y72.941 E3.28258 F1200.000
G1 X87.088 Y73.143 E3.29272
G1 X87.528 Y73.471 E3.30286
G1 X87.868 Y73.902 E3.31300
G1 X88.084 Y74.405 E3.32315
G1 X88.163 Y74.948 E3.33329
G1 X88.107 Y75.430 E3.34227
G1 X87.858 Y75.431 F6000.000
G1 X87.679 Y75.880 E3.35121 F1200.000
G1 X87.390 Y76.267 E3.36014
G1 X87.011 Y76.567 E3.36908
G1 X86.567 Y76.758 E3.37802
G1 X86.089 Y76.827 E3.38696
G1 X85.609 Y76.771 E3.39590
G1 X85.160 Y76.592 E3.40484
G1 X84.773 Y76.303 E3.41378
G1 X84.473 Y75.924 E3.42272
G1 X84.282 Y75.480 E3.43165
G1 X84.213 Y75.002 E3.44059
G1 X84.269 Y74.522 E3.44953
G1 X84.448 Y74.073 E3.45847
G1 X84.737 Y73.686 E3.46741
G1 X85.116 Y73.387 E3.47635
G1 X85.560 Y73.196 E3.48529
G1 X86.002 Y73.131 E3.49356
G1 X86.518 Y73.182 E3.50314 F1200.000
G1 X86.967 Y73.361 E3.51208
G1 X87.354 Y73.650 E3.52102
G1 X87.653 Y74.029 E3.52996
G1 X87.844 Y74.473 E3.53890
G1 X87.914 Y74.951 E3.54784
G1 X87.865 Y75.368 E3.55561
G1 F1860.000 E0.55561
G92 E0
G1 X85.917 Y72.720 F6000.000
G1 X81.411 Y81.702 F6000.000
G1 E3.10000 F1860.000
G1 X81.411 Y66.102 E3.38860 F1200.000
G1 X90.216 Y66.102 E3.55150
G1 X90.216 Y79.542 E3.80014
G1 X87.926 Y81.702 E3.85839
G1 X81.474 Y81.702 E3.97775
G1 X81.163 Y81.949 F6000.000
G1 X81.163 Y65.855 E4.27550 F1200.000
G1 X90.463 Y65.855 E4.44755
G1 X90.463 Y79.605 E4.70194
G1 X90.486 Y79.628 E4.70252
G1 X88.024 Y81.949 E4.76512
G1 X81.226 Y81.949 E4.89087
G1 X81.373 Y81.585 F6000.000
G1 X81.570 Y81.503 F6000.000
G1 X81.610 Y81.543 E4.89192 F1200.000
G1 X81.963 Y81.543 E4.89846
G1 X81.570 Y81.149 E4.90875
G1 X81.570 Y80.795 E4.91529
G1 X82.317 Y81.543 E4.93484
G1 X82.671 Y81.543 E4.94138
G1 X81.570 Y80.442 E4.97018
G1 X81.570 Y80.088 E4.97672
G1 X83.024 Y81.543 E5.01477
G1 X83.378 Y81.543 E5.02131
G1 X81.570 Y79.735 E5.06861
G1 X81.570 Y79.381 E5.07515
G1 X83.731 Y81.543 E5.13170
G1 X84.085 Y81.543 E5.13824
G1 X81.570 Y79.028 E5.20404
G1 X81.570 Y78.674 E5.21058
G1 X84.438 Y81.543 E5.28562
G1 X84.792 Y81.543 E5.29217
G1 X81.570 Y78.321 E5.37646
G1 X81.570 Y77.967 E5.38301
G1 X85.145 Y81.543 E5.47656
G1 X85.499 Y81.543 E5.48310
G1 X81.570 Y77.613 E5.58590
G1 X81.570 Y77.260 E5.59244
G1 X85.853 Y81.543 E5.70449
G1 X86.206 Y81.543 E5.71103
G1 X81.570 Y76.906 E5.83233
G1 X81.570 Y76.553 E5.83887
G1 X86.560 Y81.543 E5.96942
G1 X86.913 Y81.543 E5.97596
G1 X81.570 Y76.199 E6.11576
G1 X81.570 Y75.846 E6.12230
G1 X87.267 Y81.543 E6.27135
G1 X87.620 Y81.543 E6.27789
G1 X81.570 Y75.492 E6.43619
G1 X81.570 Y75.139 E6.44274
G1 X87.920 Y81.488 E6.60887
G1 X88.102 Y81.317 E6.61350
G1 X81.570 Y74.785 E6.78439
G1 X81.570 Y74.431 E6.79093
G1 X88.284 Y81.145 E6.96659
G1 X88.466 Y80.974 E6.97122
G1 X81.570 Y74.078 E7.15163
G1 F1860.000 E4.15163
G92 E0
G1 X86.656 Y72.800 F6000.000
G1 E3.10000 F1860.000
G1 X81.570 Y67.714 E3.23307 F1200.000
G1 X81.570 Y68.067 E3.23961
G1 X86.243 Y72.741 E3.36189
G1 X85.886 Y72.737 E3.36850
G1 X81.570 Y68.421 E3.48143
G1 X81.570 Y68.774 E3.48797
G1 X85.578 Y72.782 E3.59283
G1 X85.305 Y72.863 E3.59809
G1 X81.570 Y69.128 E3.69581
G1 X81.570 Y69.482 E3.70235
G1 X85.058 Y72.969 E3.79360
G1 X84.830 Y73.095 E3.79842
G1 X81.570 Y69.835 E3.88370
G1 X81.570 Y70.189 E3.89024
G1 X84.632 Y73.251 E3.97036
G1 X84.436 Y73.409 E3.97501
G1 X81.570 Y70.542 E4.05001
G1 X81.570 Y70.896 E4.05655
G1 X84.285 Y73.611 E4.12760
G1 X84.134 Y73.814 E4.13227
G1 X81.570 Y71.249 E4.19937
G1 X81.570 Y71.603 E4.20591
G1 X84.019 Y74.052 E4.26999
G1 X83.918 Y74.305 E4.27503
G1 X81.570 Y71.956 E4.33647
G1 X81.570 Y72.310 E4.34301
G1 X83.852 Y74.592 E4.40271
G1 X83.815 Y74.908 E4.40860
G1 X81.570 Y72.664 E4.46733
G1 X81.570 Y73.017 E4.47387
G1 X83.844 Y75.291 E4.53338
G1 X83.961 Y75.762 E4.54235
G1 X81.570 Y73.371 E4.60492
G1 X81.570 Y73.724 E4.61146
G1 X88.648 Y80.802 E4.79664
G1 X88.830 Y80.630 E4.80126
G1 X85.274 Y77.075 E4.89429
G1 X85.749 Y77.197 E4.90336
G1 X89.012 Y80.459 E4.98872
G1 X89.194 Y80.287 E4.99334
G1 X86.137 Y77.231 E5.07331
G1 X86.446 Y77.186 E5.07908
G1 X89.376 Y80.116 E5.15573
G1 X89.557 Y79.944 E5.16035
G1 X86.739 Y77.126 E5.23408
G1 X86.987 Y77.020 E5.23906
G1 X89.734 Y79.767 E5.31095
G1 X89.911 Y79.590 E5.31557
G1 X87.231 Y76.911 E5.38569
G1 X87.429 Y76.755 E5.39034
G1 X90.057 Y79.383 E5.45911
G1 X90.057 Y79.029 E5.46565
G1 X87.626 Y76.599 E5.52925
G1 X87.791 Y76.410 E5.53389
G1 X90.057 Y78.676 E5.59318
G1 X90.057 Y78.322 E5.59972
G1 X87.942 Y76.207 E5.65506
G1 X88.074 Y75.986 E5.65983
G1 X90.057 Y77.969 E5.71170
G1 X90.057 Y77.615 E5.71824
G1 X88.175 Y75.733 E5.76749
G1 X88.263 Y75.467 E5.77267
G1 X90.057 Y77.262 E5.81961
G1 X90.057 Y76.908 E5.82615
G1 X88.300 Y75.151 E5.87213
G1 X88.303 Y74.800 E5.87861
G1 X90.057 Y76.554 E5.92451
G1 X90.057 Y76.201 E5.93105
G1 X88.243 Y74.386 E5.97852
G1 X87.918 Y73.708 F6000.000
G1 X90.057 Y75.847 E6.03449 F1200.000
G1 X90.057 Y75.494 E6.04103
G1 X81.570 Y67.007 E6.26308
G1 X81.570 Y66.653 E6.26962
G1 X90.057 Y75.140 E6.49168
G1 X90.057 Y74.787 E6.49822
G1 X81.571 Y66.300 E6.72025
G1 X81.885 Y66.261 E6.72611
G1 X90.057 Y74.433 E6.93991
G1 X90.057 Y74.080 E6.94645
G1 X82.239 Y66.261 E7.15100
G1 X82.592 Y66.261 E7.15754
G1 X90.057 Y73.726 E7.35285
G1 X90.057 Y73.372 E7.35939
G1 X82.946 Y66.261 E7.54544
G1 X83.299 Y66.261 E7.55198
G1 X90.057 Y73.019 E7.72878
G1 X90.057 Y72.665 E7.73532
G1 X83.653 Y66.261 E7.90288
G1 X84.007 Y66.261 E7.90942
G1 X90.057 Y72.312 E8.06772
G1 X90.057 Y71.958 E8.07426
G1 X84.360 Y66.261 E8.22331
G1 X84.714 Y66.261 E8.22985
G1 X90.057 Y71.605 E8.36965
G1 X90.057 Y71.251 E8.37619
G1 X85.067 Y66.261 E8.50674
G1 X85.421 Y66.261 E8.51328
G1 X90.057 Y70.898 E8.63458
G1 X90.057 Y70.544 E8.64112
G1 X85.774 Y66.261 E8.75317
G1 X86.128 Y66.261 E8.75971
G1 X90.057 Y70.190 E8.86251
G1 X90.057 Y69.837 E8.86906
G1 X86.481 Y66.261 E8.96260
G1 X86.835 Y66.261 E8.96915
G1 X90.057 Y69.483 E9.05344
G1 X90.057 Y69.130 E9.05999
G1 X87.189 Y66.261 E9.13503
G1 X87.542 Y66.261 E9.14158
G1 X90.057 Y68.776 E9.20737
G1 X90.057 Y68.423 E9.21391
G1 X87.896 Y66.261 E9.27046
G1 X88.249 Y66.261 E9.27700
G1 X90.057 Y68.069 E9.32430
