; generated by Slic3r 1.1.7 on 2014-12-06 at 19:52:55

; perimeters extrusion width = 0.42mm
; infill extrusion width = 0.74mm
; solid infill extrusion width = 0.71mm
; top infill extrusion width = 0.71mm
; support material extrusion width = 0.42mm

G21 ; set units to millimeters
M190 S60 ; wait for bed temperature to be reached
M104 S186 ; set temperature
G28 ; home all axes
M109 S186 ; wait for temperature to be reached
G90 ; use absolute coordinates
G92 E0
M82 ; use absolute distances for extrusion
M106 S127
G1 F1860.000 E-3.00000
G92 E0
G1 Z0.200 F6000.000
G1 X48.509 Y50.700 F6000.000
G1 E3.10000 F1860.000
G1 X48.717 Y50.502 E3.10531 F1200.000
G1 X49.094 Y50.227 E3.11395
G1 X51.100 Y49.260 E3.15514
G1 X52.766 Y49.034 E3.18625
G1 X147.234 Y49.034 E4.93391
G1 X149.424 Y49.431 E4.97511
G1 X150.906 Y50.227 E5.00622 F1200.000
G1 X151.284 Y50.502 E5.01486
G1 X152.823 Y52.111 E5.05605
G1 X153.553 Y53.626 E5.08717
G1 X153.697 Y54.070 E5.09581
G1 X154.003 Y56.000 E5.13196
G1 X154.003 Y144.000 E6.75998
G1 X153.697 Y145.930 E6.79612
G1 X153.553 Y146.375 E6.80477
G1 X152.498 Y148.336 E6.84597
G1 X151.283 Y149.498 E6.87708
G1 X150.905 Y149.773 E6.88573
G1 X148.899 Y150.740 E6.92692
G1 X147.234 Y150.966 E6.95802
G1 X52.766 Y150.966 E8.70568
G1 X50.576 Y150.569 E8.74687
G1 X49.095 Y149.773 E8.77798
G1 X48.717 Y149.498 E8.78662
G1 X47.177 Y147.890 E8.82781
G1 X46.447 Y146.375 E8.85893
G1 X46.303 Y145.930 E8.86757
G1 X45.997 Y144.000 E8.90373
G1 X45.997 Y56.000 E10.53174
G1 X46.303 Y54.070 E10.56790
G1 X46.447 Y53.625 E10.57655
G1 X47.502 Y51.664 E10.61774
G1 X48.464 Y50.744 E10.64237
G1 F1860.000 E7.64237
G92 E0
G1 X66.786 Y68.786 F6000.000
G1 E3.10000 F1860.000
G1 X65.049 Y69.946 E3.13865 F1200.000
G1 X63.000 Y70.354 E3.17729
G1 X62.832 Y70.321 E3.18047
G1 X60.951 Y69.946 E3.21594
G1 X59.214 Y68.786 E3.25459
G1 X58.054 Y67.049 E3.29324
G1 X57.646 Y65.000 E3.33188
G1 X58.054 Y62.951 E3.37053
G1 X59.214 Y61.214 E3.40918
G1 X60.951 Y60.054 E3.44783
G1 X63.000 Y59.646 E3.48647
G1 X64.881 Y60.020 E3.52195
G1 X65.049 Y60.054 E3.52512 F1200.000
G1 X66.786 Y61.214 E3.56377
G1 X67.946 Y62.951 E3.60242
G1 X68.354 Y65.000 E3.64106
G1 X67.946 Y67.049 E3.67971
G1 X66.821 Y68.733 E3.71719
G1 X66.608 Y68.608 F6000.000
G1 X64.952 Y69.714 E3.75402 F1200.000
G1 X63.000 Y70.102 E3.79085
G1 X62.880 Y70.078 E3.79312
G1 X61.048 Y69.714 E3.82768
G1 X59.392 Y68.608 E3.86451
G1 X58.286 Y66.952 E3.90133
G1 X57.898 Y65.000 E3.93816
G1 X58.286 Y63.048 E3.97499
G1 X59.392 Y61.392 E4.01182
G1 X61.048 Y60.286 E4.04865
G1 X62.880 Y59.922 E4.08321
G1 X63.000 Y59.898 E4.08548 F1200.000
G1 X64.952 Y60.286 E4.12230
G1 X66.608 Y61.392 E4.15913
G1 X67.714 Y63.048 E4.19596
G1 X68.102 Y65.000 E4.23279
G1 X67.714 Y66.952 E4.26962
G1 X66.643 Y68.555 E4.30528
G1 F1860.000 E1.30528
G92 E0
G1 X62.840 Y59.806 F6000.000
G1 X74.709 Y61.597 F6000.000
G1 E3.10000 F1860.000
G1 X75.698 Y60.327 E3.12979 F1200.000
G1 X77.112 Y59.403 E3.16104
G1 X82.837 Y59.403 E3.26695
G1 X83.474 Y59.682 E3.27982
G1 X85.554 Y61.597 E3.33213
G1 X74.772 Y61.597 E3.53160
G1 X75.215 Y61.350 F6000.000
G1 X75.868 Y60.511 E3.55127 F1200.000
G1 X77.186 Y59.650 E3.58040
G1 X82.785 Y59.650 E3.68399
G1 X83.337 Y59.892 E3.69514
G1 X84.921 Y61.350 E3.73496
G1 X75.278 Y61.350 E3.91336
G1 X74.835 Y61.171 F6000.000
G1 F1860.000 E0.91336
G92 E0
G1 X74.709 Y68.403 F6000.000
G1 E3.10000 F1860.000
G1 X85.554 Y68.403 E3.30064 F1200.000
G1 X83.474 Y70.318 E3.35295
G1 X82.837 Y70.597 E3.36582
G1 X77.112 Y70.597 E3.47173
G1 X75.698 Y69.673 E3.50298
G1 X74.748 Y68.453 E3.53160
G1 X75.215 Y68.650 F6000.000
G1 X84.921 Y68.650 E3.71117 F1200.000
G1 X83.337 Y70.108 E3.75099
G1 X82.785 Y70.350 E3.76214
G1 X77.186 Y70.350 E3.86574
G1 X75.868 Y69.489 E3.89486
G1 X75.253 Y68.700 E3.91336
G1 X75.123 Y68.240 F6000.000
G1 X74.267 Y67.597 F6000.000
G1 X73.735 Y66.046 E3.94371 F1200.000
G1 X73.735 Y65.403 E3.95561
G1 X86.285 Y65.403 E4.18779
G1 X86.008 Y67.062 E4.21892
G1 X85.719 Y67.597 E4.23016
G1 X74.330 Y67.597 E4.44085
G1 X74.444 Y67.350 F6000.000
G1 X73.982 Y66.004 E4.46717 F1200.000
G1 X73.982 Y65.650 E4.47372
G1 X85.993 Y65.650 E4.69593
G1 X85.771 Y66.981 E4.72090
G1 X85.571 Y67.350 E4.72866
G1 X74.507 Y67.350 E4.93335
G1 X74.034 Y67.442 F6000.000
G1 F1860.000 E1.93335
G92 E0
G1 X73.735 Y64.597 F6000.000
G1 E3.10000 F1860.000
G1 X73.735 Y63.954 E3.11189 F1200.000
G1 X74.267 Y62.403 E3.14224
G1 X85.719 Y62.403 E3.35409
G1 X86.008 Y62.938 E3.36534
G1 X86.285 Y64.597 E3.39647
G1 X73.798 Y64.597 E3.62748
G1 X73.982 Y64.350 F6000.000
G1 X73.982 Y63.996 E3.63404 F1200.000
G1 X74.444 Y62.650 E3.66036
G1 X85.571 Y62.650 E3.86622
G1 X85.771 Y63.019 E3.87398
G1 X85.993 Y64.350 E3.89895
G1 X74.045 Y64.350 E4.11999
G1 X73.628 Y64.350 F6000.000
G1 F1860.000 E1.11999
G92 E0
G1 X94.351 Y64.350 F6000.000
G1 E3.10000 F1860.000
G1 X94.351 Y63.965 E3.10712 F1200.000
G1 X95.969 Y62.674 E3.14542
G1 X97.735 Y63.078 E3.17893
G1 X97.987 Y63.135 E3.18371 F1200.000
G1 X98.885 Y65.000 E3.22201
G1 X97.987 Y66.865 E3.26030
G1 X95.969 Y67.326 E3.29859
G1 X94.351 Y66.035 E3.33689
G1 X94.351 Y64.413 E3.36690
G1 X94.598 Y64.350 F6000.000
G1 X94.598 Y64.084 E3.37182 F1200.000
G1 X95.921 Y63.029 E3.40313
G1 X96.030 Y62.942 E3.40571 F1200.000
G1 X97.816 Y63.350 E3.43960
G1 X98.611 Y65.000 E3.47349
G1 X97.816 Y66.650 E3.50738
G1 X96.030 Y67.058 E3.54126
G1 X94.598 Y65.916 E3.57515
G1 X94.598 Y64.413 E3.60296
G1 X95.879 Y62.896 F6000.000
G1 F1860.000 E0.60296
G92 E0
G1 X134.635 Y68.500 F6000.000
G1 E3.10000 F1860.000
G1 X135.278 Y66.522 E3.13848 F1200.000
G1 X136.960 Y65.300 E3.17695
G1 X139.040 Y65.300 E3.21543
G1 X140.552 Y66.398 E3.25001
G1 X140.722 Y66.522 E3.25390 F1200.000
G1 X141.365 Y68.500 E3.29238
G1 X140.722 Y70.478 E3.33086
G1 X139.040 Y71.700 E3.36933
G1 X136.960 Y71.700 E3.40781
G1 X135.278 Y70.478 E3.44628
G1 X134.654 Y68.560 E3.48359
G1 X134.895 Y68.500 F6000.000
G1 X135.488 Y66.675 E3.51910 F1200.000
G1 X137.040 Y65.547 E3.55460
G1 X138.960 Y65.547 E3.59011 F1200.000
G1 X140.512 Y66.675 E3.62561
G1 X141.105 Y68.500 E3.66111
G1 X140.512 Y70.325 E3.69662
G1 X138.960 Y71.453 E3.73212
G1 X137.040 Y71.453 E3.76763
G1 X135.488 Y70.325 E3.80313
G1 X134.914 Y68.560 E3.83747
G1 F1860.000 E0.83747
G92 E0
G1 X137.084 Y65.129 F6000.000
G1 X139.847 Y82.653 F6000.000
G1 E3.10000 F1860.000
G1 X139.847 Y135.347 E4.07486 F1200.000
G1 X60.153 Y135.347 E5.54922
G1 X60.153 Y82.653 E6.52408
G1 X139.784 Y82.653 E7.99728
G1 X139.600 Y82.900 F6000.000
G1 X139.600 Y135.100 E8.96299 F1200.000
G1 X60.400 Y135.100 E10.42821
G1 X60.400 Y82.900 E11.39392
G1 X139.537 Y82.900 E12.85797
G1 X140.020 Y82.900 F6000.000
G1 F1860.000 E9.85797
G92 E0
G1 X147.316 Y55.770 F6000.000
G1 E3.10000 F1860.000
G1 X147.408 Y56.055 E3.10554 F1200.000
G1 X147.408 Y143.945 E4.73152
G1 X147.316 Y144.230 E4.73706
G1 X147.121 Y144.371 E4.74152
G1 X52.879 Y144.371 E6.48501
G1 X52.684 Y144.230 E6.48947
G1 X52.592 Y143.945 E6.49501
G1 X52.592 Y56.055 E8.12099
G1 X52.684 Y55.770 E8.12653
G1 X52.879 Y55.629 E8.13100
G1 X147.121 Y55.629 E9.87448
G1 X147.265 Y55.733 E9.87778
G1 X147.551 Y55.694 F6000.000
G1 X147.656 Y56.016 E9.88404 F1200.000
G1 X147.656 Y143.984 E11.51148
G1 X147.526 Y144.382 E11.51922
G1 X147.201 Y144.619 E11.52666
G1 X52.799 Y144.619 E13.27312
G1 X52.474 Y144.382 E13.28056
G1 X52.344 Y143.984 E13.28830
G1 X52.344 Y56.016 E14.91573
G1 X52.474 Y55.618 E14.92348
G1 X52.799 Y55.381 E14.93092
G1 X147.201 Y55.381 E16.67738
G1 X147.441 Y55.556 E16.68287
G1 X147.532 Y55.634 E16.68508 F1200.000
G1 X147.506 Y55.656 F6000.000
G1 X147.073 Y55.791 F6000.000
G1 X147.195 Y55.912 E16.68826 F1200.000
G1 X147.249 Y56.317 E16.69581
G1 X146.720 Y55.788 E16.70965
G1 X146.371 Y55.788 E16.71612
G1 X147.249 Y56.666 E16.73910
G1 X147.249 Y57.016 E16.74557
G1 X146.021 Y55.788 E16.77771
G1 X145.671 Y55.788 E16.78418
G1 X147.249 Y57.366 E16.82547
G1 X147.249 Y57.716 E16.83194
G1 X145.321 Y55.788 E16.88238
G1 X144.972 Y55.788 E16.88885
G1 X147.249 Y58.065 E16.94844
G1 X147.249 Y58.415 E16.95491
G1 X144.622 Y55.788 E17.02365
G1 X144.272 Y55.788 E17.03012
G1 X147.249 Y58.765 E17.10801
G1 X147.249 Y59.115 E17.11448
G1 X143.922 Y55.788 E17.20152
G1 X143.573 Y55.788 E17.20799
G1 X147.249 Y59.464 E17.30418
G1 X147.249 Y59.814 E17.31065
G1 X143.223 Y55.788 E17.41599
G1 X142.873 Y55.788 E17.42246
G1 X147.249 Y60.164 E17.53695
G1 X147.249 Y60.513 E17.54342
G1 X142.523 Y55.788 E17.66706
G1 X142.174 Y55.788 E17.67353
G1 X147.249 Y60.863 E17.80632
G1 X147.249 Y61.213 E17.81279
G1 X141.824 Y55.788 E17.95473
G1 X141.474 Y55.788 E17.96120
G1 X147.249 Y61.563 E18.11229
G1 X147.249 Y61.912 E18.11877
G1 X141.125 Y55.788 E18.27901
G1 X140.775 Y55.788 E18.28548
G1 X147.249 Y62.262 E18.45487
G1 X147.249 Y62.612 E18.46134
G1 X140.425 Y55.788 E18.63988
G1 X140.075 Y55.788 E18.64635
G1 X147.249 Y62.962 E18.83405
G1 X147.249 Y63.311 E18.84052
G1 X139.726 Y55.788 E19.03736
G1 X139.376 Y55.788 E19.04383
G1 X147.249 Y63.661 E19.24983
G1 X147.249 Y64.011 E19.25630
G1 X139.026 Y55.788 E19.47144
G1 X138.676 Y55.788 E19.47791
G1 X147.249 Y64.361 E19.70221
G1 X147.249 Y64.710 E19.70868
G1 X138.327 Y55.788 E19.94212
G1 X137.977 Y55.788 E19.94859
G1 X147.249 Y65.060 E20.19119
G1 X147.249 Y65.410 E20.19766
G1 X137.627 Y55.788 E20.44941
G1 X137.277 Y55.788 E20.45588
G1 X147.249 Y65.760 E20.71677
G1 X147.249 Y66.109 E20.72324
G1 X136.928 Y55.788 E20.99329
G1 X136.578 Y55.788 E20.99976
G1 X147.249 Y66.459 E21.27896
G1 X147.249 Y66.809 E21.28543
G1 X136.228 Y55.788 E21.57377
G1 X135.878 Y55.788 E21.58024
G1 X147.249 Y67.159 E21.87774
G1 X147.249 Y67.508 E21.88421
G1 X135.529 Y55.788 E22.19086
G1 X135.179 Y55.788 E22.19733
G1 X147.249 Y67.858 E22.51313
G1 X147.249 Y68.208 E22.51960
G1 X134.829 Y55.788 E22.84455
G1 X134.479 Y55.788 E22.85102
G1 X147.249 Y68.558 E23.18512
G1 X147.249 Y68.907 E23.19159
G1 X134.130 Y55.788 E23.53484
G1 X133.780 Y55.788 E23.54131
G1 X147.249 Y69.257 E23.89371
G1 X147.249 Y69.607 E23.90018
G1 X133.430 Y55.788 E24.26173
G1 X133.080 Y55.788 E24.26820
G1 X147.249 Y69.956 E24.63890
G1 X147.249 Y70.306 E24.64537
G1 X132.731 Y55.788 E25.02522
G1 X132.381 Y55.788 E25.03169
G1 X147.249 Y70.656 E25.42069
G1 X147.249 Y71.006 E25.42716
G1 X132.031 Y55.788 E25.82532
G1 X131.681 Y55.788 E25.83179
G1 X147.249 Y71.355 E26.23909
G1 X147.249 Y71.705 E26.24556
G1 X131.332 Y55.788 E26.66201
G1 X130.982 Y55.788 E26.66848
G1 X147.249 Y72.055 E27.09409
G1 X147.249 Y72.405 E27.10056
G1 X130.632 Y55.788 E27.53531
G1 X130.283 Y55.788 E27.54178
G1 X147.249 Y72.754 E27.98568
G1 X147.249 Y73.104 E27.99215
G1 X140.997 Y66.852 E28.15573
G1 X141.165 Y67.370 E28.16581
G1 X147.249 Y73.454 E28.32498
G1 X147.249 Y73.804 E28.33145
G1 X141.334 Y67.888 E28.48622
G1 X141.502 Y68.406 E28.49630
G1 X147.249 Y74.153 E28.64666
G1 X147.249 Y74.503 E28.65313
G1 X141.462 Y68.716 E28.80454
G1 X141.376 Y68.980 E28.80967
G1 X147.249 Y74.853 E28.96332
G1 X147.249 Y75.203 E28.96979
G1 X141.291 Y69.244 E29.12569
G1 X141.205 Y69.508 E29.13082
G1 X147.249 Y75.552 E29.28896
G1 X147.249 Y75.902 E29.29543
G1 X141.119 Y69.772 E29.45581
G1 X141.033 Y70.036 E29.46095
G1 X147.249 Y76.252 E29.62357
G1 X147.249 Y76.602 E29.63004
G1 X140.948 Y70.300 E29.79491
G1 X140.862 Y70.564 E29.80004
G1 X147.249 Y76.951 E29.96716
G1 X147.249 Y77.301 E29.97363
G1 X140.665 Y70.717 E30.14590
G1 X140.462 Y70.864 E30.15053
G1 X147.249 Y77.651 E30.32810
G1 X147.249 Y78.001 E30.33457
G1 X140.260 Y71.011 E30.51744
G1 X140.057 Y71.158 E30.52207
G1 X147.249 Y78.350 E30.71024
G1 X147.249 Y78.700 E30.71671
G1 X139.855 Y71.305 E30.91018
G1 X139.652 Y71.453 E30.91481
G1 X147.249 Y79.050 E31.11358
G1 X147.249 Y79.399 E31.12005
G1 X139.449 Y71.600 E31.32411
G1 X139.247 Y71.747 E31.32875
G1 X147.249 Y79.749 E31.53811
G1 X147.249 Y80.099 E31.54458
G1 X139.010 Y71.860 E31.76015
G1 X138.660 Y71.860 E31.76662
G1 X147.249 Y80.449 E31.99134
G1 X147.249 Y80.798 E31.99781
G1 X138.310 Y71.860 E32.23168
G1 X137.961 Y71.860 E32.23815
G1 X147.249 Y81.148 E32.48117
G1 X147.249 Y81.498 E32.48764
G1 X137.611 Y71.860 E32.73981
G1 X137.261 Y71.860 E32.74628
G1 X147.249 Y81.848 E33.00760
G1 X147.249 Y82.197 E33.01407
G1 X136.911 Y71.860 E33.28454
G1 X135.641 Y70.939 F6000.000
G1 X147.249 Y82.547 E33.58826 F1200.000
G1 X147.249 Y82.897 E33.59473
G1 X120.140 Y55.788 E34.30399
G1 X119.790 Y55.788 E34.31046
G1 X147.249 Y83.247 E35.02888
G1 X147.249 Y83.596 E35.03535
G1 X119.441 Y55.788 E35.76291
G1 X119.091 Y55.788 E35.76938
G1 X147.249 Y83.946 E36.50610
G1 X147.249 Y84.296 E36.51257
G1 X118.741 Y55.788 E37.25843
G1 X118.391 Y55.788 E37.26490
G1 X147.249 Y84.646 E38.01992
G1 X147.249 Y84.995 E38.02639
G1 X118.042 Y55.788 E38.79056
G1 X117.692 Y55.788 E38.79703
G1 X147.249 Y85.345 E39.57034
G1 X147.249 Y85.695 E39.57681
G1 X117.342 Y55.788 E40.35928
G1 X116.992 Y55.788 E40.36575
G1 X147.249 Y86.045 E41.15737
G1 X147.249 Y86.394 E41.16384
G1 X116.643 Y55.788 E41.96461
G1 X116.293 Y55.788 E41.97108
G1 X147.249 Y86.744 E42.78099
G1 X147.249 Y87.094 E42.78746
G1 X115.943 Y55.788 E43.60653
G1 X115.593 Y55.788 E43.61300
G1 X147.249 Y87.444 E44.44122
G1 X147.249 Y87.793 E44.44769
G1 X115.244 Y55.788 E45.28506
G1 X114.894 Y55.788 E45.29153
G1 X147.249 Y88.143 E46.13805
G1 X147.249 Y88.493 E46.14452
G1 X114.544 Y55.788 E47.00019
G1 X114.194 Y55.788 E47.00666
G1 X147.249 Y88.843 E47.87148
G1 X147.249 Y89.192 E47.87795
G1 X113.845 Y55.788 E48.75192
G1 X113.495 Y55.788 E48.75839
G1 X147.249 Y89.542 E49.64152
G1 X147.249 Y89.892 E49.64799
G1 X113.145 Y55.788 E50.54026
G1 X112.795 Y55.788 E50.54673
G1 X139.501 Y82.494 E51.24544
G1 X139.152 Y82.494 E51.25191
G1 X112.446 Y55.788 E51.95062
G1 X112.096 Y55.788 E51.95709
G1 X138.802 Y82.494 E52.65580
G1 X138.452 Y82.494 E52.66227
G1 X111.746 Y55.788 E53.36099
G1 X111.397 Y55.788 E53.36746
G1 X138.102 Y82.494 E54.06617
G1 X137.753 Y82.494 E54.07264
G1 X111.047 Y55.788 E54.77135
G1 X110.697 Y55.788 E54.77782
G1 X137.403 Y82.494 E55.47653
G1 X137.053 Y82.494 E55.48300
G1 X110.347 Y55.788 E56.18172
G1 X109.998 Y55.788 E56.18819
G1 X136.703 Y82.494 E56.88690
G1 X136.354 Y82.494 E56.89337
G1 X109.648 Y55.788 E57.59208
G1 X109.298 Y55.788 E57.59855
G1 X136.004 Y82.494 E58.29726
G1 X135.654 Y82.494 E58.30373
G1 X108.948 Y55.788 E59.00245
G1 X108.599 Y55.788 E59.00892
G1 X135.304 Y82.494 E59.70763
G1 X134.955 Y82.494 E59.71410
G1 X108.249 Y55.788 E60.41281
G1 X107.899 Y55.788 E60.41928
G1 X134.605 Y82.494 E61.11799
G1 X134.255 Y82.494 E61.12446
G1 X107.549 Y55.788 E61.82318
G1 X107.200 Y55.788 E61.82965
G1 X133.905 Y82.494 E62.52836
G1 X133.556 Y82.494 E62.53483
G1 X106.850 Y55.788 E63.23354
G1 X106.500 Y55.788 E63.24001
G1 X133.206 Y82.494 E63.93872
G1 X132.856 Y82.494 E63.94519
G1 X106.150 Y55.788 E64.64390
G1 X105.801 Y55.788 E64.65038
G1 X132.507 Y82.494 E65.34909
G1 X132.157 Y82.494 E65.35556
G1 X105.451 Y55.788 E66.05427
G1 X105.101 Y55.788 E66.06074
G1 X131.807 Y82.494 E66.75945
G1 X131.457 Y82.494 E66.76592
G1 X104.751 Y55.788 E67.46463
G1 X104.402 Y55.788 E67.47110
G1 X131.108 Y82.494 E68.16982
G1 X130.758 Y82.494 E68.17629
G1 X104.052 Y55.788 E68.87500
G1 X103.702 Y55.788 E68.88147
G1 X130.408 Y82.494 E69.58018
G1 X130.058 Y82.494 E69.58665
G1 X103.352 Y55.788 E70.28536
G1 X103.003 Y55.788 E70.29183
G1 X129.709 Y82.494 E70.99055
G1 X129.359 Y82.494 E70.99702
G1 X102.653 Y55.788 E71.69573
G1 X102.303 Y55.788 E71.70220
G1 X129.009 Y82.494 E72.40091
G1 X128.659 Y82.494 E72.40738
G1 X101.954 Y55.788 E73.10609
G1 X101.604 Y55.788 E73.11256
G1 X128.310 Y82.494 E73.81128
G1 X127.960 Y82.494 E73.81775
G1 X101.254 Y55.788 E74.51646
G1 X100.904 Y55.788 E74.52293
G1 X127.610 Y82.494 E75.22164
G1 X127.260 Y82.494 E75.22811
G1 X100.555 Y55.788 E75.92682
G1 X100.205 Y55.788 E75.93329
G1 X126.911 Y82.494 E76.63201
G1 X126.561 Y82.494 E76.63848
G1 X99.855 Y55.788 E77.33719
G1 X99.505 Y55.788 E77.34366
G1 X126.211 Y82.494 E78.04237
G1 X125.861 Y82.494 E78.04884
G1 X99.156 Y55.788 E78.74755
G1 X98.806 Y55.788 E78.75402
G1 X125.512 Y82.494 E79.45274
G1 X125.162 Y82.494 E79.45921
G1 X98.456 Y55.788 E80.15792
G1 X98.106 Y55.788 E80.16439
G1 X124.812 Y82.494 E80.86310
G1 X124.462 Y82.494 E80.86957
