; generated by Slic3r 1.1.7 on 2014-12-06 at 19:52:43

; perimeters extrusion width = 0.42mm
; infill extrusion width = 0.74mm
; solid infill extrusion width = 0.71mm
; top infill extrusion width = 0.71mm
; support material extrusion width = 0.42mm

G21 ; set units to millimeters
M190 S60 ; wait for bed temperature to be reached
M104 S186 ; set temperature
G28 ; home all axes
M109 S186 ; wait for temperature to be reached
G90 ; use absolute coordinates
G92 E0
M82 ; use absolute distances for extrusion
M106 S127
G1 F1860.000 E-3.00000
G92 E0
G1 Z0.200 F6000.000
G1 X47.204 Y56.273 F6000.000
G1 E3.10000 F1860.000
G1 X48.561 Y55.191 E3.13211 F1200.000
G1 X50.672 Y54.088 E3.17617
G1 X91.117 Y42.038 E3.95692
G1 X92.901 Y41.778 E3.99027
G1 X126.901 Y41.778 E4.61928
G1 X130.057 Y42.634 E4.67977
G1 X151.304 Y55.070 E5.13523 F1200.000
G1 X152.994 Y56.519 E5.17642
G1 X153.777 Y57.751 E5.20342
G1 X154.530 Y59.315 E5.23552
G1 X155.148 Y62.025 E5.28696
G1 X155.148 Y150.025 E6.91498
G1 X154.530 Y152.735 E6.96641
G1 X153.777 Y154.299 E6.99852
G1 X152.468 Y156.101 E7.03971
G1 X150.612 Y157.330 E7.08090
G1 X149.538 Y157.679 E7.10179
G1 X147.846 Y158.066 E7.13390
G1 X146.456 Y158.222 E7.15978
G1 X52.456 Y158.222 E8.89880
G1 X50.265 Y157.825 E8.93999
G1 X48.561 Y156.859 E8.97623
G1 X47.204 Y155.777 E9.00834
G1 X45.738 Y154.101 E9.04953
G1 X44.954 Y152.017 E9.09073
G1 X44.852 Y150.893 E9.11161
G1 X44.852 Y61.157 E10.77174
G1 X45.249 Y58.966 E10.81293
G1 X46.389 Y57.054 E10.85412
G1 X47.158 Y56.317 E10.87384
G1 F1860.000 E7.87384
G92 E0
G1 X57.388 Y83.890 F6000.000
G1 E3.10000 F1860.000
G1 X55.370 Y84.351 E3.13829 F1200.000
G1 X53.752 Y83.060 E3.17659
G1 X53.752 Y80.990 E3.21488
G1 X55.370 Y79.699 E3.25318
G1 X57.197 Y80.116 E3.28785
G1 X57.388 Y80.160 E3.29147 F1200.000
G1 X58.286 Y82.025 E3.32977
G1 X57.416 Y83.833 E3.36690
G1 X57.217 Y83.676 F6000.000
G1 X55.431 Y84.083 E3.40079 F1200.000
G1 X53.999 Y82.941 E3.43468
G1 X53.999 Y81.109 E3.46857
G1 X55.371 Y80.015 E3.50103
G1 X55.431 Y79.967 E3.50246 F1200.000
G1 X57.217 Y80.375 E3.53635
G1 X58.012 Y82.025 E3.57024
G1 X57.244 Y83.619 E3.60296
G1 F1860.000 E0.60296
G92 E0
G1 X55.318 Y79.959 F6000.000
G1 X141.752 Y83.060 F6000.000
G1 E3.10000 F1860.000
G1 X141.752 Y80.990 E3.13830 F1200.000
G1 X143.370 Y79.699 E3.17659
G1 X145.197 Y80.116 E3.21126
G1 X145.388 Y80.160 E3.21488 F1200.000
G1 X146.286 Y82.025 E3.25318
G1 X145.388 Y83.890 E3.29147
G1 X143.370 Y84.351 E3.32977
G1 X141.801 Y83.099 E3.36690
G1 X141.999 Y82.941 F6000.000
G1 X141.999 Y81.109 E3.40079 F1200.000
G1 X143.371 Y80.015 E3.43325
G1 X143.431 Y79.967 E3.43468 F1200.000
G1 X145.217 Y80.375 E3.46857
G1 X146.012 Y82.025 E3.50246
G1 X145.217 Y83.676 E3.53635
G1 X143.431 Y84.083 E3.57024
G1 X142.048 Y82.980 E3.60296
G1 F1860.000 E0.60296
G92 E0
G1 X143.337 Y79.946 F6000.000
G1 X143.370 Y144.699 F6000.000
G1 E3.10000 F1860.000
G1 X145.197 Y145.116 E3.13467 F1200.000
G1 X145.388 Y145.160 E3.13829 F1200.000
G1 X146.286 Y147.025 E3.17659
G1 X145.388 Y148.890 E3.21488
G1 X143.370 Y149.351 E3.25318
G1 X141.752 Y148.060 E3.29147
G1 X141.752 Y145.990 E3.32977
G1 X143.321 Y144.739 E3.36690
G1 X143.431 Y144.967 F6000.000
G1 X145.217 Y145.375 E3.40079 F1200.000
G1 X146.012 Y147.025 E3.43468
G1 X145.217 Y148.676 E3.46857
G1 X143.431 Y149.083 E3.50246
G1 X141.999 Y147.941 E3.53635
G1 X141.999 Y146.109 E3.57024
G1 X143.371 Y145.015 E3.60270
G1 X143.382 Y145.006 E3.60296 F1200.000
G1 X143.365 Y145.002 F6000.000
G1 F1860.000 E0.60296
G92 E0
G1 X126.748 Y143.372 F6000.000
G1 E3.10000 F1860.000
G1 X104.554 Y143.372 E3.51060 F1200.000
G1 X104.554 Y133.678 E3.68995
G1 X126.748 Y133.678 E4.10055
G1 X126.748 Y143.309 E4.27874
G1 X126.501 Y143.125 F6000.000
G1 X104.801 Y143.125 E4.68019 F1200.000
G1 X104.801 Y133.925 E4.85039
G1 X126.501 Y133.925 E5.25185
G1 X126.501 Y143.062 E5.42088
G1 X126.501 Y143.545 F6000.000
G1 F1860.000 E2.42088
G92 E0
G1 X96.248 Y143.372 F6000.000
G1 E3.10000 F1860.000
G1 X74.054 Y143.372 E3.51060 F1200.000
G1 X74.054 Y133.678 E3.68995
G1 X96.248 Y133.678 E4.10055
G1 X96.248 Y143.309 E4.27874
G1 X96.001 Y143.125 F6000.000
G1 X74.301 Y143.125 E4.68019 F1200.000
G1 X74.301 Y133.925 E4.85039
G1 X96.001 Y133.925 E5.25185
G1 X96.001 Y143.062 E5.42088
G1 X96.001 Y143.545 F6000.000
G1 F1860.000 E2.42088
G92 E0
G1 X58.286 Y147.025 F6000.000
G1 E3.10000 F1860.000
G1 X57.388 Y148.890 E3.13830 F1200.000
G1 X57.197 Y148.934 E3.14192
G1 X55.370 Y149.351 E3.17659
G1 X53.752 Y148.060 E3.21488
G1 X53.752 Y145.990 E3.25318
G1 X55.370 Y144.699 E3.29148
G1 X57.197 Y145.116 E3.32614
G1 X57.388 Y145.160 E3.32977 F1200.000
G1 X58.259 Y146.968 E3.36690
G1 X58.012 Y147.025 F6000.000
G1 X57.217 Y148.676 E3.40079 F1200.000
G1 X55.431 Y149.083 E3.43468
G1 X53.999 Y147.941 E3.46857
G1 X53.999 Y146.109 E3.50246
G1 X55.371 Y145.015 E3.53492
G1 X55.431 Y144.967 E3.53635 F1200.000
G1 X57.217 Y145.375 E3.57024
G1 X57.985 Y146.968 E3.60296
G1 F1860.000 E0.60296
G92 E0
G1 X55.310 Y144.968 F6000.000
G1 X93.248 Y60.422 F6000.000
G1 E3.10000 F1860.000
G1 X93.248 Y48.372 E3.32293 F1200.000
G1 X102.554 Y48.372 E3.49509
G1 X102.554 Y60.372 E3.71709
G1 X117.248 Y60.372 E3.98894
G1 X117.248 Y48.372 E4.21094
G1 X126.554 Y48.372 E4.38310
G1 X126.554 Y60.422 E4.60603
G1 X146.417 Y60.422 E4.97350
G1 X147.908 Y60.763 E5.00179
G1 X148.554 Y62.104 E5.02934
G1 X148.554 Y149.946 E6.65442
G1 X147.908 Y151.287 E6.68197
G1 X146.417 Y151.628 E6.71026
G1 X52.577 Y151.628 E8.44631
G1 X51.446 Y150.726 E8.47308
G1 X51.446 Y61.324 E10.12702
G1 X52.577 Y60.422 E10.15379
G1 X93.185 Y60.422 E10.90504
G1 X93.001 Y60.175 F6000.000
G1 X93.001 Y48.125 E11.12797 F1200.000
G1 X102.801 Y48.125 E11.30927
G1 X102.801 Y60.125 E11.53127
G1 X117.001 Y60.125 E11.79398
G1 X117.001 Y48.125 E12.01598
G1 X126.801 Y48.125 E12.19728
G1 X126.801 Y60.175 E12.42021
G1 X146.445 Y60.175 E12.78362
G1 X148.079 Y60.548 E12.81463
G1 X148.801 Y62.048 E12.84543
G1 X148.801 Y150.002 E14.47260
G1 X148.079 Y151.502 E14.50340
G1 X146.445 Y151.875 E14.53440
G1 X52.491 Y151.875 E16.27257
G1 X51.199 Y150.845 E16.30314
G1 X51.199 Y61.205 E17.96148
G1 X52.491 Y60.175 E17.99205
G1 X92.938 Y60.175 E18.74033
G1 X93.421 Y60.175 F6000.000
G1 F1860.000 E15.74033
G92 E0
G1 X93.407 Y51.699 F6000.000
G1 E3.10000 F1860.000
G1 X148.395 Y106.686 E4.53864 F1200.000
G1 X148.395 Y107.036 E4.54512
G1 X93.407 Y52.049 E5.98376
G1 X93.407 Y52.399 E5.99024
G1 X148.395 Y107.386 E7.42888
G1 X148.395 Y107.736 E7.43536
G1 X93.407 Y52.749 E8.87400
G1 X93.407 Y53.099 E8.88048
G1 X148.395 Y108.086 E10.31912
G1 X148.395 Y108.436 E10.32560
G1 X93.407 Y53.449 E11.76424
G1 X93.407 Y53.799 E11.77072
G1 X148.395 Y108.787 E13.20936
G1 X148.395 Y109.137 E13.21583
G1 X93.407 Y54.149 E14.65448
G1 X93.407 Y54.499 E14.66095
G1 X148.395 Y109.487 E16.09960
G1 X148.395 Y109.837 E16.10607
G1 X93.407 Y54.850 E17.54472
G1 X93.407 Y55.200 E17.55119
G1 X148.395 Y110.187 E18.98984
G1 X148.395 Y110.537 E18.99631
G1 X93.407 Y55.550 E20.43495
G1 X93.407 Y55.900 E20.44143
G1 X148.395 Y110.887 E21.88007
G1 X148.395 Y111.237 E21.88655
G1 X93.407 Y56.250 E23.32519
G1 X93.407 Y56.600 E23.33167
G1 X148.395 Y111.587 E24.77031
G1 X148.395 Y111.937 E24.77679
G1 X93.407 Y56.950 E26.21543
G1 X93.407 Y57.300 E26.22191
G1 X148.395 Y112.287 E27.66055
G1 X148.395 Y112.637 E27.66703
G1 X93.407 Y57.650 E29.10567
G1 X93.407 Y58.000 E29.11215
G1 X148.395 Y112.987 E30.55079
G1 X148.395 Y113.337 E30.55727
G1 X93.407 Y58.350 E31.99591
G1 X93.407 Y58.700 E32.00238
G1 X148.395 Y113.687 E33.44103
G1 X148.395 Y114.037 E33.44750
G1 X93.407 Y59.050 E34.88615
G1 X93.407 Y59.400 E34.89262
G1 X148.395 Y114.387 E36.33127
G1 X148.395 Y114.737 E36.33774
G1 X93.407 Y59.750 E37.77639
G1 X93.407 Y60.100 E37.78286
G1 X148.395 Y115.088 E39.22150
G1 X148.395 Y115.438 E39.22798
G1 X93.407 Y60.450 E40.66662
G1 X93.189 Y60.582 E40.67134
G1 X148.395 Y115.788 E42.11571
G1 X148.395 Y116.138 E42.12219
G1 X92.838 Y60.582 E43.57572
G1 X92.488 Y60.582 E43.58219
G1 X148.395 Y116.488 E45.04488
G1 X148.395 Y116.838 E45.05136
G1 X92.138 Y60.582 E46.52320
G1 X91.788 Y60.582 E46.52968
G1 X148.395 Y117.188 E48.01068
G1 X148.395 Y117.538 E48.01716
G1 X91.438 Y60.582 E49.50732
G1 X91.088 Y60.582 E49.51380
G1 X148.395 Y117.888 E51.01312
G1 X148.395 Y118.238 E51.01959
G1 X90.738 Y60.582 E52.52807
G1 X90.388 Y60.582 E52.53455
G1 X148.395 Y118.588 E54.05219
G1 X148.395 Y118.938 E54.05866
G1 X90.038 Y60.582 E55.58546
G1 X89.688 Y60.582 E55.59194
G1 X148.395 Y119.288 E57.12789
G1 X148.395 Y119.638 E57.13437
G1 X89.338 Y60.582 E58.67948
G1 X88.988 Y60.582 E58.68596
G1 X148.395 Y119.988 E60.24023
G1 X148.395 Y120.338 E60.24671
G1 X88.638 Y60.582 E61.81014
G1 X88.288 Y60.582 E61.81662
G1 X148.395 Y120.688 E63.38921
G1 X148.395 Y121.038 E63.39568
G1 X87.938 Y60.582 E64.97743
G1 X87.588 Y60.582 E64.98391
G1 X148.395 Y121.389 E66.57481
G1 X148.395 Y121.739 E66.58129
G1 X87.238 Y60.582 E68.18135
G1 X86.888 Y60.582 E68.18783
G1 X148.395 Y122.089 E69.79705
G1 X148.395 Y122.439 E69.80353
G1 X86.537 Y60.582 E71.42191
G1 X86.187 Y60.582 E71.42839
G1 X148.395 Y122.789 E73.05593
G1 X148.395 Y123.139 E73.06241
G1 X85.837 Y60.582 E74.69911
G1 X85.487 Y60.582 E74.70558
G1 X148.395 Y123.489 E76.35144
G1 X148.395 Y123.839 E76.35792
G1 X85.137 Y60.582 E78.01293
G1 X84.787 Y60.582 E78.01941
G1 X148.395 Y124.189 E79.68359
G1 X148.395 Y124.539 E79.69006
G1 X84.437 Y60.582 E81.36340
G1 X84.087 Y60.582 E81.36987
G1 X148.395 Y124.889 E83.05237
G1 X148.395 Y125.239 E83.05884
G1 X83.737 Y60.582 E84.75049
G1 X83.387 Y60.582 E84.75697
G1 X148.395 Y125.589 E86.45778
G1 X148.395 Y125.939 E86.46425
G1 X83.037 Y60.582 E88.17422
G1 X82.687 Y60.582 E88.18070
G1 X148.395 Y126.289 E89.89983
G1 X148.395 Y126.639 E89.90630
G1 X82.337 Y60.582 E91.63459
G1 X81.987 Y60.582 E91.64106
G1 X148.395 Y126.989 E93.37851
G1 X148.395 Y127.339 E93.38498
G1 X81.637 Y60.582 E95.13159
G1 X81.287 Y60.582 E95.13806
G1 X148.395 Y127.690 E96.89383
G1 X148.395 Y128.040 E96.90030
G1 X80.937 Y60.582 E98.66522
G1 X80.587 Y60.582 E98.67170
G1 X148.395 Y128.390 E100.44578
G1 X148.395 Y128.740 E100.45225
G1 X80.236 Y60.582 E102.23549
G1 X79.886 Y60.582 E102.24197
G1 X148.395 Y129.090 E104.03436
G1 X148.395 Y129.440 E104.04084
G1 X79.536 Y60.582 E105.84239
G1 X79.186 Y60.582 E105.84887
G1 X148.395 Y129.790 E107.65958
G1 X148.395 Y130.140 E107.66606
G1 X78.836 Y60.582 E109.48593
G1 X78.486 Y60.582 E109.49240
G1 X148.395 Y130.490 E111.32143
G1 X148.395 Y130.840 E111.32791
G1 X78.136 Y60.582 E113.16610
G1 X77.786 Y60.582 E113.17258
G1 X148.395 Y131.190 E115.01992
G1 X148.395 Y131.540 E115.02640
G1 X77.436 Y60.582 E116.88291
G1 X77.086 Y60.582 E116.88938
G1 X148.395 Y131.890 E118.75505
G1 X148.395 Y132.240 E118.76152
G1 X76.736 Y60.582 E120.63635
G1 X76.386 Y60.582 E120.64282
G1 X148.395 Y132.590 E122.52680
G1 X148.395 Y132.940 E122.53328
G1 X76.036 Y60.582 E124.42642
G1 X75.686 Y60.582 E124.43290
G1 X148.395 Y133.290 E126.33519
G1 X148.395 Y133.640 E126.34167
G1 X75.336 Y60.582 E128.25313
G1 X74.986 Y60.582 E128.25960
G1 X148.395 Y133.991 E130.18022
G1 X148.395 Y134.341 E130.18670
G1 X74.636 Y60.582 E132.11647
G1 X74.286 Y60.582 E132.12295
G1 X148.395 Y134.691 E134.06188
G1 X148.395 Y135.041 E134.06836
G1 X73.935 Y60.582 E136.01645
G1 X73.585 Y60.582 E136.02292
G1 X148.395 Y135.391 E137.98017
G1 X148.395 Y135.741 E137.98665
G1 X73.235 Y60.582 E139.95306
G1 X72.885 Y60.582 E139.95954
G1 X148.395 Y136.091 E141.93510
G1 X148.395 Y136.441 E141.94158
G1 X72.535 Y60.582 E143.92631
G1 X72.185 Y60.582 E143.93278
G1 X148.395 Y136.791 E145.92667
G1 X148.395 Y137.141 E145.93314
G1 X71.835 Y60.582 E147.93619
G1 X71.485 Y60.582 E147.94266
G1 X148.395 Y137.491 E149.95486
G1 X148.395 Y137.841 E149.96134
G1 X71.135 Y60.582 E151.98270
G1 X70.785 Y60.582 E151.98918
G1 X148.395 Y138.191 E154.01969
G1 X148.395 Y138.541 E154.02617
G1 X70.435 Y60.582 E156.06585
G1 X70.085 Y60.582 E156.07232
G1 X148.395 Y138.891 E158.12116
G1 X148.395 Y139.241 E158.12764
G1 X69.735 Y60.582 E160.18563
G1 X69.385 Y60.582 E160.19211
G1 X148.395 Y139.591 E162.25926
G1 X148.395 Y139.941 E162.26574
G1 X69.035 Y60.582 E164.34205
G1 X68.685 Y60.582 E164.34853
G1 X148.395 Y140.292 E166.43400
G1 X148.395 Y140.642 E166.44047
G1 X68.335 Y60.582 E168.53510
G1 X67.985 Y60.582 E168.54158
G1 X148.395 Y140.992 E170.64537
G1 X148.395 Y141.342 E170.65184
G1 X67.634 Y60.582 E172.76479
G1 X67.284 Y60.582 E172.77126
G1 X148.395 Y141.692 E174.89337
G1 X148.395 Y142.042 E174.89984
G1 X66.934 Y60.582 E177.03111
G1 X66.584 Y60.582 E177.03758
G1 X148.395 Y142.392 E179.17801
G1 X148.395 Y142.742 E179.18448
G1 X66.234 Y60.582 E181.33406
G1 X65.884 Y60.582 E181.34054
G1 X148.395 Y143.092 E183.49928
G1 X148.395 Y143.442 E183.50575
G1 X65.534 Y60.582 E185.67365
G1 X65.184 Y60.582 E185.68013
G1 X148.395 Y143.792 E187.85719
G1 X148.395 Y144.142 E187.86366
G1 X64.834 Y60.582 E190.04988
G1 X64.484 Y60.582 E190.05635
G1 X148.395 Y144.492 E192.25173
G1 X148.395 Y144.842 E192.25820
G1 X64.134 Y60.582 E194.46273
G1 X63.784 Y60.582 E194.46921
G1 X148.395 Y145.192 E196.68290
G1 X148.395 Y145.542 E196.68938
G1 X63.434 Y60.582 E198.91223
G1 X63.084 Y60.582 E198.91870
G1 X148.395 Y145.892 E201.15071
G1 X148.395 Y146.242 E201.15719
G1 X62.734 Y60.582 E203.39835
G1 X62.384 Y60.582 E203.40483
G1 X148.395 Y146.593 E205.65515
G1 X148.395 Y146.943 E205.66163
G1 X62.034 Y60.582 E207.92111
G1 X61.684 Y60.582 E207.92759
G1 X148.395 Y147.293 E210.19623
G1 X148.395 Y147.643 E210.20271
G1 X61.333 Y60.582 E212.48051
G1 X60.983 Y60.582 E212.48699
G1 X148.395 Y147.993 E214.77394
G1 X148.395 Y148.343 E214.78042
G1 X145.893 Y145.841 E214.84587
G1 X146.218 Y146.516 F6000.000
G1 X148.395 Y148.693 E214.90281 F1200.000
G1 X148.395 Y149.043 E214.90929
G1 X146.435 Y147.083 E214.96056
G1 X146.321 Y147.320 E214.96541
G1 X148.395 Y149.393 E215.01965
G1 X148.395 Y149.743 E215.02613
G1 X146.207 Y147.556 E215.08335
G1 X146.094 Y147.792 E215.08820
G1 X148.335 Y150.033 E215.14684
G1 X148.221 Y150.270 E215.15169
G1 X145.980 Y148.028 E215.21033
G1 X145.866 Y148.265 E215.21518
G1 X148.107 Y150.506 E215.27382
G1 X147.994 Y150.742 E215.27867
G1 X145.752 Y148.501 E215.33731
G1 X145.639 Y148.737 E215.34216
G1 X147.880 Y150.978 E215.40080
G1 X147.719 Y151.167 E215.40539
G1 X145.525 Y148.974 E215.46279
G1 X145.279 Y149.078 E215.46773
G1 X147.434 Y151.232 E215.52409
G1 X147.149 Y151.297 E215.52949
G1 X144.994 Y149.143 E215.58585
G1 X144.709 Y149.208 E215.59126
G1 X146.864 Y151.362 E215.64762
G1 X146.579 Y151.428 E215.65303
G1 X144.424 Y149.273 E215.70939
G1 X144.139 Y149.338 E215.71480
G1 X146.269 Y151.469 E215.77053
G1 X145.919 Y151.469 E215.77701
G1 X143.854 Y149.403 E215.83103
G1 X143.569 Y149.469 E215.83644
G1 X145.569 Y151.469 E215.88877
G1 X145.219 Y151.469 E215.89525
G1 X143.049 Y149.298 E215.95204
G1 F1860.000 E212.95204
G92 E0
G1 X141.593 Y147.842 F6000.000
G1 E3.10000 F1860.000
G1 X54.332 Y60.582 E5.38301 F1200.000
G1 X53.982 Y60.582 E5.38949
G1 X144.869 Y151.469 E7.76739
G1 X144.519 Y151.469 E7.77386
G1 X126.907 Y133.857 E8.23464
G1 X126.907 Y134.207 E8.24112
G1 X144.169 Y151.469 E8.69274
G1 X143.819 Y151.469 E8.69922
G1 X126.907 Y134.557 E9.14168
G1 X126.907 Y134.907 E9.14816
G1 X143.469 Y151.469 E9.58147
G1 X143.119 Y151.469 E9.58794
G1 X126.907 Y135.257 E10.01209
G1 X126.907 Y135.607 E10.01857
G1 X142.769 Y151.469 E10.43355
G1 X142.419 Y151.469 E10.44003
G1 X126.907 Y135.957 E10.84586
G1 X126.907 Y136.307 E10.85234
G1 X142.069 Y151.469 E11.24901
G1 X141.719 Y151.469 E11.25548
G1 X126.907 Y136.657 E11.64300
G1 X126.907 Y137.007 E11.64947
G1 X141.369 Y151.469 E12.02783
G1 X141.019 Y151.469 E12.03430
G1 X126.907 Y137.357 E12.40350
G1 X126.907 Y137.707 E12.40998
G1 X140.669 Y151.469 E12.77001
G1 X140.319 Y151.469 E12.77649
G1 X126.907 Y138.057 E13.12737
G1 X126.907 Y138.407 E13.13384
G1 X139.968 Y151.469 E13.47556
G1 X139.618 Y151.469 E13.48204
G1 X126.907 Y138.758 E13.81460
G1 X126.907 Y139.108 E13.82108
G1 X139.268 Y151.469 E14.14448
G1 X138.918 Y151.469 E14.15096
G1 X126.907 Y139.458 E14.46520
G1 X126.907 Y139.808 E14.47168
G1 X138.568 Y151.469 E14.77676
G1 X138.218 Y151.469 E14.78324
