; generated by Slic3r 1.1.7 on 2014-12-06 at 19:53:06

; perimeters extrusion width = 0.50mm
; infill extrusion width = 0.52mm
; solid infill extrusion width = 0.52mm
; top infill extrusion width = 0.52mm

G21 ; set units to millimeters
M107
M104 S200 ; set temperature
G28 ; home all axes
G1 Z5 F5000 ; lift nozzle

M109 S200 ; wait for temperature to be reached
G90 ; use absolute coordinates
G92 E0
M82 ; use absolute distances for extrusion
G1 F1800.000 E-1.00000
G92 E0
G1 Z0.350 F7800.000
G1 X46.948 Y55.953 F7800.000
G1 E1.00000 F1800.000
G1 X48.305 Y54.870 E1.05647 F1080.000
G1 X50.555 Y53.695 E1.13905
G1 X91.000 Y41.645 E2.51210
G1 X92.901 Y41.368 E2.57460
G1 X126.901 Y41.368 E3.68079
G1 X129.165 Y41.765 E3.75559
G1 X130.264 Y42.280 E3.79506 F1080.000
G1 X151.511 Y54.716 E4.59604
G1 X153.265 Y56.203 E4.67084
G1 X154.146 Y57.573 E4.72385
G1 X154.899 Y59.137 E4.78032
G1 X155.558 Y62.025 E4.87671
G1 X155.558 Y150.025 E7.73981
G1 X154.899 Y152.913 E7.83619
G1 X154.146 Y154.477 E7.89266
G1 X152.806 Y156.345 E7.96746
G1 X150.910 Y157.646 E8.04226
G1 X149.629 Y158.079 E8.08624
G1 X147.937 Y158.465 E8.14271
G1 X146.456 Y158.632 E8.19121
G1 X52.456 Y158.632 E11.24952
G1 X50.191 Y158.235 E11.32432
G1 X48.305 Y157.180 E11.39464
G1 X46.948 Y156.098 E11.45111
G1 X45.425 Y154.375 E11.52591
G1 X44.579 Y152.238 E11.60071
G1 X44.442 Y150.893 E11.64469
G1 X44.442 Y61.157 E14.56425
G1 X44.839 Y58.893 E14.63905
G1 X45.983 Y56.898 E14.71385
G1 X46.895 Y56.005 E14.75540
G1 F1800.000 E13.75540
G92 E0
G1 X57.845 Y84.463 F7800.000
G1 E1.00000 F1800.000
G1 X55.207 Y85.065 E1.08802 F540.000
G1 X53.092 Y83.378 E1.17605
G1 X53.092 Y80.672 E1.26407
G1 X55.207 Y78.985 E1.35210
G1 X57.323 Y79.468 E1.42270
G1 X57.845 Y79.587 E1.44012 F540.000
G1 X59.019 Y82.025 E1.52815
G1 X57.877 Y84.395 E1.61373
G1 X57.390 Y83.892 F7800.000
G1 X55.369 Y84.354 E1.68117 F378.000
G1 X53.749 Y83.061 E1.74860
G1 X53.749 Y80.989 E1.81604
G1 X55.198 Y79.833 E1.87634
G1 X55.369 Y79.696 E1.88347 F378.000
G1 X57.390 Y80.158 E1.95091
G1 X58.289 Y82.025 E2.01834
G1 X57.423 Y83.825 E2.08333
G1 F1800.000 E1.08333
G92 E0
G1 X55.046 Y79.675 F7800.000
G1 X141.092 Y83.378 F7800.000
G1 E1.00000 F1800.000
G1 X141.092 Y80.672 E1.08803 F540.000
G1 X143.207 Y78.985 E1.17605
G1 X145.323 Y79.468 E1.24665
G1 X145.845 Y79.587 E1.26407 F540.000
G1 X147.019 Y82.025 E1.35210
G1 X145.845 Y84.463 E1.44012
G1 X143.207 Y85.065 E1.52815
G1 X141.151 Y83.425 E1.61373
G1 X141.749 Y83.061 F7800.000
G1 X141.749 Y80.989 E1.68117 F378.000
G1 X143.198 Y79.833 E1.74147
G1 X143.370 Y79.696 E1.74860 F378.000
G1 X145.390 Y80.158 E1.81604
G1 X146.289 Y82.025 E1.88347
G1 X145.390 Y83.892 E1.95090
G1 X143.370 Y84.354 E2.01834
G1 X141.808 Y83.108 E2.08333
G1 F1800.000 E1.08333
G92 E0
G1 X143.101 Y79.637 F7800.000
G1 X143.207 Y143.985 F7800.000
G1 E1.00000 F1800.000
G1 X145.323 Y144.468 E1.07060 F540.000
G1 X145.845 Y144.587 E1.08802 F540.000
G1 X147.019 Y147.025 E1.17605
G1 X145.845 Y149.463 E1.26407
G1 X143.207 Y150.065 E1.35210
G1 X141.092 Y148.378 E1.44012
G1 X141.092 Y145.672 E1.52815
G1 X143.149 Y144.032 E1.61373
G1 X143.370 Y144.696 F7800.000
G1 X145.390 Y145.158 E1.68116 F378.000
G1 X146.289 Y147.025 E1.74860
G1 X145.390 Y148.892 E1.81603
G1 X143.370 Y149.354 E1.88347
G1 X141.749 Y148.061 E1.95090
G1 X141.749 Y145.989 E2.01834
G1 X143.198 Y144.833 E2.07864
G1 X143.311 Y144.743 E2.08333 F378.000
G1 X143.136 Y144.703 F7800.000
G1 X128.065 Y144.689 F7800.000
G1 X103.237 Y144.689 E2.89113 F540.000
G1 X103.237 Y132.361 E3.29223
G1 X128.065 Y132.361 E4.10002
G1 X128.065 Y144.614 E4.49869
G1 X127.408 Y144.032 F7800.000
G1 X103.894 Y144.032 E5.26373 F540.000
G1 X103.894 Y133.018 E5.62207
G1 X127.408 Y133.018 E6.38711
G1 X127.408 Y143.957 E6.74302
G1 X126.751 Y143.375 F7800.000
G1 X104.551 Y143.375 E7.46530 F378.000
G1 X104.551 Y133.675 E7.78089
G1 X126.751 Y133.675 E8.50318
G1 X126.751 Y143.300 E8.81633
G1 X126.751 Y143.875 F7800.000
G1 X97.565 Y144.689 F7800.000
G1 X72.737 Y144.689 E9.62412 F540.000
G1 X72.737 Y132.361 E10.02523
G1 X97.565 Y132.361 E10.83302
G1 X97.565 Y144.614 E11.23168
G1 X96.908 Y144.032 F7800.000
G1 X73.394 Y144.032 E11.99672 F540.000
G1 X73.394 Y133.018 E12.35507
G1 X96.908 Y133.018 E13.12011
G1 X96.908 Y143.957 E13.47602
G1 X96.251 Y143.375 F7800.000
G1 X74.051 Y143.375 E14.19830 F378.000
G1 X74.051 Y133.675 E14.51389
G1 X96.251 Y133.675 E15.23617
G1 X96.251 Y143.300 E15.54932
G1 X96.251 Y143.875 F7800.000
G1 X59.019 Y147.025 F7800.000
G1 X57.845 Y149.463 E15.63735 F540.000
G1 X55.207 Y150.065 E15.72537
G1 X53.092 Y148.378 E15.81340
G1 X53.092 Y145.672 E15.90142
G1 X55.207 Y143.985 E15.98945
G1 X57.323 Y144.468 E16.06005
G1 X57.845 Y144.587 E16.07747 F540.000
G1 X58.986 Y146.957 E16.16306
G1 X58.289 Y147.025 F7800.000
G1 X57.390 Y148.892 E16.23049 F378.000
G1 X55.369 Y149.354 E16.29793
G1 X53.749 Y148.061 E16.36536
G1 X53.749 Y145.989 E16.43279
G1 X55.198 Y144.833 E16.49310
G1 X55.369 Y144.696 E16.50023 F378.000
G1 X57.390 Y145.158 E16.56766
G1 X58.257 Y146.957 E16.63266
G1 F1800.000 E15.63266
G92 E0
G1 X55.023 Y144.701 F7800.000
G1 X146.153 Y150.337 F7800.000
G1 E1.00000 F1800.000
G1 X146.828 Y148.935 E1.05062 F540.000
G1 X147.237 Y149.029 E1.06426
G1 X147.237 Y149.645 E1.08432
G1 X146.996 Y150.145 E1.10235
G1 X146.226 Y150.320 E1.12805
G1 X54.020 Y149.959 F7800.000
G1 X53.897 Y150.311 E1.14019 F540.000
G1 X53.038 Y150.311 E1.16814
G1 X52.763 Y150.091 E1.17958
G1 X52.763 Y148.956 E1.21652
G1 X53.962 Y149.912 E1.26640
G1 F1800.000 E0.26640
G92 E0
G1 X94.565 Y61.739 F7800.000
G1 E1.00000 F1800.000
G1 X94.565 Y49.689 E1.39205 F540.000
G1 X101.237 Y49.689 E1.60912
G1 X101.237 Y61.689 E1.99954
G1 X118.565 Y61.689 E2.56332
G1 X118.565 Y49.689 E2.95374
G1 X125.237 Y49.689 E3.17081
G1 X125.237 Y61.739 E3.56286
G1 X146.268 Y61.739 E4.24713
G1 X146.996 Y61.905 E4.27142
G1 X147.237 Y62.405 E4.28946
G1 X147.237 Y80.021 E4.86262
G1 X146.828 Y80.115 E4.87625
G1 X146.300 Y79.017 E4.91589
G1 X143.045 Y78.274 E5.02450
G1 X140.435 Y80.356 E5.13312
G1 X140.435 Y83.694 E5.24173
G1 X143.045 Y85.776 E5.35035
G1 X146.300 Y85.033 E5.45896
G1 X146.828 Y83.935 E5.49859
G1 X147.237 Y84.029 E5.51223
G1 X147.237 Y145.021 E7.49665
G1 X146.828 Y145.115 E7.51029
G1 X146.300 Y144.017 E7.54992
G1 X143.045 Y143.274 E7.65853
G1 X140.435 Y145.356 E7.76715
G1 X140.435 Y148.694 E7.87576
G1 X142.021 Y149.959 E7.94175
G1 X141.897 Y150.311 E7.95388
G1 X58.166 Y150.311 E10.67811
G1 X59.748 Y147.025 E10.79676
G1 X58.300 Y144.017 E10.90537
G1 X55.045 Y143.274 E11.01399
G1 X52.763 Y145.094 E11.10894
G1 X52.763 Y83.956 E13.09807
G1 X55.045 Y85.776 E13.19303
G1 X58.300 Y85.033 E13.30164
G1 X59.748 Y82.025 E13.41026
G1 X58.300 Y79.017 E13.51887
G1 X55.045 Y78.274 E13.62749
G1 X52.763 Y80.094 E13.72244
G1 X52.763 Y61.959 E14.31248
G1 X53.038 Y61.739 E14.32392
G1 X94.490 Y61.739 E15.67257
G1 X93.908 Y61.082 F7800.000
G1 X93.908 Y49.032 E16.06462 F540.000
G1 X101.894 Y49.032 E16.32444
G1 X101.894 Y61.032 E16.71487
G1 X117.908 Y61.032 E17.23589
G1 X117.908 Y49.032 E17.62631
G1 X125.894 Y49.032 E17.88613
G1 X125.894 Y61.082 E18.27819
G1 X146.342 Y61.082 E18.94349
G1 X147.451 Y61.335 E18.98048
G1 X147.894 Y62.255 E19.01369
G1 X147.894 Y149.795 E21.86183
G1 X147.451 Y150.715 E21.89504
G1 X146.342 Y150.968 E21.93204
G1 X52.808 Y150.968 E24.97519
G1 X52.106 Y150.408 E25.00441
G1 X52.106 Y61.642 E27.89242
G1 X52.808 Y61.082 E27.92164
G1 X93.833 Y61.082 E29.25639
G1 X93.251 Y60.425 F7800.000
G1 X93.251 Y48.375 E29.64844 F378.000
G1 X102.551 Y48.375 E29.95102
G1 X102.551 Y60.375 E30.34144
G1 X117.251 Y60.375 E30.81971
G1 X117.251 Y48.375 E31.21013
G1 X126.551 Y48.375 E31.51271
G1 X126.551 Y60.425 E31.90477
G1 X146.417 Y60.425 E32.55110
G1 X147.906 Y60.765 E32.60079
G1 X148.551 Y62.105 E32.64918
G1 X148.551 Y149.945 E35.50708
G1 X147.906 Y151.285 E35.55546
G1 X146.417 Y151.625 E35.60516
G1 X52.578 Y151.625 E38.65820
G1 X51.449 Y150.724 E38.70520
G1 X51.449 Y61.326 E41.61380
G1 X52.578 Y60.425 E41.66080
G1 X93.176 Y60.425 E42.98165
G1 X93.751 Y60.425 F7800.000
G1 X100.780 Y61.179 F7800.000
G1 X95.021 Y55.421 E43.24663 F1080.000
G1 X95.021 Y54.488 E43.27696
G1 X100.780 Y60.247 E43.54194
G1 X100.780 Y59.315 E43.57227
G1 X95.021 Y53.556 E43.83725
G1 X95.021 Y52.624 E43.86758
G1 X100.780 Y58.383 E44.13256
G1 X100.780 Y57.451 E44.16289
G1 X95.021 Y51.692 E44.42787
G1 X95.021 Y50.759 E44.45820
G1 X100.780 Y56.518 E44.72318
G1 X100.780 Y55.586 E44.75351
G1 X95.340 Y50.146 E45.00383
G1 X96.272 Y50.146 E45.03416
G1 X100.780 Y54.654 E45.24160
G1 X100.780 Y53.722 E45.27193
G1 X97.204 Y50.146 E45.43647
G1 X98.137 Y50.146 E45.46680
G1 X100.780 Y52.789 E45.58845
G1 X100.780 Y51.857 E45.61878
G1 X99.069 Y50.146 E45.69754
G1 X100.001 Y50.146 E45.72787
G1 X100.780 Y50.925 E45.76373
G1 F1800.000 E44.76373
G92 E0
G1 X119.021 Y50.522 F7800.000
G1 E1.00000 F1800.000
G1 X124.780 Y56.280 E1.26498 F1080.000
G1 X124.780 Y57.213 E1.29531
G1 X119.021 Y51.454 E1.56029
G1 X119.021 Y52.386 E1.59062
G1 X124.780 Y58.145 E1.85560
G1 X124.780 Y59.077 E1.88593
G1 X119.021 Y53.318 E2.15091
G1 X119.021 Y54.250 E2.18124
G1 X124.780 Y60.009 E2.44622
G1 X124.780 Y60.942 E2.47655
G1 X119.021 Y55.183 E2.74153
G1 X119.578 Y50.146 F7800.000
G1 X124.780 Y55.348 E2.98091 F1080.000
G1 X124.780 Y54.416 E3.01124
G1 X120.510 Y50.146 E3.20773
G1 X121.442 Y50.146 E3.23806
G1 X124.780 Y53.484 E3.39166
G1 X124.780 Y52.552 E3.42199
G1 X122.374 Y50.146 E3.53270
G1 X123.307 Y50.146 E3.56303
G1 X124.780 Y51.619 E3.63084
G1 X124.780 Y50.687 E3.66117
G1 X124.239 Y50.146 E3.68608
G1 F1800.000 E2.68608
G92 E0
G1 X146.640 Y62.292 F7800.000
G1 E1.00000 F1800.000
G1 X146.709 Y62.362 E1.00319 F1080.000
G1 X146.780 Y63.365 E1.03591
G1 X145.611 Y62.196 E1.08971
G1 X144.679 Y62.196 E1.12004
G1 X146.780 Y64.297 E1.21673
G1 X146.780 Y65.229 E1.24706
G1 X143.747 Y62.196 E1.38664
G1 X142.815 Y62.196 E1.41697
G1 X146.780 Y66.162 E1.59944
G1 X146.780 Y67.094 E1.62977
G1 X141.882 Y62.196 E1.85514
G1 X140.950 Y62.196 E1.88547
G1 X146.780 Y68.026 E2.15373
G1 X146.780 Y68.958 E2.18406
G1 X140.018 Y62.196 E2.49522
G1 X139.086 Y62.196 E2.52555
G1 X146.780 Y69.890 E2.87959
G1 X146.780 Y70.823 E2.90992
G1 X138.153 Y62.196 E3.30687
G1 X137.221 Y62.196 E3.33720
G1 X146.780 Y71.755 E3.77703
G1 X146.780 Y72.687 E3.80736
G1 X136.289 Y62.196 E4.29009
G1 X135.357 Y62.196 E4.32042
G1 X146.780 Y73.619 E4.84604
G1 X146.780 Y74.552 E4.87637
G1 X134.425 Y62.196 E5.44488
G1 X133.492 Y62.196 E5.47521
G1 X146.780 Y75.484 E6.08662
G1 X146.780 Y76.416 E6.11695
G1 X132.560 Y62.196 E6.77125
G1 X131.628 Y62.196 E6.80158
G1 X146.780 Y77.348 E7.49878
G1 X146.780 Y78.280 E7.52911
G1 X130.696 Y62.196 E8.26919
G1 X129.763 Y62.196 E8.29953
G1 X146.063 Y78.495 E9.04949
G1 X144.855 Y78.219 E9.08980
G1 X128.831 Y62.196 E9.82708
G1 X127.899 Y62.196 E9.85741
G1 X143.647 Y77.944 E10.58200
G1 X142.720 Y77.949 E10.61214
G1 X126.967 Y62.196 E11.33700
G1 X126.035 Y62.196 E11.36733
G1 X142.202 Y78.363 E12.11122
G1 X141.683 Y78.777 E12.13280
G1 X119.021 Y56.115 E13.17550
G1 X119.021 Y57.047 E13.20583
G1 X141.165 Y79.190 E14.22468
G1 X140.646 Y79.604 E14.24626
G1 X119.021 Y57.979 E15.24124
G1 X119.021 Y58.912 E15.27157
G1 X140.127 Y80.017 E16.24269
G1 X139.979 Y80.801 E16.26863
G1 X119.021 Y59.844 E17.23290
G1 X119.021 Y60.776 E17.26323
G1 X139.979 Y81.733 E18.22750
G1 X139.979 Y82.665 E18.25783
G1 X119.021 Y61.708 E19.22210
G1 X118.527 Y62.146 E19.24359
G1 X139.979 Y83.597 E20.23063
G1 X141.542 Y85.161 F7800.000
G1 X146.780 Y90.399 E20.47168 F1080.000
G1 X146.780 Y89.467 E20.50201
G1 X143.462 Y86.149 E20.65470
G1 X144.221 Y85.975 E20.68003
G1 X146.780 Y88.535 E20.79780
G1 X146.780 Y87.603 E20.82813
G1 X144.980 Y85.802 E20.91098
G1 X145.739 Y85.629 E20.93630
G1 X146.780 Y86.671 E20.98423
G1 X146.780 Y85.738 E21.01456
G1 X146.498 Y85.456 E21.02756
G1 X146.780 Y91.332 F7800.000
G1 X117.594 Y62.146 E22.37046 F1080.000
G1 X116.662 Y62.146 E22.40079
G1 X146.780 Y92.264 E23.78659
G1 X146.780 Y93.196 E23.81692
G1 X115.730 Y62.146 E25.24560
G1 X114.798 Y62.146 E25.27593
G1 X146.780 Y94.128 E26.74752
G1 X146.780 Y95.061 E26.77785
G1 X113.865 Y62.146 E28.29232
G1 X112.933 Y62.146 E28.32265
G1 X146.780 Y95.993 E29.88002
G1 X146.780 Y96.925 E29.91035
G1 X112.001 Y62.146 E31.51061
G1 X111.069 Y62.146 E31.54094
G1 X146.780 Y97.857 E33.18409
G1 X146.780 Y98.789 E33.21442
G1 X110.137 Y62.146 E34.90047
G1 X109.204 Y62.146 E34.93080
G1 X146.780 Y99.722 E36.65974
G1 X146.780 Y100.654 E36.69007
G1 X108.272 Y62.146 E38.46191
G1 X107.340 Y62.146 E38.49224
G1 X146.780 Y101.586 E40.30696
G1 X146.780 Y102.518 E40.33729
G1 X106.408 Y62.146 E42.19491
G1 X105.475 Y62.146 E42.22524
G1 X146.780 Y103.451 E44.12576
G1 X146.780 Y104.383 E44.15609
G1 X104.543 Y62.146 E46.09950
G1 X103.611 Y62.146 E46.12983
G1 X146.780 Y105.315 E48.11613
G1 X146.780 Y106.247 E48.14646
G1 X102.679 Y62.146 E50.17565
G1 X101.747 Y62.146 E50.20598
G1 X146.780 Y107.179 E52.27807
G1 X146.780 Y108.112 E52.30840
G1 X95.021 Y56.353 E54.68992
G1 X95.021 Y57.285 E54.72025
G1 X146.780 Y109.044 E57.10177
G1 X146.780 Y109.976 E57.13210
G1 X95.021 Y58.217 E59.51362
G1 X95.021 Y59.149 E59.54395
G1 X146.780 Y110.908 E61.92547
G1 X146.780 Y111.841 E61.95580
G1 X95.021 Y60.082 E64.33732
G1 X95.021 Y61.014 E64.36765
G1 X146.780 Y112.773 E66.74917
G1 X146.780 Y113.705 E66.77950
G1 X95.021 Y61.946 E69.16102
G1 X94.339 Y62.196 E69.18466
G1 X146.780 Y114.637 E71.59759
G1 X146.780 Y115.569 E71.62792
G1 X93.407 Y62.196 E74.08374
G1 X92.474 Y62.196 E74.11407
G1 X146.780 Y116.502 E76.61278
G1 X146.780 Y117.434 E76.64311
G1 X91.542 Y62.196 E79.18472
G1 X90.610 Y62.196 E79.21505
G1 X146.780 Y118.366 E81.79955
G1 X146.780 Y119.298 E81.82988
G1 X89.678 Y62.196 E84.45727
G1 X88.746 Y62.196 E84.48760
G1 X146.780 Y120.231 E87.15789
G1 X146.780 Y121.163 E87.18822
G1 X87.813 Y62.196 E89.90140
G1 X86.881 Y62.196 E89.93173
G1 X146.780 Y122.095 E92.68780
G1 X146.780 Y123.027 E92.71813
G1 X85.949 Y62.196 E95.51710
G1 X85.017 Y62.196 E95.54743
G1 X146.780 Y123.960 E98.38929
G1 X146.780 Y124.892 E98.41962
G1 X84.084 Y62.196 E101.30437
G1 X83.152 Y62.196 E101.33470
G1 X146.780 Y125.824 E104.26235
G1 X146.780 Y126.756 E104.29268
G1 X82.220 Y62.196 E107.26322
G1 X81.288 Y62.196 E107.29355
G1 X146.780 Y127.688 E110.30698
G1 X146.780 Y128.621 E110.33731
G1 X80.356 Y62.196 E113.39364
G1 X79.423 Y62.196 E113.42397
G1 X146.780 Y129.553 E116.52319
G1 X146.780 Y130.485 E116.55352
G1 X78.491 Y62.196 E119.69563
G1 X77.559 Y62.196 E119.72596
G1 X146.780 Y131.417 E122.91097
G1 X146.780 Y132.350 E122.94130
G1 X76.627 Y62.196 E126.16920
G1 X75.694 Y62.196 E126.19953
G1 X146.780 Y133.282 E129.47032
G1 X146.780 Y134.214 E129.50065
G1 X74.762 Y62.196 E132.81434
G1 X73.830 Y62.196 E132.84467
G1 X146.780 Y135.146 E136.20125
G1 X146.780 Y136.078 E136.23158
G1 X72.898 Y62.196 E139.63105
G1 X71.965 Y62.196 E139.66138
G1 X146.780 Y137.011 E143.10375
G1 X146.780 Y137.943 E143.13408
G1 X71.033 Y62.196 E146.61934
G1 X70.101 Y62.196 E146.64967
G1 X146.780 Y138.875 E150.17782
G1 X146.780 Y139.807 E150.20815
G1 X69.169 Y62.196 E153.77919
G1 X68.237 Y62.196 E153.80952
G1 X146.780 Y140.740 E157.42346
G1 X146.780 Y141.672 E157.45379
G1 X67.304 Y62.196 E161.11063
G1 X66.372 Y62.196 E161.14096
G1 X146.780 Y142.604 E164.84068
G1 X146.780 Y143.536 E164.87101
G1 X65.440 Y62.196 E168.61363
G1 X64.508 Y62.196 E168.64396
G1 X145.731 Y143.419 E172.38121
G1 X144.524 Y143.144 E172.42152
G1 X63.575 Y62.196 E176.14608
G1 X62.643 Y62.196 E176.17641
G1 X143.316 Y142.868 E179.88828
G1 X142.578 Y143.063 E179.91310
G1 X61.711 Y62.196 E183.63394
G1 X60.779 Y62.196 E183.66427
G1 X142.060 Y143.477 E187.40414
G1 X141.541 Y143.890 E187.42572
G1 X59.847 Y62.196 E191.18462
G1 X58.914 Y62.196 E191.21495
G1 X141.022 Y144.304 E194.99288
G1 X140.504 Y144.717 E195.01446
G1 X128.521 Y132.735 E195.56579
G1 X128.521 Y133.667 E195.59612
G1 X139.985 Y145.131 E196.12357
G1 X139.979 Y146.057 E196.15369
G1 X128.521 Y134.600 E196.68085
G1 X128.521 Y135.532 E196.71118
G1 X139.979 Y146.989 E197.23834
G1 X139.979 Y147.921 E197.26867
G1 X128.521 Y136.464 E197.79583
G1 X128.521 Y137.396 E197.82616
