; generated by Slic3r 1.1.7 on 2014-12-06 at 16:15:21

; perimeters extrusion width = 0.42mm
; infill extrusion width = 0.74mm
; solid infill extrusion width = 0.71mm
; top infill extrusion width = 0.71mm
; support material extrusion width = 0.42mm

G21 ; set units to millimeters
M190 S60 ; wait for bed temperature to be reached
M104 S186 ; set temperature
G28 ; home all axes
M109 S186 ; wait for temperature to be reached
G90 ; use absolute coordinates
G92 E0
M82 ; use absolute distances for extrusion
M106 S127
G1 F1860.000 E-3.00000
G92 E0
G1 Z0.200 F6000.000
G1 X77.144 Y73.850 F6000.000
G1 E3.10000 F1860.000
G1 X78.050 Y72.971 E3.12336 F1200.000
G1 X79.407 Y71.889 E3.15547
G1 X81.402 Y70.805 E3.19748
G1 X83.456 Y70.472 E3.23597
G1 X115.456 Y70.472 E3.82798
G1 X116.901 Y70.635 E3.85488
G1 X118.593 Y71.021 E3.88699 F1200.000
G1 X120.684 Y71.905 E3.92900
G1 X122.343 Y73.456 E3.97100
G1 X122.999 Y74.535 E3.99437
G1 X123.752 Y76.099 E4.02647
G1 X124.395 Y78.916 E4.07994
G1 X124.395 Y94.916 E4.37595
G1 X123.885 Y97.439 E4.42356
G1 X114.333 Y119.969 E4.87628
G1 X112.716 Y122.769 E4.93611
G1 X111.917 Y123.868 E4.96123
G1 X110.910 Y124.987 E4.98909
G1 X109.903 Y125.894 E5.01416
G1 X108.957 Y126.537 E5.03533
G1 X105.549 Y128.464 E5.10775
G1 X105.124 Y128.654 E5.11637
G1 X103.833 Y129.073 E5.14148
G1 X102.359 Y129.386 E5.16935
G1 X101.009 Y129.528 E5.19446
G1 X97.775 Y129.528 E5.25429
G1 X96.425 Y129.386 E5.27940
G1 X94.952 Y129.073 E5.30728
G1 X93.661 Y128.654 E5.33239
G1 X92.633 Y128.157 E5.35351
G1 X89.257 Y126.167 E5.42600
G1 X88.883 Y125.895 E5.43455
G1 X87.875 Y124.987 E5.45965
G1 X86.867 Y123.868 E5.48753
G1 X86.069 Y122.769 E5.51264
G1 X84.007 Y119.034 E5.59158
G1 X76.030 Y98.096 E6.00609
G1 X75.605 Y95.784 E6.04958
G1 X75.605 Y78.048 E6.37770
G1 X76.002 Y75.813 E6.41970
G1 X77.112 Y73.905 E6.46054
G1 X77.366 Y73.983 F6000.000
G1 X78.204 Y73.164 E6.48222 F1200.000
G1 X79.561 Y72.082 E6.51432
G1 X81.521 Y71.026 E6.55552
G1 X83.456 Y70.719 E6.59176
G1 X115.456 Y70.719 E7.18376
G1 X116.846 Y70.876 E7.20965
G1 X118.538 Y71.262 E7.24175 F1200.000
G1 X120.586 Y72.136 E7.28295
G1 X122.197 Y73.673 E7.32414
G1 X122.777 Y74.642 E7.34502
G1 X123.530 Y76.206 E7.37713
G1 X124.148 Y78.916 E7.42857
G1 X124.148 Y94.916 E7.72457
G1 X123.658 Y97.343 E7.77038
G1 X114.118 Y119.845 E8.22253
G1 X112.501 Y122.646 E8.28236
G1 X111.734 Y123.702 E8.30652
G1 X110.726 Y124.822 E8.33438
G1 X109.758 Y125.694 E8.35849
G1 X108.833 Y126.323 E8.37918
G1 X105.449 Y128.238 E8.45112
G1 X105.023 Y128.428 E8.45974
G1 X103.781 Y128.831 E8.48390
G1 X102.308 Y129.144 E8.51176
G1 X101.009 Y129.281 E8.53593
G1 X97.775 Y129.281 E8.59576
G1 X96.477 Y129.144 E8.61991
G1 X95.003 Y128.831 E8.64778
G1 X93.761 Y128.428 E8.67194
G1 X92.756 Y127.943 E8.69258
G1 X89.402 Y125.967 E8.76459
G1 X89.029 Y125.695 E8.77314
G1 X88.059 Y124.822 E8.79729
G1 X87.051 Y123.702 E8.82516
G1 X86.283 Y122.646 E8.84932
G1 X84.238 Y118.946 E8.92753
G1 X76.261 Y98.008 E9.34204
G1 X75.852 Y95.784 E9.38388
G1 X75.852 Y78.048 E9.71199
G1 X76.249 Y75.857 E9.75318
G1 X77.334 Y74.037 E9.79239
G1 F1860.000 E6.79239
G92 E0
G1 X91.388 Y88.781 F6000.000
G1 E3.10000 F1860.000
G1 X89.370 Y89.242 E3.13829 F1200.000
G1 X87.752 Y87.951 E3.17659
G1 X87.752 Y85.881 E3.21488
G1 X89.370 Y84.591 E3.25318
G1 X91.388 Y85.051 E3.29147
G1 X92.286 Y86.916 E3.32977 F1200.000
G1 X91.416 Y88.724 E3.36690
G1 X91.217 Y88.567 F6000.000
G1 X89.431 Y88.974 E3.40078 F1200.000
G1 X87.999 Y87.832 E3.43467
G1 X87.999 Y86.000 E3.46856
G1 X89.339 Y84.931 E3.50028
G1 X89.431 Y84.858 E3.50245 F1200.000
G1 X91.217 Y85.266 E3.53634
G1 X92.012 Y86.916 E3.57023
G1 X91.244 Y88.510 E3.60296
G1 F1860.000 E0.60296
G92 E0
G1 X89.258 Y84.846 F6000.000
G1 X107.752 Y87.951 F6000.000
G1 E3.10000 F1860.000
G1 X107.752 Y85.881 E3.13829 F1200.000
G1 X109.370 Y84.591 E3.17659
G1 X111.388 Y85.051 E3.21488
G1 X112.286 Y86.916 E3.25318 F1200.000
G1 X111.388 Y88.781 E3.29147
G1 X109.370 Y89.242 E3.32977
G1 X107.801 Y87.991 E3.36690
G1 X107.999 Y87.832 F6000.000
G1 X107.999 Y86.000 E3.40079 F1200.000
G1 X109.339 Y84.931 E3.43250
G1 X109.431 Y84.858 E3.43467 F1200.000
G1 X111.217 Y85.266 E3.46856
G1 X112.012 Y86.916 E3.50245
G1 X111.217 Y88.567 E3.53634
G1 X109.431 Y88.974 E3.57023
G1 X108.048 Y87.871 E3.60296
G1 F1860.000 E0.60296
G92 E0
G1 X109.288 Y84.826 F6000.000
G1 X107.999 Y96.519 F6000.000
G1 E3.10000 F1860.000
G1 X106.554 Y96.519 E3.12674 F1200.000
G1 X106.554 Y96.569 E3.12767
G1 X93.248 Y96.569 E3.37382
G1 X93.248 Y96.519 E3.37475
G1 X83.577 Y96.519 E3.55366
G1 X82.446 Y95.617 E3.58043
G1 X82.446 Y78.216 E3.90235
G1 X83.577 Y77.314 E3.92912
G1 X115.417 Y77.314 E4.51815 F1200.000
G1 X116.908 Y77.654 E4.54644
G1 X117.554 Y78.996 E4.57399
G1 X117.554 Y94.837 E4.86706
G1 X116.908 Y96.179 E4.89461
G1 X115.417 Y96.519 E4.92290
G1 X108.062 Y96.519 E5.05897
G1 X107.999 Y96.766 F6000.000
G1 X106.801 Y96.766 E5.08113 F1200.000
G1 X106.801 Y96.816 E5.08206
G1 X93.001 Y96.816 E5.33736
G1 X93.001 Y96.766 E5.33829
G1 X83.491 Y96.766 E5.51423
G1 X82.199 Y95.736 E5.54480
G1 X82.199 Y78.097 E5.87113
G1 X83.491 Y77.066 E5.90170
G1 X115.445 Y77.066 E6.49285
G1 X117.079 Y77.439 E6.52386
G1 X117.801 Y78.939 E6.55465 F1200.000
G1 X117.801 Y94.893 E6.84981
G1 X117.079 Y96.393 E6.88061
G1 X115.445 Y96.766 E6.91161
G1 X108.062 Y96.766 E7.04819
G1 F1860.000 E4.04819
G92 E0
G1 X117.191 Y77.844 F6000.000
G1 X116.757 Y77.783 F6000.000
G1 E3.10000 F1860.000
G1 X116.826 Y77.852 E3.10182 F1200.000
G1 X116.303 Y77.679 E3.11202
G1 X117.152 Y78.528 E3.13424
G1 X117.395 Y79.121 F6000.000
G1 X115.849 Y77.575 E3.17468 F1200.000
G1 X115.395 Y77.473 E3.18328
G1 X117.395 Y79.472 E3.23558
G1 X117.395 Y79.822 E3.24207
G1 X115.045 Y77.473 E3.30354
G1 X114.694 Y77.473 E3.31002
G1 X117.395 Y80.173 E3.38067
G1 X117.395 Y80.523 E3.38715
G1 X114.344 Y77.473 E3.46697
G1 X113.993 Y77.473 E3.47345
G1 X117.395 Y80.874 E3.56244
G1 X117.395 Y81.225 E3.56893
G1 X113.643 Y77.473 E3.66709
G1 X113.292 Y77.473 E3.67357
G1 X117.395 Y81.575 E3.78090
G1 X117.395 Y81.926 E3.78738
G1 X112.942 Y77.473 E3.90389
G1 X112.591 Y77.473 E3.91037
G1 X117.395 Y82.276 E4.03604
G1 X117.395 Y82.627 E4.04253
G1 X112.241 Y77.473 E4.17737
G1 X111.890 Y77.473 E4.18385
G1 X117.395 Y82.977 E4.32787
G1 X117.395 Y83.328 E4.33435
G1 X111.540 Y77.473 E4.48754
G1 X111.189 Y77.473 E4.49402
G1 X117.395 Y83.678 E4.65638
G1 X117.395 Y84.029 E4.66287
G1 X110.838 Y77.473 E4.83439
G1 X110.488 Y77.473 E4.84088
G1 X117.395 Y84.379 E5.02158
G1 X117.395 Y84.730 E5.02806
G1 X110.137 Y77.473 E5.21793
G1 X109.787 Y77.473 E5.22442
G1 X117.395 Y85.080 E5.42346
G1 X117.395 Y85.431 E5.42994
G1 X109.436 Y77.473 E5.63816
G1 X109.086 Y77.473 E5.64464
G1 X117.395 Y85.782 E5.86202
G1 X117.395 Y86.132 E5.86851
G1 X108.735 Y77.473 E6.09506
G1 X108.385 Y77.473 E6.10155
G1 X117.395 Y86.483 E6.33727
G1 X117.395 Y86.833 E6.34376
G1 X108.034 Y77.473 E6.58866
G1 X107.684 Y77.473 E6.59514
G1 X117.395 Y87.184 E6.84921
G1 X117.395 Y87.534 E6.85569
G1 X107.333 Y77.473 E7.11893
G1 X106.983 Y77.473 E7.12542
G1 X117.395 Y87.885 E7.39783
G1 X117.395 Y88.235 E7.40431
G1 X106.632 Y77.473 E7.68590
G1 X106.282 Y77.473 E7.69238
G1 X117.395 Y88.586 E7.98313
G1 X117.395 Y88.936 E7.98962
G1 X105.931 Y77.473 E8.28954
G1 X105.580 Y77.473 E8.29603
G1 X117.395 Y89.287 E8.60512
G1 X117.395 Y89.637 E8.61161
G1 X105.230 Y77.473 E8.92987
G1 X104.879 Y77.473 E8.93636
G1 X117.395 Y89.988 E9.26380
G1 X117.395 Y90.338 E9.27028
G1 X104.529 Y77.473 E9.60689
G1 X104.178 Y77.473 E9.61337
G1 X117.395 Y90.689 E9.95915
G1 X117.395 Y91.040 E9.96564
G1 X111.712 Y85.357 E10.11430
G1 X111.200 Y84.845 F6000.000
G1 X103.828 Y77.473 E10.30719 F1200.000
G1 X103.477 Y77.473 E10.31367
G1 X110.746 Y84.741 E10.50384
G1 X110.292 Y84.638 E10.51246
G1 X103.127 Y77.473 E10.69992
G1 X102.776 Y77.473 E10.70640
G1 X109.837 Y84.534 E10.89115
G1 X109.383 Y84.430 E10.89977
G1 X102.426 Y77.473 E11.08180
G1 X102.075 Y77.473 E11.08829
G1 X109.158 Y84.556 E11.27361
G1 X108.963 Y84.712 E11.27822
G1 X101.725 Y77.473 E11.46761
G1 X101.374 Y77.473 E11.47410
G1 X108.768 Y84.867 E11.66755
G1 X108.573 Y85.023 E11.67217
G1 X101.023 Y77.473 E11.86970
G1 X100.673 Y77.473 E11.87618
G1 X108.378 Y85.178 E12.07778
G1 X108.183 Y85.334 E12.08239
G1 X100.322 Y77.473 E12.28806
G1 X99.972 Y77.473 E12.29454
G1 X107.988 Y85.489 E12.50428
G1 X107.793 Y85.645 E12.50889
G1 X99.621 Y77.473 E12.72269
G1 X99.271 Y77.473 E12.72918
G1 X107.598 Y85.800 E12.94705
G1 X107.593 Y86.145 E12.95343
G1 X98.920 Y77.473 E13.18033
G1 X98.570 Y77.473 E13.18682
G1 X107.593 Y86.496 E13.42288
G1 X107.593 Y86.846 E13.42937
G1 X98.219 Y77.473 E13.67461
G1 X97.869 Y77.473 E13.68109
G1 X107.593 Y87.197 E13.93551
G1 X107.593 Y87.547 E13.94199
G1 X97.518 Y77.473 E14.20557
G1 X97.168 Y77.473 E14.21206
G1 X107.593 Y87.898 E14.48481
G1 X108.235 Y88.540 F6000.000
G1 X115.933 Y96.238 E14.68621 F1200.000
G1 X115.647 Y96.303 E14.69162
G1 X96.817 Y77.473 E15.18429
G1 X96.467 Y77.473 E15.19077
G1 X115.353 Y96.360 E15.68491
G1 X115.003 Y96.360 E15.69140
G1 X96.116 Y77.473 E16.18554
G1 X95.765 Y77.473 E16.19203
G1 X114.652 Y96.360 E16.68617
G1 X114.302 Y96.360 E16.69266
G1 X95.415 Y77.473 E17.18680
G1 X95.064 Y77.473 E17.19328
G1 X113.951 Y96.360 E17.68743
G1 X113.601 Y96.360 E17.69391
G1 X94.714 Y77.473 E18.18806
G1 X94.363 Y77.473 E18.19454
G1 X113.250 Y96.360 E18.68868
G1 X112.900 Y96.360 E18.69517
G1 X94.013 Y77.473 E19.18931
G1 X93.662 Y77.473 E19.19580
G1 X112.549 Y96.360 E19.68994
G1 X112.199 Y96.360 E19.69643
G1 X93.312 Y77.473 E20.19057
G1 X92.961 Y77.473 E20.19706
G1 X111.848 Y96.360 E20.69120
G1 X111.498 Y96.360 E20.69768
G1 X92.611 Y77.473 E21.19183
G1 X92.260 Y77.473 E21.19831
G1 X111.147 Y96.360 E21.69246
G1 X110.796 Y96.360 E21.69894
G1 X91.910 Y77.473 E22.19308
G1 X91.559 Y77.473 E22.19957
G1 X110.446 Y96.360 E22.69371
G1 X110.095 Y96.360 E22.70020
G1 X91.208 Y77.473 E23.19434
G1 X90.858 Y77.473 E23.20083
G1 X109.745 Y96.360 E23.69497
G1 X109.394 Y96.360 E23.70145
G1 X90.507 Y77.473 E24.19560
G1 X90.157 Y77.473 E24.20208
G1 X109.044 Y96.360 E24.69623
G1 X108.693 Y96.360 E24.70271
G1 X89.806 Y77.473 E25.19686
G1 X89.456 Y77.473 E25.20334
G1 X108.343 Y96.360 E25.69748
G1 X107.992 Y96.360 E25.70397
G1 X89.105 Y77.473 E26.19811
G1 X88.755 Y77.473 E26.20460
G1 X107.642 Y96.360 E26.69874
G1 X107.291 Y96.360 E26.70523
G1 X88.404 Y77.473 E27.19937
G1 X88.054 Y77.473 E27.20585
G1 X106.941 Y96.360 E27.70000
G1 X106.590 Y96.360 E27.70648
G1 X87.703 Y77.473 E28.20063
G1 X87.353 Y77.473 E28.20711
G1 X106.290 Y96.410 E28.70257
G1 X105.939 Y96.410 E28.70905
G1 X87.002 Y77.473 E29.20451
G1 X86.651 Y77.473 E29.21099
G1 X105.589 Y96.410 E29.70645
G1 X105.238 Y96.410 E29.71293
G1 X86.301 Y77.473 E30.20839
G1 X85.950 Y77.473 E30.21487
G1 X104.887 Y96.410 E30.71033
G1 X104.537 Y96.410 E30.71681
G1 X85.600 Y77.473 E31.21227
G1 X85.249 Y77.473 E31.21875
G1 X104.186 Y96.410 E31.71421
G1 X103.836 Y96.410 E31.72069
G1 X84.899 Y77.473 E32.21615
G1 X84.548 Y77.473 E32.22263
G1 X103.485 Y96.410 E32.71809
G1 X103.135 Y96.410 E32.72457
G1 X84.198 Y77.473 E33.22003
G1 X83.847 Y77.473 E33.22651
G1 X91.225 Y84.851 E33.41955
G1 X90.771 Y84.747 E33.42817
G1 X83.557 Y77.533 E33.61690
G1 X83.362 Y77.689 E33.62152
G1 X90.317 Y84.643 E33.80347
G1 X89.863 Y84.540 E33.81209
G1 X83.167 Y77.844 E33.98726
G1 X82.972 Y78.000 E33.99188
G1 X89.408 Y84.436 E34.16027
G1 X89.169 Y84.547 E34.16515
G1 X82.777 Y78.155 E34.33239
G1 X82.605 Y78.334 E34.33697
G1 X88.974 Y84.703 E34.50360
G1 X88.779 Y84.858 E34.50821
G1 X82.605 Y78.685 E34.66974
G1 X82.605 Y79.035 E34.67622
G1 X88.584 Y85.014 E34.83264
G1 X88.389 Y85.169 E34.83726
G1 X82.605 Y79.386 E34.98857
G1 X82.605 Y79.736 E34.99506
G1 X88.194 Y85.325 E35.14127
G1 X87.999 Y85.481 E35.14589
G1 X82.605 Y80.087 E35.28700
G1 X82.605 Y80.437 E35.29349
G1 X87.804 Y85.636 E35.42950
G1 X87.609 Y85.792 E35.43411
G1 X82.605 Y80.788 E35.56502
G1 X82.605 Y81.139 E35.57151
G1 X87.593 Y86.126 E35.70199
G1 X87.593 Y86.476 E35.70847
G1 X82.605 Y81.489 E35.83895
G1 X82.605 Y81.840 E35.84544
G1 X87.593 Y86.827 E35.97592
G1 X87.593 Y87.177 E35.98240
G1 X82.605 Y82.190 E36.11288
G1 X82.605 Y82.541 E36.11937
G1 X87.593 Y87.528 E36.24985
G1 X87.593 Y87.878 E36.25633
G1 X82.605 Y82.891 E36.38681
G1 X82.605 Y83.242 E36.39330
G1 X95.774 Y96.410 E36.73782
G1 X96.124 Y96.410 E36.74430
G1 X88.331 Y88.617 E36.94820
G1 X89.451 Y89.387 F6000.000
G1 X96.475 Y96.410 E37.13195 F1200.000
G1 X96.825 Y96.410 E37.13843
G1 X89.737 Y89.321 E37.32389
G1 X90.022 Y89.256 E37.32930
G1 X97.176 Y96.410 E37.51646
G1 X97.526 Y96.410 E37.52295
G1 X90.308 Y89.191 E37.71181
G1 X90.593 Y89.126 E37.71723
G1 X97.877 Y96.410 E37.90779
G1 X98.227 Y96.410 E37.91428
G1 X90.878 Y89.061 E38.10655
G1 X91.164 Y88.996 E38.11197
G1 X98.578 Y96.410 E38.30594
G1 X98.928 Y96.410 E38.31243
G1 X91.449 Y88.931 E38.50811
G1 X91.593 Y88.724 E38.51277
G1 X99.279 Y96.410 E38.71387
G1 X99.629 Y96.410 E38.72035
G1 X91.707 Y88.487 E38.92764
G1 X91.821 Y88.250 E38.93250
G1 X99.980 Y96.410 E39.14597
G1 X100.331 Y96.410 E39.15246
G1 X91.934 Y88.014 E39.37213
G1 X92.048 Y87.777 E39.37698
G1 X100.681 Y96.410 E39.60284
G1 X101.032 Y96.410 E39.60933
G1 X92.162 Y87.541 E39.84137
G1 X92.276 Y87.304 E39.84623
G1 X101.382 Y96.410 E40.08447
G1 X101.733 Y96.410 E40.09096
G1 X92.390 Y87.067 E40.33538
G1 X92.345 Y86.672 E40.34274
G1 X102.083 Y96.410 E40.59751
G1 X102.434 Y96.410 E40.60400
G1 X92.020 Y85.996 E40.87646
G1 X91.694 Y85.320 F6000.000
G1 X102.784 Y96.410 E41.16661 F1200.000
G1 F1860.000 E38.16661
G92 E0
G1 X95.423 Y96.410 F6000.000
G1 E3.10000 F1860.000
G1 X82.605 Y83.592 E3.43535 F1200.000
G1 X82.605 Y83.943 E3.44183
G1 X95.072 Y96.410 E3.76801
G1 X94.722 Y96.410 E3.77450
G1 X82.605 Y84.293 E4.09150
G1 X82.605 Y84.644 E4.09799
G1 X94.371 Y96.410 E4.40582
G1 X94.021 Y96.410 E4.41231
G1 X82.605 Y84.994 E4.71097
G1 X82.605 Y85.345 E4.71746
G1 X93.670 Y96.410 E5.00695
G1 X93.270 Y96.360 E5.01442
G1 X82.605 Y85.696 E5.29343
G1 X82.605 Y86.046 E5.29992
G1 X92.919 Y96.360 E5.56975
G1 X92.569 Y96.360 E5.57624
G1 X82.605 Y86.397 E5.83691
G1 X82.605 Y86.747 E5.84339
G1 X92.218 Y96.360 E6.09489
G1 X91.868 Y96.360 E6.10137
G1 X82.605 Y87.098 E6.34370
G1 X82.605 Y87.448 E6.35018
G1 X91.517 Y96.360 E6.58334
G1 X91.166 Y96.360 E6.58982
G1 X82.605 Y87.799 E6.81381
G1 X82.605 Y88.149 E6.82029
G1 X90.816 Y96.360 E7.03510
G1 X90.465 Y96.360 E7.04159
G1 X82.605 Y88.500 E7.24723
G1 X82.605 Y88.850 E7.25371
G1 X90.115 Y96.360 E7.45018
G1 X89.764 Y96.360 E7.45667
G1 X82.605 Y89.201 E7.64397
G1 X82.605 Y89.551 E7.65045
G1 X89.414 Y96.360 E7.82858
G1 X89.063 Y96.360 E7.83506
G1 X82.605 Y89.902 E8.00402
G1 X82.605 Y90.252 E8.01050
G1 X88.713 Y96.360 E8.17029
G1 X88.362 Y96.360 E8.17677
G1 X82.605 Y90.603 E8.32739
G1 X82.605 Y90.954 E8.33387
G1 X88.012 Y96.360 E8.47532
G1 X87.661 Y96.360 E8.48180
G1 X82.605 Y91.304 E8.61407
G1 X82.605 Y91.655 E8.62056
G1 X87.311 Y96.360 E8.74366
G1 X86.960 Y96.360 E8.75014
G1 X82.605 Y92.005 E8.86407
G1 X82.605 Y92.356 E8.87056
G1 X86.609 Y96.360 E8.97531
G1 X86.259 Y96.360 E8.98180
G1 X82.605 Y92.706 E9.07739
G1 X82.605 Y93.057 E9.08387
G1 X85.908 Y96.360 E9.17029
G1 X85.558 Y96.360 E9.17677
G1 X82.605 Y93.407 E9.25402
G1 X82.605 Y93.758 E9.26050
G1 X85.207 Y96.360 E9.32857
G1 X84.857 Y96.360 E9.33506
G1 X82.605 Y94.108 E9.39396
G1 X82.605 Y94.459 E9.40045
G1 X84.506 Y96.360 E9.45018
G1 X84.156 Y96.360 E9.45666
G1 X82.605 Y94.809 E9.49722
G1 X82.605 Y95.160 E9.50371
G1 X83.805 Y96.360 E9.53509
G1 X82.752 Y95.657 F6000.000
G1 X82.605 Y95.511 E9.53892 F1200.000
G1 F1860.000 E6.53892
G92 E0
G1 X109.436 Y89.390 F6000.000
G1 E3.10000 F1860.000
G1 X116.218 Y96.173 E3.27745 F1200.000
G1 X116.503 Y96.108 E3.28287
G1 X109.721 Y89.325 E3.46032
G1 X110.006 Y89.260 E3.46574
G1 X116.777 Y96.030 E3.64287
G1 X116.908 Y95.811 E3.64759
G1 X110.292 Y89.195 E3.82070
G1 X110.577 Y89.130 E3.82611
G1 X117.022 Y95.574 E3.99473
G1 X117.136 Y95.338 E3.99959
G1 X110.863 Y89.065 E4.16372
G1 X111.148 Y88.999 E4.16913
G1 X117.250 Y95.101 E4.32878
G1 X117.364 Y94.865 E4.33364
G1 X111.433 Y88.934 E4.48879
G1 X111.586 Y88.737 E4.49342
