; generated by Slic3r 1.1.7 on 2014-12-04 at 00:18:52

; perimeters extrusion width = 0.38mm
; infill extrusion width = 0.61mm
; solid infill extrusion width = 0.61mm
; top infill extrusion width = 0.61mm

G21 ; set units to millimeters
M107
M190 S60 ; wait for bed temperature to be reached
M104 S195 ; set temperature
G28 ; home all axes
M109 S195 ; wait for temperature to be reached
G90 ; use absolute coordinates
G92 E0
M82 ; use absolute distances for extrusion
G1 F3000.000 E-4.00000
G1 Z0.500 F7800.000
G92 E0
G1 X51.166 Y40.995 F7800.000
G1 Z0.200 F7800.000
G1 E4.00000 F3000.000
G1 X54.383 Y37.421 E4.15822 F360.000
G1 X55.129 Y36.749 E4.19124
G1 X59.019 Y33.924 E4.34942
G1 X59.885 Y33.424 E4.38231
G1 X64.278 Y31.467 E4.54055
G1 X65.231 Y31.158 E4.57353
G1 X69.934 Y30.158 E4.73173
G1 X70.931 Y30.053 E4.76470
G1 X75.740 Y30.053 E4.92294
G1 X76.736 Y30.157 E4.95590
G1 X81.440 Y31.157 E5.11413 F360.000
G1 X82.394 Y31.468 E5.14715
G1 X87.495 Y33.816 E5.33191
G1 X122.258 Y57.132 E6.70920
G1 X132.667 Y67.632 E7.19566
G1 X141.495 Y79.974 E7.69493
G1 X142.171 Y81.332 E7.74486
G1 X154.239 Y119.949 E9.07609
G1 X154.430 Y121.888 E9.14017
G1 X153.833 Y123.742 E9.20425
G1 X153.053 Y124.767 E9.24663
G1 X140.078 Y137.725 E9.84999
G1 X110.646 Y163.253 E11.13193
G1 X106.755 Y166.079 E11.29016
G1 X105.888 Y166.579 E11.32309
G1 X101.497 Y168.534 E11.48125
G1 X100.544 Y168.844 E11.51423
G1 X95.840 Y169.843 E11.67246
G1 X94.844 Y169.947 E11.70539
G1 X90.035 Y169.947 E11.86362
G1 X89.040 Y169.843 E11.89656
G1 X84.337 Y168.844 E12.05476
G1 X83.384 Y168.534 E12.08771
G1 X78.991 Y166.579 E12.24592
G1 X78.123 Y166.078 E12.27890
G1 X74.233 Y163.252 E12.43710
G1 X73.488 Y162.581 E12.47009
G1 X70.271 Y159.007 E12.62831
G1 X69.682 Y158.196 E12.66129
G1 X67.279 Y154.031 E12.81951
G1 X66.872 Y153.118 E12.85240
G1 X65.270 Y148.121 E13.02508
G1 X46.074 Y63.003 E15.89606
G1 X45.570 Y58.220 E16.05431
G1 X45.570 Y57.216 E16.08736
G1 X46.074 Y52.435 E16.24554
G1 X46.282 Y51.456 E16.27846
G1 X47.768 Y46.884 E16.43664
G1 X48.174 Y45.971 E16.46954
G1 X50.577 Y41.806 E16.62775
G1 X51.133 Y41.041 E16.65886
G1 X51.461 Y41.259 F7800.000
G1 X55.362 Y37.069 E16.84723 F360.000
G1 X60.046 Y33.786 E17.03545
G1 X65.313 Y31.545 E17.22381
G1 X70.931 Y30.448 E17.41212
G1 X76.654 Y30.545 E17.60045
G1 X82.233 Y31.829 E17.78883 F360.000
G1 X87.275 Y34.145 E17.97140
G1 X121.979 Y57.412 E19.34614
G1 X132.345 Y67.862 E19.83047
G1 X141.173 Y80.204 E20.32973
G1 X141.794 Y81.450 E20.37555
G1 X153.861 Y120.068 E21.70677
G1 X154.027 Y121.925 E21.76812
G1 X153.408 Y123.684 E21.82947
G1 X152.774 Y124.487 E21.86316
G1 X139.819 Y137.426 E22.46560
G1 X110.413 Y162.932 E23.74642
G1 X105.727 Y166.218 E23.93472
G1 X105.639 Y166.257 E23.93788
G1 X100.461 Y168.457 E24.12299
G1 X94.844 Y169.552 E24.31130
G1 X89.122 Y169.456 E24.49960
G1 X83.545 Y168.173 E24.68789
G1 X78.356 Y165.758 E24.87622
G1 X73.782 Y162.317 E25.06455
G1 X70.025 Y157.999 E25.25289
G1 X67.249 Y152.996 E25.44114
G1 X65.655 Y148.034 E25.61262
G1 X46.467 Y62.962 E28.48208
G1 X45.963 Y57.257 E28.67050
G1 X46.658 Y51.578 E28.85875
G1 X48.115 Y47.098 E29.01377
G1 X48.517 Y46.168 E29.04710
G1 X51.431 Y41.308 E29.23355
G1 F3000.000 E25.23355
G1 Z0.500 F7800.000
G92 E0
G1 X54.581 Y44.068 F7800.000
G1 Z0.200 F7800.000
G1 E4.00000 F3000.000
G1 X57.820 Y40.472 E4.15924 F360.000
G1 X61.745 Y37.625 E4.31878
G1 X66.157 Y35.659 E4.47770
G1 X70.920 Y34.646 E4.63795
G1 X75.771 Y34.648 E4.79754
G1 X80.495 Y35.653 E4.95646 F360.000
G1 X84.925 Y37.625 E5.11600
G1 X88.866 Y40.486 E5.27625
G1 X92.098 Y44.075 E5.43517
G1 X94.523 Y48.275 E5.59475
G1 X96.028 Y52.906 E5.75497
G1 X96.533 Y57.708 E5.91383
G1 X96.028 Y62.532 E6.07343
G1 X94.523 Y67.163 E6.23364
G1 X92.098 Y71.363 E6.39322
G1 X88.866 Y74.952 E6.55215
G1 X84.925 Y77.815 E6.71242
G1 X80.495 Y79.785 E6.87193
G1 X75.771 Y80.788 E7.03084
G1 X70.900 Y80.788 E7.19111
G1 X66.176 Y79.785 E7.34999
G1 X61.745 Y77.815 E7.50956
G1 X57.805 Y74.952 E7.66981
G1 X54.574 Y71.363 E7.82871
G1 X52.148 Y67.163 E7.98828
G1 X50.643 Y62.532 E8.14850
G1 X50.137 Y57.708 E8.30811
G1 X50.643 Y52.906 E8.46698
G1 X52.140 Y48.294 E8.62652
G1 X54.549 Y44.115 E8.78524
G1 F3000.000 E4.78524
G1 Z0.500 F7800.000
G92 E0
G1 X95.844 Y69.066 F7800.000
G1 Z0.200 F7800.000
G1 E4.00000 F3000.000
G1 X95.960 Y68.950 E4.00539 F360.000
G1 X99.124 Y68.950 E4.10950
G1 X99.240 Y69.066 E4.11489
G1 X99.240 Y74.896 E4.30673
G1 X99.291 Y75.032 E4.31150
G1 X99.337 Y75.083 E4.31376
G1 X99.279 Y75.556 E4.32944
G1 X99.291 Y75.652 E4.33260
G1 X99.900 Y77.258 E4.38913
G1 X99.955 Y77.337 E4.39229
G1 X101.241 Y78.476 E4.44882
G1 X101.326 Y78.521 E4.45198
G1 X102.994 Y78.932 E4.50851
G1 X103.090 Y78.932 E4.51167
G1 X104.758 Y78.521 E4.56820
G1 X104.843 Y78.476 E4.57136
G1 X106.129 Y77.337 E4.62789
G1 X106.184 Y77.258 E4.63105
G1 X106.793 Y75.652 E4.68758
G1 X106.804 Y75.556 E4.69074
G1 X106.747 Y75.083 E4.70642
G1 X106.793 Y75.032 E4.70868
G1 X106.844 Y74.896 E4.71345
G1 X106.844 Y69.066 E4.90529
G1 X106.960 Y68.950 E4.91068
G1 X110.076 Y68.950 E5.01320
G1 X110.221 Y68.890 E5.01838
G1 X118.788 Y60.323 E5.41703
G1 X118.952 Y60.323 E5.42242
G1 X128.968 Y70.338 E5.88846
G1 X128.968 Y70.502 E5.89386
G1 X116.154 Y83.316 E6.49010
G1 X116.081 Y83.346 E6.49269
G1 X95.960 Y83.346 E7.15475
G1 X95.844 Y83.230 E7.16014
G1 X95.844 Y69.123 E7.62431
G1 F3000.000 E3.62431
G1 Z0.500 F7800.000
G92 E0
G1 X130.609 Y75.492 F7800.000
G1 Z0.200 F7800.000
G1 E4.00000 F3000.000
G1 X137.796 Y82.679 E4.33443 F360.000
G1 X137.796 Y82.843 E4.33982
G1 X120.573 Y100.066 E5.14122
G1 X120.181 Y99.903 E5.15519
G1 X120.105 Y99.888 E5.15775
G1 X64.445 Y99.888 E6.98914
G1 X64.329 Y99.772 E6.99453
G1 X64.329 Y94.108 E7.18090
G1 X64.445 Y93.992 E7.18629
G1 X114.097 Y93.992 E8.82001
G1 X114.329 Y93.760 E8.83080
G1 X114.329 Y91.620 E8.90123
G1 X114.097 Y91.388 E8.91202
G1 X64.445 Y91.388 E10.54574
G1 X64.329 Y91.272 E10.55113
G1 X64.329 Y85.608 E10.73750
G1 X64.445 Y85.492 E10.74289
G1 X120.360 Y85.492 E12.58267
G1 X120.505 Y85.432 E12.58785
G1 X130.445 Y75.492 E13.05037
G1 X130.552 Y75.492 E13.05388
G1 F3000.000 E9.05388
G1 Z0.500 F7800.000
G92 E0
G1 X135.717 Y92.806 F7800.000
G1 Z0.200 F7800.000
G1 E4.00000 F3000.000
G1 X142.904 Y99.993 E4.33443 F360.000
G1 X142.904 Y100.157 E4.33982
G1 X125.681 Y117.379 E5.14122
G1 X125.289 Y117.217 E5.15519
G1 X125.213 Y117.201 E5.15775
G1 X69.553 Y117.201 E6.98914
G1 X69.437 Y117.086 E6.99453
G1 X69.437 Y111.422 E7.18090
G1 X69.553 Y111.306 E7.18629
G1 X119.205 Y111.306 E8.82001
G1 X119.437 Y111.074 E8.83080
G1 X119.437 Y108.933 E8.90123
G1 X119.205 Y108.701 E8.91202
G1 X69.553 Y108.701 E10.54574
G1 X69.437 Y108.586 E10.55113
G1 X69.437 Y102.922 E10.73750
G1 X69.553 Y102.806 E10.74289
G1 X125.468 Y102.806 E12.58267
G1 X125.613 Y102.745 E12.58785
G1 X135.553 Y92.806 E13.05037
G1 X135.660 Y92.806 E13.05388
G1 F3000.000 E9.05388
G1 Z0.500 F7800.000
G92 E0
G1 X139.848 Y111.281 F7800.000
G1 Z0.200 F7800.000
G1 E4.00000 F3000.000
G1 X149.863 Y121.297 E4.46604 F360.000
G1 X149.863 Y121.461 E4.47143
G1 X137.049 Y134.274 E5.06768
G1 X136.977 Y134.304 E5.07027
G1 X116.855 Y134.304 E5.73233
G1 X116.740 Y134.188 E5.73772
G1 X116.740 Y120.025 E6.20376
G1 X116.855 Y119.909 E6.20915
G1 X120.019 Y119.909 E6.31326
G1 X120.135 Y120.025 E6.31865
G1 X120.135 Y125.855 E6.51049
G1 X120.187 Y125.990 E6.51526
G1 X120.232 Y126.042 E6.51752
G1 X120.175 Y126.515 E6.53320
G1 X120.186 Y126.610 E6.53636
G1 X120.796 Y128.217 E6.59289
G1 X120.850 Y128.296 E6.59605
G1 X122.136 Y129.435 E6.65258
G1 X122.221 Y129.480 E6.65574
G1 X123.889 Y129.891 E6.71227
G1 X123.985 Y129.891 E6.71543
G1 X125.654 Y129.480 E6.77196
G1 X125.739 Y129.435 E6.77512
G1 X127.025 Y128.296 E6.83165
G1 X127.079 Y128.217 E6.83481
G1 X127.688 Y126.610 E6.89134
G1 X127.700 Y126.515 E6.89450
G1 X127.643 Y126.042 E6.91018
G1 X127.688 Y125.991 E6.91244
G1 X127.740 Y125.855 E6.91721
G1 X127.740 Y120.025 E7.10905
G1 X127.855 Y119.909 E7.11444
G1 X130.971 Y119.909 E7.21696
G1 X131.117 Y119.848 E7.22214
G1 X139.684 Y111.281 E7.62079
G1 X139.791 Y111.281 E7.62431
G1 F3000.000 E3.62431
G1 Z0.500 F7800.000
G92 E0
G1 X111.214 Y128.656 F7800.000
G1 Z0.200 F7800.000
G1 E4.00000 F3000.000
G1 X113.636 Y132.858 E4.15957 F360.000
G1 X115.133 Y137.470 E4.31912
G1 X115.637 Y142.271 E4.47797
G1 X115.133 Y147.096 E4.63757
G1 X113.628 Y151.727 E4.79779
G1 X111.202 Y155.927 E4.95737
G1 X107.970 Y159.516 E5.11629
G1 X104.029 Y162.378 E5.27656
G1 X99.599 Y164.348 E5.43608
G1 X94.875 Y165.352 E5.59499
G1 X90.025 Y165.354 E5.75458
G1 X85.281 Y164.348 E5.91414
G1 X80.831 Y162.368 E6.07439
G1 X76.909 Y159.516 E6.23395
G1 X73.678 Y155.926 E6.39286
G1 X71.253 Y151.727 E6.55243
G1 X69.752 Y147.116 E6.71197
G1 X69.241 Y142.271 E6.87226
G1 X69.752 Y137.450 E7.03180
G1 X71.244 Y132.858 E7.19066
G1 X73.678 Y128.639 E7.35092
G1 X76.924 Y125.036 E7.51050
G1 X80.831 Y122.199 E7.66937
G1 X85.281 Y120.216 E7.82964
G1 X90.025 Y119.210 E7.98921
G1 X94.875 Y119.212 E8.14880
G1 X99.599 Y120.216 E8.30772 F360.000
G1 X104.029 Y122.188 E8.46726
G1 X107.955 Y125.036 E8.62683
G1 X111.178 Y128.612 E8.78524
G1 F3000.000 E4.78524
G1 Z0.500 F7800.000
G92 E0
G1 X114.727 Y94.390 F7800.000
G1 Z0.200 F7800.000
G1 E4.00000 F3000.000
G1 X114.727 Y90.990 E4.11187 F270.000
G1 X64.727 Y90.990 E5.75703
G1 X64.727 Y85.890 E5.92484
G1 X120.610 Y85.890 E7.76357
G1 X130.527 Y75.973 E8.22503
G1 X137.315 Y82.761 E8.54091
G1 X120.586 Y99.490 E9.31935
G1 X64.727 Y99.490 E11.15730
G1 X64.727 Y94.390 E11.32510
G1 X114.670 Y94.390 E12.96839
G1 X115.107 Y94.390 F7800.000
G1 X115.123 Y94.786 F7800.000
G1 X115.123 Y90.594 E13.10630 F540.000
G1 X65.123 Y90.594 E14.75146
G1 X65.123 Y86.286 E14.89323
G1 X120.774 Y86.286 E16.72433
G1 X130.527 Y76.533 E17.17817
G1 X136.756 Y82.761 E17.46800
G1 X120.422 Y99.094 E18.22803
G1 X65.123 Y99.094 E20.04757
G1 X65.123 Y94.786 E20.18933
G1 X115.066 Y94.786 E21.83262
G1 X115.518 Y95.182 F7800.000
G1 X115.518 Y90.199 E21.99657 F540.000
G1 X65.518 Y90.199 E23.64173
G1 X65.518 Y86.682 E23.75746
G1 X120.938 Y86.682 E25.58093
G1 X130.527 Y77.092 E26.02715
G1 X136.196 Y82.761 E26.29094
G1 X120.258 Y98.699 E27.03255
G1 X65.518 Y98.699 E28.83368
G1 X65.518 Y95.182 E28.94940
G1 X115.461 Y95.182 E30.59269
G1 F3000.000 E26.59269
G1 Z0.500 F7800.000
G92 E0
G1 X121.798 Y96.754 F7800.000
G1 Z0.200 F7800.000
G1 E4.00000 F3000.000
G1 X115.785 Y90.742 E4.27977 F540.000
G1 X115.785 Y91.301 E4.29818
G1 X121.518 Y97.034 E4.56493
G1 X121.238 Y97.314 E4.57795
G1 X115.785 Y91.861 E4.83167
G1 X115.785 Y92.421 E4.85009
G1 X120.958 Y97.594 E5.09079
G1 X120.678 Y97.873 E5.10381
G1 X115.785 Y92.980 E5.33149
G1 X115.785 Y93.540 E5.34991
G1 X120.398 Y98.153 E5.56456
G1 X120.117 Y98.432 E5.57759
G1 X115.785 Y94.100 E5.77916
G1 X115.785 Y94.660 E5.79758
G1 X119.557 Y98.432 E5.97311
G1 X118.998 Y98.432 E5.99153
G1 X115.785 Y95.219 E6.14101
G1 X115.455 Y95.448 E6.15425
G1 X118.438 Y98.432 E6.29307
G1 X117.878 Y98.432 E6.31149
G1 X114.895 Y95.448 E6.45031
G1 X114.335 Y95.448 E6.46873
G1 X117.319 Y98.432 E6.60756
G1 X116.759 Y98.432 E6.62597
G1 X113.775 Y95.448 E6.76480
G1 X113.216 Y95.448 E6.78321
G1 X116.199 Y98.432 E6.92204
G1 X115.639 Y98.432 E6.94046
G1 X112.656 Y95.448 E7.07928
G1 X112.096 Y95.448 E7.09770
G1 X115.080 Y98.432 E7.23652
G1 X114.520 Y98.432 E7.25494
G1 X111.537 Y95.448 E7.39377
G1 X110.977 Y95.448 E7.41218
G1 X113.960 Y98.432 E7.55101
G1 X113.401 Y98.432 E7.56943
G1 X110.417 Y95.448 E7.70825
G1 X109.857 Y95.448 E7.72667
G1 X112.841 Y98.432 E7.86549
G1 X112.281 Y98.432 E7.88391
G1 X109.298 Y95.448 E8.02274
G1 X108.738 Y95.448 E8.04115
G1 X111.721 Y98.432 E8.17998
G1 X111.162 Y98.432 E8.19839
G1 X108.178 Y95.448 E8.33722
G1 X107.619 Y95.448 E8.35564
G1 X110.602 Y98.432 E8.49446
G1 X110.042 Y98.432 E8.51288
G1 X107.059 Y95.448 E8.65170
G1 X106.499 Y95.448 E8.67012
G1 X109.483 Y98.432 E8.80895
G1 X108.923 Y98.432 E8.82736
G1 X105.940 Y95.448 E8.96619
G1 X105.380 Y95.448 E8.98460
G1 X108.363 Y98.432 E9.12343
G1 X107.804 Y98.432 E9.14185
G1 X104.820 Y95.448 E9.28067
G1 X104.260 Y95.448 E9.29909
G1 X107.244 Y98.432 E9.43791
G1 X106.684 Y98.432 E9.45633
G1 X103.701 Y95.448 E9.59516
G1 X103.141 Y95.448 E9.61357
G1 X106.124 Y98.432 E9.75240
G1 X105.565 Y98.432 E9.77081
G1 X102.581 Y95.448 E9.90964
G1 X102.022 Y95.448 E9.92806
G1 X105.005 Y98.432 E10.06688
G1 X104.445 Y98.432 E10.08530
G1 X101.462 Y95.448 E10.22412
G1 X100.902 Y95.448 E10.24254
G1 X103.886 Y98.432 E10.38137
G1 X103.326 Y98.432 E10.39978
G1 X100.342 Y95.448 E10.53861
G1 X99.783 Y95.448 E10.55702
G1 X102.766 Y98.432 E10.69585
G1 X102.206 Y98.432 E10.71427
G1 X99.223 Y95.448 E10.85309
G1 X98.663 Y95.448 E10.87151
G1 X101.647 Y98.432 E11.01033
G1 X101.087 Y98.432 E11.02875
G1 X98.104 Y95.448 E11.16758
G1 X97.544 Y95.448 E11.18599
G1 X100.527 Y98.432 E11.32482
G1 X99.968 Y98.432 E11.34324
G1 X96.984 Y95.448 E11.48206
G1 X96.424 Y95.448 E11.50048
G1 X99.408 Y98.432 E11.63930
G1 X98.848 Y98.432 E11.65772
G1 X95.865 Y95.448 E11.79655
G1 X95.305 Y95.448 E11.81496
G1 X98.288 Y98.432 E11.95379
G1 X97.729 Y98.432 E11.97220
G1 X94.745 Y95.448 E12.11103
G1 X94.186 Y95.448 E12.12945
G1 X97.169 Y98.432 E12.26827
G1 X96.609 Y98.432 E12.28669
G1 X93.626 Y95.448 E12.42551
G1 X93.066 Y95.448 E12.44393
G1 X96.050 Y98.432 E12.58276
G1 X95.490 Y98.432 E12.60117
G1 X92.506 Y95.448 E12.74000
G1 X91.947 Y95.448 E12.75841
G1 X94.930 Y98.432 E12.89724
G1 X94.370 Y98.432 E12.91566
G1 X91.387 Y95.448 E13.05448
G1 X90.827 Y95.448 E13.07290
G1 X93.811 Y98.432 E13.21172
G1 X93.251 Y98.432 E13.23014
G1 X90.268 Y95.448 E13.36897
G1 X89.708 Y95.448 E13.38738
G1 X92.691 Y98.432 E13.52621
G1 X92.132 Y98.432 E13.54462
G1 X89.148 Y95.448 E13.68345
G1 X88.588 Y95.448 E13.70187
G1 X91.572 Y98.432 E13.84069
G1 X91.012 Y98.432 E13.85911
G1 X88.029 Y95.448 E13.99793
G1 X87.469 Y95.448 E14.01635
G1 X90.452 Y98.432 E14.15518
G1 X89.893 Y98.432 E14.17359
G1 X86.909 Y95.448 E14.31242
G1 X86.350 Y95.448 E14.33083
G1 X89.333 Y98.432 E14.46966
G1 X88.773 Y98.432 E14.48808
G1 X85.790 Y95.448 E14.62690
G1 X85.230 Y95.448 E14.64532
G1 X88.214 Y98.432 E14.78415
G1 X87.654 Y98.432 E14.80256
G1 X84.670 Y95.448 E14.94139
G1 X84.111 Y95.448 E14.95980
G1 X87.094 Y98.432 E15.09863
G1 X86.534 Y98.432 E15.11705
G1 X83.551 Y95.448 E15.25587
G1 X82.991 Y95.448 E15.27429
G1 X85.975 Y98.432 E15.41311
G1 X85.415 Y98.432 E15.43153
G1 X82.432 Y95.448 E15.57036
G1 X81.872 Y95.448 E15.58877
G1 X84.855 Y98.432 E15.72760
G1 X84.296 Y98.432 E15.74601
G1 X81.312 Y95.448 E15.88484
G1 X80.753 Y95.448 E15.90326
G1 X83.736 Y98.432 E16.04208
G1 X83.176 Y98.432 E16.06050
G1 X80.193 Y95.448 E16.19932
G1 X79.633 Y95.448 E16.21774
G1 X82.617 Y98.432 E16.35657
G1 X82.057 Y98.432 E16.37498
G1 X79.073 Y95.448 E16.51381
G1 X78.514 Y95.448 E16.53222
G1 X81.497 Y98.432 E16.67105
G1 X80.937 Y98.432 E16.68947
G1 X77.954 Y95.448 E16.82829
G1 X77.394 Y95.448 E16.84671
G1 X80.378 Y98.432 E16.98553
G1 X79.818 Y98.432 E17.00395
G1 X76.835 Y95.448 E17.14278
G1 X76.275 Y95.448 E17.16119
G1 X79.258 Y98.432 E17.30002
G1 X78.699 Y98.432 E17.31844
G1 X75.715 Y95.448 E17.45726
G1 X75.155 Y95.448 E17.47568
G1 X78.139 Y98.432 E17.61450
G1 X77.579 Y98.432 E17.63292
G1 X74.596 Y95.448 E17.77175
G1 X74.036 Y95.448 E17.79016
G1 X77.019 Y98.432 E17.92899
G1 X76.460 Y98.432 E17.94740
G1 X73.476 Y95.448 E18.08623
G1 X72.917 Y95.448 E18.10465
G1 X75.900 Y98.432 E18.24347
G1 X75.340 Y98.432 E18.26189
G1 X72.357 Y95.448 E18.40071
G1 X71.797 Y95.448 E18.41913
G1 X74.781 Y98.432 E18.55796
G1 X74.221 Y98.432 E18.57637
G1 X71.237 Y95.448 E18.71520
G1 X70.678 Y95.448 E18.73361
G1 X73.661 Y98.432 E18.87244
G1 X73.101 Y98.432 E18.89086
G1 X70.118 Y95.448 E19.02968
G1 X69.558 Y95.448 E19.04810
G1 X72.542 Y98.432 E19.18692
G1 X71.982 Y98.432 E19.20534
G1 X68.999 Y95.448 E19.34417
G1 X68.439 Y95.448 E19.36258
G1 X71.422 Y98.432 E19.50141
G1 X70.863 Y98.432 E19.51982
G1 X67.879 Y95.448 E19.65865
G1 X67.319 Y95.448 E19.67707
G1 X70.303 Y98.432 E19.81589
G1 X69.743 Y98.432 E19.83431
G1 X66.760 Y95.448 E19.97313
G1 X66.200 Y95.448 F7800.000
G1 X69.183 Y98.432 E20.11196 F540.000
G1 X68.624 Y98.432 E20.13038
