; generated by Slic3r 1.1.7 on 2014-12-04 at 09:27:08

; perimeters extrusion width = 0.42mm
; infill extrusion width = 0.74mm
; solid infill extrusion width = 0.71mm
; top infill extrusion width = 0.71mm

G21 ; set units to millimeters
M190 S60 ; wait for bed temperature to be reached
M104 S186 ; set temperature
G28 ; home all axes
M109 S186 ; wait for temperature to be reached
G90 ; use absolute coordinates
G92 E0
M82 ; use absolute distances for extrusion
M106 S127
G1 F1860.000 E-3.00000
G92 E0
G1 Z0.200 F6000.000
G1 X57.096 Y71.258 F6000.000
G1 E3.10000 F1860.000
G1 X58.834 Y69.867 E3.14119 F1200.000
G1 X60.870 Y69.185 E3.18092
G1 X126.870 Y59.185 E4.41587
G1 X129.096 Y59.249 E4.45706
G1 X131.158 Y60.090 E4.49825 F1200.000
G1 X132.223 Y60.944 E4.52353
G1 X139.295 Y68.015 E4.70853
G1 X140.563 Y69.845 E4.74972
G1 X141.013 Y71.257 E4.77714
G1 X144.330 Y88.571 E5.10327
G1 X144.392 Y90.531 E5.13955
G1 X140.008 Y125.161 E5.78532
G1 X139.339 Y127.284 E5.82652
G1 X137.968 Y129.039 E5.86771
G1 X136.019 Y130.220 E5.90987
G1 X113.190 Y138.847 E6.36136
G1 X111.255 Y139.245 E6.39790
G1 X73.975 Y140.880 E7.08825
G1 X71.769 Y140.579 E7.12944
G1 X69.284 Y139.056 E7.18337
G1 X59.385 Y129.156 E7.44237
G1 X58.116 Y127.327 E7.48356
G1 X57.565 Y125.091 E7.52616
G1 X55.559 Y89.362 E8.18820
G1 X55.559 Y75.362 E8.44720
G1 X55.956 Y73.171 E8.48840
G1 X57.063 Y71.312 E8.52842
G1 F1860.000 E5.52842
G92 E0
G1 X112.153 Y84.209 F6000.000
G1 E3.10000 F1860.000
G1 X112.153 Y80.514 E3.16835 F1200.000
G1 X62.153 Y80.514 E4.09336
G1 X62.153 Y75.709 E4.18226
G1 X117.950 Y75.709 E5.21451
G1 X127.806 Y65.853 E5.47238
G1 X134.386 Y72.433 E5.64454
G1 X117.804 Y89.014 E6.07837
G1 X62.153 Y89.014 E7.10793
G1 X62.153 Y84.209 E7.19683
G1 X112.090 Y84.209 E8.12068
G1 X111.906 Y83.962 F6000.000
G1 X111.906 Y80.762 E8.17988 F1200.000
G1 X61.906 Y80.762 E9.10489
G1 X61.906 Y75.462 E9.20294
G1 X117.847 Y75.462 E10.23787
G1 X127.806 Y65.503 E10.49842
G1 X134.736 Y72.433 E10.67972
G1 X117.907 Y89.262 E11.12002
G1 X61.906 Y89.262 E12.15605
G1 X61.906 Y83.962 E12.25410
G1 X111.843 Y83.962 E13.17794
G1 X112.326 Y83.962 F6000.000
G1 F1860.000 E10.17794
G92 E0
G1 X112.312 Y80.713 F6000.000
G1 E3.10000 F1860.000
G1 X119.082 Y87.483 E3.27712 F1200.000
G1 X118.907 Y87.658 E3.28170
G1 X112.312 Y81.063 E3.45424
G1 X112.312 Y81.413 E3.46071
G1 X118.732 Y87.833 E3.62868
G1 X118.557 Y88.008 E3.63326
G1 X112.312 Y81.763 E3.79664
G1 X112.312 Y82.113 E3.80312
G1 X118.382 Y88.183 E3.96192
G1 X118.207 Y88.358 E3.96650
G1 X112.312 Y82.463 E4.12073
G1 X112.312 Y82.813 E4.12720
G1 X118.032 Y88.533 E4.27685
G1 X117.857 Y88.708 E4.28143
G1 X112.312 Y83.163 E4.42650
G1 X112.312 Y83.513 E4.43297
G1 X117.654 Y88.855 E4.57273
G1 X117.304 Y88.855 E4.57920
G1 X112.312 Y83.863 E4.70980
G1 X112.312 Y84.213 E4.71628
G1 X116.954 Y88.855 E4.83772
G1 X116.604 Y88.855 E4.84420
G1 X112.117 Y84.368 E4.96160
G1 X111.767 Y84.368 E4.96807
G1 X116.254 Y88.855 E5.08547
G1 X115.904 Y88.855 E5.09195
G1 X111.417 Y84.368 E5.20934
G1 X111.067 Y84.368 E5.21582
G1 X115.554 Y88.855 E5.33322
G1 X115.204 Y88.855 E5.33969
G1 X110.717 Y84.368 E5.45709
G1 X110.367 Y84.368 E5.46357
G1 X114.854 Y88.855 E5.58097
G1 X114.504 Y88.855 E5.58744
G1 X110.017 Y84.368 E5.70484
G1 X109.667 Y84.368 E5.71131
G1 X114.154 Y88.855 E5.82871
G1 X113.804 Y88.855 E5.83519
G1 X109.317 Y84.368 E5.95259
G1 X108.967 Y84.368 E5.95906
G1 X113.454 Y88.855 E6.07646
G1 X113.104 Y88.855 E6.08294
G1 X108.617 Y84.368 E6.20034
G1 X108.267 Y84.368 E6.20681
G1 X112.754 Y88.855 E6.32421
G1 X112.404 Y88.855 E6.33068
G1 X107.917 Y84.368 E6.44808
G1 X107.567 Y84.368 E6.45456
G1 X112.054 Y88.855 E6.57196
G1 X111.704 Y88.855 E6.57843
G1 X107.217 Y84.368 E6.69583
G1 X106.867 Y84.368 E6.70231
G1 X111.354 Y88.855 E6.81971
G1 X111.004 Y88.855 E6.82618
G1 X106.517 Y84.368 E6.94358
G1 X106.167 Y84.368 E6.95005
G1 X110.654 Y88.855 E7.06745
G1 X110.304 Y88.855 E7.07393
G1 X105.817 Y84.368 E7.19133
G1 X105.467 Y84.368 E7.19780
G1 X109.954 Y88.855 E7.31520
G1 X109.604 Y88.855 E7.32168
G1 X105.117 Y84.368 E7.43907
G1 X104.767 Y84.368 E7.44555
G1 X109.254 Y88.855 E7.56295
G1 X108.904 Y88.855 E7.56942
G1 X104.417 Y84.368 E7.68682
G1 X104.067 Y84.368 E7.69330
G1 X108.554 Y88.855 E7.81070
G1 X108.204 Y88.855 E7.81717
G1 X103.717 Y84.368 E7.93457
G1 X103.367 Y84.368 E7.94105
G1 X107.854 Y88.855 E8.05844
G1 X107.504 Y88.855 E8.06492
G1 X103.017 Y84.368 E8.18232
G1 X102.667 Y84.368 E8.18879
G1 X107.154 Y88.855 E8.30619
G1 X106.804 Y88.855 E8.31267
G1 X102.317 Y84.368 E8.43007
G1 X101.967 Y84.368 E8.43654
G1 X106.454 Y88.855 E8.55394
G1 X106.104 Y88.855 E8.56042
G1 X101.617 Y84.368 E8.67781
G1 X101.267 Y84.368 E8.68429
G1 X105.754 Y88.855 E8.80169
G1 X105.404 Y88.855 E8.80816
G1 X100.917 Y84.368 E8.92556
G1 X100.567 Y84.368 E8.93204
G1 X105.054 Y88.855 E9.04944
G1 X104.704 Y88.855 E9.05591
G1 X100.217 Y84.368 E9.17331
G1 X99.867 Y84.368 E9.17979
G1 X104.354 Y88.855 E9.29718
G1 X104.004 Y88.855 E9.30366
G1 X99.517 Y84.368 E9.42106
G1 X99.167 Y84.368 E9.42753
G1 X103.654 Y88.855 E9.54493
G1 X103.304 Y88.855 E9.55141
G1 X98.817 Y84.368 E9.66881
G1 X98.467 Y84.368 E9.67528
G1 X102.954 Y88.855 E9.79268
G1 X102.604 Y88.855 E9.79916
G1 X98.117 Y84.368 E9.91655
G1 X97.766 Y84.368 E9.92303
G1 X102.254 Y88.855 E10.04043
G1 X101.904 Y88.855 E10.04690
G1 X97.416 Y84.368 E10.16430
G1 X97.066 Y84.368 E10.17078
G1 X101.554 Y88.855 E10.28818
G1 X101.204 Y88.855 E10.29465
G1 X96.716 Y84.368 E10.41205
G1 X96.366 Y84.368 E10.41852
G1 X100.854 Y88.855 E10.53592
G1 X100.504 Y88.855 E10.54240
G1 X96.016 Y84.368 E10.65980
G1 X95.666 Y84.368 E10.66627
G1 X100.154 Y88.855 E10.78367
G1 X99.804 Y88.855 E10.79015
G1 X95.316 Y84.368 E10.90755
G1 X94.966 Y84.368 E10.91402
G1 X99.454 Y88.855 E11.03142
G1 X99.104 Y88.855 E11.03789
G1 X94.616 Y84.368 E11.15529
G1 X94.266 Y84.368 E11.16177
G1 X98.754 Y88.855 E11.27917
G1 X98.404 Y88.855 E11.28564
G1 X93.916 Y84.368 E11.40304
G1 X93.566 Y84.368 E11.40952
G1 X98.054 Y88.855 E11.52692
G1 X97.704 Y88.855 E11.53339
G1 X93.216 Y84.368 E11.65079
G1 X92.866 Y84.368 E11.65726
G1 X97.353 Y88.855 E11.77466
G1 X97.003 Y88.855 E11.78114
G1 X92.516 Y84.368 E11.89854
G1 X92.166 Y84.368 E11.90501
G1 X96.653 Y88.855 E12.02241
G1 X96.303 Y88.855 E12.02889
G1 X91.816 Y84.368 E12.14628
G1 X91.466 Y84.368 E12.15276
G1 X95.953 Y88.855 E12.27016
G1 X95.603 Y88.855 E12.27663
G1 X91.116 Y84.368 E12.39403
G1 X90.766 Y84.368 E12.40051
G1 X95.253 Y88.855 E12.51791
G1 X94.903 Y88.855 E12.52438
G1 X90.416 Y84.368 E12.64178
G1 X90.066 Y84.368 E12.64826
G1 X94.553 Y88.855 E12.76565
G1 X94.203 Y88.855 E12.77213
G1 X89.716 Y84.368 E12.88953
G1 X89.366 Y84.368 E12.89600
G1 X93.853 Y88.855 E13.01340
G1 X93.503 Y88.855 E13.01988
G1 X89.016 Y84.368 E13.13728
G1 X88.666 Y84.368 E13.14375
G1 X93.153 Y88.855 E13.26115
G1 X92.803 Y88.855 E13.26763
G1 X88.316 Y84.368 E13.38502
G1 X87.966 Y84.368 E13.39150
G1 X92.453 Y88.855 E13.50890
G1 X92.103 Y88.855 E13.51537
G1 X87.616 Y84.368 E13.63277
G1 X87.266 Y84.368 E13.63925
G1 X91.753 Y88.855 E13.75665
G1 X91.403 Y88.855 E13.76312
G1 X86.916 Y84.368 E13.88052
G1 X86.566 Y84.368 E13.88700
G1 X91.053 Y88.855 E14.00439
G1 X90.703 Y88.855 E14.01087
G1 X86.216 Y84.368 E14.12827
G1 X85.866 Y84.368 E14.13474
G1 X90.353 Y88.855 E14.25214
G1 X90.003 Y88.855 E14.25862
G1 X85.516 Y84.368 E14.37602
G1 X85.166 Y84.368 E14.38249
G1 X89.653 Y88.855 E14.49989
G1 X89.303 Y88.855 E14.50637
G1 X84.816 Y84.368 E14.62376
G1 X84.466 Y84.368 E14.63024
G1 X88.953 Y88.855 E14.74764
G1 X88.603 Y88.855 E14.75411
G1 X84.116 Y84.368 E14.87151
G1 X83.766 Y84.368 E14.87799
G1 X88.253 Y88.855 E14.99539
G1 X87.903 Y88.855 E15.00186
G1 X83.416 Y84.368 E15.11926
G1 X83.066 Y84.368 E15.12574
G1 X87.553 Y88.855 E15.24313
G1 X87.203 Y88.855 E15.24961
G1 X82.716 Y84.368 E15.36701
G1 X82.366 Y84.368 E15.37348
G1 X86.853 Y88.855 E15.49088
G1 X86.503 Y88.855 E15.49736
G1 X82.016 Y84.368 E15.61476
G1 X81.666 Y84.368 E15.62123
G1 X86.153 Y88.855 E15.73863
G1 X85.803 Y88.855 E15.74510
G1 X81.316 Y84.368 E15.86250
G1 X80.966 Y84.368 E15.86898
G1 X85.453 Y88.855 E15.98638
G1 X85.103 Y88.855 E15.99285
G1 X80.616 Y84.368 E16.11025
G1 X80.266 Y84.368 E16.11673
G1 X84.753 Y88.855 E16.23413
G1 X84.403 Y88.855 E16.24060
G1 X79.916 Y84.368 E16.35800
G1 X79.566 Y84.368 E16.36447
G1 X84.053 Y88.855 E16.48187
G1 X83.703 Y88.855 E16.48835
G1 X79.216 Y84.368 E16.60575
G1 X78.866 Y84.368 E16.61222
G1 X83.353 Y88.855 E16.72962
G1 X83.003 Y88.855 E16.73610
G1 X78.516 Y84.368 E16.85350
G1 X78.166 Y84.368 E16.85997
G1 X82.653 Y88.855 E16.97737
G1 X82.303 Y88.855 E16.98384
G1 X77.816 Y84.368 E17.10124
G1 X77.466 Y84.368 E17.10772
G1 X81.953 Y88.855 E17.22512
G1 X81.603 Y88.855 E17.23159
G1 X77.116 Y84.368 E17.34899
G1 X76.766 Y84.368 E17.35547
G1 X81.253 Y88.855 E17.47286
G1 X80.903 Y88.855 E17.47934
G1 X76.416 Y84.368 E17.59674
G1 X76.066 Y84.368 E17.60321
G1 X80.553 Y88.855 E17.72061
G1 X80.203 Y88.855 E17.72709
G1 X75.716 Y84.368 E17.84449
G1 X75.366 Y84.368 E17.85096
G1 X79.853 Y88.855 E17.96836
G1 X79.503 Y88.855 E17.97484
G1 X75.016 Y84.368 E18.09223
G1 X74.666 Y84.368 E18.09871
G1 X79.153 Y88.855 E18.21611
G1 X78.803 Y88.855 E18.22258
G1 X74.316 Y84.368 E18.33998
G1 X73.966 Y84.368 E18.34646
G1 X78.453 Y88.855 E18.46386
G1 X78.103 Y88.855 E18.47033
G1 X73.616 Y84.368 E18.58773
G1 X73.266 Y84.368 E18.59421
G1 X77.753 Y88.855 E18.71160
G1 X77.403 Y88.855 E18.71808
G1 X72.916 Y84.368 E18.83548
G1 X72.566 Y84.368 E18.84195
G1 X77.053 Y88.855 E18.95935
G1 X76.703 Y88.855 E18.96583
G1 X72.216 Y84.368 E19.08323
G1 X71.866 Y84.368 E19.08970
G1 X76.353 Y88.855 E19.20710
G1 X76.003 Y88.855 E19.21358
G1 X71.516 Y84.368 E19.33097
G1 X71.166 Y84.368 E19.33745
G1 X75.653 Y88.855 E19.45485
G1 X75.303 Y88.855 E19.46132
G1 X70.816 Y84.368 E19.57872
G1 X70.466 Y84.368 E19.58520
G1 X74.953 Y88.855 E19.70260
G1 X74.603 Y88.855 E19.70907
G1 X70.116 Y84.368 E19.82647
G1 X69.766 Y84.368 E19.83295
G1 X74.253 Y88.855 E19.95034
G1 X73.903 Y88.855 E19.95682
G1 X69.416 Y84.368 E20.07422
G1 X69.066 Y84.368 E20.08069
G1 X73.553 Y88.855 E20.19809
G1 X73.203 Y88.855 E20.20457
G1 X68.716 Y84.368 E20.32197
G1 X68.366 Y84.368 E20.32844
G1 X72.853 Y88.855 E20.44584
G1 X72.503 Y88.855 E20.45231
G1 X68.016 Y84.368 E20.56971
G1 X67.666 Y84.368 E20.57619
G1 X72.153 Y88.855 E20.69359
G1 X71.803 Y88.855 E20.70006
G1 X67.316 Y84.368 E20.81746
G1 X66.966 Y84.368 E20.82394
G1 X71.453 Y88.855 E20.94134
G1 X71.103 Y88.855 E20.94781
G1 X66.616 Y84.368 E21.06521
G1 X66.265 Y84.368 E21.07168
G1 X70.753 Y88.855 E21.18908
G1 X70.403 Y88.855 E21.19556
G1 X65.915 Y84.368 E21.31296
G1 X65.565 Y84.368 E21.31943
G1 X70.053 Y88.855 E21.43683
G1 X69.703 Y88.855 E21.44331
G1 X65.215 Y84.368 E21.56071
G1 X64.865 Y84.368 E21.56718
G1 X69.353 Y88.855 E21.68458
G1 X69.003 Y88.855 E21.69105
G1 X64.515 Y84.368 E21.80845
G1 X64.165 Y84.368 E21.81493
G1 X68.653 Y88.855 E21.93233
G1 X68.303 Y88.855 E21.93880
G1 X63.815 Y84.368 E22.05620
G1 X63.465 Y84.368 E22.06268
G1 X67.953 Y88.855 E22.18007
G1 X67.603 Y88.855 E22.18655
G1 X63.115 Y84.368 E22.30395
G1 X62.765 Y84.368 E22.31042
G1 X67.253 Y88.855 E22.42782
G1 X66.903 Y88.855 E22.43430
G1 X62.415 Y84.368 E22.55170
G1 F1860.000 E19.55170
G92 E0
G1 X62.312 Y80.065 F6000.000
G1 E3.10000 F1860.000
G1 X62.603 Y80.355 E3.10759 F1200.000
G1 X62.953 Y80.355 E3.11407
G1 X62.312 Y79.715 E3.13082
G1 X62.312 Y79.365 E3.13730
G1 X63.303 Y80.355 E3.16321
G1 X63.653 Y80.355 E3.16968
G1 X62.312 Y79.015 E3.20475
G1 X62.312 Y78.665 E3.21122
G1 X64.003 Y80.355 E3.25545
G1 X64.353 Y80.355 E3.26192
G1 X62.312 Y78.315 E3.31531
G1 X62.312 Y77.965 E3.32178
G1 X64.703 Y80.355 E3.38432
G1 X65.053 Y80.355 E3.39080
G1 X62.312 Y77.615 E3.46249
G1 X62.312 Y77.265 E3.46897
G1 X65.403 Y80.355 E3.54982
G1 X65.753 Y80.355 E3.55630
G1 X62.312 Y76.915 E3.64631
G1 X62.312 Y76.565 E3.65278
G1 X66.103 Y80.355 E3.75195
G1 X66.453 Y80.355 E3.75843
G1 X62.312 Y76.215 E3.86675
G1 X62.334 Y75.886 E3.87284
G1 X66.803 Y80.355 E3.98976
G1 X67.153 Y80.355 E3.99623
G1 X62.666 Y75.868 E4.11363
G1 X63.016 Y75.868 E4.12011
G1 X67.503 Y80.355 E4.23751
G1 X67.853 Y80.355 E4.24398
G1 X63.366 Y75.868 E4.36138
G1 X63.716 Y75.868 E4.36786
G1 X68.203 Y80.355 E4.48526
G1 X68.553 Y80.355 E4.49173
G1 X64.066 Y75.868 E4.60913
G1 X64.416 Y75.868 E4.61560
G1 X68.903 Y80.355 E4.73300
G1 X69.253 Y80.355 E4.73948
G1 X64.766 Y75.868 E4.85688
G1 X65.116 Y75.868 E4.86335
G1 X69.603 Y80.355 E4.98075
G1 X69.953 Y80.355 E4.98723
G1 X65.466 Y75.868 E5.10462
G1 X65.816 Y75.868 E5.11110
G1 X70.303 Y80.355 E5.22850
G1 X70.653 Y80.355 E5.23497
G1 X66.166 Y75.868 E5.35237
G1 X66.516 Y75.868 E5.35885
G1 X71.003 Y80.355 E5.47625
G1 X71.353 Y80.355 E5.48272
G1 X66.866 Y75.868 E5.60012
G1 X67.216 Y75.868 E5.60660
G1 X71.703 Y80.355 E5.72399
G1 X72.053 Y80.355 E5.73047
G1 X67.566 Y75.868 E5.84787
G1 X67.916 Y75.868 E5.85434
G1 X72.403 Y80.355 E5.97174
G1 X72.753 Y80.355 E5.97822
G1 X68.266 Y75.868 E6.09562
G1 X68.616 Y75.868 E6.10209
G1 X73.103 Y80.355 E6.21949
G1 X73.453 Y80.355 E6.22597
G1 X68.966 Y75.868 E6.34336
G1 X69.316 Y75.868 E6.34984
G1 X73.803 Y80.355 E6.46724
G1 X74.153 Y80.355 E6.47371
G1 X69.666 Y75.868 E6.59111
G1 X70.016 Y75.868 E6.59759
G1 X74.503 Y80.355 E6.71499
G1 X74.853 Y80.355 E6.72146
G1 X70.366 Y75.868 E6.83886
G1 X70.716 Y75.868 E6.84533
G1 X75.203 Y80.355 E6.96273
G1 X75.553 Y80.355 E6.96921
G1 X71.066 Y75.868 E7.08661
G1 X71.416 Y75.868 E7.09308
G1 X75.903 Y80.355 E7.21048
G1 X76.253 Y80.355 E7.21696
G1 X71.766 Y75.868 E7.33436
G1 X72.116 Y75.868 E7.34083
G1 X76.603 Y80.355 E7.45823
G1 X76.953 Y80.355 E7.46470
G1 X72.466 Y75.868 E7.58210
G1 X72.816 Y75.868 E7.58858
G1 X77.303 Y80.355 E7.70598
G1 X77.653 Y80.355 E7.71245
G1 X73.166 Y75.868 E7.82985
G1 X73.516 Y75.868 E7.83633
G1 X78.003 Y80.355 E7.95372
G1 X78.353 Y80.355 E7.96020
G1 X73.866 Y75.868 E8.07760
G1 X74.216 Y75.868 E8.08407
G1 X78.703 Y80.355 E8.20147
G1 X79.053 Y80.355 E8.20795
G1 X74.566 Y75.868 E8.32535
G1 X74.916 Y75.868 E8.33182
G1 X79.403 Y80.355 E8.44922
G1 X79.753 Y80.355 E8.45570
G1 X75.266 Y75.868 E8.57309
G1 X75.616 Y75.868 E8.57957
G1 X80.103 Y80.355 E8.69697
G1 X80.453 Y80.355 E8.70344
G1 X75.966 Y75.868 E8.82084
G1 X76.316 Y75.868 E8.82732
G1 X80.803 Y80.355 E8.94472
G1 X81.153 Y80.355 E8.95119
G1 X76.666 Y75.868 E9.06859
G1 X77.016 Y75.868 E9.07507
G1 X81.503 Y80.355 E9.19246
G1 X81.853 Y80.355 E9.19894
G1 X77.366 Y75.868 E9.31634
G1 X77.716 Y75.868 E9.32281
G1 X82.203 Y80.355 E9.44021
G1 X82.553 Y80.355 E9.44669
G1 X78.066 Y75.868 E9.56409
G1 X78.416 Y75.868 E9.57056
G1 X82.903 Y80.355 E9.68796
G1 X83.253 Y80.355 E9.69443
G1 X78.766 Y75.868 E9.81183
G1 X79.116 Y75.868 E9.81831
G1 X83.603 Y80.355 E9.93571
G1 X83.953 Y80.355 E9.94218
G1 X79.466 Y75.868 E10.05958
G1 X79.816 Y75.868 E10.06606
G1 X84.303 Y80.355 E10.18345
G1 X84.653 Y80.355 E10.18993
G1 X80.166 Y75.868 E10.30733
G1 X80.516 Y75.868 E10.31380
G1 X85.003 Y80.355 E10.43120
G1 X85.353 Y80.355 E10.43768
G1 X80.866 Y75.868 E10.55508
G1 X81.216 Y75.868 E10.56155
G1 X85.703 Y80.355 E10.67895
G1 X86.053 Y80.355 E10.68543
G1 X81.566 Y75.868 E10.80282
G1 X81.916 Y75.868 E10.80930
G1 X86.403 Y80.355 E10.92670
G1 X86.753 Y80.355 E10.93317
G1 X82.266 Y75.868 E11.05057
G1 X82.616 Y75.868 E11.05705
G1 X87.103 Y80.355 E11.17445
G1 X87.453 Y80.355 E11.18092
G1 X82.966 Y75.868 E11.29832
G1 X83.316 Y75.868 E11.30480
G1 X87.803 Y80.355 E11.42219
G1 X88.153 Y80.355 E11.42867
G1 X83.666 Y75.868 E11.54607
G1 X84.016 Y75.868 E11.55254
G1 X88.503 Y80.355 E11.66994
G1 X88.853 Y80.355 E11.67642
G1 X84.366 Y75.868 E11.79382
G1 X84.716 Y75.868 E11.80029
G1 X89.204 Y80.355 E11.91769
G1 X89.554 Y80.355 E11.92416
G1 X85.066 Y75.868 E12.04156
G1 X85.416 Y75.868 E12.04804
G1 X89.904 Y80.355 E12.16544
G1 X90.254 Y80.355 E12.17191
G1 X85.766 Y75.868 E12.28931
G1 X86.116 Y75.868 E12.29579
G1 X90.604 Y80.355 E12.41319
G1 X90.954 Y80.355 E12.41966
G1 X86.466 Y75.868 E12.53706
G1 X86.816 Y75.868 E12.54353
G1 X91.304 Y80.355 E12.66093
G1 X91.654 Y80.355 E12.66741
G1 X87.166 Y75.868 E12.78481
G1 X87.516 Y75.868 E12.79128
G1 X92.004 Y80.355 E12.90868
