; generated by Slic3r 1.1.7 on 2014-12-12 at 20:53:49

; perimeters extrusion width = 0.42mm
; infill extrusion width = 0.74mm
; solid infill extrusion width = 0.71mm
; top infill extrusion width = 0.71mm
; support material extrusion width = 0.42mm

G21 ; set units to millimeters
M190 S57 ; wait for bed temperature to be reached
M104 S186 ; set temperature
G28 ; home all axes Start of G Code Slic3r
 
M109 S186 ; wait for temperature to be reached
G90 ; use absolute coordinates
G92 E0
M82 ; use absolute distances for extrusion
G1 F1860.000 E-3.00000
G92 E0
G1 Z0.200 F6000.000
G1 X39.793 Y69.353 F6000.000
G1 E3.10000 F1860.000
G1 X43.000 Y68.506 E3.16137 F1200.000
G1 X157.000 Y68.506 E5.27040
G1 X159.236 Y68.902 E5.31240
G1 X161.198 Y70.045 E5.35441 F1200.000
G1 X162.647 Y71.793 E5.39641
G1 X163.494 Y75.000 E5.45779
G1 X163.494 Y125.000 E6.38280
G1 X163.098 Y127.236 E6.42480
G1 X161.955 Y129.198 E6.46681
G1 X160.207 Y130.647 E6.50882
G1 X157.000 Y131.494 E6.57019
G1 X43.000 Y131.494 E8.67921
G1 X40.764 Y131.098 E8.72122
G1 X38.802 Y129.955 E8.76322
G1 X37.353 Y128.207 E8.80523
G1 X36.506 Y125.000 E8.86660
G1 X36.506 Y75.000 E9.79161
G1 X36.902 Y72.764 E9.83362
G1 X38.045 Y70.802 E9.87562
G1 X39.744 Y69.393 E9.91647
G1 X39.959 Y69.560 F6000.000
G1 X40.028 Y69.505 E9.91810 F1200.000
G1 X43.000 Y68.753 E9.97482
G1 X157.000 Y68.753 E12.08385
G1 X159.191 Y69.150 E12.12504
G1 X161.104 Y70.290 E12.16623 F1200.000
G1 X162.495 Y72.028 E12.20742
G1 X163.247 Y75.000 E12.26414
G1 X163.247 Y125.000 E13.18915
G1 X162.850 Y127.191 E13.23035
G1 X161.710 Y129.104 E13.27154
G1 X159.972 Y130.495 E13.31273
G1 X157.000 Y131.247 E13.36945
G1 X43.000 Y131.247 E15.47847
G1 X40.809 Y130.850 E15.51967
G1 X38.896 Y129.710 E15.56086
G1 X37.505 Y127.972 E15.60205
G1 X36.753 Y125.000 E15.65877
G1 X36.753 Y75.000 E16.58378
G1 X37.150 Y72.809 E16.62497
G1 X38.290 Y70.896 E16.66616
G1 X39.910 Y69.600 E16.70455
G1 F1860.000 E13.70455
G92 E0
G1 X130.549 Y89.946 F6000.000
G1 E3.10000 F1860.000
G1 X128.500 Y90.354 E3.13865 F1200.000
G1 X126.451 Y89.946 E3.17729
G1 X124.714 Y88.786 E3.21594
G1 X123.554 Y87.049 E3.25459
G1 X123.146 Y85.000 E3.29324
G1 X123.554 Y82.951 E3.33188
G1 X124.714 Y81.214 E3.37053
G1 X126.451 Y80.054 E3.40918
G1 X128.500 Y79.646 E3.44783
G1 X128.632 Y79.672 E3.45031
G1 X130.549 Y80.054 E3.48647 F1200.000
G1 X132.286 Y81.214 E3.52512
G1 X133.446 Y82.951 E3.56377
G1 X133.854 Y85.000 E3.60242
G1 X133.446 Y87.049 E3.64106
G1 X132.286 Y88.786 E3.67971
G1 X130.601 Y89.911 E3.71719
G1 X130.452 Y89.714 F6000.000
G1 X128.500 Y90.102 E3.75402 F1200.000
G1 X126.548 Y89.714 E3.79085
G1 X124.892 Y88.608 E3.82768
G1 X123.786 Y86.952 E3.86451
G1 X123.398 Y85.000 E3.90133
G1 X123.786 Y83.048 E3.93816
G1 X124.892 Y81.392 E3.97499
G1 X126.548 Y80.286 E4.01182
G1 X126.631 Y80.270 E4.01339
G1 X128.500 Y79.898 E4.04865 F1200.000
G1 X130.452 Y80.286 E4.08547
G1 X132.108 Y81.392 E4.12230
G1 X133.214 Y83.048 E4.15913
G1 X133.602 Y85.000 E4.19596
G1 X133.214 Y86.952 E4.23279
G1 X132.108 Y88.608 E4.26961
G1 X130.505 Y89.679 E4.30528
G1 F1860.000 E1.30528
G92 E0
G1 X126.497 Y79.872 F6000.000
G1 X156.653 Y75.347 F6000.000
G1 E3.10000 F1860.000
G1 X156.653 Y124.653 E4.01216 F1200.000
G1 X43.347 Y124.653 E6.10834
G1 X43.347 Y75.347 E7.02051
G1 X156.590 Y75.347 E9.11552
G1 X156.900 Y75.100 F6000.000
G1 X156.900 Y124.900 E10.03683 F1200.000
G1 X43.100 Y124.900 E12.14215
G1 X43.100 Y75.100 E13.06346
G1 X156.837 Y75.100 E15.16762
G1 X156.690 Y75.464 F6000.000
G1 X156.454 Y75.506 F6000.000
G1 X156.494 Y75.546 E15.16867 F1200.000
G1 X156.494 Y75.896 E15.17514
G1 X156.104 Y75.506 E15.18533
G1 X155.754 Y75.506 E15.19180
G1 X156.494 Y76.246 E15.21114
G1 X156.494 Y76.595 E15.21761
G1 X155.405 Y75.506 E15.24611
G1 X155.055 Y75.506 E15.25257
G1 X156.494 Y76.945 E15.29021
G1 X156.494 Y77.295 E15.29668
G1 X154.705 Y75.506 E15.34347
G1 X154.356 Y75.506 E15.34994
G1 X156.494 Y77.644 E15.40588
G1 X156.494 Y77.994 E15.41235
G1 X154.006 Y75.506 E15.47743
G1 X153.656 Y75.506 E15.48390
G1 X156.494 Y78.344 E15.55813
G1 X156.494 Y78.693 E15.56460
G1 X153.307 Y75.506 E15.64798
G1 X152.957 Y75.506 E15.65445
G1 X156.494 Y79.043 E15.74698
G1 X156.494 Y79.393 E15.75345
G1 X152.607 Y75.506 E15.85513
G1 X152.258 Y75.506 E15.86160
G1 X156.494 Y79.742 E15.97242
G1 X156.494 Y80.092 E15.97889
G1 X151.908 Y75.506 E16.09887
G1 X151.558 Y75.506 E16.10534
G1 X156.494 Y80.442 E16.23446
G1 X156.494 Y80.791 E16.24093
G1 X151.209 Y75.506 E16.37920
G1 X150.859 Y75.506 E16.38567
G1 X156.494 Y81.141 E16.53309
G1 X156.494 Y81.491 E16.53956
G1 X150.509 Y75.506 E16.69613
G1 X150.160 Y75.506 E16.70260
G1 X156.494 Y81.840 E16.86831
G1 X156.494 Y82.190 E16.87478
G1 X149.810 Y75.506 E17.04965
G1 X149.460 Y75.506 E17.05612
G1 X156.494 Y82.540 E17.24013
G1 X156.494 Y82.889 E17.24660
G1 X149.111 Y75.506 E17.43976
G1 X148.761 Y75.506 E17.44623
G1 X156.494 Y83.239 E17.64854
G1 X156.494 Y83.589 E17.65501
G1 X148.411 Y75.506 E17.86647
G1 X148.062 Y75.506 E17.87293
G1 X156.494 Y83.938 E18.09354
G1 X156.494 Y84.288 E18.10001
G1 X147.712 Y75.506 E18.32977
G1 X147.362 Y75.506 E18.33623
G1 X156.494 Y84.638 E18.57514
G1 X156.494 Y84.987 E18.58161
G1 X147.013 Y75.506 E18.82966
G1 X146.663 Y75.506 E18.83613
G1 X156.494 Y85.337 E19.09333
G1 X156.494 Y85.687 E19.09980
G1 X146.313 Y75.506 E19.36614
G1 X145.964 Y75.506 E19.37261
G1 X156.494 Y86.036 E19.64811
G1 X156.494 Y86.386 E19.65458
G1 X145.614 Y75.506 E19.93922
G1 X145.264 Y75.506 E19.94569
G1 X156.494 Y86.736 E20.23949
G1 X156.494 Y87.085 E20.24596
G1 X144.915 Y75.506 E20.54890
G1 X144.565 Y75.506 E20.55537
G1 X156.494 Y87.435 E20.86746
G1 X156.494 Y87.785 E20.87393
G1 X144.215 Y75.506 E21.19516
G1 X143.866 Y75.506 E21.20163
G1 X156.494 Y88.134 E21.53202
G1 X156.494 Y88.484 E21.53849
G1 X143.516 Y75.506 E21.87802
G1 X143.166 Y75.506 E21.88449
G1 X156.494 Y88.834 E22.23318
G1 X156.494 Y89.183 E22.23965
G1 X142.817 Y75.506 E22.59748
G1 X142.467 Y75.506 E22.60395
G1 X156.494 Y89.533 E22.97093
G1 X156.494 Y89.883 E22.97739
G1 X142.117 Y75.506 E23.35352
G1 X141.768 Y75.506 E23.35999
G1 X156.494 Y90.232 E23.74527
G1 X156.494 Y90.582 E23.75174
G1 X141.418 Y75.506 E24.14616
G1 X141.068 Y75.506 E24.15263
G1 X156.494 Y90.932 E24.55621
G1 X156.494 Y91.281 E24.56267
G1 X140.719 Y75.506 E24.97540
G1 X140.369 Y75.506 E24.98187
G1 X156.494 Y91.631 E25.40374
G1 X156.494 Y91.981 E25.41020
G1 X140.019 Y75.506 E25.84122
G1 X139.670 Y75.506 E25.84769
G1 X156.494 Y92.330 E26.28786
G1 X156.494 Y92.680 E26.29433
G1 X139.320 Y75.506 E26.74364
G1 X138.970 Y75.506 E26.75011
G1 X156.494 Y93.030 E27.20858
G1 X156.494 Y93.379 E27.21504
G1 X138.621 Y75.506 E27.68266
G1 X138.271 Y75.506 E27.68913
G1 X156.494 Y93.729 E28.16589
G1 X156.494 Y94.079 E28.17235
G1 X137.921 Y75.506 E28.65826
G1 X137.572 Y75.506 E28.66473
G1 X156.494 Y94.428 E29.15979
G1 X156.494 Y94.778 E29.16626
G1 X137.222 Y75.506 E29.67046
G1 X136.872 Y75.506 E29.67693
G1 X156.494 Y95.128 E30.19029
G1 X156.494 Y95.477 E30.19676
G1 X136.523 Y75.506 E30.71926
G1 X136.173 Y75.506 E30.72573
G1 X156.494 Y95.827 E31.25738
G1 X156.494 Y96.177 E31.26385
G1 X135.823 Y75.506 E31.80464
G1 X135.474 Y75.506 E31.81111
G1 X156.494 Y96.526 E32.36106
G1 X156.494 Y96.876 E32.36753
G1 X135.124 Y75.506 E32.92662
G1 X134.774 Y75.506 E32.93309
G1 X156.494 Y97.226 E33.50134
G1 X156.494 Y97.575 E33.50781
G1 X134.425 Y75.506 E34.08520
G1 X134.075 Y75.506 E34.09167
G1 X156.494 Y97.925 E34.67821
G1 X156.494 Y98.275 E34.68468
G1 X133.725 Y75.506 E35.28036
G1 X133.376 Y75.506 E35.28683
G1 X156.494 Y98.624 E35.89167
G1 X156.494 Y98.974 E35.89814
G1 X133.026 Y75.506 E36.51213
G1 X132.676 Y75.506 E36.51859
G1 X156.494 Y99.324 E37.14173
G1 X156.494 Y99.673 E37.14820
G1 X132.327 Y75.506 E37.78048
G1 X131.977 Y75.506 E37.78695
G1 X156.494 Y100.023 E38.42838
G1 X156.494 Y100.373 E38.43485
G1 X131.627 Y75.506 E39.08543
G1 X131.278 Y75.506 E39.09189
G1 X156.494 Y100.722 E39.75162
G1 X156.494 Y101.072 E39.75809
G1 X130.928 Y75.506 E40.42697
G1 X130.578 Y75.506 E40.43344
G1 X156.494 Y101.422 E41.11146
G1 X156.494 Y101.771 E41.11793
G1 X130.229 Y75.506 E41.80510
G1 X129.879 Y75.506 E41.81157
G1 X156.494 Y102.121 E42.50789
G1 X156.494 Y102.471 E42.51436
G1 X129.529 Y75.506 E43.21983
G1 X129.180 Y75.506 E43.22630
G1 X156.494 Y102.820 E43.94091
G1 X156.494 Y103.170 E43.94738
G1 X128.830 Y75.506 E44.67115
G1 X128.480 Y75.506 E44.67762
G1 X156.494 Y103.520 E45.41053
G1 X156.494 Y103.869 E45.41700
G1 X128.131 Y75.506 E46.15906
G1 X127.781 Y75.506 E46.16553
G1 X156.494 Y104.219 E46.91674
G1 X156.494 Y104.569 E46.92321
G1 X127.431 Y75.506 E47.68357
G1 X127.082 Y75.506 E47.69004
G1 X156.494 Y104.918 E48.45955
G1 X156.494 Y105.268 E48.46601
G1 X132.553 Y81.327 E49.09239
G1 X132.173 Y80.947 F6000.000
G1 X126.732 Y75.506 E49.23474 F1200.000
G1 X126.382 Y75.506 E49.24121
G1 X131.119 Y80.243 E49.36514
G1 X130.385 Y79.859 F6000.000
G1 X126.033 Y75.506 E49.47901 F1200.000
G1 X125.683 Y75.506 E49.48548
G1 X129.949 Y79.772 E49.59707
G1 X129.512 Y79.685 E49.60531
G1 X125.334 Y75.506 E49.71463
G1 X124.984 Y75.506 E49.72110
G1 X129.076 Y79.598 E49.82815
G1 X128.639 Y79.511 E49.83639
G1 X124.634 Y75.506 E49.94117
G1 X124.285 Y75.506 E49.94764
G1 X128.301 Y79.523 E50.05273
G1 X128.010 Y79.581 E50.05823
G1 X123.935 Y75.506 E50.16484
G1 X123.585 Y75.506 E50.17131
G1 X127.718 Y79.639 E50.27943
G1 X127.426 Y79.697 E50.28494
G1 X123.236 Y75.506 E50.39458
G1 X122.886 Y75.506 E50.40105
G1 X127.135 Y79.755 E50.51221
G1 X126.843 Y79.813 E50.51771
G1 X122.536 Y75.506 E50.63039
G1 X122.187 Y75.506 E50.63686
G1 X126.551 Y79.871 E50.75106
G1 X126.296 Y79.966 E50.75610
G1 X121.837 Y75.506 E50.87276
G1 X121.487 Y75.506 E50.87923
G1 X126.086 Y80.106 E50.99957
G1 X125.877 Y80.246 E51.00423
G1 X121.138 Y75.506 E51.12823
G1 X120.788 Y75.506 E51.13470
G1 X125.667 Y80.386 E51.26236
G1 X125.458 Y80.526 E51.26702
G1 X120.438 Y75.506 E51.39835
G1 X120.089 Y75.506 E51.40481
G1 X125.248 Y80.666 E51.53980
G1 X125.038 Y80.806 E51.54447
G1 X119.739 Y75.506 E51.68312
G1 X119.389 Y75.506 E51.68959
G1 X124.829 Y80.946 E51.83191
G1 X124.619 Y81.086 E51.83657
G1 X119.040 Y75.506 E51.98256
G1 X118.690 Y75.506 E51.98903
G1 X124.473 Y81.289 E52.14032
G1 X124.333 Y81.499 E52.14498
G1 X118.340 Y75.506 E52.30176
G1 X117.991 Y75.506 E52.30823
G1 X124.192 Y81.708 E52.47049
G1 X124.052 Y81.918 E52.47516
G1 X117.641 Y75.506 E52.64290
G1 X117.291 Y75.506 E52.64937
G1 X123.912 Y82.128 E52.82260
G1 X123.772 Y82.337 E52.82727
G1 X116.942 Y75.506 E53.00598
G1 X116.592 Y75.506 E53.01245
G1 X123.632 Y82.547 E53.19665
G1 X123.492 Y82.756 E53.20131
G1 X116.242 Y75.506 E53.39100
G1 X115.893 Y75.506 E53.39746
G1 X123.382 Y82.996 E53.59342
G1 X123.324 Y83.288 E53.59892
G1 X115.543 Y75.506 E53.80250
G1 X115.193 Y75.506 E53.80897
G1 X123.266 Y83.579 E54.02019
G1 X123.208 Y83.871 E54.02569
G1 X114.844 Y75.506 E54.24454
G1 X114.494 Y75.506 E54.25101
G1 X123.150 Y84.163 E54.47748
G1 X123.092 Y84.454 E54.48298
G1 X114.144 Y75.506 E54.71709
G1 X113.795 Y75.506 E54.72356
G1 X123.034 Y84.746 E54.96530
G1 X122.995 Y85.056 E54.97108
G1 X113.445 Y75.506 E55.22094
G1 X113.095 Y75.506 E55.22741
G1 X123.082 Y85.493 E55.48869
G1 X123.169 Y85.929 E55.49692
G1 X112.746 Y75.506 E55.76962
G1 X112.396 Y75.506 E55.77609
G1 X123.255 Y86.366 E56.06020
G1 X123.342 Y86.802 E56.06844
G1 X112.046 Y75.506 E56.36397
G1 X111.697 Y75.506 E56.37044
G1 X123.610 Y87.420 E56.68213
G1 X124.314 Y88.473 F6000.000
G1 X111.347 Y75.506 E57.02139 F1200.000
G1 X110.997 Y75.506 E57.02786
G1 X156.494 Y121.003 E58.21819
G1 X156.494 Y121.352 E58.22466
G1 X110.648 Y75.506 E59.42414
G1 X110.298 Y75.506 E59.43060
G1 X156.494 Y121.702 E60.63923
G1 X156.494 Y122.052 E60.64570
G1 X109.948 Y75.506 E61.86348
G1 X109.599 Y75.506 E61.86995
G1 X156.494 Y122.401 E63.09687
G1 X156.494 Y122.751 E63.10334
G1 X109.249 Y75.506 E64.33941
G1 X108.899 Y75.506 E64.34588
G1 X156.494 Y123.101 E65.59110
G1 X156.494 Y123.450 E65.59757
G1 X108.550 Y75.506 E66.85194
G1 X108.200 Y75.506 E66.85841
G1 X156.494 Y123.800 E68.12193
G1 X156.494 Y124.150 E68.12840
G1 X107.850 Y75.506 E69.40106
G1 X107.501 Y75.506 E69.40753
G1 X156.471 Y124.476 E70.68875
G1 X156.138 Y124.494 E70.69491
G1 X107.151 Y75.506 E71.97657
G1 X106.801 Y75.506 E71.98304
G1 X155.788 Y124.494 E73.26470
G1 X155.439 Y124.494 E73.27117
G1 X106.452 Y75.506 E74.55284
G1 X106.102 Y75.506 E74.55930
G1 X155.089 Y124.494 E75.84097
G1 X154.739 Y124.494 E75.84744
G1 X105.752 Y75.506 E77.12910
G1 X105.403 Y75.506 E77.13557
G1 X154.390 Y124.494 E78.41723
G1 X154.040 Y124.494 E78.42370
G1 X105.053 Y75.506 E79.70537
G1 X104.703 Y75.506 E79.71183
G1 X153.691 Y124.494 E80.99350
G1 X153.341 Y124.494 E80.99997
G1 X104.354 Y75.506 E82.28163
G1 X104.004 Y75.506 E82.28810
G1 X152.991 Y124.494 E83.56976
G1 X152.642 Y124.494 E83.57623
G1 X103.654 Y75.506 E84.85789
G1 X103.305 Y75.506 E84.86436
G1 X152.292 Y124.494 E86.14603
G1 X151.942 Y124.494 E86.15250
G1 X102.955 Y75.506 E87.43416
G1 X102.605 Y75.506 E87.44063
G1 X151.593 Y124.494 E88.72229
G1 X151.243 Y124.494 E88.72876
G1 X102.256 Y75.506 E90.01042
G1 X101.906 Y75.506 E90.01689
G1 X150.893 Y124.494 E91.29856
G1 X150.544 Y124.494 E91.30503
G1 X101.556 Y75.506 E92.58669
G1 X101.207 Y75.506 E92.59316
G1 X150.194 Y124.494 E93.87482
G1 X149.844 Y124.494 E93.88129
G1 X100.857 Y75.506 E95.16295
G1 X100.507 Y75.506 E95.16942
G1 X149.495 Y124.494 E96.45109
G1 X149.145 Y124.494 E96.45756
G1 X100.158 Y75.506 E97.73922
G1 X99.808 Y75.506 E97.74569
G1 X148.795 Y124.494 E99.02735
G1 X148.446 Y124.494 E99.03382
G1 X99.458 Y75.506 E100.31548
G1 X99.109 Y75.506 E100.32195
G1 X148.096 Y124.494 E101.60362
G1 X147.746 Y124.494 E101.61009
G1 X98.759 Y75.506 E102.89175
G1 X98.409 Y75.506 E102.89822
G1 X147.397 Y124.494 E104.17988
G1 X147.047 Y124.494 E104.18635
G1 X98.060 Y75.506 E105.46801
G1 X97.710 Y75.506 E105.47448
G1 X146.697 Y124.494 E106.75615
G1 X146.348 Y124.494 E106.76262
G1 X97.360 Y75.506 E108.04428
G1 X97.011 Y75.506 E108.05075
G1 X145.998 Y124.494 E109.33241
G1 X145.648 Y124.494 E109.33888
G1 X96.661 Y75.506 E110.62054
G1 X96.311 Y75.506 E110.62701
G1 X145.299 Y124.494 E111.90868
G1 X144.949 Y124.494 E111.91514
G1 X95.962 Y75.506 E113.19681
G1 X95.612 Y75.506 E113.20328
G1 X144.599 Y124.494 E114.48494
G1 X144.250 Y124.494 E114.49141
G1 X95.262 Y75.506 E115.77307
G1 X94.913 Y75.506 E115.77954
G1 X143.900 Y124.494 E117.06121
G1 X143.550 Y124.494 E117.06767
G1 X94.563 Y75.506 E118.34934
G1 X94.213 Y75.506 E118.35581
G1 X143.201 Y124.494 E119.63747
G1 X142.851 Y124.494 E119.64394
G1 X93.864 Y75.506 E120.92560
G1 X93.514 Y75.506 E120.93207
G1 X142.501 Y124.494 E122.21374
G1 X142.152 Y124.494 E122.22020
G1 X93.164 Y75.506 E123.50187
G1 X92.815 Y75.506 E123.50834
G1 X141.802 Y124.494 E124.79000
G1 X141.452 Y124.494 E124.79647
G1 X92.465 Y75.506 E126.07813
G1 X92.115 Y75.506 E126.08460
G1 X141.103 Y124.494 E127.36627
G1 X140.753 Y124.494 E127.37273
G1 X91.766 Y75.506 E128.65440
G1 X91.416 Y75.506 E128.66087
G1 X140.403 Y124.494 E129.94253
G1 X140.054 Y124.494 E129.94900
G1 X91.066 Y75.506 E131.23066
G1 X90.717 Y75.506 E131.23713
G1 X139.704 Y124.494 E132.51879
G1 X139.354 Y124.494 E132.52526
G1 X90.367 Y75.506 E133.80693
G1 X90.017 Y75.506 E133.81340
G1 X139.005 Y124.494 E135.09506
G1 X138.655 Y124.494 E135.10153
G1 X89.668 Y75.506 E136.38319
G1 X89.318 Y75.506 E136.38966
G1 X138.305 Y124.494 E137.67132
G1 X137.956 Y124.494 E137.67779
G1 X88.968 Y75.506 E138.95946
G1 X88.619 Y75.506 E138.96593
G1 X137.606 Y124.494 E140.24759
G1 X137.256 Y124.494 E140.25406
G1 X88.269 Y75.506 E141.53572
G1 X87.919 Y75.506 E141.54219
G1 X136.907 Y124.494 E142.82385
G1 X136.557 Y124.494 E142.83032
G1 X87.570 Y75.506 E144.11199
G1 X87.220 Y75.506 E144.11846
G1 X136.207 Y124.494 E145.40012
G1 X135.858 Y124.494 E145.40659
G1 X86.870 Y75.506 E146.68825
G1 X86.521 Y75.506 E146.69472
G1 X135.508 Y124.494 E147.97638
G1 X135.158 Y124.494 E147.98285
G1 X86.171 Y75.506 E149.26452
G1 X85.822 Y75.506 E149.27099
G1 X134.809 Y124.494 E150.55265
G1 X134.459 Y124.494 E150.55912
G1 X85.472 Y75.506 E151.84078
G1 X85.122 Y75.506 E151.84725
