; generated by Slic3r 1.1.7 on 2015-02-22 at 17:33:04

; perimeters extrusion width = 0.47mm
; infill extrusion width = 0.62mm
; solid infill extrusion width = 0.62mm
; top infill extrusion width = 0.62mm
; support material extrusion width = 0.47mm

G21 ; set units to millimeters
M190 S60 ; wait for bed temperature to be reached
M104 S230 ; set temperature
G28 ; home all axes Start of G Code Slic3r
 
 
M109 S230 ; wait for temperature to be reached
G90 ; use absolute coordinates
G92 E0
M82 ; use absolute distances for extrusion
G1 F4200.000 E-3.00000
G92 E0
G1 Z0.294 F6000.000
G1 X52.580 Y91.308 F6000.000
G1 E3.00000 F4200.000
G1 X56.603 Y89.619 E3.33692 F900.000
G1 X57.909 Y89.217 E3.44244
G1 X59.492 Y88.905 E3.56701
G1 X64.629 Y88.186 E3.96758
G1 X75.578 Y87.540 E4.81455
G1 X82.085 Y87.260 E5.31747
G1 X87.651 Y87.069 E5.74757
G1 X97.214 Y87.025 E6.48605
G1 X142.283 Y87.313 E9.96640
G1 X145.031 Y87.883 E10.18317 F900.000
G1 X147.630 Y88.991 E10.40135
G1 X149.932 Y90.566 E10.61671
G1 X150.627 Y91.277 E10.69350
G1 X151.982 Y93.233 E10.87721
G1 X152.632 Y95.679 E11.07266
G1 X152.802 Y98.061 E11.25712
G1 X152.799 Y100.392 E11.43711
G1 X152.725 Y102.637 E11.61051
G1 X151.974 Y105.596 E11.84629
G1 X150.908 Y107.723 E12.03001
G1 X149.187 Y109.930 E12.24615
G1 X147.337 Y111.522 E12.43459
G1 X145.300 Y112.751 E12.61830
G1 X142.652 Y113.247 E12.82639
G1 X89.089 Y112.965 E16.96269
G1 X85.747 Y112.907 E17.22078
G1 X75.418 Y112.429 E18.01930
G1 X69.191 Y112.092 E18.50083
G1 X63.568 Y111.703 E18.93609
G1 X59.081 Y111.043 E19.28631
G1 X56.281 Y110.350 E19.50905
G1 X53.620 Y109.366 E19.72815
G1 X52.030 Y108.537 E19.86662
G1 X50.367 Y107.273 E20.02795
G1 X49.658 Y106.589 E20.10399
G1 X48.244 Y104.676 E20.28770
G1 X47.784 Y103.529 E20.38315
G1 X47.387 Y102.222 E20.48859
G1 X47.086 Y99.862 E20.67230
G1 X47.835 Y96.960 E20.90375
G1 X48.978 Y94.681 E21.10067
G1 X50.384 Y92.762 E21.28438
G1 X52.522 Y91.346 E21.48234
G1 X52.799 Y91.826 F6000.000
G1 X56.820 Y90.138 E21.81907 F900.000
G1 X58.023 Y89.768 E21.91627
G1 X59.573 Y89.461 E22.03830
G1 X64.662 Y88.747 E22.43518
G1 X75.602 Y88.101 E23.28146
G1 X82.104 Y87.821 E23.78402
G1 X87.654 Y87.631 E24.21281
G1 X97.211 Y87.588 E24.95081
G1 X142.279 Y87.875 E28.43116
G1 X144.811 Y88.401 E28.63082 F900.000
G1 X147.410 Y89.509 E28.84900
G1 X149.530 Y90.959 E29.04737
G1 X150.225 Y91.670 E29.12416
G1 X151.512 Y93.555 E29.30042
G1 X152.072 Y95.724 E29.47340
G1 X152.240 Y98.061 E29.65434
G1 X152.237 Y100.374 E29.83291
G1 X152.163 Y102.618 E30.00632
G1 X151.471 Y105.344 E30.22349
G1 X150.405 Y107.471 E30.40721
G1 X148.820 Y109.504 E30.60629
G1 X146.970 Y111.096 E30.79473
G1 X145.008 Y112.261 E30.97099
G1 X142.655 Y112.685 E31.15563
G1 X89.098 Y112.403 E35.29145
G1 X85.773 Y112.346 E35.54824
G1 X75.448 Y111.867 E36.34644
G1 X69.228 Y111.531 E36.82746
G1 X63.647 Y111.146 E37.25945
G1 X59.204 Y110.495 E37.60620
G1 X56.476 Y109.822 E37.82316
G1 X53.815 Y108.839 E38.04226
G1 X52.350 Y108.075 E38.16981
G1 X50.757 Y106.868 E38.32419
G1 X50.048 Y106.185 E38.40022
G1 X48.322 Y103.365 E38.65549
G1 X47.925 Y102.059 E38.76093
G1 X47.652 Y99.793 E38.93719
G1 X48.338 Y97.212 E39.14337
G1 X49.481 Y94.932 E39.34030
G1 X50.843 Y93.101 E39.51655
G1 X52.740 Y91.864 E39.69143
G1 F4200.000 E36.69143
G92 E0
G1 X106.005 Y100.715 F6000.000
G1 E3.00000 F4200.000
G1 X105.685 Y100.524 E3.02876 F441.000
G1 X105.411 Y100.280 E3.05710
G1 X105.308 Y100.101 E3.07303
G1 X105.300 Y99.933 E3.08602
G1 X105.387 Y99.749 E3.10174
G1 X105.574 Y99.562 E3.12218
G1 X105.999 Y99.281 E3.16151
G1 X106.254 Y99.522 E3.18860
G1 X106.162 Y99.685 E3.20305
G1 X106.097 Y100.000 E3.22787
G1 X106.160 Y100.308 E3.25211
G1 X106.252 Y100.477 E3.26699
G1 X106.055 Y100.666 E3.28803
G1 X105.853 Y100.375 F6000.000
G1 X107.684 Y100.049 F6000.000
G1 X107.688 Y99.979 E3.29347 F441.000
G1 X107.626 Y99.692 E3.31616
G1 X107.457 Y99.440 E3.33961
G1 X106.826 Y99.022 E3.39801
G1 X107.715 Y98.802 E3.46872
G1 X108.524 Y98.704 E3.53167
G1 X109.296 Y98.640 E3.59150
G1 X111.124 Y98.667 E3.73269
G1 X111.558 Y98.710 E3.76630
G1 X112.807 Y98.898 E3.86383
G1 X114.333 Y99.295 E3.98563
G1 X114.483 Y99.368 E3.99853
G1 X115.044 Y99.760 E4.05135
G1 X115.124 Y100.095 E4.07795
G1 X114.732 Y100.508 E4.12190
G1 X114.526 Y100.603 E4.13943
G1 X113.113 Y101.058 E4.25401
G1 X112.820 Y101.116 E4.27712
G1 X111.122 Y101.312 E4.40910
G1 X109.299 Y101.343 E4.54994
G1 X107.564 Y101.174 E4.68448
G1 X106.690 Y101.011 E4.75320
G1 X107.256 Y100.704 E4.80293
G1 X107.464 Y100.555 E4.82271
G1 X107.614 Y100.335 E4.84323
G1 X107.677 Y100.120 E4.86059
G1 X107.749 Y100.021 F6000.000
G1 X108.106 Y100.661 F6000.000
G1 X108.220 Y100.283 E4.89113 F630.000
G1 X108.253 Y99.939 E4.91783
G1 X108.194 Y99.624 E4.94257
G1 X108.098 Y99.322 E4.96707
G1 X109.314 Y99.203 E5.06150
G1 X111.092 Y99.229 E5.19877
G1 X111.488 Y99.268 E5.22951
G1 X112.694 Y99.449 E5.32366
G1 X114.089 Y99.812 E5.43500
G1 X114.099 Y100.150 E5.46108
G1 X112.972 Y100.513 E5.55250
G1 X112.733 Y100.560 E5.57134
G1 X111.085 Y100.751 E5.69941
G1 X109.321 Y100.780 E5.83566
G1 X108.176 Y100.668 E5.92449
G1 X108.609 Y100.285 F6000.000
G1 X108.650 Y100.325 E5.92893 F900.000
G1 X109.538 Y99.633 E6.01587
G1 X109.498 Y99.593 E6.02028
G1 X109.926 Y99.990 F6000.000
G1 X111.399 Y99.986 E6.18575 F600.000
G1 X112.820 Y100.011 E6.34554
G1 F4200.000 E3.34554
G92 E0
G1 X123.980 Y96.491 F6000.000
G1 E3.00000 F4200.000
G1 X122.341 Y99.761 E3.30163 F450.000
G1 X122.071 Y98.960 E3.37134
G1 X123.443 Y96.223 E3.62385
G1 X122.874 Y96.017 E3.67372
G1 X121.647 Y98.466 E3.89958
G1 X121.180 Y98.059 E3.95071
G1 X122.306 Y95.812 E4.15799
G1 X121.724 Y95.633 E4.20820
G1 X120.657 Y97.762 E4.40459
G1 X120.133 Y97.466 E4.45416
G1 X121.119 Y95.499 E4.63567
G1 X120.515 Y95.365 E4.68673
G1 X119.559 Y97.272 E4.86269
G1 X118.978 Y97.091 E4.91286
G1 X119.906 Y95.240 E5.08358
G1 X119.288 Y95.132 E5.13528
G1 X118.398 Y96.909 E5.29919
G1 X117.796 Y96.769 E5.35012
G1 X118.665 Y95.035 E5.51012
G1 X118.034 Y94.955 E5.56263
G1 X117.178 Y96.662 E5.72006
G1 X116.560 Y96.555 E5.77177
G1 X117.396 Y94.888 E5.92547
G1 X116.758 Y94.821 E5.97838
G1 X115.935 Y96.463 E6.12979
G1 X115.304 Y96.382 E6.18226
G1 X116.117 Y94.760 E6.33189
G1 X115.471 Y94.709 E6.38535
G1 X114.673 Y96.301 E6.53225
G1 X114.030 Y96.242 E6.58543
G1 X114.825 Y94.658 E6.73160
G1 X114.173 Y94.618 E6.78544
G1 X113.383 Y96.193 E6.93075
G1 X112.733 Y96.151 E6.98452
G1 X113.520 Y94.580 E7.12943
G1 X112.868 Y94.543 E7.18335
G1 X112.076 Y96.122 E7.32907
G1 X111.419 Y96.093 E7.38332
G1 X112.015 Y94.904 E7.49303
G1 X111.355 Y94.880 E7.54746
G1 X110.756 Y96.076 E7.65782
G1 X110.088 Y96.068 E7.71289
G1 X110.690 Y94.867 E7.82372
G1 X110.022 Y94.859 E7.87879
G1 X109.420 Y96.060 E7.98962
G1 X108.743 Y96.071 E8.04546
G1 X109.355 Y94.851 E8.15802
G1 X108.875 Y94.468 E8.20865
G1 X108.063 Y96.088 E8.35818
G1 X107.381 Y96.110 E8.41447
G1 X108.200 Y94.475 E8.56529
G1 X107.525 Y94.482 E8.62099
G1 X106.687 Y96.154 E8.77518
G1 X105.992 Y96.200 E8.83263
G1 X106.840 Y94.508 E8.98872
G1 X106.154 Y94.538 E9.04540
G1 X105.274 Y96.293 E9.20727
G1 X104.552 Y96.394 E9.26745
G1 X105.461 Y94.580 E9.43485
G1 X104.763 Y94.632 E9.49256
G1 X103.821 Y96.512 E9.66603
G1 X103.072 Y96.666 E9.72905
G1 X104.064 Y94.686 E9.91166
G1 X103.355 Y94.762 E9.97052
G1 X102.305 Y96.856 E10.16367
G1 X101.485 Y97.152 E10.23556
G1 X102.642 Y94.844 E10.44852
G1 X101.925 Y94.935 E10.50818
G1 X100.626 Y97.526 E10.74714
G1 X99.566 Y98.301 E10.85544
G1 X101.186 Y95.069 E11.15358
G1 X100.440 Y95.217 E11.21630
G1 X96.414 Y103.251 E11.95737
G1 X96.931 Y103.558 E12.00701
G1 X98.769 Y99.893 E12.34514
G1 X98.949 Y100.872 E12.42730
G1 X97.470 Y103.824 E12.69962
G1 X98.016 Y104.074 E12.74917
G1 X99.334 Y101.444 E12.99178
G1 X99.778 Y101.900 E13.04420
G1 X98.582 Y104.286 E13.26435
G1 X99.169 Y104.453 E13.31475
G1 X100.259 Y102.278 E13.51537
G1 X100.794 Y102.551 E13.56489
G1 X99.757 Y104.620 E13.75569
G1 X100.348 Y104.781 E13.80619
G1 X101.346 Y102.791 E13.98977
G1 X101.902 Y103.021 E14.03942
G1 X100.966 Y104.888 E14.21159
G1 X101.585 Y104.993 E14.26336
G1 X102.491 Y103.185 E14.43013
G1 X103.092 Y103.327 E14.48103
G1 X102.205 Y105.097 E14.64438
G1 X102.836 Y105.177 E14.69688
G1 X103.693 Y103.468 E14.85454
G1 X104.306 Y103.585 E14.90600
G1 X103.468 Y105.257 E15.06019
G1 X104.104 Y105.328 E15.11297
G1 X104.939 Y103.662 E15.26667
G1 X105.572 Y103.738 E15.31928
G1 X104.754 Y105.371 E15.46991
G1 X105.404 Y105.414 E15.52364
G1 X106.214 Y103.797 E15.67276
G1 X106.862 Y103.844 E15.72636
G1 X106.057 Y105.450 E15.87455
G1 X106.717 Y105.475 E15.92896
G1 X107.511 Y103.891 E16.07512
G1 X108.173 Y103.909 E16.12978
G1 X107.375 Y105.500 E16.27658
G1 X108.034 Y105.526 E16.33097
G1 X108.835 Y103.928 E16.47838
G1 X109.502 Y103.938 E16.53336
G1 X108.901 Y105.137 E16.64396
G1 X109.571 Y105.140 E16.69920
G1 X110.178 Y103.928 E16.81099
G1 X110.854 Y103.920 E16.86675
G1 X110.247 Y105.131 E16.97850
G1 X110.923 Y105.123 E17.03424
G1 X111.537 Y103.897 E17.14730
G1 X112.226 Y103.863 E17.20417
G1 X111.605 Y105.102 E17.31848
G1 X112.084 Y105.487 E17.36914
G1 X112.914 Y103.829 E17.52204
G1 X113.614 Y103.774 E17.57991
G1 X112.773 Y105.451 E17.73466
G1 X113.463 Y105.415 E17.79160
G1 X114.313 Y103.718 E17.94816
G1 X115.018 Y103.652 E18.00654
G1 X114.152 Y105.380 E18.16594
G1 X114.843 Y105.342 E18.22299
G1 X115.729 Y103.573 E18.38613
G1 X116.447 Y103.481 E18.44580
G1 X115.539 Y105.293 E18.61289
G1 X116.235 Y105.244 E18.67045
G1 X117.192 Y103.335 E18.84655
G1 X117.937 Y103.187 E18.90922
G1 X116.946 Y105.166 E19.09178
G1 X117.658 Y105.084 E19.15096
G1 X118.699 Y103.007 E19.34257
G1 X119.501 Y102.748 E19.41202
G1 X118.373 Y104.997 E19.61952
G1 X119.100 Y104.887 E19.68014
G1 X120.335 Y102.423 E19.90750
G1 X121.304 Y101.831 E20.00111
G1 X119.828 Y104.775 E20.27278
G1 X120.566 Y104.643 E20.33459
G1 X124.501 Y96.792 E21.05883
G1 X124.997 Y97.142 E21.10890
G1 X121.332 Y104.454 E21.78340
G1 X122.107 Y104.247 E21.84956
G1 X125.465 Y97.548 E22.46758
G1 X125.890 Y98.041 E22.52123
G1 X122.911 Y103.983 E23.06942
G1 X123.758 Y103.633 E23.14500
G1 X126.271 Y98.620 E23.60747
G1 X126.526 Y99.452 E23.67921
G1 X124.718 Y103.059 E24.01195
G1 X126.053 Y101.734 F6000.000
G1 X126.403 Y101.037 E24.07625 F450.000
G1 F4200.000 E21.07625
G92 E0
G1 X99.677 Y95.401 F6000.000
G1 E3.00000 F4200.000
G1 X95.919 Y102.898 E3.69156 F450.000
G1 X95.470 Y102.454 E3.74364
G1 X98.900 Y95.610 E4.37496
G1 X98.079 Y95.908 E4.44697
G1 X95.044 Y101.965 E5.00570
G1 X94.682 Y101.346 E5.06478
G1 X97.218 Y96.287 E5.53151
G1 X96.277 Y96.825 E5.62090
G1 X94.429 Y100.512 E5.96102
G1 X94.700 Y98.629 F6000.000
G1 X94.853 Y98.326 E5.98902 F450.000
G1 F4200.000 E2.98902
G92 E0
G1 X96.060 Y96.363 F6000.000
G1 E3.00000 F4200.000
G1 X97.169 Y94.150 E3.15980 F900.000
G1 X98.141 Y94.308 F6000.000
G1 X97.496 Y95.595 E3.25277 F900.000
G1 X98.789 Y95.113 E3.34185
G1 X99.102 Y94.488 E3.38701
G1 X99.997 Y94.800 E3.44820
G1 X100.238 Y94.319 E3.48297
G1 X101.171 Y94.556 E3.54509
G1 X101.219 Y94.460 E3.55199
G1 F4200.000 E0.55199
G92 E0
G1 X96.011 Y94.363 F6000.000
G1 E3.00000 F4200.000
G1 X90.278 Y105.800 E3.82595 F900.000
G1 X89.206 Y105.842 F6000.000
G1 X95.037 Y94.207 E4.66611 F900.000
G1 X93.897 Y94.384 E4.74058
G1 X88.264 Y105.622 E5.55212
G1 X87.172 Y105.704 E5.62286
G1 X92.869 Y94.337 E6.44369
G1 X91.881 Y94.211 E6.50801
G1 X86.077 Y105.791 E7.34418
G1 X85.136 Y105.569 E7.40655
G1 X90.792 Y94.284 E8.22146
G1 X89.691 Y94.385 E8.29288
G1 X84.037 Y105.664 E9.10738
G1 X83.096 Y105.444 E9.16978
G1 X88.701 Y94.262 E9.97725
G1 X87.684 Y94.193 F6000.000
G1 X81.991 Y105.551 E10.79741 F900.000
G1 X81.048 Y105.334 E10.85987
G1 X86.503 Y94.451 E11.64577
G1 X85.523 Y94.309 E11.70973
G1 X79.938 Y105.453 E12.51439
G1 X78.989 Y105.246 E12.57703
G1 X84.459 Y94.333 E13.36509
G1 X83.331 Y94.487 E13.43861
G1 X77.870 Y105.382 E14.22534
G1 X76.918 Y105.183 E14.28811
G1 X82.333 Y94.380 E15.06823
G1 X81.154 Y94.635 E15.14613
G1 X75.801 Y105.314 E15.91731
G1 X74.834 Y105.145 E15.98066
G1 X80.164 Y94.512 E16.74847
G1 X78.995 Y94.746 E16.82542
G1 X73.875 Y104.962 E17.56309
G1 X72.745 Y105.119 E17.63677
G1 X78.015 Y94.604 E18.39609
G1 X76.850 Y94.830 E18.47267
G1 X71.770 Y104.965 E19.20458
G1 X70.797 Y104.808 E19.26819
G1 X75.885 Y94.658 E20.00119
G1 X74.722 Y94.880 E20.07761
G1 X69.658 Y104.983 E20.80722
G1 X68.673 Y104.851 E20.87138
G1 X73.625 Y94.970 E21.58484
G1 X72.612 Y94.895 E21.65045
G1 X67.688 Y104.718 E22.35980
G1 X66.705 Y104.583 E22.42391
G1 X71.466 Y95.083 E23.10987
G1 X70.320 Y95.272 E23.18482
G1 X65.721 Y104.447 E23.84741
G1 X64.569 Y104.649 E23.92295
G1 X69.378 Y95.054 E24.61583
G1 X68.252 Y95.203 E24.68917
G1 X63.608 Y104.468 E25.35825
G1 X62.652 Y104.277 E25.42117
G1 X67.125 Y95.353 E26.06558
G1 X65.992 Y95.515 E26.13944
G1 X61.718 Y104.043 E26.75525
G1 X60.642 Y104.092 E26.82478
G1 X65.050 Y95.298 E27.45981
G1 X63.909 Y95.475 E27.53430
G1 X59.758 Y103.757 E28.13236
G1 X58.752 Y103.667 E28.19760
G1 X62.740 Y95.711 E28.77217
G1 X61.560 Y95.966 E28.85006
G1 X57.933 Y103.204 E29.37273
G1 X56.992 Y102.983 E29.43512
G1 X60.514 Y95.955 E29.94262
G1 X59.342 Y96.196 E30.01986
G1 X56.091 Y102.684 E30.48835
G1 X55.310 Y102.142 F6000.000
G1 X58.013 Y96.749 E30.87779 F900.000
G1 X56.675 Y97.321 E30.97174
G1 X54.601 Y101.459 E31.27055
G1 X54.205 Y100.153 E31.35870
G1 X55.347 Y97.873 E31.52332
G1 F4200.000 E28.52332
G92 E0
G1 X93.931 Y100.610 F6000.000
G1 E3.00000 F4200.000
G1 X91.386 Y105.688 E3.36669 F900.000
G1 X92.494 Y105.575 E3.43859
G1 X94.374 Y101.823 E3.70953
G1 X94.992 Y102.688 E3.77816
G1 X93.424 Y105.816 E4.00405
G1 X94.539 Y105.690 E4.07649
G1 X95.704 Y103.366 E4.24426
G1 X96.487 Y103.902 E4.30551
G1 X95.655 Y105.561 E4.42530
G1 X96.603 Y105.768 E4.48792
G1 X97.330 Y104.318 E4.59269
G1 X98.193 Y104.693 E4.65346
G1 X97.731 Y105.615 E4.72003
G1 X98.690 Y105.800 E4.78308
G1 X99.109 Y104.963 E4.84354
G1 X99.834 Y105.614 E4.90646
G1 X100.030 Y105.224 E4.93463
G1 X100.807 Y105.772 E4.99600
G1 X100.990 Y105.406 E5.02245
G1 F4200.000 E2.02245
G92 E0
G1 X120.924 Y105.492 F6000.000
G1 E3.00000 F4200.000
G1 X121.162 Y105.018 E3.03427 F900.000
G1 X122.375 Y104.695 E3.11531
G1 X122.084 Y105.276 E3.15728
G1 X123.042 Y105.463 E3.22029
G1 X123.664 Y104.221 E3.30994
G1 X125.135 Y103.385 E3.41914
G1 X124.229 Y105.192 E3.54964
G1 X125.214 Y105.324 E3.61382
G1 X130.440 Y94.898 E4.36669
G1 X131.464 Y94.952 E4.43292
G1 X126.200 Y105.456 E5.19144
G1 X127.296 Y105.367 E5.26244
G1 X132.494 Y94.996 E6.01136
G1 X133.509 Y95.068 E6.07707
G1 X128.469 Y105.125 E6.80332
G1 X129.549 Y105.067 E6.87319
G1 X134.687 Y94.815 E7.61350
G1 X135.697 Y94.900 F6000.000
G1 X130.615 Y105.039 E8.34567 F900.000
G1 X131.698 Y104.976 E8.41569
G1 X136.537 Y95.322 E9.11288
G1 X137.693 Y95.112 E9.18875
G1 X132.726 Y105.022 E9.90434
G1 X133.743 Y105.092 E9.97011
G1 X138.891 Y94.819 E10.71190
G1 X139.908 Y94.889 E10.77767
G1 X134.747 Y105.186 E11.52124
G1 X135.894 Y104.995 E11.59632
G1 X140.992 Y94.824 E12.33080
G1 F4200.000 E9.33080
G92 E0
G1 X143.198 Y96.717 F6000.000
G1 E3.00000 F4200.000
G1 X141.722 Y99.660 E3.21255 F900.000
G1 X141.194 Y98.616 F6000.000
G1 X142.814 Y95.383 E3.44597 F900.000
G1 X142.237 Y94.437 E3.51752
G1 X136.999 Y104.889 E4.27223
G1 X137.969 Y105.050 E4.33574
G1 X140.683 Y99.635 E4.72678
G1 X140.928 Y101.244 E4.83185
G1 X138.942 Y105.207 E5.11805
G1 X140.078 Y105.040 E5.19215
G1 X144.148 Y96.918 E5.77867
G1 X144.527 Y96.162 F6000.000
G1 X144.836 Y95.545 E5.82320 F900.000
G1 X145.531 Y96.256 E5.88739
G1 X141.046 Y105.206 E6.53364
G1 X142.689 Y106.123 F6000.000
G1 X142.814 Y105.873 E6.55169 F900.000
G1 X141.987 Y105.425 E6.61241
G1 X145.678 Y98.061 E7.14416
G1 X145.678 Y100.159 E7.27959
G1 X144.223 Y103.063 E7.48928
G1 X144.539 Y104.531 F6000.000
G1 X145.605 Y102.404 E7.64287 F900.000
G1 F4200.000 E4.64287
G92 E0
G1 X127.040 Y99.583 F6000.000
G1 E3.00000 F4200.000
G1 X129.394 Y94.887 E3.33910 F900.000
G1 X128.344 Y94.884 E3.40687
G1 X126.657 Y98.251 E3.65001
G1 X126.037 Y97.391 E3.71849
G1 X127.432 Y94.606 E3.91959
G1 X126.411 Y94.545 E3.98563
G1 X125.310 Y96.743 E4.14429
G1 X124.523 Y96.214 E4.20547
