; generated by Slic3r 1.1.7 on 2015-03-11 at 06:46:29

; perimeters extrusion width = 0.40mm
; infill extrusion width = 0.42mm
; solid infill extrusion width = 0.42mm
; top infill extrusion width = 0.42mm
; support material extrusion width = 0.40mm

G21 ; set units to millimeters
M190 S60 ; wait for bed temperature to be reached
M104 S215 ; set temperature
M106 S255; Turn on Fan fully
G28 ; home all axes Start of G Code Slic3r
 
  
M109 S215 ; wait for temperature to be reached
G90 ; use absolute coordinates
G92 E0
M82 ; use absolute distances for extrusion
G1 F1980.000 E-4.00000
G92 E0
G1 Z0.300 F6000.000
G1 X47.889 Y75.280 F6000.000
G1 E4.00000 F1980.000
G1 X48.513 Y74.926 E4.03014 F1650.000
G1 X49.434 Y74.485 E4.07299
G1 X49.757 Y74.351 E4.08770
G1 X50.862 Y74.003 E4.13634
G1 X51.651 Y73.837 E4.17018
G1 X52.849 Y73.728 E4.22072
G1 X96.297 Y73.709 E6.04516
G1 X119.306 Y73.725 E7.01136 F1650.000
G1 X120.604 Y73.854 E7.06614
G1 X144.604 Y78.654 E8.09391
G1 X146.744 Y79.487 E8.19035
G1 X148.473 Y80.999 E8.28678
G1 X149.723 Y83.470 E8.40306
G1 X157.508 Y113.086 E9.68896
G1 X157.674 Y114.616 E9.75356
G1 X157.679 Y114.885 E9.76488
G1 X157.652 Y116.072 E9.81474
G1 X157.443 Y117.605 E9.87970
G1 X157.065 Y119.029 E9.94157
G1 X156.505 Y120.417 E10.00441
G1 X156.048 Y121.268 E10.04498
G1 X155.595 Y121.959 E10.07967
G1 X154.619 Y123.169 E10.14496
G1 X153.901 Y123.880 E10.18738
G1 X153.356 Y124.332 E10.21712
G1 X152.333 Y125.056 E10.26974
G1 X151.629 Y125.460 E10.30384
G1 X151.272 Y125.638 E10.32060
G1 X150.439 Y126.001 E10.35872
G1 X149.335 Y126.349 E10.40737
G1 X148.783 Y126.465 E10.43105
G1 X147.714 Y126.604 E10.47630
G1 X84.262 Y129.827 E13.14423
G1 X83.553 Y129.846 E13.17399
G1 X82.069 Y129.720 E13.23654
G1 X56.069 Y124.520 E14.34996
G1 X53.929 Y123.687 E14.44640
G1 X52.200 Y122.175 E14.54284
G1 X50.949 Y119.702 E14.65919
G1 X42.539 Y87.683 E16.04936
G1 X42.480 Y87.267 E16.06702
G1 X42.365 Y86.094 E16.11648
G1 X42.386 Y84.584 E16.17992
G1 X42.601 Y82.992 E16.24738
G1 X42.992 Y81.514 E16.31157
G1 X43.570 Y80.076 E16.37666
G1 X44.042 Y79.204 E16.41827
G1 X44.510 Y78.487 E16.45426
G1 X44.749 Y78.167 E16.47103
G1 X45.519 Y77.231 E16.52190
G1 X46.253 Y76.511 E16.56507
G1 X46.825 Y76.036 E16.59630
G1 X47.840 Y75.315 E16.64859
G1 F1980.000 E12.64859
G92 E0
G1 X48.057 Y75.555 F6000.000
G1 E4.00000 F1980.000
G1 X48.658 Y75.213 E4.02906 F1650.000
G1 X49.557 Y74.782 E4.07091
G1 X50.932 Y74.316 E4.13187
G1 X51.709 Y74.153 E4.16521
G1 X52.849 Y74.049 E4.21330
G1 X96.297 Y74.031 E6.03773
G1 X119.306 Y74.047 E7.00393 F1650.000
G1 X120.541 Y74.170 E7.05606
G1 X144.541 Y78.970 E8.08382
G1 X146.625 Y79.791 E8.17788
G1 X148.291 Y81.288 E8.27194
G1 X149.413 Y83.552 E8.37804
G1 X157.190 Y113.131 E9.66235
G1 X157.353 Y114.621 E9.72530
G1 X157.358 Y114.891 E9.73662
G1 X157.333 Y116.039 E9.78486
G1 X157.130 Y117.533 E9.84814
G1 X156.762 Y118.919 E9.90838
G1 X156.219 Y120.270 E9.96951
G1 X155.770 Y121.106 E10.00937
G1 X155.338 Y121.766 E10.04251
G1 X154.389 Y122.945 E10.10604
G1 X153.685 Y123.642 E10.14765
G1 X153.165 Y124.074 E10.17604
G1 X152.166 Y124.781 E10.22743
G1 X151.484 Y125.173 E10.26044
G1 X150.719 Y125.537 E10.29605
G1 X149.265 Y126.035 E10.36058
G1 X148.725 Y126.149 E10.38377
G1 X147.698 Y126.283 E10.42724
G1 X84.253 Y129.506 E13.09486
G1 X83.544 Y129.525 E13.12462
G1 X82.132 Y129.405 E13.18414
G1 X56.132 Y124.205 E14.29756
G1 X54.048 Y123.383 E14.39162
G1 X52.382 Y121.887 E14.48568
G1 X51.260 Y119.620 E14.59186
G1 X42.858 Y87.638 E15.98043
G1 X42.799 Y87.222 E15.99809
G1 X42.686 Y86.088 E16.04591
G1 X42.706 Y84.617 E16.10772
G1 X42.914 Y83.064 E16.17351
G1 X43.294 Y81.624 E16.23606
G1 X43.856 Y80.222 E16.29945
G1 X44.319 Y79.366 E16.34034
G1 X44.768 Y78.679 E16.37478
G1 X45.007 Y78.359 E16.39155
G1 X45.750 Y77.456 E16.44067
G1 X46.469 Y76.749 E16.48302
G1 X47.017 Y76.294 E16.51291
G1 X48.007 Y75.589 E16.56397
G1 F1980.000 E12.56397
G92 E0
G1 X57.843 Y117.619 F6000.000
G1 E4.00000 F1980.000
G1 X57.843 Y102.792 E4.62261 F900.000
G1 X83.415 Y97.678 E5.71767
G1 X84.034 Y97.695 E5.74370
G1 X84.707 Y97.749 E5.77206
G1 X85.385 Y97.840 E5.80078
G1 X86.029 Y97.963 E5.82831
G1 X86.624 Y98.107 E5.85401
G1 X87.218 Y98.283 E5.88002
G1 X87.852 Y98.506 E5.90822
G1 X88.449 Y98.753 E5.93535
G1 X88.956 Y98.991 E5.95890
G1 X89.491 Y99.274 E5.98431
G1 X90.037 Y99.598 E6.01096
G1 X90.514 Y99.913 E6.03499
G1 X90.980 Y100.252 E6.05919
G1 X91.469 Y100.646 E6.08553
G1 X91.911 Y101.038 E6.11036
G1 X92.313 Y101.430 E6.13395
G1 X92.764 Y101.914 E6.16172
G1 X93.129 Y102.347 E6.18548
G1 X93.471 Y102.791 E6.20902
G1 X93.830 Y103.308 E6.23543
G1 X94.139 Y103.801 E6.25990
G1 X94.434 Y104.325 E6.28516
G1 X94.720 Y104.899 E6.31205
G1 X94.958 Y105.439 E6.33686
G1 X95.176 Y106.008 E6.36242
G1 X95.388 Y106.662 E6.39130
G1 X95.541 Y107.228 E6.41591
G1 X95.672 Y107.828 E6.44171
G1 X95.786 Y108.518 E6.47110
G1 X95.859 Y109.185 E6.49927
G1 X95.895 Y109.853 E6.52737
G1 X95.896 Y110.539 E6.55615
G1 X95.855 Y111.263 E6.58660
G1 X95.779 Y111.943 E6.61535
G1 X95.684 Y112.524 E6.64008
G1 X95.548 Y113.157 E6.66726
G1 X95.370 Y113.811 E6.69569
G1 X95.173 Y114.413 E6.72231
G1 X94.968 Y114.948 E6.74634
G1 X94.721 Y115.514 E6.77229
G1 X94.455 Y116.046 E6.79728
G1 X94.133 Y116.621 E6.82495
G1 X93.821 Y117.118 E6.84957
G1 X93.497 Y117.585 E6.87347
G1 X93.133 Y118.060 E6.89858
G1 X92.728 Y118.539 E6.92492
G1 X92.345 Y118.949 E6.94848
G1 X91.901 Y119.383 E6.97456
G1 X91.478 Y119.759 E6.99832
G1 X91.039 Y120.114 E7.02203
G1 X90.539 Y120.482 E7.04811
G1 X89.993 Y120.842 E7.07555
G1 X89.511 Y121.127 E7.09909
G1 X88.983 Y121.408 E7.12420
G1 X88.410 Y121.677 E7.15075
G1 X87.877 Y121.896 E7.17495
G1 X87.256 Y122.117 E7.20265
G1 X86.671 Y122.292 E7.22829
G1 X86.023 Y122.451 E7.25631
G1 X85.360 Y122.576 E7.28464
G1 X84.750 Y122.658 E7.31047
G1 X84.110 Y122.712 E7.33745
G1 X83.412 Y122.733 E7.36678
G1 X57.902 Y117.631 E8.45920
G1 F1980.000 E4.45920
G92 E0
G1 X57.522 Y117.883 F6000.000
G1 E4.00000 F1980.000
G1 X57.522 Y102.529 E4.64475 F720.000
G1 X83.386 Y97.356 E5.75233
G1 X84.052 Y97.374 E5.78031
G1 X84.743 Y97.429 E5.80941
G1 X85.438 Y97.523 E5.83887
G1 X86.092 Y97.648 E5.86684
G1 X86.709 Y97.797 E5.89350
G1 X87.312 Y97.975 E5.91989
G1 X87.966 Y98.205 E5.94903
G1 X88.583 Y98.461 E5.97707
G1 X89.100 Y98.704 E6.00106
G1 X89.650 Y98.994 E6.02715
G1 X90.213 Y99.329 E6.05467
G1 X90.701 Y99.651 E6.07920
G1 X91.173 Y99.995 E6.10373
G1 X91.679 Y100.403 E6.13105
G1 X92.127 Y100.801 E6.15620
G1 X92.541 Y101.203 E6.18045
G1 X93.007 Y101.704 E6.20919
G1 X93.377 Y102.143 E6.23328
G1 X93.729 Y102.600 E6.25747
G1 X94.101 Y103.134 E6.28482
G1 X94.415 Y103.636 E6.30968
G1 X94.718 Y104.174 E6.33561
G1 X95.014 Y104.767 E6.36344
G1 X95.255 Y105.317 E6.38868
G1 X95.479 Y105.900 E6.41488
G1 X95.698 Y106.575 E6.44467
G1 X95.854 Y107.155 E6.46991
G1 X95.987 Y107.763 E6.49603
G1 X96.105 Y108.481 E6.52659
G1 X96.179 Y109.156 E6.55511
G1 X96.216 Y109.839 E6.58385
G1 X96.217 Y110.548 E6.61359
G1 X96.175 Y111.296 E6.64506
G1 X96.102 Y111.955 E6.67293
G1 X96.006 Y112.548 E6.69816
G1 X95.860 Y113.235 E6.72762
G1 X95.676 Y113.909 E6.75695
G1 X95.476 Y114.521 E6.78399
G1 X95.266 Y115.070 E6.80868
G1 X95.011 Y115.650 E6.83530
G1 X94.742 Y116.192 E6.86070
G1 X94.409 Y116.787 E6.88934
G1 X94.088 Y117.297 E6.91464
G1 X93.759 Y117.771 E6.93889
G1 X93.386 Y118.258 E6.96465
G1 X92.965 Y118.755 E6.99196
G1 X92.578 Y119.171 E7.01585
G1 X92.122 Y119.616 E7.04259
G1 X91.688 Y120.002 E7.06700
G1 X91.240 Y120.364 E7.09117
G1 X90.724 Y120.745 E7.11809
G1 X90.160 Y121.117 E7.14648
G1 X89.669 Y121.407 E7.17040
G1 X89.127 Y121.695 E7.19620
G1 X88.540 Y121.971 E7.22343
G1 X87.998 Y122.194 E7.24805
G1 X87.351 Y122.424 E7.27689
G1 X86.758 Y122.602 E7.30288
G1 X86.095 Y122.764 E7.33152
G1 X85.411 Y122.893 E7.36077
G1 X84.787 Y122.978 E7.38720
G1 X84.104 Y123.035 E7.41598
G1 X83.385 Y123.056 E7.44621
G1 X57.581 Y117.895 E8.55123
G1 F1980.000 E4.55123
G92 E0
G1 X57.744 Y117.550 F6000.000
G1 X58.056 Y117.408 F6000.000
G1 E4.00000 F1980.000
G1 X58.102 Y117.454 E4.00270 F900.000
G1 X58.674 Y117.568 E4.02721
G1 X58.056 Y116.951 E4.06390
G1 X58.056 Y116.493 E4.08312
G1 X59.246 Y117.683 E4.15380
G1 X59.819 Y117.797 E4.17831
G1 X58.056 Y116.035 E4.28297
G1 X58.056 Y115.577 E4.30220
G1 X60.391 Y117.912 E4.44085
G1 X60.963 Y118.026 E4.46536
G1 X58.056 Y115.119 E4.63799
G1 X58.056 Y114.661 E4.65722
G1 X61.536 Y118.141 E4.86384
G1 X62.108 Y118.255 E4.88835
G1 X58.056 Y114.203 E5.12896
G1 X58.056 Y113.746 E5.14819
G1 X62.680 Y118.370 E5.42278
G1 X63.253 Y118.484 E5.44729
G1 X58.056 Y113.288 E5.75588
G1 X58.056 Y112.830 E5.77510
G1 X63.825 Y118.599 E6.11768
G1 X64.397 Y118.713 E6.14218
G1 X58.056 Y112.372 E6.51874
G1 X58.056 Y111.914 E6.53797
G1 X64.969 Y118.827 E6.94851
G1 X65.542 Y118.942 E6.97302
G1 X58.056 Y111.456 E7.41756
G1 X58.056 Y110.999 E7.43678
G1 X66.114 Y119.056 E7.91530
G1 X66.686 Y119.171 E7.93981
G1 X58.056 Y110.541 E8.45232
G1 X58.056 Y110.083 E8.47154
G1 X67.259 Y119.285 E9.01804
G1 X67.831 Y119.400 E9.04255
G1 X58.056 Y109.625 E9.62303
G1 X58.056 Y109.167 E9.64225
G1 X68.403 Y119.514 E10.25672
G1 X68.976 Y119.629 E10.28123
G1 X58.056 Y108.709 E10.92968
G1 X58.056 Y108.251 E10.94891
G1 X69.548 Y119.743 E11.63135
G1 X70.120 Y119.858 E11.65586
G1 X58.056 Y107.794 E12.37229
G1 X58.056 Y107.336 E12.39152
G1 X70.693 Y119.972 E13.14193
G1 X71.265 Y120.087 E13.16644
G1 X58.056 Y106.878 E13.95084
G1 X58.056 Y106.420 E13.97007
G1 X71.837 Y120.201 E14.78846
G1 X72.410 Y120.315 E14.81297
G1 X58.056 Y105.962 E15.66534
G1 X58.056 Y105.504 E15.68457
G1 X72.982 Y120.430 E16.57093
G1 X73.554 Y120.544 E16.59544
G1 X58.056 Y105.047 E17.51579
G1 X58.056 Y104.589 E17.53502
G1 X74.126 Y120.659 E18.48936
G1 X74.699 Y120.773 E18.51387
G1 X58.056 Y104.131 E19.50219
G1 X58.056 Y103.673 E19.52142
G1 X75.271 Y120.888 E20.54373
G1 X75.843 Y121.002 E20.56824
G1 X58.056 Y103.215 E21.62454
G1 X58.231 Y102.932 E21.63851
G1 X76.416 Y121.117 E22.71841
G1 X76.988 Y121.231 E22.74291
G1 X58.613 Y102.856 E23.83414
G1 X58.994 Y102.780 E23.85048
G1 X77.560 Y121.346 E24.95304
G1 X78.133 Y121.460 E24.97755
G1 X59.376 Y102.703 E26.09144
G1 X59.757 Y102.627 E26.10778
G1 X78.705 Y121.575 E27.23300
G1 X79.277 Y121.689 E27.25750
G1 X60.139 Y102.551 E28.39405
G1 X60.520 Y102.474 E28.41039
G1 X79.850 Y121.803 E29.55826
G1 X80.422 Y121.918 E29.58277
G1 X60.902 Y102.398 E30.74198
G1 X61.283 Y102.322 E30.75831
G1 X80.994 Y122.032 E31.92885
G1 X81.567 Y122.147 E31.95336
G1 X61.665 Y102.245 E33.13522
G1 X62.047 Y102.169 E33.15156
G1 X82.139 Y122.261 E34.34475
G1 X82.711 Y122.376 E34.36926
G1 X62.428 Y102.093 E35.57378
G1 X62.810 Y102.016 E35.59012
G1 X83.283 Y122.490 E36.80596
G1 X83.762 Y122.511 E36.82606
G1 X63.191 Y101.940 E38.04765
G1 X63.573 Y101.864 E38.06399
G1 X84.199 Y122.490 E39.28890
G1 X84.622 Y122.455 E39.30672
G1 X63.954 Y101.788 E40.53408
G1 X64.336 Y101.711 E40.55042
G1 X85.030 Y122.405 E41.77936
G1 X85.429 Y122.346 E41.79628
G1 X64.717 Y101.635 E43.02623
G1 X65.099 Y101.559 E43.04257
G1 X85.814 Y122.274 E44.27275
G1 X86.189 Y122.190 E44.28886
G1 X65.480 Y101.482 E45.51863
G1 X65.862 Y101.406 E45.53497
G1 X86.557 Y122.101 E46.76394
G1 X86.911 Y121.998 E46.77945
G1 X66.244 Y101.330 E48.00683
G1 X66.625 Y101.253 E48.02317
G1 X87.261 Y121.890 E49.24867
G1 X87.599 Y121.770 E49.26373
G1 X67.007 Y101.177 E50.48664
G1 X67.388 Y101.101 E50.50298
G1 X87.931 Y121.643 E51.72292
G1 X88.256 Y121.510 E51.73766
G1 X67.770 Y101.024 E52.95422
G1 X68.151 Y100.948 E52.97056
G1 X88.569 Y121.366 E54.18309
G1 X88.881 Y121.220 E54.19755
G1 X68.533 Y100.872 E55.40595
G1 X68.914 Y100.796 E55.42229
G1 X89.180 Y121.062 E56.62580
G1 X89.477 Y120.900 E56.63997
G1 X69.296 Y100.719 E57.83841
G1 X69.677 Y100.643 E57.85475
G1 X89.764 Y120.729 E59.04760
G1 X90.045 Y120.553 E59.06155
G1 X70.059 Y100.567 E60.24845
G1 X70.440 Y100.490 E60.26479
G1 X90.321 Y120.371 E61.44540
G1 X90.589 Y120.181 E61.45919
G1 X70.822 Y100.414 E62.63307
G1 X71.204 Y100.338 E62.64941
G1 X90.853 Y119.987 E63.81631
G1 X91.108 Y119.784 E63.82999
G1 X71.585 Y100.261 E64.98936
G1 X71.967 Y100.185 E65.00570
G1 X91.360 Y119.578 E66.15738
G1 X91.602 Y119.363 E66.17100
G1 X72.348 Y100.109 E67.31441
G1 X72.730 Y100.032 E67.33075
G1 X91.831 Y119.134 E68.46510
G1 X92.060 Y118.905 E68.47869
G1 X73.111 Y99.956 E69.60398
G1 X73.493 Y99.880 E69.62032
G1 X92.289 Y118.676 E70.73654
G1 X92.518 Y118.447 E70.75013
G1 X73.874 Y99.804 E71.85729
G1 X74.256 Y99.727 E71.87363
G1 X92.732 Y118.204 E72.97087
G1 X92.942 Y117.956 E72.98451
G1 X74.637 Y99.651 E74.07156
G1 X75.019 Y99.575 E74.08790
G1 X93.142 Y117.698 E75.16415
G1 X93.339 Y117.437 E75.17787
G1 X75.400 Y99.498 E76.24318
G1 X75.782 Y99.422 E76.25952
G1 X93.527 Y117.167 E77.31333
G1 X93.711 Y116.893 E77.32719
G1 X76.164 Y99.346 E78.36925
G1 X76.545 Y99.269 E78.38558
G1 X93.888 Y116.612 E79.41547
G1 X94.057 Y116.323 E79.42953
G1 X76.927 Y99.193 E80.44680
G1 X77.308 Y99.117 E80.46314
G1 X94.221 Y116.030 E81.46754
G1 X94.376 Y115.727 E81.48183
G1 X77.690 Y99.040 E82.47276
G1 X78.071 Y98.964 E82.48910
G1 X94.528 Y115.421 E83.46642
G1 X94.668 Y115.103 E83.48101
G1 X78.453 Y98.888 E84.44395
G1 X78.834 Y98.812 E84.46029
G1 X94.804 Y114.781 E85.40865
G1 X94.931 Y114.450 E85.42354
G1 X79.216 Y98.735 E86.35677
G1 X79.597 Y98.659 E86.37311
G1 X95.048 Y114.109 E87.29065
G1 X95.161 Y113.764 E87.30590
G1 X79.979 Y98.583 E88.20748
G1 X80.360 Y98.506 E88.22382
G1 X95.260 Y113.406 E89.10863
G1 X95.355 Y113.042 E89.12439
G1 X80.742 Y98.430 E89.99216
G1 X81.124 Y98.354 E90.00850
G1 X95.436 Y112.666 E90.85844
G1 X95.507 Y112.279 E90.87494
G1 X81.505 Y98.277 E91.70646
G1 X81.887 Y98.201 E91.72280
G1 X95.572 Y111.886 E92.53550
G1 X95.618 Y111.474 E92.55292
G1 X82.268 Y98.125 E93.34568
G1 X82.650 Y98.048 E93.36202
G1 X95.654 Y111.052 E94.13426
G1 X95.678 Y110.619 E94.15250
G1 X83.031 Y97.972 E94.90353
G1 X83.413 Y97.896 E94.91987
G1 X95.683 Y110.166 E95.64853
G1 X95.673 Y109.698 E95.66817
G1 X83.878 Y97.904 E96.36861
G1 X84.369 Y97.936 E96.38925
G1 X95.645 Y109.212 E97.05891
G1 X95.590 Y108.699 E97.08059
G1 X84.877 Y97.987 E97.71675
G1 X85.410 Y98.062 E97.73936
G1 X95.513 Y108.164 E98.33929
G1 X95.403 Y107.597 E98.36356
G1 X85.976 Y98.170 E98.92338
G1 X86.582 Y98.317 E98.94953
G1 X95.257 Y106.993 E99.46474
G1 X95.059 Y106.337 E99.49350
G1 X87.236 Y98.514 E99.95810
G1 F1980.000 E95.95810
G92 E0
G1 X87.961 Y98.781 F6000.000
G1 E4.00000 F1980.000
G1 X94.799 Y105.619 E4.40608 F900.000
G1 F1980.000 E0.40608
G92 E0
G1 X94.430 Y104.792 F6000.000
G1 E4.00000 F1980.000
G1 X88.782 Y99.144 E4.33543 F900.000
G1 F1980.000 E0.33543
G92 E0
G1 X89.799 Y99.703 F6000.000
G1 E4.00000 F1980.000
G1 X93.873 Y103.777 E4.24195 F900.000
G1 F1980.000 E0.24195
G92 E0
G1 X92.553 Y102.000 F6000.000
G1 E4.00000 F1980.000
G1 X91.607 Y101.053 E4.05622 F900.000
G1 F1980.000 E0.05622
G92 E0
G1 X90.258 Y86.540 F6000.000
G1 E4.00000 F1980.000
G1 X90.036 Y86.258 E4.01506 F900.000
G1 X89.936 Y86.065 E4.02419
G1 X89.852 Y85.790 E4.03628
G1 X89.824 Y85.506 E4.04826
G1 X89.841 Y85.288 E4.05743
G1 X89.933 Y84.956 E4.07192
G1 X90.070 Y84.698 E4.08419
G1 X90.184 Y84.557 E4.09180
G1 X90.289 Y84.445 E4.09826
G1 X90.463 Y84.305 E4.10761
G1 X90.712 Y84.172 E4.11946
G1 X90.934 Y84.101 E4.12925
G1 X91.054 Y84.076 E4.13439
G1 X91.333 Y84.062 E4.14612
G1 X91.556 Y84.087 E4.15555 F900.000
G1 X91.761 Y84.145 E4.16449
G1 X92.017 Y84.268 E4.17641
G1 X92.284 Y84.472 E4.19052
G1 X92.471 Y84.699 E4.20287
G1 X92.605 Y84.947 E4.21472
G1 X92.700 Y85.289 E4.22964
G1 X92.718 Y85.506 E4.23878
G1 X92.700 Y85.724 E4.24795
G1 X92.609 Y86.056 E4.26243
G1 X92.471 Y86.314 E4.27470
G1 X92.252 Y86.567 E4.28876
G1 X92.078 Y86.707 E4.29811
G1 X91.875 Y86.818 E4.30785
G1 X91.554 Y86.925 E4.32203
G1 X91.270 Y86.953 E4.33401
G1 X90.935 Y86.911 E4.34820
G1 X90.720 Y86.844 E4.35766
G1 X90.524 Y86.744 E4.36689
G1 X90.304 Y86.578 E4.37848
G1 F1980.000 E0.37848
G92 E0
G1 X90.479 Y86.306 F6000.000
G1 E4.00000 F1980.000
G1 X90.315 Y86.099 E4.01107 F720.000
G1 X90.231 Y85.935 E4.01881
G1 X90.167 Y85.722 E4.02815
G1 X90.146 Y85.506 E4.03728
G1 X90.160 Y85.329 E4.04474
