; generated by Slic3r 1.1.7 on 2014-12-12 at 18:04:38

; perimeters extrusion width = 0.42mm
; infill extrusion width = 0.74mm
; solid infill extrusion width = 0.71mm
; top infill extrusion width = 0.71mm
; support material extrusion width = 0.42mm

G21 ; set units to millimeters
M190 S57 ; wait for bed temperature to be reached
M104 S186 ; set temperature
G28 ; home all axes Start of G Code Slic3r
 
M109 S186 ; wait for temperature to be reached
G90 ; use absolute coordinates
G92 E0
M82 ; use absolute distances for extrusion
G1 F1860.000 E-3.00000
G92 E0
G1 Z0.200 F6000.000
G1 X85.747 Y58.259 F6000.000
G1 E3.10000 F1860.000
G1 X87.123 Y56.399 E3.14280 F1200.000
G1 X89.047 Y55.114 E3.18561
G1 X91.774 Y54.538 E3.23717
G1 X108.393 Y54.538 E3.54462
G1 X110.672 Y54.935 E3.58742
G1 X111.856 Y55.496 E3.61166 F1200.000
G1 X112.579 Y55.928 E3.62724
G1 X114.331 Y57.440 E3.67004
G1 X115.222 Y58.856 E3.70099
G1 X117.037 Y62.734 E3.78021
G1 X117.629 Y64.833 E3.82055
G1 X118.884 Y76.296 E4.03390
G1 X118.879 Y118.233 E4.80973
G1 X118.636 Y124.729 E4.93000
G1 X117.507 Y135.785 E5.13561
G1 X117.106 Y137.485 E5.16791
G1 X115.947 Y140.448 E5.22677
G1 X115.140 Y142.059 E5.26011
G1 X113.763 Y143.919 E5.30292
G1 X111.839 Y145.204 E5.34572
G1 X109.113 Y145.780 E5.39728
G1 X90.614 Y145.780 E5.73950
G1 X88.335 Y145.383 E5.78230
G1 X86.324 Y144.239 E5.82511
G1 X84.991 Y142.757 E5.86198
G1 X84.456 Y141.948 E5.87991
G1 X83.894 Y140.912 E5.90173
G1 X83.014 Y138.882 E5.94266
G1 X82.490 Y136.859 E5.98131
G1 X81.393 Y125.610 E6.19042
G1 X80.940 Y116.770 E6.35417
G1 X80.940 Y75.070 E7.12563
G1 X81.055 Y73.826 E7.14873
G1 X82.742 Y64.836 E7.31795
G1 X83.341 Y63.059 E7.35265
G1 X85.719 Y58.315 E7.45081
G1 X85.968 Y58.370 F6000.000
G1 X87.325 Y56.549 E7.49282 F1200.000
G1 X89.225 Y55.307 E7.53483
G1 X91.774 Y54.785 E7.58296
G1 X108.393 Y54.785 E7.89041
G1 X110.629 Y55.182 E7.93242
G1 X111.729 Y55.708 E7.95498 F1200.000
G1 X112.452 Y56.141 E7.97057
G1 X114.166 Y57.630 E8.01257
G1 X114.998 Y58.960 E8.04161
G1 X116.813 Y62.839 E8.12082
G1 X117.384 Y64.861 E8.15969
G1 X118.636 Y76.296 E8.37252
G1 X118.632 Y118.224 E9.14820
G1 X118.391 Y124.704 E9.26816
G1 X117.261 Y135.760 E9.47376
G1 X116.875 Y137.398 E9.50489
G1 X115.726 Y140.337 E9.56327
G1 X114.919 Y141.948 E9.59661
G1 X113.562 Y143.769 E9.63862
G1 X111.662 Y145.012 E9.68063
G1 X109.113 Y145.533 E9.72876
G1 X90.614 Y145.533 E10.07098
G1 X88.379 Y145.136 E10.11299
G1 X86.416 Y143.994 E10.15499
G1 X85.197 Y142.620 E10.18896
G1 X84.121 Y140.813 E10.22787
G1 X83.241 Y138.783 E10.26880
G1 X82.737 Y136.835 E10.30604
G1 X81.640 Y125.597 E10.51494
G1 X81.187 Y116.770 E10.67845
G1 X81.187 Y75.070 E11.44991
G1 X81.298 Y73.872 E11.47217
G1 X82.985 Y64.882 E11.64138
G1 X83.562 Y63.170 E11.67481
G1 X85.940 Y58.426 E11.77297
G1 X86.189 Y58.481 F6000.000
G1 X87.526 Y56.700 E11.81417 F1200.000
G1 X89.402 Y55.501 E11.85536
G1 X91.774 Y55.033 E11.90010
G1 X108.393 Y55.033 E12.20755
G1 X110.584 Y55.429 E12.24874
G1 X111.602 Y55.920 E12.26965 F1200.000
G1 X112.325 Y56.353 E12.28524
G1 X114.001 Y57.819 E12.32643
G1 X114.774 Y59.065 E12.35357
G1 X116.589 Y62.944 E12.43278
G1 X117.138 Y64.888 E12.47017
G1 X118.389 Y76.296 E12.68249
G1 X118.385 Y118.216 E13.45800
G1 X118.145 Y124.679 E13.57766
G1 X117.015 Y135.735 E13.78326
G1 X116.643 Y137.310 E13.81320
G1 X115.505 Y140.226 E13.87111
G1 X114.698 Y141.837 E13.90446
G1 X113.361 Y143.618 E13.94565
G1 X111.485 Y144.818 E13.98684
G1 X109.113 Y145.285 E14.03158
G1 X90.614 Y145.285 E14.37380
G1 X88.423 Y144.889 E14.41499
G1 X86.511 Y143.749 E14.45619
G1 X85.403 Y142.484 E14.48728
G1 X84.348 Y140.715 E14.52539
G1 X83.468 Y138.685 E14.56632
G1 X82.983 Y136.811 E14.60214
G1 X81.887 Y125.584 E14.81083
G1 X81.434 Y116.770 E14.97410
G1 X81.434 Y75.070 E15.74557
G1 X81.541 Y73.918 E15.76697
G1 X83.228 Y64.928 E15.93619
G1 X83.783 Y63.281 E15.96835
G1 X86.161 Y58.537 E16.06651
G1 F1860.000 E13.06651
G92 E0
G1 X91.953 Y135.941 F6000.000
G1 E3.10000 F1860.000
G1 X89.547 Y135.863 E3.14453 F1200.000
G1 X89.547 Y132.829 E3.20065
G1 X90.964 Y132.755 E3.22689
G1 X91.192 Y132.983 E3.23287
G1 X91.606 Y133.289 E3.24238
G1 X91.953 Y133.497 E3.24987
G1 X91.953 Y135.878 E3.29391
G1 X92.200 Y136.196 F6000.000
G1 X89.300 Y136.102 E3.34759 F1200.000
G1 X89.300 Y132.595 E3.41248
G1 X91.061 Y132.502 E3.44510
G1 X91.345 Y132.787 E3.45255
G1 X91.744 Y133.083 E3.46174
G1 X92.200 Y133.357 E3.47157
G1 X92.200 Y136.133 E3.52293
G1 X91.841 Y135.978 F6000.000
G1 F1860.000 E0.52293
G92 E0
G1 X89.706 Y135.669 F6000.000
G1 E3.10000 F1860.000
G1 X89.747 Y135.710 E3.10106 F1200.000
G1 X90.136 Y135.723 E3.10826
G1 X89.706 Y135.293 E3.11950
G1 X89.706 Y134.917 E3.12646
G1 X90.524 Y135.735 E3.14786
G1 X90.913 Y135.748 E3.15506
G1 X89.706 Y134.541 E3.18664
G1 X89.706 Y134.164 E3.19360
G1 X91.302 Y135.760 E3.23535
G1 X91.691 Y135.773 E3.24255
G1 X89.706 Y133.788 E3.29447
G1 X89.706 Y133.412 E3.30143
G1 X91.794 Y135.499 E3.35604
G1 X91.794 Y135.123 E3.36300
G1 X89.706 Y133.036 E3.41761
G1 X90.011 Y132.964 E3.42340
G1 X91.794 Y134.747 E3.47004
G1 X91.794 Y134.371 E3.47700
G1 X90.369 Y132.946 E3.51428
G1 X90.726 Y132.927 E3.52090
G1 X91.794 Y133.994 E3.54883
G1 X91.794 Y133.618 E3.55579
G1 X91.715 Y133.540 E3.55784
G1 F1860.000 E0.55784
G92 E0
G1 X94.247 Y134.753 F6000.000
G1 E3.10000 F1860.000
G1 X94.247 Y133.492 E3.12332 F1200.000
G1 X94.929 Y133.066 E3.13819
G1 X95.603 Y132.279 E3.15737
G1 X95.850 Y131.547 E3.17166
G1 X96.653 Y131.547 E3.18651
G1 X96.653 Y134.753 E3.24582
G1 X94.310 Y134.753 E3.28916
G1 X94.000 Y135.000 F6000.000
G1 X94.000 Y133.355 E3.31958 F1200.000
G1 X94.766 Y132.877 E3.33630
G1 X95.387 Y132.152 E3.35396
G1 X95.672 Y131.300 E3.37057
G1 X96.900 Y131.300 E3.39329
G1 X96.900 Y135.000 E3.46175
G1 X94.063 Y135.000 E3.51423
G1 X94.210 Y134.636 F6000.000
G1 X94.446 Y134.594 F6000.000
G1 X94.406 Y134.554 E3.51528 F1200.000
G1 X94.406 Y134.204 E3.52175
G1 X94.796 Y134.594 E3.53194
G1 X95.145 Y134.594 E3.53841
G1 X94.406 Y133.854 E3.55775
G1 X94.453 Y133.552 E3.56342
G1 X95.495 Y134.594 E3.59069
G1 X95.845 Y134.594 E3.59715
G1 X94.668 Y133.417 E3.62794
G1 X94.883 Y133.283 E3.63263
G1 X96.194 Y134.594 E3.66693
G1 X96.494 Y134.543 E3.67255
G1 X95.082 Y133.132 E3.70947
G1 X95.244 Y132.944 E3.71406
G1 X96.494 Y134.194 E3.74676
G1 X96.494 Y133.844 E3.75323
G1 X95.405 Y132.756 E3.78171
G1 X95.566 Y132.567 E3.78630
G1 X96.494 Y133.494 E3.81055
G1 X96.494 Y133.145 E3.81702
G1 X95.728 Y132.379 E3.83706
G1 X95.823 Y132.125 E3.84208
G1 X96.494 Y132.795 E3.85961
G1 X96.494 Y132.446 E3.86608
G1 X95.912 Y131.864 E3.88131
G1 X96.104 Y131.706 E3.88590
G1 X96.494 Y132.096 E3.89610
G1 X96.494 Y131.746 E3.90256
G1 X96.454 Y131.706 E3.90361
G1 F1860.000 E0.90361
G92 E0
G1 X89.547 Y112.508 F6000.000
G1 E3.10000 F1860.000
G1 X89.547 Y109.647 E3.15293 F1200.000
G1 X91.953 Y109.647 E3.19744
G1 X91.953 Y112.288 E3.24629
G1 X91.512 Y112.508 E3.25541
G1 X89.610 Y112.508 E3.29060
G1 X89.300 Y112.753 F6000.000
G1 X89.300 Y109.400 E3.35262 F1200.000
G1 X92.200 Y109.400 E3.40627
G1 X92.200 Y112.441 E3.46253
G1 X91.648 Y112.717 E3.47395
G1 X91.605 Y112.756 E3.47501
G1 X89.363 Y112.754 E3.51650
G1 X89.510 Y112.389 F6000.000
G1 X89.706 Y112.309 F6000.000
G1 X89.746 Y112.349 E3.51755 F1200.000
G1 X90.096 Y112.349 E3.52402
G1 X89.706 Y111.959 E3.53423
G1 X89.706 Y111.609 E3.54070
G1 X90.446 Y112.349 E3.56006
G1 X90.796 Y112.349 E3.56654
G1 X89.706 Y111.259 E3.59506
G1 X89.706 Y110.909 E3.60153
G1 X91.146 Y112.349 E3.63921
G1 X91.489 Y112.342 E3.64555
G1 X89.706 Y110.559 E3.69219
G1 X89.706 Y110.209 E3.69867
G1 X91.722 Y112.225 E3.75141
G1 X91.794 Y111.946 E3.75674
G1 X89.706 Y109.859 E3.81135
G1 X90.004 Y109.806 E3.81693
G1 X91.794 Y111.596 E3.86376
G1 X91.794 Y111.246 E3.87024
G1 X90.354 Y109.806 E3.90792
G1 X90.704 Y109.806 E3.91439
G1 X91.794 Y110.896 E3.94291
G1 X91.794 Y110.546 E3.94939
G1 X91.054 Y109.806 E3.96875
G1 X91.404 Y109.806 E3.97522
G1 X91.794 Y110.196 E3.98543
G1 X91.794 Y109.846 E3.99190
G1 X91.754 Y109.806 E3.99295
G1 F1860.000 E0.99295
G92 E0
G1 X94.247 Y112.060 F6000.000
G1 E3.10000 F1860.000
G1 X96.653 Y112.137 E3.14453 F1200.000
G1 X96.653 Y115.495 E3.20665
G1 X95.947 Y115.500 E3.21971
G1 X95.947 Y114.866 E3.23143
G1 X95.725 Y113.755 E3.25239
G1 X95.042 Y112.844 E3.27345
G1 X94.247 Y112.314 E3.29112
G1 X94.247 Y112.123 E3.29467
G1 X94.000 Y111.805 F6000.000
G1 X96.900 Y111.898 E3.34835 F1200.000
G1 X96.900 Y115.743 E3.41947
G1 X95.700 Y115.747 E3.44167
G1 X95.700 Y114.890 E3.45752
G1 X95.493 Y113.858 E3.47699
G1 X94.870 Y113.026 E3.49623
G1 X94.000 Y112.447 E3.51556
G1 X94.000 Y111.868 E3.52628
G1 X94.359 Y112.022 F6000.000
G1 X94.568 Y112.270 F6000.000
G1 X94.768 Y112.470 E3.53152 F1200.000
G1 X95.538 Y113.240 F6000.000
G1 X96.494 Y114.196 E3.55652 F1200.000
G1 X96.494 Y113.823 E3.56342
G1 X94.911 Y112.241 E3.60482
G1 X95.297 Y112.253 E3.61195
G1 X96.494 Y113.450 E3.64326
G1 X96.494 Y113.077 E3.65016
G1 X95.682 Y112.265 E3.67139
G1 X96.067 Y112.278 E3.67853
G1 X96.494 Y112.704 E3.68967
G1 X96.494 Y112.331 E3.69657
G1 X96.453 Y112.290 E3.69764
G1 X95.939 Y114.014 F6000.000
G1 X96.494 Y114.569 E3.71214 F1200.000
G1 X96.494 Y114.942 E3.71904
G1 X96.032 Y114.481 E3.73111
G1 X96.106 Y114.927 E3.73949
G1 X96.486 Y115.308 E3.74943
G1 X96.146 Y115.340 E3.75575
G1 X96.106 Y115.300 E3.75680
G1 F1860.000 E0.75680
G92 E0
G1 X103.347 Y132.829 F6000.000
G1 E3.10000 F1860.000
G1 X104.764 Y132.755 E3.12625 F1200.000
G1 X104.992 Y132.983 E3.13222
G1 X105.406 Y133.289 E3.14173
G1 X105.753 Y133.497 E3.14922
G1 X105.753 Y135.941 E3.19443
G1 X103.347 Y135.863 E3.23896
G1 X103.347 Y132.892 E3.29391
G1 X103.100 Y132.595 F6000.000
G1 X104.861 Y132.502 E3.32653 F1200.000
G1 X105.146 Y132.787 E3.33398
G1 X105.544 Y133.083 E3.34317
G1 X106.000 Y133.357 E3.35301
G1 X106.000 Y136.196 E3.40553
G1 X103.100 Y136.102 E3.45921
G1 X103.100 Y132.658 E3.52293
G1 X103.471 Y132.792 F6000.000
G1 F1860.000 E0.52293
G92 E0
G1 X105.515 Y133.540 F6000.000
G1 E3.10000 F1860.000
G1 X105.594 Y133.618 E3.10205 F1200.000
G1 X105.594 Y133.994 E3.10901
G1 X104.526 Y132.927 E3.13694
G1 X104.169 Y132.946 E3.14356
G1 X105.594 Y134.371 E3.18084
G1 X105.594 Y134.747 E3.18780
G1 X103.811 Y132.964 E3.23443
G1 X103.506 Y133.036 E3.24023
G1 X105.594 Y135.123 E3.29484
G1 X105.594 Y135.499 E3.30180
G1 X103.506 Y133.412 E3.35641
G1 X103.506 Y133.788 E3.36337
G1 X105.491 Y135.773 E3.41529
G1 X105.102 Y135.760 E3.42249
G1 X103.506 Y134.164 E3.46424
G1 X103.506 Y134.541 E3.47120
G1 X104.713 Y135.748 E3.50278
G1 X104.325 Y135.735 E3.50997
G1 X103.506 Y134.917 E3.53138
G1 X103.506 Y135.293 E3.53834
G1 X103.936 Y135.723 E3.54958
G1 X103.547 Y135.710 E3.55677
G1 X103.506 Y135.669 E3.55784
G1 F1860.000 E0.55784
G92 E0
G1 X108.047 Y134.753 F6000.000
G1 E3.10000 F1860.000
G1 X108.047 Y133.492 E3.12332 F1200.000
G1 X108.729 Y133.066 E3.13819
G1 X109.404 Y132.279 E3.15737
G1 X109.650 Y131.547 E3.17166
G1 X110.453 Y131.547 E3.18651
G1 X110.453 Y134.753 E3.24582
G1 X108.110 Y134.753 E3.28916
G1 X107.800 Y135.000 F6000.000
G1 X107.800 Y133.355 E3.31958 F1200.000
G1 X108.566 Y132.877 E3.33630
G1 X109.187 Y132.152 E3.35396
G1 X109.472 Y131.300 E3.37057
G1 X110.700 Y131.300 E3.39329
G1 X110.700 Y135.000 E3.46175
G1 X107.863 Y135.000 E3.51423
G1 X108.010 Y134.636 F6000.000
G1 X108.246 Y134.594 F6000.000
G1 X108.206 Y134.554 E3.51528 F1200.000
G1 X108.206 Y134.204 E3.52175
G1 X108.596 Y134.594 E3.53194
G1 X108.946 Y134.594 E3.53841
G1 X108.206 Y133.854 E3.55775
G1 X108.253 Y133.552 E3.56342
G1 X109.295 Y134.594 E3.59069
G1 X109.645 Y134.594 E3.59715
G1 X108.468 Y133.417 E3.62794
G1 X108.683 Y133.283 E3.63263
G1 X109.995 Y134.594 E3.66693
G1 X110.294 Y134.543 E3.67255
G1 X108.882 Y133.132 E3.70947
G1 X109.044 Y132.944 E3.71406
G1 X110.294 Y134.194 E3.74676
G1 X110.294 Y133.844 E3.75323
G1 X109.205 Y132.756 E3.78171
G1 X109.367 Y132.567 E3.78630
G1 X110.294 Y133.494 E3.81055
G1 X110.294 Y133.145 E3.81702
G1 X109.528 Y132.379 E3.83706
G1 X109.624 Y132.125 E3.84208
G1 X110.294 Y132.795 E3.85961
G1 X110.294 Y132.446 E3.86608
G1 X109.712 Y131.864 E3.88131
G1 X109.904 Y131.706 E3.88590
G1 X110.294 Y132.096 E3.89610
G1 X110.294 Y131.746 E3.90256
G1 X110.254 Y131.706 E3.90361
G1 F1860.000 E0.90361
G92 E0
G1 X103.347 Y112.508 F6000.000
G1 E3.10000 F1860.000
G1 X103.347 Y109.647 E3.15293 F1200.000
G1 X105.753 Y109.647 E3.19744
G1 X105.753 Y112.288 E3.24629
G1 X105.312 Y112.508 E3.25541
G1 X103.410 Y112.508 E3.29060
G1 X103.100 Y112.753 F6000.000
G1 X103.100 Y109.400 E3.35262 F1200.000
G1 X106.000 Y109.400 E3.40627
G1 X106.000 Y112.441 E3.46253
G1 X105.448 Y112.717 E3.47395
G1 X105.406 Y112.756 E3.47501
G1 X103.163 Y112.754 E3.51650
G1 X103.310 Y112.389 F6000.000
G1 X103.506 Y112.309 F6000.000
G1 X103.546 Y112.349 E3.51755 F1200.000
G1 X103.896 Y112.349 E3.52402
G1 X103.506 Y111.959 E3.53423
G1 X103.506 Y111.609 E3.54070
G1 X104.246 Y112.349 E3.56006
G1 X104.597 Y112.349 E3.56654
G1 X103.506 Y111.259 E3.59506
G1 X103.506 Y110.909 E3.60153
G1 X104.947 Y112.349 E3.63921
G1 X105.289 Y112.342 E3.64555
G1 X103.506 Y110.559 E3.69219
G1 X103.506 Y110.209 E3.69867
G1 X105.523 Y112.225 E3.75141
G1 X105.594 Y111.946 E3.75674
G1 X103.506 Y109.859 E3.81135
G1 X103.804 Y109.806 E3.81693
G1 X105.594 Y111.596 E3.86376
G1 X105.594 Y111.246 E3.87024
G1 X104.154 Y109.806 E3.90792
G1 X104.504 Y109.806 E3.91439
G1 X105.594 Y110.896 E3.94291
G1 X105.594 Y110.546 E3.94939
G1 X104.854 Y109.806 E3.96875
G1 X105.204 Y109.806 E3.97522
G1 X105.594 Y110.196 E3.98543
G1 X105.594 Y109.846 E3.99190
G1 X105.554 Y109.806 E3.99295
G1 F1860.000 E0.99295
G92 E0
G1 X108.047 Y112.060 F6000.000
G1 E3.10000 F1860.000
G1 X110.453 Y112.137 E3.14453 F1200.000
G1 X110.453 Y115.495 E3.20665
G1 X109.747 Y115.500 E3.21971
G1 X109.747 Y114.866 E3.23143
G1 X109.525 Y113.755 E3.25239
G1 X108.842 Y112.844 E3.27345
G1 X108.047 Y112.314 E3.29112
G1 X108.047 Y112.123 E3.29467
G1 X107.800 Y111.805 F6000.000
G1 X110.700 Y111.898 E3.34835 F1200.000
G1 X110.700 Y115.743 E3.41947
G1 X109.500 Y115.747 E3.44167
G1 X109.500 Y114.890 E3.45752
G1 X109.294 Y113.858 E3.47699
G1 X108.670 Y113.026 E3.49623
G1 X107.800 Y112.447 E3.51556
G1 X107.800 Y111.868 E3.52628
G1 X108.159 Y112.022 F6000.000
G1 X108.368 Y112.270 F6000.000
G1 X108.568 Y112.470 E3.53152 F1200.000
G1 X109.338 Y113.240 F6000.000
G1 X110.294 Y114.196 E3.55652 F1200.000
G1 X110.294 Y113.823 E3.56342
G1 X108.712 Y112.241 E3.60482
G1 X109.097 Y112.253 E3.61195
G1 X110.294 Y113.450 E3.64326
G1 X110.294 Y113.077 E3.65016
G1 X109.482 Y112.265 E3.67139
G1 X109.868 Y112.278 E3.67853
G1 X110.294 Y112.704 E3.68967
G1 X110.294 Y112.331 E3.69657
G1 X110.253 Y112.290 E3.69764
G1 X109.739 Y114.014 F6000.000
G1 X110.294 Y114.569 E3.71214 F1200.000
G1 X110.294 Y114.942 E3.71904
G1 X109.833 Y114.481 E3.73111
G1 X109.906 Y114.927 E3.73949
G1 X110.287 Y115.308 E3.74943
G1 X109.946 Y115.340 E3.75575
G1 X109.906 Y115.300 E3.75680
G1 F1860.000 E0.75680
G92 E0
G1 X103.347 Y91.129 F6000.000
G1 E3.10000 F1860.000
G1 X104.764 Y91.055 E3.12625 F1200.000
G1 X104.992 Y91.283 E3.13222
G1 X105.406 Y91.588 E3.14173
G1 X105.753 Y91.796 E3.14922
G1 X105.753 Y94.240 E3.19443
G1 X103.347 Y94.163 E3.23896
G1 X103.347 Y91.192 E3.29391
G1 X103.100 Y90.895 F6000.000
G1 X104.861 Y90.802 E3.32653 F1200.000
G1 X105.146 Y91.087 E3.33398
G1 X105.544 Y91.383 E3.34317
G1 X106.000 Y91.657 E3.35301
G1 X106.000 Y94.496 E3.40553
G1 X103.100 Y94.402 E3.45921
G1 X103.100 Y90.958 E3.52293
G1 X103.471 Y91.092 F6000.000
G1 F1860.000 E0.52293
G92 E0
G1 X105.515 Y91.840 F6000.000
G1 E3.10000 F1860.000
G1 X105.594 Y91.918 E3.10205 F1200.000
G1 X105.594 Y92.294 E3.10901
G1 X104.526 Y91.227 E3.13694
G1 X104.169 Y91.245 E3.14356
G1 X105.594 Y92.670 E3.18084
G1 X105.594 Y93.047 E3.18780
G1 X103.811 Y91.264 E3.23443
G1 X103.506 Y91.336 E3.24023
G1 X105.594 Y93.423 E3.29484
G1 X105.594 Y93.799 E3.30180
G1 X103.506 Y91.712 E3.35641
G1 X103.506 Y92.088 E3.36337
G1 X105.491 Y94.073 E3.41529
G1 X105.102 Y94.060 E3.42249
G1 X103.506 Y92.464 E3.46424
G1 X103.506 Y92.841 E3.47120
G1 X104.713 Y94.048 E3.50278
G1 X104.325 Y94.035 E3.50997
