; generated by Slic3r 1.1.7 on 2014-12-08 at 22:19:47

; perimeters extrusion width = 0.42mm
; infill extrusion width = 0.74mm
; solid infill extrusion width = 0.71mm
; top infill extrusion width = 0.71mm
; support material extrusion width = 0.42mm

G21 ; set units to millimeters
M190 S60 ; wait for bed temperature to be reached
M104 S186 ; set temperature
G28 ; home all axes
M109 S186 ; wait for temperature to be reached
G90 ; use absolute coordinates
G92 E0
M82 ; use absolute distances for extrusion
G1 F1860.000 E-3.00000
G92 E0
G1 Z0.200 F6000.000
G1 X74.226 Y75.460 F6000.000
G1 E3.10000 F1860.000
G1 X75.983 Y73.954 E3.14280 F1200.000
G1 X78.572 Y73.063 E3.19346
G1 X116.596 Y68.258 E3.90251
G1 X120.574 Y68.258 E3.97609
G1 X122.853 Y68.655 E4.01890
G1 X124.864 Y69.800 E4.06170 F1200.000
G1 X126.369 Y71.557 E4.10450
G1 X127.192 Y73.719 E4.14731
G1 X127.315 Y75.000 E4.17112
G1 X127.315 Y125.000 E5.09613
G1 X126.918 Y127.279 E5.13893
G1 X125.774 Y129.290 E5.18173
G1 X124.017 Y130.796 E5.22454
G1 X121.855 Y131.619 E5.26734
G1 X120.574 Y131.742 E5.29115
G1 X115.718 Y131.687 E5.38098
G1 X78.571 Y126.937 E6.07380
G1 X76.361 Y126.254 E6.11661
G1 X74.511 Y124.864 E6.15941
G1 X73.241 Y122.930 E6.20221
G1 X72.685 Y120.250 E6.25286
G1 X72.685 Y79.750 E7.00212
G1 X73.082 Y77.471 E7.04492
G1 X74.195 Y75.514 E7.08656
G1 X74.449 Y75.590 F6000.000
G1 X74.471 Y75.552 E7.08736 F1200.000
G1 X76.219 Y74.103 E7.12937
G1 X78.603 Y73.308 E7.17586
G1 X116.596 Y68.506 E7.88433
G1 X120.574 Y68.506 E7.95792
G1 X122.809 Y68.903 E7.99992
G1 X124.772 Y70.045 E8.04193 F1200.000
G1 X126.221 Y71.793 E8.08393
G1 X127.068 Y75.000 E8.14531
G1 X127.068 Y125.000 E9.07032
G1 X126.671 Y127.236 E9.11232
G1 X125.529 Y129.198 E9.15433
G1 X123.781 Y130.647 E9.19634
G1 X120.574 Y131.494 E9.25771
G1 X115.750 Y131.442 E9.34695
G1 X78.603 Y126.692 E10.03978
G1 X76.435 Y126.015 E10.08178
G1 X74.634 Y124.633 E10.12379
G1 X73.418 Y122.715 E10.16580
G1 X72.932 Y120.250 E10.21228
G1 X72.932 Y79.750 E10.96154
G1 X73.329 Y77.514 E11.00354
G1 X74.418 Y75.644 E11.04358
G1 X74.671 Y75.722 F6000.000
G1 X74.716 Y75.646 E11.04520 F1200.000
G1 X76.454 Y74.255 E11.08640
G1 X78.635 Y73.553 E11.12877
G1 X116.596 Y68.753 E11.83666
G1 X120.574 Y68.753 E11.91024
G1 X122.765 Y69.150 E11.95144
G1 X124.677 Y70.290 E11.99263 F1200.000
G1 X126.069 Y72.028 E12.03382
G1 X126.821 Y75.000 E12.09054
G1 X126.821 Y125.000 E13.01555
G1 X126.424 Y127.191 E13.05674
G1 X125.284 Y129.104 E13.09793
G1 X123.546 Y130.495 E13.13913
G1 X120.574 Y131.247 E13.19584
G1 X115.781 Y131.197 E13.28451
G1 X78.634 Y126.447 E13.97733
G1 X76.511 Y125.775 E14.01853
G1 X74.759 Y124.402 E14.05972
G1 X73.599 Y122.501 E14.10091
G1 X73.179 Y120.250 E14.14328
G1 X73.179 Y79.750 E14.89253
G1 X73.576 Y77.559 E14.93373
G1 X74.639 Y75.776 E14.97213
G1 F1860.000 E11.97213
G92 E0
G1 X108.502 Y87.159 F6000.000
G1 E3.10000 F1860.000
G1 X107.660 Y87.619 E3.11775 F1200.000
G1 X106.702 Y87.668 E3.13550
G1 X105.817 Y87.297 E3.15326
G1 X105.181 Y86.578 E3.17101
G1 X104.920 Y85.655 E3.18876
G1 X105.086 Y84.709 E3.20651
G1 X105.645 Y83.930 E3.22427
G1 X106.487 Y83.470 E3.24202
G1 X107.445 Y83.420 E3.25977
G1 X108.238 Y83.753 E3.27567
G1 X108.330 Y83.792 E3.27752 F1200.000
G1 X108.966 Y84.511 E3.29528
G1 X109.227 Y85.434 E3.31303
G1 X109.062 Y86.379 E3.33078
G1 X108.539 Y87.108 E3.34737
G1 X108.334 Y86.969 F6000.000
G1 X107.591 Y87.375 E3.36303 F1200.000
G1 X106.746 Y87.418 E3.37870
G1 X105.965 Y87.091 E3.39436
G1 X105.404 Y86.456 E3.41003
G1 X105.173 Y85.642 E3.42569
G1 X105.319 Y84.808 E3.44135
G1 X105.813 Y84.119 E3.45702
G1 X106.556 Y83.714 E3.47268
G1 X107.358 Y83.672 E3.48755
G1 X107.401 Y83.670 E3.48835 F1200.000
G1 X108.182 Y83.998 E3.50401
G1 X108.743 Y84.632 E3.51968
G1 X108.974 Y85.447 E3.53534
G1 X108.828 Y86.281 E3.55101
G1 X108.371 Y86.918 E3.56551
G1 F1860.000 E0.56551
G92 E0
G1 X107.349 Y83.630 F6000.000
G1 X107.445 Y114.376 F6000.000
G1 E3.10000 F1860.000
G1 X108.240 Y114.710 E3.11596 F1200.000
G1 X108.330 Y114.748 E3.11775 F1200.000
G1 X108.966 Y115.466 E3.13550
G1 X109.227 Y116.390 E3.15326
G1 X109.061 Y117.335 E3.17101
G1 X108.502 Y118.115 E3.18876
G1 X107.745 Y118.528 E3.20472
G1 X107.660 Y118.575 E3.20651
G1 X106.702 Y118.624 E3.22427
G1 X105.817 Y118.252 E3.24202
G1 X105.181 Y117.534 E3.25977
G1 X104.920 Y116.610 E3.27752
G1 X105.086 Y115.665 E3.29528
G1 X105.645 Y114.885 E3.31303
G1 X106.487 Y114.425 E3.33078
G1 X107.382 Y114.379 E3.34737
G1 X107.401 Y114.626 F6000.000
G1 X108.182 Y114.954 E3.36303 F1200.000
G1 X108.743 Y115.588 E3.37870
G1 X108.974 Y116.403 E3.39436
G1 X108.828 Y117.237 E3.41003
G1 X108.334 Y117.925 E3.42569
G1 X107.591 Y118.331 E3.44135
G1 X106.786 Y118.372 E3.45627
G1 X106.746 Y118.374 E3.45702
G1 X105.965 Y118.046 E3.47268
G1 X105.404 Y117.412 E3.48835
G1 X105.173 Y116.597 E3.50401
G1 X105.319 Y115.763 E3.51968
G1 X105.813 Y115.075 E3.53534
G1 X106.556 Y114.669 E3.55101
G1 X107.339 Y114.629 E3.56551
G1 X107.694 Y114.325 F6000.000
G1 F1860.000 E0.56551
G92 E0
G1 X116.921 Y120.153 F6000.000
G1 E3.10000 F1860.000
G1 X104.217 Y120.153 E3.33502 F1200.000
G1 X102.921 Y118.856 E3.36894
G1 X102.921 Y112.356 E3.48920
G1 X111.693 Y112.347 E3.65148
G1 X114.443 Y110.697 E3.71083
G1 X114.443 Y91.348 E4.06879
G1 X111.692 Y89.697 E4.12814
G1 X103.717 Y89.697 E4.27568
G1 X102.921 Y88.900 E4.29652
G1 X102.921 Y82.188 E4.42070
G1 X103.717 Y81.391 E4.44154
G1 X116.943 Y81.391 E4.68623
G1 X116.943 Y75.347 E4.79805
G1 X120.226 Y75.347 E4.85878
G1 X120.226 Y124.653 E5.77095
G1 X116.921 Y124.653 E5.83210
G1 X116.921 Y120.216 E5.91419
G1 X116.674 Y120.400 F6000.000
G1 X104.115 Y120.400 E6.14652 F1200.000
G1 X102.674 Y118.959 E6.18424
G1 X102.674 Y112.109 E6.31096
G1 X111.624 Y112.100 E6.47655
G1 X114.196 Y110.557 E6.53204
G1 X114.196 Y91.488 E6.88482
G1 X111.624 Y89.944 E6.94032
G1 X103.615 Y89.944 E7.08848
G1 X102.674 Y89.003 E7.11312
G1 X102.674 Y82.086 E7.24108
G1 X103.615 Y81.144 E7.26571
G1 X116.696 Y81.144 E7.50772
G1 X116.696 Y75.100 E7.61954
G1 X120.474 Y75.100 E7.68942
G1 X120.474 Y124.900 E8.61073
G1 X116.674 Y124.900 E8.68103
G1 X116.674 Y120.463 E8.76312
G1 X116.674 Y119.980 F6000.000
G1 X116.562 Y119.994 F6000.000
G1 X109.077 Y112.509 E8.95894 F1200.000
G1 X108.728 Y112.509 E8.96541
G1 X116.212 Y119.994 E9.16123
G1 X115.862 Y119.994 E9.16770
G1 X108.378 Y112.510 E9.36351
G1 X108.028 Y112.510 E9.36998
G1 X115.512 Y119.994 E9.56577
G1 X115.162 Y119.994 E9.57225
G1 X107.679 Y112.510 E9.76804
G1 X107.329 Y112.511 E9.77451
G1 X114.812 Y119.994 E9.97029
G1 X114.462 Y119.994 E9.97676
G1 X106.979 Y112.511 E10.17253
G1 X106.630 Y112.511 E10.17900
G1 X114.112 Y119.994 E10.37476
G1 X113.762 Y119.994 E10.38124
G1 X108.745 Y114.976 E10.51250
G1 X108.353 Y114.585 F6000.000
G1 X106.280 Y112.512 E10.56674 F1200.000
G1 X105.930 Y112.512 E10.57321
G1 X107.750 Y114.331 E10.62082
G1 X107.293 Y114.225 E10.62950
G1 X105.581 Y112.512 E10.67429
G1 X105.231 Y112.513 E10.68076
G1 X106.960 Y114.242 E10.72600
G1 X106.627 Y114.259 E10.73216
G1 X104.881 Y112.513 E10.77784
G1 X104.532 Y112.513 E10.78431
G1 X106.342 Y114.323 E10.83166
G1 X106.115 Y114.447 E10.83643
G1 X104.182 Y112.514 E10.88701
G1 X103.832 Y112.514 E10.89347
G1 X105.889 Y114.571 E10.94728
G1 X105.662 Y114.694 E10.95205
G1 X103.483 Y112.514 E11.00908
G1 X103.133 Y112.515 E11.01555
G1 X105.472 Y114.853 E11.07674
G1 X105.326 Y115.057 E11.08138
G1 X103.080 Y112.812 E11.14013
G1 X103.080 Y113.162 E11.14660
G1 X105.179 Y115.261 E11.20153
G1 X105.033 Y115.465 E11.20617
G1 X103.080 Y113.512 E11.25728
G1 X103.080 Y113.862 E11.26375
G1 X104.918 Y115.700 E11.31184
G1 X104.866 Y115.998 E11.31743
G1 X103.080 Y114.212 E11.36416
G1 X103.080 Y114.562 E11.37063
G1 X104.814 Y116.296 E11.41599
G1 X104.762 Y116.593 E11.42159
G1 X103.080 Y114.912 E11.46558
G1 X103.080 Y115.262 E11.47206
G1 X104.883 Y117.065 E11.51924
G1 X105.021 Y117.553 E11.52863
G1 X103.080 Y115.612 E11.57942
G1 X103.080 Y115.962 E11.58590
G1 X107.112 Y119.994 E11.69138
G1 X106.762 Y119.994 E11.69786
G1 X103.080 Y116.312 E11.79418
G1 X103.080 Y116.662 E11.80066
G1 X106.412 Y119.994 E11.88783
G1 X106.062 Y119.994 E11.89430
G1 X103.080 Y117.012 E11.97231
G1 X103.080 Y117.362 E11.97879
G1 X105.712 Y119.994 E12.04764
G1 X105.362 Y119.994 E12.05412
G1 X103.080 Y117.712 E12.11381
G1 X103.080 Y118.062 E12.12029
G1 X105.012 Y119.994 E12.17083
G1 X104.662 Y119.994 E12.17730
G1 X103.080 Y118.412 E12.21868
G1 X103.080 Y118.762 E12.22516
G1 X104.312 Y119.994 E12.25738
G1 F1860.000 E9.25738
G92 E0
G1 X105.948 Y118.480 F6000.000
G1 E3.10000 F1860.000
G1 X107.462 Y119.994 E3.13960 F1200.000
G1 X107.812 Y119.994 E3.14608
G1 X106.552 Y118.733 E3.17905
G1 X106.939 Y118.771 E3.18625
G1 X108.162 Y119.994 E3.21824
G1 X108.512 Y119.994 E3.22471
G1 X107.272 Y118.754 E3.25714
G1 X107.605 Y118.737 E3.26331
G1 X108.862 Y119.994 E3.29619
G1 X109.212 Y119.994 E3.30266
G1 X107.863 Y118.645 E3.33794
G1 X108.090 Y118.522 E3.34271
G1 X109.562 Y119.994 E3.38122
G1 X109.912 Y119.994 E3.38770
G1 X108.316 Y118.398 E3.42945
G1 X108.543 Y118.274 E3.43422
G1 X110.262 Y119.994 E3.47920
G1 X110.612 Y119.994 E3.48568
G1 X108.713 Y118.094 E3.53536
G1 X108.859 Y117.891 E3.54001
G1 X110.962 Y119.994 E3.59503
G1 X111.312 Y119.994 E3.60150
G1 X109.005 Y117.687 E3.66185
G1 X109.151 Y117.483 E3.66649
G1 X111.662 Y119.994 E3.73218
G1 X112.012 Y119.994 E3.73866
G1 X109.243 Y117.224 E3.81111
G1 X109.295 Y116.926 E3.81671
G1 X112.362 Y119.994 E3.89696
G1 X112.712 Y119.994 E3.90344
G1 X109.347 Y116.628 E3.99148
G1 X109.366 Y116.298 E3.99760
G1 X113.062 Y119.994 E4.09429
G1 X113.412 Y119.994 E4.10077
G1 X109.228 Y115.810 E4.21023
G1 F1860.000 E1.21023
G92 E0
G1 X117.212 Y124.494 F6000.000
G1 E3.10000 F1860.000
G1 X117.080 Y124.362 E3.10345 F1200.000
G1 X117.080 Y124.012 E3.10993
G1 X117.562 Y124.494 E3.12254
G1 X117.912 Y124.494 E3.12902
G1 X117.080 Y123.662 E3.15078
G1 X117.080 Y123.312 E3.15726
G1 X118.262 Y124.494 E3.18819
G1 X118.612 Y124.494 E3.19466
G1 X117.080 Y122.962 E3.23475
G1 X117.080 Y122.611 E3.24122
G1 X118.962 Y124.494 E3.29046
G1 X119.312 Y124.494 E3.29694
G1 X117.080 Y122.261 E3.35534
G1 X117.080 Y121.911 E3.36181
G1 X119.662 Y124.494 E3.42937
G1 X120.012 Y124.494 E3.43584
G1 X117.080 Y121.561 E3.51256
G1 X117.080 Y121.211 E3.51903
G1 X120.067 Y124.199 E3.59719
G1 X120.067 Y123.849 E3.60366
G1 X117.080 Y120.861 E3.68182
G1 X117.080 Y120.511 E3.68829
G1 X120.067 Y123.499 E3.76645
G1 X120.067 Y123.149 E3.77292
G1 X109.427 Y112.509 E4.05130
G1 X109.777 Y112.508 E4.05777
G1 X120.067 Y122.799 E4.32700
G1 X120.067 Y122.449 E4.33347
G1 X110.126 Y112.508 E4.59355
G1 X110.476 Y112.508 E4.60002
G1 X120.067 Y122.099 E4.85095
G1 X120.067 Y121.748 E4.85743
G1 X110.826 Y112.507 E5.09921
G1 X111.175 Y112.507 E5.10568
G1 X120.067 Y121.398 E5.33831
G1 X120.067 Y121.048 E5.34479
G1 X111.525 Y112.507 E5.56827
G1 X111.823 Y112.454 E5.57387
G1 X120.067 Y120.698 E5.78956
G1 X120.067 Y120.348 E5.79604
G1 X112.042 Y112.323 E6.00600
G1 X112.261 Y112.192 E6.01072
G1 X120.067 Y119.998 E6.21496
G1 X120.067 Y119.648 E6.22144
G1 X112.479 Y112.061 E6.41996
G1 X112.698 Y111.929 E6.42468
G1 X120.067 Y119.298 E6.61748
G1 X120.067 Y118.948 E6.62395
G1 X112.917 Y111.798 E6.81102
G1 X113.136 Y111.667 E6.81574
G1 X120.067 Y118.598 E6.99709
G1 X120.067 Y118.248 E7.00357
G1 X113.354 Y111.536 E7.17919
G1 X113.573 Y111.404 E7.18391
G1 X120.067 Y117.898 E7.35382
G1 X120.067 Y117.548 E7.36029
G1 X113.792 Y111.273 E7.52447
G1 X114.011 Y111.142 E7.52919
G1 X120.067 Y117.198 E7.68764
G1 X120.067 Y116.848 E7.69412
G1 X114.229 Y111.011 E7.84685
G1 X114.448 Y110.879 E7.85157
G1 X120.067 Y116.498 E7.99858
G1 X120.067 Y116.148 E8.00506
G1 X114.603 Y110.684 E8.14802
G1 X114.603 Y110.334 E8.15450
G1 X120.067 Y115.798 E8.29747
G1 X120.067 Y115.448 E8.30394
G1 X114.603 Y109.984 E8.44691
G1 X114.603 Y109.634 E8.45339
G1 X120.067 Y115.098 E8.59636
G1 X120.067 Y114.748 E8.60283
G1 X114.603 Y109.284 E8.74580
G1 X114.603 Y108.934 E8.75228
G1 X120.067 Y114.398 E8.89525
G1 X120.067 Y114.048 E8.90172
G1 X114.603 Y108.584 E9.04469
G1 X114.603 Y108.234 E9.05117
G1 X120.067 Y113.698 E9.19414
G1 X120.067 Y113.348 E9.20061
G1 X114.603 Y107.884 E9.34358
G1 X114.603 Y107.534 E9.35006
G1 X120.067 Y112.998 E9.49303
G1 X120.067 Y112.648 E9.49950
G1 X114.603 Y107.184 E9.64247
G1 X114.603 Y106.834 E9.64894
G1 X120.067 Y112.298 E9.79191
G1 X120.067 Y111.948 E9.79839
G1 X114.603 Y106.484 E9.94136
G1 X114.603 Y106.134 E9.94783
G1 X120.067 Y111.598 E10.09080
G1 X120.067 Y111.248 E10.09728
G1 X114.603 Y105.784 E10.24025
G1 X114.603 Y105.434 E10.24672
G1 X120.067 Y110.898 E10.38969
G1 X120.067 Y110.548 E10.39617
G1 X114.603 Y105.083 E10.53914
G1 X114.603 Y104.733 E10.54561
G1 X120.067 Y110.198 E10.68858
G1 X120.067 Y109.848 E10.69506
G1 X114.603 Y104.383 E10.83803
G1 X114.603 Y104.033 E10.84450
G1 X120.067 Y109.498 E10.98747
G1 X120.067 Y109.148 E10.99395
G1 X114.603 Y103.683 E11.13691
G1 X114.603 Y103.333 E11.14339
G1 X120.067 Y108.798 E11.28636
G1 X120.067 Y108.448 E11.29283
G1 X114.603 Y102.983 E11.43580
G1 X114.603 Y102.633 E11.44228
G1 X120.067 Y108.098 E11.58525
G1 X120.067 Y107.748 E11.59172
G1 X114.603 Y102.283 E11.73469
G1 X114.603 Y101.933 E11.74117
G1 X120.067 Y107.398 E11.88414
G1 X120.067 Y107.048 E11.89061
G1 X114.603 Y101.583 E12.03358
G1 X114.603 Y101.233 E12.04006
G1 X120.067 Y106.698 E12.18303
G1 X120.067 Y106.348 E12.18950
G1 X114.603 Y100.883 E12.33247
G1 X114.603 Y100.533 E12.33895
G1 X120.067 Y105.998 E12.48192
G1 X120.067 Y105.648 E12.48839
G1 X114.603 Y100.183 E12.63136
G1 X114.603 Y99.833 E12.63784
G1 X120.067 Y105.298 E12.78080
G1 X120.067 Y104.948 E12.78728
G1 X114.603 Y99.483 E12.93025
G1 X114.603 Y99.133 E12.93672
G1 X120.067 Y104.598 E13.07969
G1 X120.067 Y104.248 E13.08617
G1 X114.603 Y98.783 E13.22914
G1 X114.603 Y98.433 E13.23561
G1 X120.067 Y103.898 E13.37858
G1 X120.067 Y103.548 E13.38506
G1 X114.603 Y98.083 E13.52803
G1 X114.603 Y97.733 E13.53450
G1 X120.067 Y103.198 E13.67747
G1 X120.067 Y102.848 E13.68395
G1 X114.603 Y97.383 E13.82692
G1 X114.603 Y97.033 E13.83339
G1 X120.067 Y102.498 E13.97636
G1 X120.067 Y102.148 E13.98284
G1 X114.603 Y96.683 E14.12581
G1 X114.603 Y96.333 E14.13228
G1 X120.067 Y101.798 E14.27525
G1 X120.067 Y101.448 E14.28172
G1 X114.603 Y95.983 E14.42469
G1 X114.603 Y95.633 E14.43117
G1 X120.067 Y101.098 E14.57414
G1 X120.067 Y100.748 E14.58061
G1 X114.603 Y95.283 E14.72358
G1 X114.603 Y94.933 E14.73006
G1 X120.067 Y100.398 E14.87303
G1 X120.067 Y100.048 E14.87950
G1 X114.603 Y94.583 E15.02247
G1 X114.603 Y94.233 E15.02895
G1 X120.067 Y99.698 E15.17192
G1 X120.067 Y99.347 E15.17839
G1 X114.603 Y93.883 E15.32136
G1 X114.603 Y93.533 E15.32784
G1 X120.067 Y98.997 E15.47081
G1 X120.067 Y98.647 E15.47728
G1 X114.603 Y93.183 E15.62025
G1 X114.603 Y92.833 E15.62673
G1 X120.067 Y98.297 E15.76969
G1 X120.067 Y97.947 E15.77617
G1 X114.603 Y92.483 E15.91914
G1 X114.603 Y92.133 E15.92561
G1 X120.067 Y97.597 E16.06858
G1 X120.067 Y97.247 E16.07506
G1 X114.603 Y91.783 E16.21803
G1 X114.603 Y91.433 E16.22450
G1 X120.067 Y96.897 E16.36747
G1 X120.067 Y96.547 E16.37395
G1 X109.324 Y85.804 E16.65503
G1 X109.376 Y85.506 E16.66062
G1 X120.067 Y96.197 E16.94034
G1 X120.067 Y95.847 E16.94682
G1 X109.289 Y85.069 E17.22880
G1 X109.151 Y84.581 E17.23819
G1 X120.067 Y95.497 E17.52378
G1 X120.067 Y95.147 E17.53026
G1 X106.471 Y81.551 E17.88599
G1 X106.821 Y81.551 E17.89246
G1 X120.067 Y94.797 E18.23904
G1 X120.067 Y94.447 E18.24551
G1 X107.171 Y81.551 E18.58293
G1 X107.521 Y81.551 E18.58940
G1 X120.067 Y94.097 E18.91766
G1 X120.067 Y93.747 E18.92414
G1 X107.871 Y81.551 E19.24324
G1 X108.221 Y81.551 E19.24971
G1 X120.067 Y93.397 E19.55966
G1 X120.067 Y93.047 E19.56613
G1 X108.571 Y81.551 E19.86692
G1 X108.921 Y81.551 E19.87339
G1 X120.067 Y92.697 E20.16502
G1 X120.067 Y92.347 E20.17150
G1 X109.271 Y81.551 E20.45397
G1 X109.621 Y81.551 E20.46044
G1 X120.067 Y91.997 E20.73376
G1 X120.067 Y91.647 E20.74023
G1 X109.971 Y81.551 E21.00439
G1 X110.321 Y81.551 E21.01087
G1 X120.067 Y91.297 E21.26586
G1 X120.067 Y90.947 E21.27234
G1 X110.671 Y81.551 E21.51818
G1 X111.021 Y81.551 E21.52466
