; generated by Slic3r 1.1.7 on 2014-12-09 at 00:21:47

; perimeters extrusion width = 0.42mm
; infill extrusion width = 0.74mm
; solid infill extrusion width = 0.71mm
; top infill extrusion width = 0.71mm
; support material extrusion width = 0.42mm

G21 ; set units to millimeters
M190 S60 ; wait for bed temperature to be reached
M104 S186 ; set temperature
G28 ; home all axes
M109 S186 ; wait for temperature to be reached
G90 ; use absolute coordinates
G92 E0
M82 ; use absolute distances for extrusion
G1 F1860.000 E-3.00000
G92 E0
G1 Z0.200 F6000.000
G1 X76.233 Y86.733 F6000.000
G1 E3.10000 F1860.000
G1 X78.125 Y85.402 E3.14280 F1200.000
G1 X81.000 Y84.758 E3.19730
G1 X117.956 Y84.758 E3.88099
G1 X120.235 Y85.155 E3.92379
G1 X122.723 Y86.733 E3.97829 F1200.000
G1 X123.723 Y87.733 E4.00445
G1 X124.979 Y89.472 E4.04414
G1 X131.023 Y101.495 E4.29309
G1 X131.742 Y104.523 E4.35066
G1 X131.742 Y108.500 E4.42425
G1 X131.345 Y110.779 E4.46705
G1 X130.200 Y112.790 E4.50985
G1 X128.443 Y114.296 E4.55266
G1 X126.281 Y115.119 E4.59546
G1 X125.000 Y115.242 E4.61927
G1 X75.000 Y115.242 E5.54428
G1 X72.721 Y114.845 E5.58709
G1 X70.710 Y113.700 E5.62989
G1 X69.204 Y111.943 E5.67269
G1 X68.381 Y109.781 E5.71550
G1 X68.258 Y108.500 E5.73931
G1 X68.258 Y104.500 E5.81331
G1 X68.722 Y102.043 E5.85956
G1 X73.222 Y90.543 E6.08802
G1 X74.733 Y88.233 E6.13909
G1 X76.188 Y86.777 E6.17717
G1 X76.408 Y86.908 F6000.000
G1 X78.269 Y85.608 E6.21918 F1200.000
G1 X81.000 Y85.006 E6.27091
G1 X117.956 Y85.006 E6.95460
G1 X120.191 Y85.402 E6.99660
G1 X122.548 Y86.908 E7.04834 F1200.000
G1 X123.548 Y87.908 E7.07450
G1 X124.758 Y89.583 E7.11273
G1 X130.802 Y101.606 E7.36168
G1 X131.494 Y104.523 E7.41714
G1 X131.494 Y108.500 E7.49073
G1 X131.097 Y110.736 E7.53273
G1 X129.955 Y112.698 E7.57474
G1 X128.207 Y114.147 E7.61675
G1 X125.000 Y114.994 E7.67812
G1 X75.000 Y114.994 E8.60313
G1 X72.764 Y114.598 E8.64513
G1 X70.802 Y113.455 E8.68714
G1 X69.353 Y111.707 E8.72915
G1 X68.506 Y108.500 E8.79052
G1 X68.506 Y104.500 E8.86452
G1 X68.952 Y102.133 E8.90907
G1 X73.452 Y90.633 E9.13753
G1 X74.908 Y88.408 E9.18673
G1 X76.363 Y86.952 E9.22481
G1 X76.583 Y87.083 F6000.000
G1 X78.412 Y85.814 E9.26601 F1200.000
G1 X81.000 Y85.253 E9.31499
G1 X117.956 Y85.253 E9.99868
G1 X120.147 Y85.650 E10.03987
G1 X122.373 Y87.083 E10.08886 F1200.000
G1 X123.373 Y88.083 E10.11502
G1 X124.537 Y89.694 E10.15179
G1 X130.582 Y101.717 E10.40074
G1 X131.247 Y104.523 E10.45410
G1 X131.247 Y108.500 E10.52768
G1 X130.850 Y110.691 E10.56887
G1 X129.710 Y112.604 E10.61006
G1 X127.972 Y113.995 E10.65126
G1 X125.000 Y114.747 E10.70797
G1 X75.000 Y114.747 E11.63298
G1 X72.809 Y114.350 E11.67418
G1 X70.896 Y113.210 E11.71537
G1 X69.505 Y111.472 E11.75656
G1 X68.753 Y108.500 E11.81328
G1 X68.753 Y104.500 E11.88728
G1 X69.182 Y102.224 E11.93014
G1 X73.682 Y90.724 E12.15860
G1 X75.083 Y88.583 E12.20593
G1 X76.538 Y87.127 E12.24401
G1 F1860.000 E9.24401
G92 E0
G1 X85.252 Y97.256 F6000.000
G1 E3.10000 F1860.000
G1 X84.534 Y97.892 E3.11775 F1200.000
G1 X83.610 Y98.153 E3.13550
G1 X83.515 Y98.137 E3.13730
G1 X82.665 Y97.988 E3.15326
G1 X81.885 Y97.429 E3.17101
G1 X81.425 Y96.587 E3.18876
G1 X81.376 Y95.628 E3.20651
G1 X81.748 Y94.744 E3.22427
G1 X82.466 Y94.108 E3.24202
G1 X83.390 Y93.847 E3.25977
G1 X83.485 Y93.863 E3.26157
G1 X84.335 Y94.012 E3.27752 F1200.000
G1 X85.115 Y94.571 E3.29528
G1 X85.575 Y95.413 E3.31303
G1 X85.624 Y96.372 E3.33078
G1 X85.277 Y97.198 E3.34737
G1 X85.046 Y97.109 F6000.000
G1 X84.412 Y97.670 E3.36303 F1200.000
G1 X83.597 Y97.900 E3.37870
G1 X82.763 Y97.754 E3.39436
G1 X82.075 Y97.261 E3.41002
G1 X81.669 Y96.518 E3.42569
G1 X81.626 Y95.672 E3.44135
G1 X81.954 Y94.891 E3.45702
G1 X82.588 Y94.330 E3.47268
G1 X82.627 Y94.319 E3.47344
G1 X83.403 Y94.100 E3.48835 F1200.000
G1 X84.237 Y94.246 E3.50401
G1 X84.925 Y94.739 E3.51968
G1 X85.331 Y95.482 E3.53534
G1 X85.374 Y96.328 E3.55101
G1 X85.071 Y97.050 E3.56551
G1 F1860.000 E0.56551
G92 E0
G1 X82.427 Y93.950 F6000.000
G1 X112.336 Y95.708 F6000.000
G1 E3.10000 F1860.000
G1 X112.332 Y95.628 E3.10148 F1200.000
G1 X112.703 Y94.744 E3.11923
G1 X113.422 Y94.108 E3.13698
G1 X114.345 Y93.847 E3.15473
G1 X114.445 Y93.864 E3.15661
G1 X115.291 Y94.012 E3.17248 F1200.000
G1 X116.070 Y94.571 E3.19024
G1 X116.530 Y95.413 E3.20799
G1 X116.580 Y96.372 E3.22574
G1 X116.208 Y97.256 E3.24349
G1 X115.489 Y97.892 E3.26125
G1 X114.566 Y98.153 E3.27900
G1 X113.621 Y97.988 E3.29675
G1 X112.841 Y97.429 E3.31450
G1 X112.381 Y96.587 E3.33226
G1 X112.339 Y95.771 E3.34737
G1 X112.583 Y95.695 F6000.000
G1 X112.909 Y94.891 E3.36342 F1200.000
G1 X113.544 Y94.330 E3.37909
G1 X113.588 Y94.318 E3.37993
G1 X114.358 Y94.100 E3.39475 F1200.000
G1 X115.192 Y94.246 E3.41042
G1 X115.881 Y94.739 E3.42608
G1 X116.286 Y95.482 E3.44174
G1 X116.330 Y96.328 E3.45741
G1 X116.002 Y97.109 E3.47307
G1 X115.368 Y97.670 E3.48874
G1 X114.553 Y97.900 E3.50440
G1 X113.719 Y97.754 E3.52007
G1 X113.031 Y97.261 E3.53573
G1 X112.625 Y96.518 E3.55140
G1 X112.586 Y95.758 E3.56546
G1 F1860.000 E0.56546
G92 E0
G1 X113.568 Y93.898 F6000.000
G1 X118.609 Y104.870 F6000.000
G1 E3.10000 F1860.000
G1 X124.653 Y104.870 E3.21182 F1200.000
G1 X124.653 Y108.153 E3.27255
G1 X75.347 Y108.153 E4.18472
G1 X75.347 Y104.847 E4.24587
G1 X79.847 Y104.847 E4.32912
G1 X79.847 Y93.144 E4.54564
G1 X81.144 Y91.847 E4.57956
G1 X87.644 Y91.847 E4.69982
G1 X87.653 Y100.619 E4.86210
G1 X89.303 Y103.370 E4.92145
G1 X108.652 Y103.370 E5.27941
G1 X110.303 Y100.619 E5.33876
G1 X110.303 Y92.644 E5.48630
G1 X111.100 Y91.847 E5.50715
G1 X117.812 Y91.847 E5.63133
G1 X118.609 Y92.644 E5.65217
G1 X118.609 Y104.807 E5.87719
G1 X118.856 Y104.623 F6000.000
G1 X124.900 Y104.623 E5.98901 F1200.000
G1 X124.900 Y108.400 E6.05889
G1 X75.100 Y108.400 E6.98020
G1 X75.100 Y104.600 E7.05050
G1 X79.600 Y104.600 E7.13375
G1 X79.600 Y93.041 E7.34759
G1 X81.041 Y91.600 E7.38530
G1 X87.891 Y91.600 E7.51202
G1 X87.900 Y100.550 E7.67761
G1 X89.443 Y103.123 E7.73310
G1 X108.512 Y103.123 E8.08588
G1 X110.056 Y100.550 E8.14138
G1 X110.056 Y92.541 E8.28955
G1 X110.997 Y91.600 E8.31418
G1 X117.914 Y91.600 E8.44215
G1 X118.856 Y92.541 E8.46678
G1 X118.856 Y104.560 E8.68912
G1 X118.856 Y105.043 F6000.000
G1 X118.449 Y103.599 F6000.000
G1 X110.462 Y95.612 E8.89809 F1200.000
G1 X110.462 Y95.962 E8.90457
G1 X118.449 Y103.949 E9.11354
G1 X118.449 Y104.300 E9.12002
G1 X110.462 Y96.313 E9.32899
G1 X110.462 Y96.663 E9.33547
G1 X118.449 Y104.650 E9.54444
G1 X118.449 Y105.000 E9.55093
G1 X110.462 Y97.013 E9.75989
G1 X110.462 Y97.364 E9.76638
G1 X121.092 Y107.994 E10.04449
G1 X121.443 Y107.994 E10.05097
G1 X118.478 Y105.029 E10.12853
G1 X118.828 Y105.029 E10.13502
G1 X121.793 Y107.994 E10.21258
G1 X122.143 Y107.994 E10.21906
G1 X119.179 Y105.029 E10.29662
G1 X119.529 Y105.029 E10.30310
G1 X122.494 Y107.994 E10.38066
G1 X122.844 Y107.994 E10.38714
G1 X119.879 Y105.029 E10.46470
G1 X120.230 Y105.029 E10.47119
G1 X123.194 Y107.994 E10.54875
G1 X123.545 Y107.994 E10.55523
G1 X120.580 Y105.029 E10.63279
G1 X120.930 Y105.029 E10.63927
G1 X123.895 Y107.994 E10.71683
G1 X124.245 Y107.994 E10.72331
G1 X121.281 Y105.029 E10.80087
G1 X121.631 Y105.029 E10.80736
G1 X124.494 Y107.891 E10.88225
G1 X124.494 Y107.541 E10.88873
G1 X121.982 Y105.029 E10.95445
G1 X122.332 Y105.029 E10.96093
G1 X124.494 Y107.191 E11.01749
G1 X124.494 Y106.840 E11.02397
G1 X122.682 Y105.029 E11.07136
G1 X123.033 Y105.029 E11.07784
G1 X124.494 Y106.490 E11.11607
G1 X124.494 Y106.140 E11.12255
G1 X123.383 Y105.029 E11.15161
G1 X123.733 Y105.029 E11.15809
G1 X124.494 Y105.789 E11.17798
G1 X124.494 Y105.439 E11.18446
G1 X124.084 Y105.029 E11.19518
G1 X124.434 Y105.029 E11.20167
G1 X124.494 Y105.089 E11.20322
G1 F1860.000 E8.20322
G92 E0
G1 X120.742 Y107.994 F6000.000
G1 E3.10000 F1860.000
G1 X110.462 Y97.714 E3.36895 F1200.000
G1 X110.462 Y98.064 E3.37543
G1 X120.391 Y107.994 E3.63521
G1 X120.041 Y107.994 E3.64170
G1 X110.462 Y98.415 E3.89231
G1 X110.462 Y98.765 E3.89879
G1 X119.691 Y107.994 E4.14024
G1 X119.340 Y107.994 E4.14673
G1 X110.462 Y99.115 E4.37901
G1 X110.462 Y99.466 E4.38549
G1 X118.990 Y107.994 E4.60861
G1 X118.640 Y107.994 E4.61509
G1 X110.462 Y99.816 E4.82904
G1 X110.462 Y100.166 E4.83552
G1 X118.289 Y107.994 E5.04031
G1 X117.939 Y107.994 E5.04679
G1 X110.462 Y100.517 E5.24241
G1 X110.386 Y100.791 E5.24767
G1 X117.589 Y107.994 E5.43612
G1 X117.238 Y107.994 E5.44261
G1 X110.254 Y101.009 E5.62533
G1 X110.123 Y101.228 E5.63006
G1 X116.888 Y107.994 E5.80705
G1 X116.538 Y107.994 E5.81353
G1 X109.991 Y101.447 E5.98480
G1 X109.860 Y101.666 E5.98953
G1 X116.187 Y107.994 E6.15507
G1 X115.837 Y107.994 E6.16155
G1 X109.729 Y101.885 E6.32136
G1 X109.597 Y102.104 E6.32608
G1 X115.487 Y107.994 E6.48016
G1 X115.136 Y107.994 E6.48665
G1 X109.466 Y102.323 E6.63500
G1 X109.335 Y102.542 E6.63972
G1 X114.786 Y107.994 E6.78235
G1 X114.435 Y107.994 E6.78883
G1 X109.203 Y102.761 E6.92572
G1 X109.072 Y102.980 E6.93045
G1 X114.085 Y107.994 E7.06161
G1 X113.735 Y107.994 E7.06809
G1 X108.940 Y103.199 E7.19353
G1 X108.809 Y103.418 E7.19825
G1 X113.384 Y107.994 E7.31796
G1 X113.034 Y107.994 E7.32444
G1 X108.570 Y103.529 E7.44125
G1 X108.219 Y103.529 E7.44773
G1 X112.684 Y107.994 E7.56454
G1 X112.333 Y107.994 E7.57102
G1 X107.869 Y103.529 E7.68782
G1 X107.519 Y103.529 E7.69431
G1 X111.983 Y107.994 E7.81111
G1 X111.633 Y107.994 E7.81759
G1 X107.168 Y103.529 E7.93440
G1 X106.818 Y103.529 E7.94088
G1 X111.282 Y107.994 E8.05769
G1 X110.932 Y107.994 E8.06417
G1 X106.467 Y103.529 E8.18097
G1 X106.117 Y103.529 E8.18746
G1 X110.582 Y107.994 E8.30426
G1 X110.231 Y107.994 E8.31074
G1 X105.767 Y103.529 E8.42755
G1 X105.416 Y103.529 E8.43403
G1 X109.881 Y107.994 E8.55084
G1 X109.531 Y107.994 E8.55732
G1 X105.066 Y103.529 E8.67412
G1 X104.716 Y103.529 E8.68061
G1 X109.180 Y107.994 E8.79741
G1 X108.830 Y107.994 E8.80389
G1 X104.365 Y103.529 E8.92070
G1 X104.015 Y103.529 E8.92718
G1 X108.479 Y107.994 E9.04399
G1 X108.129 Y107.994 E9.05047
G1 X103.665 Y103.529 E9.16727
G1 X103.314 Y103.529 E9.17376
G1 X107.779 Y107.994 E9.29056
G1 X107.428 Y107.994 E9.29704
G1 X102.964 Y103.529 E9.41385
G1 X102.614 Y103.529 E9.42033
G1 X107.078 Y107.994 E9.53714
G1 X106.728 Y107.994 E9.54362
G1 X102.263 Y103.529 E9.66042
G1 X101.913 Y103.529 E9.66691
G1 X106.377 Y107.994 E9.78371
G1 X106.027 Y107.994 E9.79019
G1 X101.563 Y103.529 E9.90700
G1 X101.212 Y103.529 E9.91348
G1 X105.677 Y107.994 E10.03029
G1 X105.326 Y107.994 E10.03677
G1 X100.862 Y103.529 E10.15357
G1 X100.511 Y103.529 E10.16006
G1 X104.976 Y107.994 E10.27686
G1 X104.626 Y107.994 E10.28334
G1 X100.161 Y103.529 E10.40015
G1 X99.811 Y103.529 E10.40663
G1 X104.275 Y107.994 E10.52344
G1 X103.925 Y107.994 E10.52992
G1 X99.460 Y103.529 E10.64672
G1 X99.110 Y103.529 E10.65321
G1 X103.575 Y107.994 E10.77001
G1 X103.224 Y107.994 E10.77649
G1 X98.760 Y103.529 E10.89330
G1 X98.409 Y103.529 E10.89978
G1 X102.874 Y107.994 E11.01659
G1 X102.524 Y107.994 E11.02307
G1 X98.059 Y103.529 E11.13987
G1 X97.709 Y103.529 E11.14636
G1 X102.173 Y107.994 E11.26316
G1 X101.823 Y107.994 E11.26964
G1 X97.358 Y103.529 E11.38645
G1 X97.008 Y103.529 E11.39293
G1 X101.472 Y107.994 E11.50974
G1 X101.122 Y107.994 E11.51622
G1 X96.658 Y103.529 E11.63302
G1 X96.307 Y103.529 E11.63950
G1 X100.772 Y107.994 E11.75631
G1 X100.421 Y107.994 E11.76279
G1 X95.957 Y103.529 E11.87960
G1 X95.607 Y103.529 E11.88608
G1 X100.071 Y107.994 E12.00289
G1 X99.721 Y107.994 E12.00937
G1 X95.256 Y103.529 E12.12617
G1 X94.906 Y103.529 E12.13265
G1 X99.370 Y107.994 E12.24946
G1 X99.020 Y107.994 E12.25594
G1 X94.555 Y103.529 E12.37275
G1 X94.205 Y103.529 E12.37923
G1 X98.670 Y107.994 E12.49604
G1 X98.319 Y107.994 E12.50252
G1 X93.855 Y103.529 E12.61932
G1 X93.504 Y103.529 E12.62580
G1 X97.969 Y107.994 E12.74261
G1 X97.619 Y107.994 E12.74909
G1 X93.154 Y103.529 E12.86590
G1 X92.804 Y103.529 E12.87238
G1 X97.268 Y107.994 E12.98919
G1 X96.918 Y107.994 E12.99567
G1 X92.453 Y103.529 E13.11247
G1 X92.103 Y103.529 E13.11895
G1 X96.568 Y107.994 E13.23576
G1 X96.217 Y107.994 E13.24224
G1 X91.753 Y103.529 E13.35905
G1 X91.402 Y103.529 E13.36553
G1 X95.867 Y107.994 E13.48234
G1 X95.516 Y107.994 E13.48882
G1 X91.052 Y103.529 E13.60562
G1 X90.702 Y103.529 E13.61210
G1 X95.166 Y107.994 E13.72891
G1 X94.816 Y107.994 E13.73539
G1 X90.351 Y103.529 E13.85220
G1 X90.001 Y103.529 E13.85868
G1 X94.465 Y107.994 E13.97549
G1 X94.115 Y107.994 E13.98197
G1 X89.651 Y103.529 E14.09877
G1 X89.300 Y103.529 E14.10525
G1 X93.765 Y107.994 E14.22206
G1 X93.414 Y107.994 E14.22854
G1 X83.711 Y98.290 E14.48241
G1 X83.984 Y98.213 E14.48766
G1 X89.083 Y103.312 E14.62106
G1 X88.557 Y102.436 F6000.000
G1 X84.257 Y98.136 E14.73356 F1200.000
G1 X84.530 Y98.059 E14.73881
G1 X88.032 Y101.560 E14.83042
G1 X87.506 Y100.684 F6000.000
G1 X84.742 Y97.920 E14.90273 F1200.000
G1 X84.928 Y97.756 E14.90732
G1 X87.493 Y100.321 E14.97444
G1 X87.493 Y99.970 E14.98092
G1 X85.114 Y97.591 E15.04317
G1 X85.300 Y97.427 E15.04776
G1 X87.493 Y99.619 E15.10513
G1 X87.492 Y99.269 E15.11161
G1 X85.441 Y97.218 E15.16528
G1 X85.545 Y96.971 E15.17023
G1 X87.492 Y98.918 E15.22117
G1 X87.492 Y98.567 E15.22766
G1 X85.648 Y96.724 E15.27588
G1 X85.752 Y96.477 E15.28083
G1 X87.491 Y98.217 E15.32634
G1 X87.491 Y97.866 E15.33283
G1 X85.772 Y96.147 E15.37781
G1 X85.753 Y95.777 E15.38465
G1 X87.491 Y97.515 E15.43011
G1 X87.490 Y97.165 E15.43660
G1 X85.734 Y95.408 E15.48255
G1 X85.355 Y94.679 F6000.000
G1 X87.490 Y96.814 E15.53841 F1200.000
G1 X87.490 Y96.463 E15.54490
G1 X83.033 Y92.006 E15.66150
G1 X83.383 Y92.006 E15.66798
G1 X87.489 Y96.112 E15.77541
G1 X87.489 Y95.762 E15.78190
G1 X83.734 Y92.006 E15.88015
G1 X84.084 Y92.006 E15.88663
G1 X87.489 Y95.411 E15.97571
G1 X87.488 Y95.060 E15.98220
G1 X84.434 Y92.006 E16.06210
G1 X84.785 Y92.006 E16.06858
G1 X87.488 Y94.710 E16.13931
G1 X87.488 Y94.359 E16.14580
G1 X85.135 Y92.006 E16.20735
G1 X85.485 Y92.006 E16.21383
G1 X87.487 Y94.008 E16.26621
G1 X87.487 Y93.658 E16.27269
G1 X85.836 Y92.006 E16.31589
G1 X86.186 Y92.006 E16.32238
G1 X87.487 Y93.307 E16.35640
G1 X87.486 Y92.956 E16.36289
G1 X86.536 Y92.006 E16.38774
G1 X86.887 Y92.006 E16.39422
G1 X87.486 Y92.606 E16.40990
G1 X87.485 Y92.255 E16.41638
G1 X87.237 Y92.006 E16.42288
G1 F1860.000 E13.42288
G92 E0
G1 X84.891 Y94.215 F6000.000
G1 E3.10000 F1860.000
G1 X82.682 Y92.006 E3.15778 F1200.000
G1 X82.332 Y92.006 E3.16426
G1 X84.142 Y93.817 E3.21162
G1 X83.718 Y93.742 E3.21960
G1 X81.982 Y92.006 E3.26502
G1 X81.631 Y92.006 E3.27150
G1 X83.325 Y93.700 E3.31580
G1 X83.052 Y93.777 E3.32105
G1 X81.281 Y92.006 E3.36737
G1 X81.084 Y92.160 E3.37199
G1 X82.778 Y93.854 E3.41631
G1 X82.505 Y93.931 E3.42156
G1 X80.909 Y92.335 E3.46332
G1 X80.734 Y92.510 E3.46790
G1 X82.282 Y94.058 E3.50840
G1 X82.096 Y94.223 E3.51299
G1 X80.559 Y92.686 E3.55321
G1 X80.384 Y92.861 E3.55779
G1 X81.910 Y94.387 E3.59773
G1 X81.724 Y94.552 E3.60232
G1 X80.208 Y93.036 E3.64198
G1 X80.033 Y93.211 E3.64657
G1 X81.572 Y94.750 E3.68683
G1 X81.469 Y94.997 E3.69178
G1 X80.006 Y93.535 E3.73004
G1 X80.006 Y93.885 E3.73652
G1 X81.365 Y95.244 E3.77207
G1 X81.261 Y95.490 E3.77702
G1 X80.006 Y94.235 E3.80985
G1 X80.006 Y94.586 E3.81634
G1 X81.226 Y95.805 E3.84824
G1 X81.245 Y96.174 E3.85508
G1 X80.006 Y94.936 E3.88748
G1 X80.006 Y95.286 E3.89396
G1 X81.264 Y96.544 E3.92685
G1 X81.590 Y97.220 F6000.000
G1 X80.006 Y95.637 E3.96828 F1200.000
G1 X80.006 Y95.987 E3.97476
G1 X92.013 Y107.994 E4.28889
G1 X92.363 Y107.994 E4.29537
G1 X82.271 Y97.901 E4.55941
G1 X82.913 Y98.193 F6000.000
G1 X92.714 Y107.994 E4.81583 F1200.000
G1 X93.064 Y107.994 E4.82231
G1 X83.338 Y98.267 E5.07679
G1 F1860.000 E2.07679
G92 E0
G1 X80.006 Y98.439 F6000.000
G1 E3.10000 F1860.000
G1 X89.560 Y107.994 E3.34997 F1200.000
G1 X89.210 Y107.994 E3.35645
G1 X80.006 Y98.790 E3.59725
G1 X80.006 Y99.140 E3.60373
G1 X88.860 Y107.994 E3.83536
G1 X88.509 Y107.994 E3.84184
G1 X80.006 Y99.491 E4.06431
G1 X80.006 Y99.841 E4.07079
G1 X88.159 Y107.994 E4.28409
G1 X87.809 Y107.994 E4.29057
G1 X80.006 Y100.191 E4.49471
G1 X80.006 Y100.542 E4.50119
G1 X87.458 Y107.994 E4.69616
