; generated by Slic3r 1.1.7 on 2014-12-07 at 18:44:06

; perimeters extrusion width = 0.42mm
; infill extrusion width = 0.74mm
; solid infill extrusion width = 0.71mm
; top infill extrusion width = 0.71mm
; support material extrusion width = 0.42mm

G21 ; set units to millimeters
M190 S60 ; wait for bed temperature to be reached
M104 S186 ; set temperature
G28 ; home all axes
M109 S186 ; wait for temperature to be reached
G90 ; use absolute coordinates
G92 E0
M82 ; use absolute distances for extrusion
M106 S127
G1 F1860.000 E-3.00000
G92 E0
G1 Z0.200 F6000.000
G1 X65.801 Y46.997 F6000.000
G1 E3.10000 F1860.000
G1 X75.606 Y33.269 E3.41210 F1200.000
G1 X76.606 Y32.269 E3.43826
G1 X78.393 Y31.020 E3.47861
G1 X91.416 Y24.976 E3.74421
G1 X94.046 Y24.395 E3.79404
G1 X98.023 Y24.395 E3.86762
G1 X100.323 Y24.834 E3.91094
G1 X122.873 Y33.763 E4.35964 F1200.000
G1 X125.417 Y35.626 E4.41797
G1 X164.224 Y83.272 E5.55481
G1 X166.556 Y86.234 E5.62454
G1 X167.111 Y87.046 E5.64275
G1 X169.035 Y90.399 E5.71426
G1 X181.293 Y113.213 E6.19340
G1 X181.705 Y114.171 E6.21268
G1 X182.074 Y115.167 E6.23233
G1 X182.336 Y115.965 E6.24787
G1 X182.717 Y117.290 E6.27337
G1 X182.986 Y118.407 E6.29464
G1 X183.209 Y119.568 E6.31650
G1 X183.351 Y120.608 E6.33592
G1 X187.050 Y158.809 E7.04595
G1 X187.113 Y160.150 E7.07080
G1 X187.108 Y160.940 E7.08542
G1 X187.065 Y161.648 E7.09853
G1 X186.992 Y162.264 E7.11000
G1 X186.598 Y163.825 E7.13979
G1 X186.450 Y164.201 E7.14728
G1 X185.254 Y166.117 E7.18905
G1 X185.056 Y166.334 E7.19448
G1 X184.401 Y166.956 E7.21119
G1 X184.175 Y167.142 E7.21662
G1 X183.500 Y167.625 E7.23197
G1 X182.617 Y168.126 E7.25074
G1 X181.795 Y168.485 E7.26735
G1 X181.048 Y168.741 E7.28195
G1 X180.700 Y168.840 E7.28864
G1 X179.994 Y169.011 E7.30209
G1 X179.189 Y169.167 E7.31726
G1 X176.892 Y169.512 E7.36023
G1 X174.771 Y169.764 E7.39975
G1 X170.025 Y170.281 E7.48807
G1 X163.098 Y170.996 E7.61690
G1 X154.454 Y171.838 E7.77757
G1 X144.557 Y172.737 E7.96142
G1 X133.872 Y173.622 E8.15978
G1 X122.859 Y174.423 E8.36406
G1 X112.306 Y175.050 E8.55964
G1 X102.039 Y175.474 E8.74974
G1 X92.332 Y175.601 E8.92933
G1 X85.009 Y175.356 E9.06489
G1 X84.351 Y175.313 E9.07709
G1 X58.135 Y172.283 E9.56532
G1 X53.676 Y171.743 E9.64841
G1 X48.240 Y170.836 E9.75037
G1 X43.459 Y169.747 E9.84108
G1 X42.946 Y169.615 E9.85088
G1 X37.440 Y167.938 E9.95737
G1 X32.295 Y165.951 E10.05940
G1 X31.735 Y165.714 E10.07065
G1 X26.392 Y163.148 E10.18031
G1 X25.843 Y162.862 E10.19175
G1 X20.178 Y159.563 E10.31303
G1 X18.732 Y158.402 E10.34734
G1 X18.093 Y157.710 E10.36477
G1 X16.899 Y155.830 E10.40596
G1 X16.532 Y154.558 E10.43047
G1 X12.990 Y134.351 E10.81000
G1 X12.913 Y133.511 E10.82560
G1 X13.395 Y130.469 E10.88259
G1 X14.064 Y128.987 E10.91267
G1 X35.395 Y90.248 E11.73081
G1 X37.562 Y86.534 E11.81036
G1 X65.764 Y47.049 E12.70804
G1 F1860.000 E9.70804
G92 E0
G1 X115.334 Y76.096 F6000.000
G1 E3.10000 F1860.000
G1 X115.007 Y76.536 E3.11014 F1200.000
G1 X114.576 Y76.876 E3.12029
G1 X114.073 Y77.092 E3.13043
G1 X113.530 Y77.172 E3.14057
G1 X112.986 Y77.107 E3.15071
G1 X112.476 Y76.905 E3.16086
G1 X112.037 Y76.577 E3.17100
G1 X111.697 Y76.147 E3.18114
G1 X111.480 Y75.643 E3.19129
G1 X111.401 Y75.100 E3.20143
G1 X111.465 Y74.556 E3.21157
G1 X111.668 Y74.047 E3.22172
G1 X111.996 Y73.607 E3.23186
G1 X112.426 Y73.267 E3.24200
G1 X112.930 Y73.051 E3.25215
G1 X113.472 Y72.971 E3.26229
G1 X113.530 Y72.978 E3.26336
G1 X114.017 Y73.036 E3.27243 F1200.000
G1 X114.526 Y73.238 E3.28257
G1 X114.966 Y73.566 E3.29272
G1 X115.305 Y73.996 E3.30286
G1 X115.522 Y74.500 E3.31300
G1 X115.601 Y75.042 E3.32315
G1 X115.537 Y75.587 E3.33329
G1 X115.358 Y76.038 E3.34227
G1 X115.117 Y75.975 F6000.000
G1 X114.828 Y76.362 E3.35121 F1200.000
G1 X114.449 Y76.661 E3.36014
G1 X114.005 Y76.853 E3.36908
G1 X113.527 Y76.922 E3.37802
G1 X113.047 Y76.866 E3.38696
G1 X112.598 Y76.687 E3.39590
G1 X112.211 Y76.398 E3.40484
G1 X111.911 Y76.019 E3.41378
G1 X111.720 Y75.575 E3.42272
G1 X111.650 Y75.097 E3.43165
G1 X111.707 Y74.617 E3.44059
G1 X111.886 Y74.168 E3.44953
G1 X112.174 Y73.781 E3.45847
G1 X112.554 Y73.482 E3.46741
G1 X113.033 Y73.285 E3.47699
G1 X113.476 Y73.221 E3.48527 F1200.000
G1 X113.955 Y73.277 E3.49421
G1 X114.404 Y73.456 E3.50314
G1 X114.792 Y73.745 E3.51208
G1 X115.091 Y74.124 E3.52102
G1 X115.282 Y74.568 E3.52996
G1 X115.352 Y75.046 E3.53890
G1 X115.295 Y75.526 E3.54784
G1 X115.140 Y75.916 E3.55561
G1 F1860.000 E0.55561
G92 E0
G1 X112.885 Y72.892 F6000.000
G1 X120.226 Y79.724 F6000.000
G1 E3.10000 F1860.000
G1 X104.627 Y79.724 E3.38860 F1200.000
G1 X104.627 Y70.919 E3.55150
G1 X118.066 Y70.919 E3.80014
G1 X120.226 Y73.209 E3.85839
G1 X120.226 Y79.661 E3.97775
G1 X120.474 Y79.971 F6000.000
G1 X104.379 Y79.971 E4.27550 F1200.000
G1 X104.379 Y70.671 E4.44755
G1 X118.173 Y70.671 E4.70273
G1 X120.474 Y73.111 E4.76477
G1 X120.474 Y79.908 E4.89052
G1 X120.110 Y79.761 F6000.000
G1 F1860.000 E1.89052
G92 E0
G1 X115.282 Y73.710 F6000.000
G1 E3.10000 F1860.000
G1 X120.067 Y78.495 E3.22520 F1200.000
G1 X120.067 Y78.850 E3.23176
G1 X115.677 Y74.460 E3.34661
G1 X115.738 Y74.875 E3.35437
G1 X120.067 Y79.204 E3.46765
G1 X120.050 Y79.542 E3.47390
G1 X115.739 Y75.231 E3.58669
G1 X115.702 Y75.548 E3.59260
G1 X119.719 Y79.565 E3.69769
G1 X119.364 Y79.565 E3.70426
G1 X115.617 Y75.818 E3.80230
G1 X115.516 Y76.071 E3.80735
G1 X119.010 Y79.565 E3.89876
G1 X118.655 Y79.565 E3.90532
G1 X115.385 Y76.295 E3.99088
G1 X115.233 Y76.498 E3.99557
G1 X118.300 Y79.565 E4.07581
G1 X117.946 Y79.565 E4.08237
G1 X115.070 Y76.689 E4.15762
G1 X114.872 Y76.845 E4.16229
G1 X117.591 Y79.565 E4.23345
G1 X117.237 Y79.565 E4.24001
G1 X114.673 Y77.002 E4.30707
G1 X114.429 Y77.112 E4.31203
G1 X116.882 Y79.565 E4.37620
G1 X116.527 Y79.565 E4.38276
G1 X114.181 Y77.219 E4.44414
G1 X113.888 Y77.280 E4.44969
G1 X116.173 Y79.565 E4.50946
G1 X115.818 Y79.565 E4.51602
G1 X113.579 Y77.325 E4.57462
G1 X113.190 Y77.292 E4.58183
G1 X115.464 Y79.565 E4.64130
G1 X115.109 Y79.565 E4.64786
G1 X112.715 Y77.171 E4.71050
G1 X111.397 Y75.853 F6000.000
G1 X106.622 Y71.078 E4.83544 F1200.000
G1 X106.976 Y71.078 E4.84200
G1 X111.281 Y75.383 E4.95463
G1 X111.253 Y75.000 E4.96174
G1 X107.331 Y71.078 E5.06435
G1 X107.686 Y71.078 E5.07091
G1 X111.290 Y74.682 E5.16521
G1 X111.358 Y74.395 E5.17066
G1 X108.040 Y71.078 E5.25746
G1 X108.395 Y71.078 E5.26402
G1 X111.459 Y74.142 E5.34418
G1 X111.576 Y73.904 E5.34908
G1 X108.749 Y71.078 E5.42302
G1 X109.104 Y71.078 E5.42958
G1 X111.727 Y73.701 E5.49821
G1 X111.879 Y73.498 E5.50290
G1 X109.459 Y71.078 E5.56621
G1 X109.813 Y71.078 E5.57277
G1 X112.076 Y73.341 E5.63198
G1 X112.274 Y73.184 E5.63665
G1 X110.168 Y71.078 E5.69176
G1 X110.522 Y71.078 E5.69832
G1 X112.505 Y73.060 E5.75018
G1 X112.753 Y72.953 E5.75517
G1 X110.877 Y71.078 E5.80424
G1 X111.232 Y71.078 E5.81080
G1 X113.029 Y72.875 E5.85782
G1 X113.338 Y72.830 E5.86361
G1 X111.586 Y71.078 E5.90945
G1 X111.941 Y71.078 E5.91601
G1 X113.701 Y72.838 E5.96206
G1 X114.125 Y72.907 E5.97001
G1 X112.295 Y71.078 E6.01787
G1 F1860.000 E3.01787
G92 E0
G1 X114.863 Y73.291 F6000.000
G1 E3.10000 F1860.000
G1 X112.650 Y71.078 E3.15791 F1200.000
G1 X113.005 Y71.078 E3.16447
G1 X120.067 Y78.140 E3.34925
G1 X120.067 Y77.786 E3.35581
G1 X113.359 Y71.078 E3.53131
G1 X113.714 Y71.078 E3.53787
G1 X120.067 Y77.431 E3.70409
G1 X120.067 Y77.077 E3.71065
G1 X114.068 Y71.078 E3.86760
G1 X114.423 Y71.078 E3.87416
G1 X120.067 Y76.722 E4.02183
G1 X120.067 Y76.367 E4.02839
G1 X114.778 Y71.078 E4.16678
G1 X115.132 Y71.078 E4.17334
G1 X120.067 Y76.013 E4.30245
G1 X120.067 Y75.658 E4.30901
G1 X115.487 Y71.078 E4.42885
G1 X115.841 Y71.078 E4.43541
G1 X120.067 Y75.304 E4.54597
G1 X120.067 Y74.949 E4.55253
G1 X116.196 Y71.078 E4.65381
G1 X116.551 Y71.078 E4.66037
G1 X120.067 Y74.594 E4.75238
G1 X120.067 Y74.240 E4.75894
G1 X116.905 Y71.078 E4.84166
G1 X117.260 Y71.078 E4.84822
G1 X120.067 Y73.885 E4.92168
G1 X120.067 Y73.531 E4.92824
G1 X117.614 Y71.078 E4.99241
G1 X117.969 Y71.078 F6000.000
G1 X118.471 Y71.580 E5.00554 F1200.000
G1 F1860.000 E2.00554
G92 E0
G1 X106.267 Y71.078 F6000.000
G1 E3.10000 F1860.000
G1 X114.754 Y79.565 E3.32205 F1200.000
G1 X114.400 Y79.565 E3.32861
G1 X105.913 Y71.078 E3.55066
G1 X105.558 Y71.078 E3.55722
G1 X114.045 Y79.565 E3.77928
G1 X113.691 Y79.565 E3.78584
G1 X105.204 Y71.078 E4.00789
G1 X104.849 Y71.078 E4.01445
G1 X113.336 Y79.565 E4.23650
G1 X112.981 Y79.565 E4.24306
G1 X104.786 Y71.369 E4.45749
G1 X104.786 Y71.724 E4.46405
G1 X112.627 Y79.565 E4.66919
G1 X112.272 Y79.565 E4.67575
G1 X104.786 Y72.079 E4.87163
G1 X104.786 Y72.433 E4.87819
G1 X111.918 Y79.565 E5.06478
G1 X111.563 Y79.565 E5.07134
G1 X104.786 Y72.788 E5.24866
G1 X104.786 Y73.142 E5.25522
G1 X111.208 Y79.565 E5.42326
G1 X110.854 Y79.565 E5.42982
G1 X104.786 Y73.497 E5.58858
G1 X104.786 Y73.852 E5.59514
G1 X110.499 Y79.565 E5.74462
G1 X110.145 Y79.565 E5.75118
G1 X104.786 Y74.206 E5.89139
G1 X104.786 Y74.561 E5.89795
G1 X109.790 Y79.565 E6.02888
G1 X109.436 Y79.565 E6.03544
G1 X104.786 Y74.915 E6.15709
G1 X104.786 Y75.270 E6.16365
G1 X109.081 Y79.565 E6.27603
G1 X108.726 Y79.565 E6.28259
G1 X104.786 Y75.625 E6.38568
G1 X104.786 Y75.979 E6.39224
G1 X108.372 Y79.565 E6.48606
G1 X108.017 Y79.565 E6.49262
G1 X104.786 Y76.334 E6.57717
G1 X104.786 Y76.688 E6.58373
G1 X107.663 Y79.565 E6.65899
G1 X107.308 Y79.565 E6.66555
G1 X104.786 Y77.043 E6.73154
G1 X104.786 Y77.397 E6.73810
G1 X106.953 Y79.565 E6.79481
G1 X106.599 Y79.565 E6.80137
G1 X104.786 Y77.752 E6.84881
G1 X104.786 Y78.107 E6.85537
G1 X106.244 Y79.565 E6.89352
G1 X105.890 Y79.565 E6.90008
G1 X104.786 Y78.461 E6.92896
G1 X104.786 Y78.816 E6.93552
G1 X105.535 Y79.565 E6.95512
G1 X105.180 Y79.565 E6.96168
G1 X104.786 Y79.170 E6.97201
G1 X104.786 Y79.525 E6.97857
G1 X104.826 Y79.565 E6.97961
G1 F1860.000 E3.97961
G92 E0
G1 X113.683 Y46.120 F6000.000
G1 E3.10000 F1860.000
G1 X113.147 Y46.097 E3.10993 F1200.000
G1 X112.635 Y45.936 E3.11986
G1 X112.181 Y45.649 E3.12979
G1 X111.818 Y45.253 E3.13973
G1 X111.570 Y44.777 E3.14966
G1 X111.453 Y44.253 E3.15959
G1 X111.476 Y43.717 E3.16952
G1 X111.616 Y43.270 E3.17819
G1 X111.636 Y43.205 E3.17945
G1 X111.924 Y42.752 E3.18938
G1 X112.319 Y42.389 E3.19931
G1 X112.795 Y42.140 E3.20924
G1 X113.319 Y42.023 E3.21917
G1 X113.383 Y42.026 E3.22036
G1 X113.856 Y42.046 E3.22911 F1200.000
G1 X114.368 Y42.207 E3.23904
G1 X114.821 Y42.494 E3.24897
G1 X115.184 Y42.890 E3.25890
G1 X115.433 Y43.366 E3.26883
G1 X115.549 Y43.890 E3.27876
G1 X115.527 Y44.426 E3.28869
G1 X115.386 Y44.873 E3.29737
G1 X115.366 Y44.938 E3.29862
G1 X115.078 Y45.391 E3.30856
G1 X114.683 Y45.754 E3.31849
G1 X114.207 Y46.003 E3.32842
G1 X113.745 Y46.106 E3.33718
G1 X113.661 Y45.871 F6000.000
G1 X113.190 Y45.851 E3.34591 F1200.000
G1 X112.740 Y45.710 E3.35464
G1 X112.341 Y45.457 E3.36336
G1 X112.022 Y45.110 E3.37209
G1 X111.804 Y44.692 E3.38082
G1 X111.701 Y44.231 E3.38954
G1 X111.721 Y43.760 E3.39827
G1 X111.852 Y43.344 E3.40634
G1 X112.115 Y42.912 E3.41570
G1 X112.463 Y42.593 E3.42443
G1 X112.915 Y42.367 E3.43379
G1 X113.341 Y42.272 E3.44186 F1200.000
G1 X113.813 Y42.292 E3.45059
G1 X114.263 Y42.433 E3.45932
G1 X114.661 Y42.686 E3.46805
G1 X114.956 Y43.007 E3.47612
G1 X115.198 Y43.451 E3.48548
G1 X115.301 Y43.912 E3.49421
G1 X115.283 Y44.348 E3.50228
G1 X115.140 Y44.833 E3.51164
G1 X114.887 Y45.231 E3.52037
G1 X114.540 Y45.550 E3.52909
G1 X114.121 Y45.769 E3.53782
G1 X113.723 Y45.858 E3.54538
G1 F1860.000 E0.54538
G92 E0
G1 X112.808 Y41.961 F6000.000
G1 X120.226 Y39.919 F6000.000
G1 E3.10000 F1860.000
G1 X120.226 Y44.540 E3.18550 F1200.000
G1 X114.965 Y48.224 E3.30432
G1 X104.627 Y48.224 E3.49559
G1 X104.627 Y39.919 E3.64924
G1 X120.163 Y39.919 E3.93668
G1 X120.474 Y39.671 F6000.000
G1 X120.474 Y44.669 E4.02913 F1200.000
G1 X115.043 Y48.471 E4.15178
G1 X104.379 Y48.471 E4.34906
G1 X104.379 Y39.671 E4.51186
G1 X120.411 Y39.671 E4.80844
G1 X120.264 Y40.035 F6000.000
G1 X120.027 Y40.078 F6000.000
G1 X120.067 Y40.118 E4.80949 F1200.000
G1 X120.067 Y40.469 E4.81599
G1 X119.676 Y40.078 E4.82622
G1 X119.324 Y40.078 E4.83272
G1 X120.067 Y40.821 E4.85216
G1 X120.067 Y41.172 E4.85866
G1 X118.973 Y40.078 E4.88728
G1 X118.622 Y40.078 E4.89378
G1 X120.067 Y41.523 E4.93159
G1 X120.067 Y41.875 E4.93809
G1 X118.270 Y40.078 E4.98510
G1 X117.919 Y40.078 E4.99160
G1 X120.067 Y42.226 E5.04780
G1 X120.067 Y42.577 E5.05430
G1 X117.568 Y40.078 E5.11969
G1 X117.216 Y40.078 E5.12619
G1 X120.067 Y42.929 E5.20078
G1 X120.067 Y43.280 E5.20728
G1 X116.865 Y40.078 E5.29105
G1 X116.514 Y40.078 E5.29755
G1 X120.067 Y43.631 E5.39052
G1 X120.067 Y43.983 E5.39702
G1 X116.162 Y40.078 E5.49918
G1 X115.811 Y40.078 E5.50568
G1 X120.067 Y44.334 E5.61704
G1 X119.933 Y44.551 E5.62176
G1 X115.460 Y40.078 E5.73880
G1 X115.108 Y40.078 E5.74530
G1 X119.726 Y44.696 E5.86612
G1 X119.520 Y44.841 E5.87079
G1 X114.757 Y40.078 E5.99540
G1 X114.406 Y40.078 E6.00190
G1 X119.313 Y44.985 E6.13029
G1 X119.106 Y45.130 E6.13496
G1 X114.054 Y40.078 E6.26714
G1 X113.703 Y40.078 E6.27364
G1 X118.900 Y45.275 E6.40960
G1 X118.693 Y45.419 E6.41427
G1 X113.352 Y40.078 E6.55402
G1 X113.000 Y40.078 E6.56052
G1 X118.487 Y45.564 E6.70406
G1 X118.280 Y45.709 E6.70873
G1 X112.649 Y40.078 E6.85605
G1 X112.298 Y40.078 E6.86255
G1 X114.210 Y41.990 E6.91258
G1 X113.750 Y41.882 E6.92132
G1 X111.946 Y40.078 E6.96852
G1 X111.595 Y40.078 E6.97502
G1 X113.384 Y41.867 E7.02182
G1 X113.079 Y41.914 E7.02752
G1 X111.244 Y40.078 E7.07554
G1 X110.892 Y40.078 E7.08204
G1 X112.792 Y41.978 E7.13175
G1 X112.551 Y42.088 E7.13665
G1 X110.541 Y40.078 E7.18924
G1 X110.190 Y40.078 E7.19574
G1 X112.320 Y42.209 E7.25149
G1 X112.118 Y42.358 E7.25614
G1 X109.838 Y40.078 E7.31578
G1 X109.487 Y40.078 E7.32228
G1 X111.935 Y42.526 E7.38633
G1 X111.764 Y42.707 E7.39092
G1 X109.136 Y40.078 E7.45970
G1 X108.784 Y40.078 E7.46620
G1 X111.628 Y42.921 E7.54060
G1 X111.491 Y43.136 E7.54530
G1 X108.433 Y40.078 E7.62532
G1 X108.082 Y40.078 E7.63182
G1 X111.407 Y43.404 E7.71883
G1 X111.323 Y43.671 E7.72402
G1 X107.730 Y40.078 E7.81802
G1 X107.379 Y40.078 E7.82452
G1 X111.304 Y44.003 E7.92722
G1 X111.315 Y44.365 E7.93392
G1 X107.028 Y40.078 E8.04608
G1 X106.676 Y40.078 E8.05258
G1 X111.416 Y44.817 E8.17658
G1 X112.732 Y46.134 F6000.000
G1 X114.663 Y48.065 E8.22711 F1200.000
G1 X114.974 Y48.024 E8.23290
G1 X113.209 Y46.259 E8.27907
G1 X113.576 Y46.275 E8.28587
G1 X115.180 Y47.879 E8.32785
G1 X115.387 Y47.735 E8.33252
G1 X113.889 Y46.237 E8.37170
G1 X114.176 Y46.173 E8.37715
G1 X115.593 Y47.590 E8.41422
G1 X115.800 Y47.445 E8.41889
G1 X114.424 Y46.069 E8.45489
G1 X114.655 Y45.949 E8.45971
G1 X116.007 Y47.300 E8.49508
G1 X116.213 Y47.156 E8.49974
G1 X114.863 Y45.805 E8.53508
G1 X115.046 Y45.637 E8.53968
G1 X116.420 Y47.011 E8.57563
G1 X116.627 Y46.866 E8.58030
G1 X115.222 Y45.462 E8.61705
G1 X115.358 Y45.247 E8.62176
G1 X116.833 Y46.722 E8.66034
G1 X117.040 Y46.577 E8.66501
G1 X115.495 Y45.032 E8.70543
G1 X115.585 Y44.771 E8.71054
G1 X117.247 Y46.432 E8.75401
G1 X117.453 Y46.288 E8.75868
G1 X115.669 Y44.504 E8.80535
G1 X115.697 Y44.179 E8.81137
G1 X117.660 Y46.143 E8.86274
G1 X117.867 Y45.998 E8.86741
G1 X115.700 Y43.831 E8.92410
G1 X115.599 Y43.379 E8.93267
G1 X118.073 Y45.854 E8.99742
G1 F1860.000 E5.99742
G92 E0
G1 X114.312 Y48.065 F6000.000
G1 E3.10000 F1860.000
G1 X106.325 Y40.078 E3.30897 F1200.000
G1 X105.973 Y40.078 E3.31547
G1 X113.961 Y48.065 E3.52444
G1 X113.609 Y48.065 E3.53094
G1 X105.622 Y40.078 E3.73991
G1 X105.271 Y40.078 E3.74641
G1 X113.258 Y48.065 E3.95538
G1 X112.907 Y48.065 E3.96188
G1 X104.919 Y40.078 E4.17085
G1 X104.786 Y40.296 E4.17558
G1 X112.555 Y48.065 E4.37885
G1 X112.204 Y48.065 E4.38535
G1 X104.786 Y40.647 E4.57943
G1 X104.786 Y40.998 E4.58593
G1 X111.853 Y48.065 E4.77082
G1 X111.501 Y48.065 E4.77732
G1 X104.786 Y41.350 E4.95302
G1 X104.786 Y41.701 E4.95952
G1 X111.150 Y48.065 E5.12603
G1 X110.799 Y48.065 E5.13253
G1 X104.786 Y42.052 E5.28984
G1 X104.786 Y42.404 E5.29634
G1 X110.447 Y48.065 E5.44447
G1 X110.096 Y48.065 E5.45097
G1 X104.786 Y42.755 E5.58990
G1 X104.786 Y43.106 E5.59640
G1 X109.745 Y48.065 E5.72613
