; generated by Slic3r 1.1.7 on 2015-01-04 at 15:00:34

; perimeters extrusion width = 0.40mm
; infill extrusion width = 0.44mm
; solid infill extrusion width = 0.44mm
; top infill extrusion width = 0.44mm

G21 ; set units to millimeters
M190 S110 ; wait for bed temperature to be reached
M104 S220 ; set temperature
G28 ; home all axes Start of G Code Slic3r
 
M109 S220 ; wait for temperature to be reached
G90 ; use absolute coordinates
G92 E0
M82 ; use absolute distances for extrusion
M106 S127
G1 F1860.000 E-3.00000
G92 E0
G1 Z0.294 F7800.000
G1 X89.944 Y90.558 F7800.000
G1 E3.10000 F1860.000
G1 X96.918 Y83.631 E3.71186 F1800.000
G1 X98.052 Y82.555 E3.80919
G1 X115.243 Y68.591 E5.18786
G1 X129.654 Y57.881 E6.30553
G1 X131.769 Y56.803 E6.45330
G1 X134.121 Y56.484 E6.60108
G1 X136.447 Y56.959 E6.74885
G1 X138.927 Y58.584 E6.93342 F1800.000
G1 X141.797 Y61.482 E7.18731
G1 X143.161 Y63.425 E7.33508
G1 X143.808 Y65.709 E7.48286
G1 X143.665 Y68.079 E7.63063
G1 X142.405 Y70.763 E7.81520
G1 X131.357 Y85.304 E8.95199
G1 X116.933 Y102.632 E10.35543
G1 X94.934 Y124.291 E12.27722
G1 X73.391 Y141.916 E14.00983
G1 X71.329 Y143.091 E14.15760
G1 X68.994 Y143.519 E14.30538
G1 X66.648 Y143.153 E14.45315
G1 X63.857 Y141.416 E14.65778
G1 X58.203 Y135.704 E15.15806
G1 X56.839 Y133.762 E15.30584
G1 X56.192 Y131.478 E15.45361
G1 X56.335 Y129.108 E15.60138
G1 X57.801 Y126.166 E15.80601
G1 X74.401 Y106.293 E17.41787
G1 X76.089 Y104.319 E17.57959
G1 X89.902 Y90.600 E18.79141
G1 X90.330 Y90.946 F7800.000
G1 X97.304 Y84.019 E19.40327 F1800.000
G1 X98.397 Y82.979 E19.49721
G1 X115.569 Y69.030 E20.87440
G1 X129.980 Y58.320 E21.99207
G1 X132.019 Y57.299 E22.13399
G1 X134.284 Y57.040 E22.27591
G1 X136.500 Y57.572 E22.41783
G1 X138.539 Y58.969 E22.57163 F1800.000
G1 X141.408 Y61.867 E22.82552
G1 X142.705 Y63.742 E22.96743
G1 X143.281 Y65.948 E23.10935
G1 X143.065 Y68.218 E23.25127
G1 X141.969 Y70.432 E23.40507
G1 X130.936 Y84.955 E24.54039
G1 X116.549 Y102.242 E25.94044
G1 X94.587 Y123.868 E27.85907
G1 X73.045 Y141.493 E29.59168
G1 X71.056 Y142.607 E29.73360
G1 X68.806 Y142.972 E29.87552
G1 X66.566 Y142.543 E30.01743
G1 X64.246 Y141.031 E30.18982
G1 X58.592 Y135.320 E30.69011
G1 X57.295 Y133.445 E30.83203
G1 X56.719 Y131.239 E30.97394
G1 X56.935 Y128.969 E31.11586
G1 X58.221 Y126.516 E31.28825
G1 X74.821 Y106.644 E32.90011
G1 X76.475 Y104.707 E33.05867
G1 X90.287 Y90.988 E34.27049
G1 F1860.000 E31.27049
G92 E0
G1 X126.630 Y73.626 F7800.000
G1 E3.10000 F1860.000
G1 X124.603 Y73.188 E3.22907 F441.000
G1 X120.230 Y75.168 E3.52788
G1 X103.240 Y88.976 E4.89071
G1 X81.783 Y110.288 E6.77328
G1 X64.515 Y130.882 E8.44627
G1 X63.735 Y130.585 E8.49817
G1 X81.306 Y109.551 E10.20426
G1 X102.723 Y88.279 E12.08333
G1 X119.636 Y74.533 E13.44004
G1 X126.976 Y70.790 E13.95290
G1 X133.883 Y63.990 E14.55628
G1 X136.339 Y66.471 E14.77360
G1 X129.469 Y73.309 E15.37697
G1 X125.652 Y80.610 E15.88984
G1 X111.734 Y97.382 E17.24654
G1 X90.245 Y118.582 E19.12561
G1 X69.032 Y135.937 E20.83170
G1 X68.744 Y135.155 E20.88361
G1 X89.513 Y118.097 E22.55659
G1 X111.042 Y96.858 E24.43916
G1 X125.023 Y80.010 E25.80199
G1 X127.047 Y75.657 E26.10080
G1 X126.642 Y73.685 E26.22614
G1 X126.659 Y73.227 F7800.000
G1 X127.094 Y73.167 F7800.000
G1 X124.583 Y72.624 E26.38603 F630.000
G1 X127.299 Y71.239 E26.57580
G1 X133.879 Y64.764 E27.15050
G1 X135.566 Y66.467 E27.29969
G1 X129.023 Y72.981 E27.87439
G1 X127.611 Y75.683 E28.06416
G1 X127.106 Y73.225 E28.22032
G1 X127.541 Y73.474 F7800.000
G1 X128.066 Y73.998 E28.26652 F1500.000
G1 X127.750 Y74.486 E28.30273
G1 X127.775 Y74.512 E28.30499
G1 X125.745 Y72.482 F7800.000
G1 X126.782 Y72.714 E28.37111 F1500.000
G1 X126.260 Y72.192 E28.41705
G1 X126.793 Y71.920 E28.45428
G1 X128.343 Y73.470 E28.59071
G1 X128.619 Y72.942 E28.62783
G1 X127.326 Y71.649 E28.74166
G1 X127.778 Y71.296 E28.77736
G1 X128.977 Y72.495 E28.88291
G1 X129.380 Y72.094 E28.91833
G1 X128.184 Y70.897 E29.02368
G1 X128.589 Y70.498 E29.05910
G1 X129.784 Y71.692 E29.16424
G1 X130.187 Y71.291 E29.19965
G1 X128.995 Y70.099 E29.30459
G1 X129.400 Y69.700 E29.34001
G1 X130.590 Y70.890 E29.44473
G1 X130.993 Y70.488 E29.48015
G1 X129.806 Y69.301 E29.58467
G1 X130.212 Y68.902 E29.62009
G1 X131.396 Y70.087 E29.72440
G1 X131.800 Y69.685 E29.75981
G1 X130.617 Y68.503 E29.86392
G1 X131.023 Y68.104 E29.89934
G1 X132.203 Y69.284 E30.00323
G1 X132.606 Y68.882 E30.03865
G1 X131.428 Y67.704 E30.14234
G1 X131.834 Y67.305 E30.17776
G1 X133.009 Y68.481 E30.28124
G1 X133.412 Y68.079 E30.31665
G1 X132.239 Y66.906 E30.41993
G1 X132.645 Y66.507 E30.45535
G1 X133.816 Y67.678 E30.55841
G1 X134.219 Y67.276 E30.59383
G1 X133.051 Y66.108 E30.69669
G1 X133.456 Y65.709 E30.73211
G1 X134.622 Y66.875 E30.83476
G1 X135.025 Y66.473 E30.87018
G1 X133.862 Y65.310 E30.97262
G1 X127.296 Y76.010 F7800.000
G1 X127.244 Y76.455 E30.98873 F600.000
G1 X125.386 Y80.218 E31.13985
G1 X125.289 Y80.369 E31.14631
G1 X111.414 Y97.089 E31.92865
G1 X89.957 Y118.262 E33.01407
G1 X89.700 Y118.493 E33.02654
G1 F1860.000 E30.02654
G92 E0
G1 X81.389 Y110.097 F7800.000
G1 E3.10000 F1860.000
G1 X81.623 Y109.842 E3.11246 F600.000
G1 X103.013 Y88.602 E4.19789
G1 X119.874 Y74.898 E4.98023
G1 X120.026 Y74.802 E4.98669
G1 X123.808 Y72.983 E5.13780
G1 X124.253 Y72.936 E5.15392
M106 S192
M104 S218 ; set temperature
M140 S108 ; set bed temperature
G1 F1860.000 E2.15392
G92 E0
G1 Z0.587 F7800.000
G1 X126.550 Y73.705 F7800.000
G1 E3.10000 F1860.000
G1 X124.613 Y73.286 E3.19017 F882.000
G1 X120.280 Y75.248 E3.40664
G1 X103.303 Y89.046 E4.40213
G1 X81.852 Y110.351 E5.77791
G1 X64.543 Y130.993 E7.00373
G1 X63.579 Y130.626 E7.05068
G1 X81.236 Y109.488 E8.30405
G1 X102.660 Y88.209 E9.67809
G1 X119.585 Y74.454 E10.67053
G1 X126.921 Y70.713 E11.04524
G1 X133.884 Y63.857 E11.48991
G1 X136.472 Y66.472 E11.65730
G1 X129.546 Y73.365 E12.10196
G1 X125.730 Y80.662 E12.47667
G1 X111.803 Y97.446 E13.46911
G1 X90.307 Y118.652 E14.84315
G1 X68.990 Y136.093 E16.09652
G1 X68.633 Y135.124 E16.14348
G1 X89.450 Y118.027 E17.36929
G1 X110.973 Y96.794 E18.74508
G1 X124.943 Y79.959 E19.74056
G1 X126.949 Y75.646 E19.95703
G1 X126.562 Y73.764 E20.04447
G1 X126.580 Y73.306 F7800.000
G1 X126.890 Y73.369 F7800.000
G1 X124.569 Y72.868 E20.15251 F1260.000
G1 X121.852 Y74.097 E20.28820
G1 X121.717 Y73.815 E20.30243
G1 X127.157 Y71.041 E20.58031
G1 X133.881 Y64.423 E21.00965
G1 X135.906 Y66.469 E21.14063
G1 X129.220 Y73.125 E21.56997
G1 X126.390 Y78.537 E21.84785
G1 X126.110 Y78.399 E21.86208
G1 X127.367 Y75.695 E21.99777
G1 X126.902 Y73.428 E22.10308
G1 X127.397 Y74.466 F7800.000
G1 X135.450 Y66.413 E22.65743 F3000.000
G1 X135.128 Y66.091 E22.67963
G1 X127.287 Y73.932 E23.21936
G1 X127.177 Y73.397 E23.24594
G1 X134.805 Y65.768 E23.77104
G1 X134.483 Y65.446 E23.79323
G1 X126.851 Y73.078 E24.31859
G1 X126.321 Y72.963 E24.34500
G1 X134.161 Y65.124 E24.88467
G1 X130.549 Y68.091 F7800.000
G1 X125.791 Y72.849 E25.21222 F3000.000
G1 X125.260 Y72.734 E25.23862
G1 X126.108 Y71.886 E25.29700
G1 X124.793 Y72.557 F7800.000
G1 X124.732 Y72.618 E25.30117 F3000.000
G1 X128.388 Y74.121 F7800.000
G1 X127.507 Y75.001 E25.36179 F3000.000
G1 X127.634 Y75.519 E25.38775
G1 X127.681 Y75.472 E25.39101
G1 X126.162 Y78.647 F7800.000
G1 X125.396 Y80.198 E25.50065 F1200.000
G1 X125.289 Y80.369 E25.51338
G1 X111.348 Y97.160 E26.89651
G1 X89.957 Y118.262 E28.80076
G1 X68.975 Y135.475 E30.52068
G1 F1860.000 E27.52068
G92 E0
G1 X64.197 Y130.647 F7800.000
G1 E3.10000 F1860.000
G1 X81.623 Y109.842 E4.81992 F1200.000
G1 X102.941 Y88.667 E6.72417
G1 X119.874 Y74.898 E8.10730
G1 X120.045 Y74.793 E8.12003
G1 X121.604 Y74.043 E8.22967
M106 S192
G1 F1860.000 E5.22967
G92 E0
G1 Z0.881 F7800.000
G1 X126.550 Y73.705 F7800.000
G1 E3.10000 F1860.000
G1 X124.613 Y73.286 E3.19017 F882.000
G1 X120.280 Y75.248 E3.40664
G1 X103.303 Y89.046 E4.40213
G1 X81.852 Y110.351 E5.77791
G1 X64.543 Y130.993 E7.00373
G1 X63.579 Y130.626 E7.05068
G1 X81.236 Y109.488 E8.30405
G1 X102.660 Y88.209 E9.67809
G1 X119.585 Y74.454 E10.67053
G1 X126.921 Y70.713 E11.04524
G1 X133.884 Y63.857 E11.48991
G1 X136.472 Y66.472 E11.65730
G1 X129.546 Y73.365 E12.10196
G1 X125.730 Y80.662 E12.47667
G1 X111.803 Y97.446 E13.46911
G1 X90.307 Y118.652 E14.84315
G1 X68.990 Y136.093 E16.09652
G1 X68.633 Y135.124 E16.14348
G1 X89.450 Y118.027 E17.36929
G1 X110.973 Y96.794 E18.74508
G1 X124.943 Y79.959 E19.74056
G1 X126.949 Y75.646 E19.95703
G1 X126.562 Y73.764 E20.04447
G1 X126.580 Y73.306 F7800.000
G1 X126.890 Y73.369 F7800.000
G1 X124.569 Y72.868 E20.15251 F1260.000
G1 X121.852 Y74.097 E20.28820
G1 X121.717 Y73.815 E20.30243
G1 X127.157 Y71.041 E20.58031
G1 X133.881 Y64.423 E21.00965
G1 X135.906 Y66.469 E21.14064
G1 X129.220 Y73.125 E21.56998
G1 X126.390 Y78.537 E21.84785
G1 X126.110 Y78.399 E21.86208
G1 X127.367 Y75.695 E21.99777
G1 X126.902 Y73.428 E22.10308
G1 X126.334 Y72.966 F7800.000
G1 X125.543 Y72.175 E22.15758 F3000.000
G1 X125.127 Y72.386 E22.18026
G1 X125.535 Y72.794 E22.20829
G1 X124.732 Y72.618 E22.24829
G1 F1860.000 E19.24829
G92 E0
G1 X127.634 Y75.519 F7800.000
G1 E3.10000 F1860.000
G1 X127.608 Y75.494 E3.10177 F3000.000
G1 X127.864 Y75.123 E3.12370
G1 X127.446 Y74.705 E3.15246
G1 X127.284 Y73.916 E3.19166
G1 X128.079 Y74.711 E3.24638
G1 X128.294 Y74.299 E3.26899
G1 X125.958 Y71.963 E3.42982
G1 X126.373 Y71.751 E3.45250
G1 X128.509 Y73.888 E3.59957
G1 X128.724 Y73.476 E3.62217
G1 X126.788 Y71.540 E3.75548
G1 X127.203 Y71.328 E3.77816
G1 X128.940 Y73.065 E3.89771
G1 X129.229 Y72.727 E3.91935
G1 X127.547 Y71.045 E4.03510
G1 X127.863 Y70.734 E4.05668
G1 X129.543 Y72.414 E4.17231
G1 X129.857 Y72.101 E4.19388
G1 X128.179 Y70.423 E4.30940
G1 X128.495 Y70.113 E4.33097
G1 X130.171 Y71.789 E4.44636
G1 X130.485 Y71.476 E4.46793
G1 X128.810 Y69.802 E4.58319
G1 X129.126 Y69.491 E4.60477
G1 X130.799 Y71.163 E4.71991
G1 X131.113 Y70.851 E4.74148
G1 X129.442 Y69.180 E4.85650
G1 X129.758 Y68.869 E4.87807
G1 X131.427 Y70.538 E4.99297
G1 X131.741 Y70.225 E5.01454
G1 X130.074 Y68.558 E5.12932
G1 X130.390 Y68.247 E5.15089
G1 X132.055 Y69.913 E5.26554
G1 X132.369 Y69.600 E5.28711
G1 X130.706 Y67.936 E5.40164
G1 X131.021 Y67.625 E5.42322
G1 X132.683 Y69.287 E5.53762
G1 X132.998 Y68.975 E5.55919
G1 X131.337 Y67.314 E5.67348
G1 X131.653 Y67.004 E5.69505
G1 X133.312 Y68.662 E5.80921
G1 X133.626 Y68.349 E5.83078
G1 X131.969 Y66.693 E5.94482
G1 X132.285 Y66.382 E5.96639
G1 X133.940 Y68.037 E6.08031
G1 X134.254 Y67.724 E6.10188
G1 X132.601 Y66.071 E6.21567
G1 X132.917 Y65.760 E6.23724
G1 X134.568 Y67.411 E6.35091
G1 X134.882 Y67.099 E6.37248
G1 X133.233 Y65.449 E6.48603
G1 X133.548 Y65.138 E6.50760
G1 X135.196 Y66.786 E6.62102
G1 X135.510 Y66.473 E6.64260
G1 X133.864 Y64.827 E6.75590
G1 X126.162 Y78.647 F7800.000
G1 X125.396 Y80.198 E6.86554 F1200.000
G1 X125.289 Y80.369 E6.87827
G1 X111.348 Y97.160 E8.26140
G1 X89.957 Y118.262 E10.16565
G1 X68.975 Y135.475 E11.88557
G1 F1860.000 E8.88557
G92 E0
G1 X64.197 Y130.647 F7800.000
G1 E3.10000 F1860.000
G1 X81.623 Y109.842 E4.81992 F1200.000
G1 X102.941 Y88.667 E6.72417
G1 X119.874 Y74.898 E8.10730
G1 X120.045 Y74.793 E8.12003
G1 X121.604 Y74.043 E8.22967
M106 S192
G1 F1860.000 E5.22967
G92 E0
G1 Z1.175 F7800.000
G1 X126.550 Y73.705 F7800.000
G1 E3.10000 F1860.000
G1 X124.613 Y73.286 E3.19017 F882.000
G1 X120.280 Y75.248 E3.40664
G1 X103.303 Y89.046 E4.40213
G1 X81.852 Y110.351 E5.77791
G1 X64.543 Y130.993 E7.00373
G1 X63.579 Y130.626 E7.05068
G1 X81.236 Y109.488 E8.30405
G1 X102.660 Y88.209 E9.67809
G1 X119.585 Y74.454 E10.67053
G1 X126.921 Y70.713 E11.04524
G1 X133.884 Y63.857 E11.48990
G1 X136.472 Y66.472 E11.65730
G1 X129.546 Y73.365 E12.10196
G1 X125.730 Y80.662 E12.47667
G1 X111.803 Y97.446 E13.46911
G1 X90.307 Y118.652 E14.84315
G1 X68.990 Y136.093 E16.09652
G1 X68.633 Y135.124 E16.14347
G1 X89.450 Y118.027 E17.36929
G1 X110.973 Y96.794 E18.74508
G1 X124.943 Y79.959 E19.74056
G1 X126.949 Y75.646 E19.95703
G1 X126.562 Y73.764 E20.04447
G1 X126.580 Y73.306 F7800.000
G1 X126.890 Y73.369 F7800.000
G1 X124.569 Y72.868 E20.15251 F1260.000
G1 X121.852 Y74.097 E20.28820
G1 X121.717 Y73.815 E20.30243
G1 X127.157 Y71.041 E20.58031
G1 X133.881 Y64.423 E21.00965
G1 X135.906 Y66.469 E21.14064
G1 X129.220 Y73.125 E21.56998
G1 X126.390 Y78.537 E21.84785
G1 X126.110 Y78.399 E21.86208
G1 X127.367 Y75.695 E21.99777
G1 X126.902 Y73.428 E22.10308
G1 X127.397 Y74.466 F7800.000
G1 X135.450 Y66.413 E22.65744 F3000.000
G1 X135.128 Y66.091 E22.67963
G1 X127.287 Y73.932 E23.21936
G1 X127.177 Y73.397 E23.24594
G1 X134.805 Y65.768 E23.77104
G1 X134.483 Y65.446 E23.79323
G1 X126.851 Y73.078 E24.31859
G1 X126.321 Y72.963 E24.34500
G1 X134.161 Y65.124 E24.88467
G1 X130.549 Y68.091 F7800.000
G1 X125.791 Y72.849 E25.21222 F3000.000
G1 X125.260 Y72.734 E25.23862
G1 X126.108 Y71.886 E25.29700
G1 X124.793 Y72.557 F7800.000
G1 X124.732 Y72.618 E25.30117 F3000.000
G1 X128.388 Y74.121 F7800.000
G1 X127.507 Y75.001 E25.36179 F3000.000
G1 X127.634 Y75.519 E25.38775
G1 X127.681 Y75.472 E25.39101
G1 X126.162 Y78.647 F7800.000
G1 X125.396 Y80.198 E25.50065 F1200.000
G1 X125.289 Y80.369 E25.51338
G1 X111.348 Y97.160 E26.89650
G1 X89.957 Y118.262 E28.80075
G1 X68.975 Y135.475 E30.52068
G1 F1860.000 E27.52068
G92 E0
G1 X64.197 Y130.647 F7800.000
G1 E3.10000 F1860.000
G1 X81.623 Y109.842 E4.81992 F1200.000
G1 X102.941 Y88.667 E6.72417
G1 X119.874 Y74.898 E8.10730
G1 X120.045 Y74.793 E8.12003
G1 X121.604 Y74.043 E8.22967
M106 S192
G1 F1860.000 E5.22967
G92 E0
G1 Z1.469 F7800.000
G1 X126.550 Y73.705 F7800.000
G1 E3.10000 F1860.000
G1 X124.613 Y73.286 E3.19017 F882.000
G1 X120.280 Y75.248 E3.40664
G1 X103.303 Y89.046 E4.40213
G1 X81.852 Y110.351 E5.77791
G1 X64.543 Y130.993 E7.00373
G1 X63.579 Y130.626 E7.05068
G1 X81.236 Y109.488 E8.30405
G1 X102.660 Y88.209 E9.67809
G1 X119.585 Y74.454 E10.67053
G1 X126.921 Y70.713 E11.04524
G1 X133.884 Y63.857 E11.48990
G1 X136.472 Y66.472 E11.65730
G1 X129.546 Y73.365 E12.10196
G1 X125.730 Y80.662 E12.47667
G1 X111.803 Y97.446 E13.46911
G1 X90.308 Y118.652 E14.84315
G1 X68.990 Y136.093 E16.09652
G1 X68.633 Y135.124 E16.14347
G1 X89.450 Y118.027 E17.36929
G1 X110.973 Y96.794 E18.74507
G1 X124.943 Y79.959 E19.74056
G1 X126.949 Y75.646 E19.95703
G1 X126.562 Y73.764 E20.04447
G1 X126.580 Y73.306 F7800.000
G1 X126.890 Y73.369 F7800.000
G1 X124.569 Y72.868 E20.15251 F1260.000
G1 X121.852 Y74.097 E20.28820
G1 X121.717 Y73.815 E20.30243
G1 X127.157 Y71.041 E20.58030
G1 X133.881 Y64.423 E21.00964
G1 X135.906 Y66.469 E21.14063
G1 X129.220 Y73.125 E21.56997
G1 X126.390 Y78.537 E21.84784
G1 X126.110 Y78.399 E21.86207
G1 X127.367 Y75.695 E21.99776
G1 X126.902 Y73.428 E22.10307
G1 X126.334 Y72.966 F7800.000
G1 X125.543 Y72.175 E22.15757 F3000.000
G1 X125.128 Y72.386 E22.18025
G1 X125.535 Y72.794 E22.20828
G1 X124.732 Y72.618 E22.24828
G1 F1860.000 E19.24828
G92 E0
G1 X127.634 Y75.519 F7800.000
G1 E3.10000 F1860.000
G1 X127.608 Y75.494 E3.10177 F3000.000
G1 X127.864 Y75.123 E3.12370
G1 X127.446 Y74.705 E3.15246
G1 X127.284 Y73.916 E3.19166
G1 X128.079 Y74.711 E3.24638
G1 X128.294 Y74.299 E3.26899
G1 X125.958 Y71.963 E3.42982
G1 X126.373 Y71.751 E3.45250
G1 X128.509 Y73.888 E3.59956
G1 X128.724 Y73.476 E3.62217
G1 X126.788 Y71.540 E3.75548
G1 X127.203 Y71.328 E3.77816
G1 X128.940 Y73.065 E3.89770
G1 X129.229 Y72.727 E3.91934
G1 X127.547 Y71.045 E4.03510
G1 X127.863 Y70.734 E4.05667
G1 X129.543 Y72.414 E4.17230
G1 X129.857 Y72.101 E4.19388
G1 X128.179 Y70.423 E4.30939
G1 X128.495 Y70.113 E4.33096
G1 X130.171 Y71.789 E4.44635
G1 X130.485 Y71.476 E4.46792
G1 X128.810 Y69.802 E4.58318
G1 X129.126 Y69.491 E4.60476
G1 X130.799 Y71.163 E4.71990
G1 X131.113 Y70.851 E4.74147
G1 X129.442 Y69.180 E4.85649
G1 X129.758 Y68.869 E4.87806
G1 X131.427 Y70.538 E4.99296
G1 X131.741 Y70.225 E5.01453
G1 X130.074 Y68.558 E5.12930
G1 X130.390 Y68.247 E5.15088
G1 X132.055 Y69.913 E5.26553
G1 X132.369 Y69.600 E5.28710
G1 X130.706 Y67.936 E5.40163
G1 X131.021 Y67.625 E5.42320
G1 X132.683 Y69.287 E5.53760
G1 X132.998 Y68.975 E5.55918
G1 X131.337 Y67.314 E5.67346
G1 X131.653 Y67.004 E5.69503
G1 X133.312 Y68.662 E5.80919
G1 X133.626 Y68.349 E5.83076
