; generated by Slic3r 1.1.7 on 2015-02-14 at 10:20:51

; perimeters extrusion width = 0.53mm
; infill extrusion width = 0.81mm
; solid infill extrusion width = 0.81mm
; top infill extrusion width = 0.81mm
; support material extrusion width = 0.53mm

G21 ; set units to millimeters
M190 S60 ; wait for bed temperature to be reached
M104 S220 ; set temperature
G28 ; home all axes Start of G Code Slic3r
 
 
M109 S220 ; wait for temperature to be reached
G90 ; use absolute coordinates
G92 E0
M82 ; use absolute distances for extrusion
G1 F4200.000 E-3.00000
G92 E0
G1 Z0.294 F6000.000
G1 X17.895 Y19.061 F6000.000
G1 E3.00000 F4200.000
G1 X19.665 Y17.465 E3.17528 F1500.000
G1 X21.861 Y16.540 E3.35056
G1 X23.500 Y16.350 E3.47190
G1 X176.500 Y16.350 E14.72424
G1 X178.850 Y16.747 E14.89952
G1 X180.939 Y17.895 E15.07480 F1500.000
G1 X182.535 Y19.665 E15.25008
G1 X183.460 Y21.861 E15.42536
G1 X183.650 Y23.500 E15.54670
G1 X183.650 Y176.500 E26.79904
G1 X183.253 Y178.850 E26.97432
G1 X182.105 Y180.939 E27.14960
G1 X180.335 Y182.535 E27.32488
G1 X178.139 Y183.460 E27.50016
G1 X176.500 Y183.650 E27.62150
G1 X23.500 Y183.650 E38.87384
G1 X21.150 Y183.253 E39.04912
G1 X19.061 Y182.105 E39.22440
G1 X17.465 Y180.335 E39.39968
G1 X16.540 Y178.139 E39.57496
G1 X16.350 Y176.500 E39.69629
G1 X16.350 Y23.500 E50.94864
G1 X16.747 Y21.150 E51.12392
G1 X17.856 Y19.131 E51.29335
G1 X18.413 Y19.361 F6000.000
G1 X18.465 Y19.272 E51.30092 F1500.000
G1 X20.216 Y17.804 E51.46895
G1 X23.500 Y16.925 E51.71900
G1 X176.500 Y16.925 E62.97134
G1 X178.750 Y17.322 E63.13937
G1 X180.728 Y18.465 E63.30740 F1500.000
G1 X182.196 Y20.216 E63.47543
G1 X183.075 Y23.500 E63.72547
G1 X183.075 Y176.500 E74.97782
G1 X182.678 Y178.750 E75.14585
G1 X181.535 Y180.728 E75.31388
G1 X179.784 Y182.196 E75.48191
G1 X176.500 Y183.075 E75.73195
G1 X23.500 Y183.075 E86.98429
G1 X21.250 Y182.678 E87.15232
G1 X19.272 Y181.535 E87.32035
G1 X17.804 Y179.784 E87.48839
G1 X16.925 Y176.500 E87.73843
G1 X16.925 Y23.500 E98.99077
G1 X17.322 Y21.250 E99.15880
G1 X18.374 Y19.430 E99.31341
G1 F4200.000 E96.31341
G92 E0
G1 X21.196 Y22.144 F6000.000
G1 E3.00000 F4200.000
G1 X22.428 Y20.912 E3.12811 F1500.000
G1 X177.572 Y20.912 E14.53812
G1 X179.088 Y22.428 E14.69579
G1 X179.088 Y177.572 E26.10581 F1500.000
G1 X177.572 Y179.088 E26.26348
G1 X22.428 Y179.088 E37.67349
G1 X20.912 Y177.572 E37.83116
G1 X20.912 Y22.428 E49.24117
G1 X21.140 Y22.200 E49.26488
G1 X21.603 Y22.551 F6000.000
G1 X22.666 Y21.487 E49.37547 F1500.000
G1 X177.334 Y21.487 E60.75045
G1 X178.513 Y22.666 E60.87308 F1500.000
G1 X178.513 Y177.334 E72.24805
G1 X177.334 Y178.513 E72.37068
G1 X22.666 Y178.513 E83.74566
G1 X21.487 Y177.334 E83.86829
G1 X21.487 Y22.666 E95.24327
G1 X21.547 Y22.607 E95.24946
G1 X22.062 Y22.904 F6000.000
G1 X22.904 Y22.062 E95.33705 F1500.000
G1 X177.096 Y22.062 E106.67699
G1 X177.938 Y22.904 E106.76458
G1 X177.938 Y177.096 E118.10452 F1500.000
G1 X177.096 Y177.938 E118.19211
G1 X22.904 Y177.938 E129.53205
G1 X22.062 Y177.096 E129.61964
G1 X22.062 Y22.984 E140.95373
G1 X22.637 Y23.143 F6000.000
G1 X23.143 Y22.637 E141.00629 F1500.000
G1 X176.857 Y22.637 E152.31119
G1 X177.363 Y23.143 E152.36375 F1500.000
G1 X177.363 Y176.857 E163.66865
G1 X176.857 Y177.363 E163.72120
G1 X23.143 Y177.363 E175.02610
G1 X22.637 Y176.857 E175.07866
G1 X22.637 Y23.222 E186.37771
G1 X23.212 Y23.381 F6000.000
G1 X23.381 Y23.212 E186.39523 F1500.000
G1 X176.619 Y23.212 E197.66509
G1 X176.788 Y23.381 E197.68261
G1 X176.788 Y176.619 E208.95247
G1 X176.619 Y176.788 E208.96999
G1 X23.381 Y176.788 E220.23985
G1 X23.212 Y176.619 E220.25737
G1 X23.212 Y23.460 E231.52139
G1 F4200.000 E228.52139
G92 E0
G1 X34.286 Y34.286 F6000.000
G1 E3.00000 F4200.000
G1 X34.700 Y34.200 E3.03111 F441.000
G1 X165.300 Y34.200 E12.63605
G1 X165.714 Y34.286 E12.66716
G1 X165.800 Y34.700 E12.69827
G1 X165.800 Y165.300 E22.30321
G1 X165.714 Y165.714 E22.33432
G1 X165.300 Y165.800 E22.36543
G1 X34.700 Y165.800 E31.97037
G1 X34.286 Y165.714 E32.00148
G1 X34.200 Y165.300 E32.03259
G1 X34.200 Y34.700 E41.63753
G1 X34.286 Y34.286 E41.66864
G1 F4200.000 E38.66864
G92 E0
G1 X29.186 Y29.186 F6000.000
G1 E3.00000 F4200.000
G1 X29.600 Y29.100 E3.03111 F441.000
G1 X170.400 Y29.100 E13.38621
G1 X170.814 Y29.186 E13.41732
G1 X170.900 Y29.600 E13.44843
G1 X170.900 Y170.400 E23.80352
G1 X170.814 Y170.814 E23.83463
G1 X170.400 Y170.900 E23.86574
G1 X29.600 Y170.900 E34.22084
G1 X29.186 Y170.814 E34.25195
G1 X29.100 Y170.400 E34.28306
G1 X29.100 Y29.600 E44.63815
G1 X29.186 Y29.186 E44.66926
G1 F4200.000 E41.66926
G92 E0
G1 X24.086 Y24.086 F6000.000
G1 E3.00000 F4200.000
G1 X24.500 Y24.000 E3.03111 F441.000
G1 X175.500 Y24.000 E14.13636
G1 X175.914 Y24.086 E14.16747
G1 X176.000 Y24.500 E14.19858
G1 X176.000 Y175.500 E25.30384
G1 X175.914 Y175.914 E25.33495
G1 X175.500 Y176.000 E25.36606
G1 X24.500 Y176.000 E36.47131
G1 X24.086 Y175.914 E36.50242
G1 X24.000 Y175.500 E36.53353
G1 X24.000 Y24.500 E47.63878
G1 X24.086 Y24.086 E47.66989
M140 S50 ; set bed temperature
G1 F4200.000 E44.66989
G92 E0
G1 Z0.587 F6000.000
G1 X176.235 Y176.235 F6000.000
G1 E3.00000 F4200.000
G1 X23.765 Y176.235 E13.33433 F882.000
G1 X23.765 Y23.765 E23.66865
G1 X176.235 Y23.765 E34.00298
G1 X176.235 Y176.155 E44.33191
G1 X175.776 Y175.970 F6000.000
G1 F4200.000 E41.33191
G92 E0
G1 X171.135 Y171.135 F6000.000
G1 E3.00000 F4200.000
G1 X28.865 Y171.135 E12.64297 F1260.000
G1 X28.865 Y28.865 E22.28595
G1 X171.135 Y28.865 E31.92892
G1 X171.135 Y171.055 E41.56651
G1 F4200.000 E38.56651
G92 E0
G1 X166.035 Y166.035 F6000.000
G1 E3.00000 F4200.000
G1 X33.965 Y166.035 E11.95163 F1260.000
G1 X33.965 Y33.965 E20.90325
G1 X166.035 Y33.965 E29.85488
G1 X166.035 Y165.956 E38.80111
G1 X165.565 Y165.565 F6000.000
G1 X34.435 Y165.565 E47.68903 F882.000
G1 X34.435 Y34.435 E56.57694
G1 X165.565 Y34.435 E65.46485
G1 X165.565 Y165.486 E74.34738
G1 X165.565 Y166.095 F6000.000
G1 F4200.000 E71.34738
G92 E0
G1 X170.665 Y170.665 F6000.000
G1 E3.00000 F4200.000
G1 X29.335 Y170.665 E12.57926 F1260.000
G1 X29.335 Y29.335 E22.15852
G1 X170.665 Y29.335 E31.73779
G1 X170.665 Y170.585 E41.31166
G1 F4200.000 E38.31166
G92 E0
G1 X175.765 Y175.765 F6000.000
G1 E3.00000 F4200.000
G1 X24.235 Y175.765 E13.27061 F1260.000
G1 X24.235 Y24.235 E23.54122
G1 X175.765 Y24.235 E33.81184
G1 X175.765 Y175.685 E44.07706
G1 F4200.000 E41.07706
G92 E0
G1 Z0.881 F6000.000
G1 X176.235 Y176.235 F6000.000
G1 E3.00000 F4200.000
G1 X23.765 Y176.235 E13.33433 F882.000
G1 X23.765 Y23.765 E23.66865
G1 X176.235 Y23.765 E34.00298
G1 X176.235 Y176.155 E44.33191
G1 X175.776 Y175.970 F6000.000
G1 F4200.000 E41.33191
G92 E0
G1 X171.135 Y171.135 F6000.000
G1 E3.00000 F4200.000
G1 X28.865 Y171.135 E12.64297 F1260.000
G1 X28.865 Y28.865 E22.28595
G1 X171.135 Y28.865 E31.92892
G1 X171.135 Y171.055 E41.56651
G1 F4200.000 E38.56651
G92 E0
G1 X166.035 Y166.035 F6000.000
G1 E3.00000 F4200.000
G1 X33.965 Y166.035 E11.95163 F1260.000
G1 X33.965 Y33.965 E20.90325
G1 X166.035 Y33.965 E29.85488
G1 X166.035 Y165.956 E38.80111
G1 X165.565 Y165.565 F6000.000
G1 X34.435 Y165.565 E47.68903 F882.000
G1 X34.435 Y34.435 E56.57694
G1 X165.565 Y34.435 E65.46485
G1 X165.565 Y165.486 E74.34738
G1 X165.565 Y166.095 F6000.000
G1 F4200.000 E71.34738
G92 E0
G1 X170.665 Y170.665 F6000.000
G1 E3.00000 F4200.000
G1 X29.335 Y170.665 E12.57926 F1260.000
G1 X29.335 Y29.335 E22.15852
G1 X170.665 Y29.335 E31.73779
G1 X170.665 Y170.585 E41.31166
G1 F4200.000 E38.31166
G92 E0
G1 X175.765 Y175.765 F6000.000
G1 E3.00000 F4200.000
G1 X24.235 Y175.765 E13.27061 F1260.000
G1 X24.235 Y24.235 E23.54122
G1 X175.765 Y24.235 E33.81184
G1 X175.765 Y175.685 E44.07706
G1 F4200.000 E41.07706
G92 E0
G1 Z1.175 F6000.000
G1 X176.235 Y176.235 F6000.000
G1 E3.00000 F4200.000
G1 X23.765 Y176.235 E13.33433 F882.000
G1 X23.765 Y23.765 E23.66865
G1 X176.235 Y23.765 E34.00298
G1 X176.235 Y176.155 E44.33191
G1 X175.776 Y175.970 F6000.000
G1 F4200.000 E41.33191
G92 E0
G1 X171.135 Y171.135 F6000.000
G1 E3.00000 F4200.000
G1 X28.865 Y171.135 E12.64297 F1260.000
G1 X28.865 Y28.865 E22.28595
G1 X171.135 Y28.865 E31.92892
G1 X171.135 Y171.055 E41.56651
G1 F4200.000 E38.56651
G92 E0
G1 X166.035 Y166.035 F6000.000
G1 E3.00000 F4200.000
G1 X33.965 Y166.035 E11.95163 F1260.000
G1 X33.965 Y33.965 E20.90325
G1 X166.035 Y33.965 E29.85488
G1 X166.035 Y165.956 E38.80111
G1 X165.565 Y165.565 F6000.000
G1 X34.435 Y165.565 E47.68903 F882.000
G1 X34.435 Y34.435 E56.57694
G1 X165.565 Y34.435 E65.46485
G1 X165.565 Y165.486 E74.34738
G1 X165.565 Y166.095 F6000.000
G1 F4200.000 E71.34738
G92 E0
G1 X170.665 Y170.665 F6000.000
G1 E3.00000 F4200.000
G1 X29.335 Y170.665 E12.57926 F1260.000
G1 X29.335 Y29.335 E22.15852
G1 X170.665 Y29.335 E31.73779
G1 X170.665 Y170.585 E41.31166
G1 F4200.000 E38.31166
G92 E0
G1 X175.765 Y175.765 F6000.000
G1 E3.00000 F4200.000
G1 X24.235 Y175.765 E13.27061 F1260.000
G1 X24.235 Y24.235 E23.54122
G1 X175.765 Y24.235 E33.81184
G1 X175.765 Y175.685 E44.07706
G1 F4200.000 E41.07706
G92 E0
G1 Z1.469 F6000.000
G1 X176.235 Y176.235 F6000.000
G1 E3.00000 F4200.000
G1 X23.765 Y176.235 E13.33433 F882.000
G1 X23.765 Y23.765 E23.66865
G1 X176.235 Y23.765 E34.00298
G1 X176.235 Y176.155 E44.33191
G1 X175.776 Y175.970 F6000.000
G1 F4200.000 E41.33191
G92 E0
G1 X171.135 Y171.135 F6000.000
G1 E3.00000 F4200.000
G1 X28.865 Y171.135 E12.64297 F1260.000
G1 X28.865 Y28.865 E22.28595
G1 X171.135 Y28.865 E31.92892
G1 X171.135 Y171.055 E41.56651
G1 F4200.000 E38.56651
G92 E0
G1 X166.035 Y166.035 F6000.000
G1 E3.00000 F4200.000
G1 X33.965 Y166.035 E11.95163 F1260.000
G1 X33.965 Y33.965 E20.90325
G1 X166.035 Y33.965 E29.85488
G1 X166.035 Y165.956 E38.80111
G1 X165.565 Y165.565 F6000.000
G1 X34.435 Y165.565 E47.68903 F882.000
G1 X34.435 Y34.435 E56.57694
G1 X165.565 Y34.435 E65.46485
G1 X165.565 Y165.486 E74.34738
G1 X165.565 Y166.095 F6000.000
G1 F4200.000 E71.34738
G92 E0
G1 X170.665 Y170.665 F6000.000
G1 E3.00000 F4200.000
G1 X29.335 Y170.665 E12.57926 F1260.000
G1 X29.335 Y29.335 E22.15852
G1 X170.665 Y29.335 E31.73779
G1 X170.665 Y170.585 E41.31166
G1 F4200.000 E38.31166
G92 E0
G1 X175.765 Y175.765 F6000.000
G1 E3.00000 F4200.000
G1 X24.235 Y175.765 E13.27061 F1260.000
G1 X24.235 Y24.235 E23.54122
G1 X175.765 Y24.235 E33.81184
G1 X175.765 Y175.685 E44.07706
G1 F4200.000 E41.07706
G92 E0
G1 Z1.762 F6000.000
G1 X176.235 Y176.235 F6000.000
G1 E3.00000 F4200.000
G1 X23.765 Y176.235 E13.33433 F882.000
G1 X23.765 Y23.765 E23.66865
G1 X176.235 Y23.765 E34.00298
G1 X176.235 Y176.155 E44.33191
G1 X175.776 Y175.970 F6000.000
G1 F4200.000 E41.33191
G92 E0
G1 X171.135 Y171.135 F6000.000
G1 E3.00000 F4200.000
G1 X28.865 Y171.135 E12.64297 F1260.000
G1 X28.865 Y28.865 E22.28595
G1 X171.135 Y28.865 E31.92892
G1 X171.135 Y171.055 E41.56651
G1 F4200.000 E38.56651
G92 E0
G1 X166.035 Y166.035 F6000.000
G1 E3.00000 F4200.000
G1 X33.965 Y166.035 E11.95163 F1260.000
G1 X33.965 Y33.965 E20.90325
G1 X166.035 Y33.965 E29.85488
G1 X166.035 Y165.956 E38.80111
G1 X165.565 Y165.565 F6000.000
G1 X34.435 Y165.565 E47.68903 F882.000
G1 X34.435 Y34.435 E56.57694
G1 X165.565 Y34.435 E65.46485
G1 X165.565 Y165.486 E74.34738
G1 X165.565 Y166.095 F6000.000
G1 F4200.000 E71.34738
G92 E0
G1 X170.665 Y170.665 F6000.000
G1 E3.00000 F4200.000
G1 X29.335 Y170.665 E12.57926 F1260.000
G1 X29.335 Y29.335 E22.15852
G1 X170.665 Y29.335 E31.73779
G1 X170.665 Y170.585 E41.31166
G1 F4200.000 E38.31166
G92 E0
G1 X175.765 Y175.765 F6000.000
G1 E3.00000 F4200.000
G1 X24.235 Y175.765 E13.27061 F1260.000
G1 X24.235 Y24.235 E23.54122
G1 X175.765 Y24.235 E33.81184
G1 X175.765 Y175.685 E44.07706
G1 F4200.000 E41.07706
G92 E0
G1 Z2.056 F6000.000
G1 X176.235 Y176.235 F6000.000
G1 E3.00000 F4200.000
G1 X23.765 Y176.235 E13.33433 F882.000
G1 X23.765 Y23.765 E23.66865
G1 X176.235 Y23.765 E34.00298
G1 X176.235 Y176.155 E44.33191
G1 X175.776 Y175.970 F6000.000
G1 F4200.000 E41.33191
G92 E0
G1 X171.135 Y171.135 F6000.000
G1 E3.00000 F4200.000
G1 X28.865 Y171.135 E12.64297 F1260.000
G1 X28.865 Y28.865 E22.28595
G1 X171.135 Y28.865 E31.92892
G1 X171.135 Y171.055 E41.56651
G1 F4200.000 E38.56651
G92 E0
G1 X166.035 Y166.035 F6000.000
G1 E3.00000 F4200.000
G1 X33.965 Y166.035 E11.95163 F1260.000
G1 X33.965 Y33.965 E20.90325
G1 X166.035 Y33.965 E29.85488
G1 X166.035 Y165.956 E38.80111
G1 X165.565 Y165.565 F6000.000
G1 X34.435 Y165.565 E47.68903 F882.000
G1 X34.435 Y34.435 E56.57694
G1 X165.565 Y34.435 E65.46485
G1 X165.565 Y165.486 E74.34738
G1 X165.565 Y166.095 F6000.000
G1 F4200.000 E71.34738
G92 E0
G1 X170.665 Y170.665 F6000.000
G1 E3.00000 F4200.000
G1 X29.335 Y170.665 E12.57926 F1260.000
G1 X29.335 Y29.335 E22.15852
G1 X170.665 Y29.335 E31.73779
G1 X170.665 Y170.585 E41.31166
G1 F4200.000 E38.31166
G92 E0
G1 X175.765 Y175.765 F6000.000
G1 E3.00000 F4200.000
G1 X24.235 Y175.765 E13.27061 F1260.000
G1 X24.235 Y24.235 E23.54122
G1 X175.765 Y24.235 E33.81184
G1 X175.765 Y175.685 E44.07706
G1 F4200.000 E41.07706
G92 E0
G1 Z2.350 F6000.000
G1 X176.235 Y176.235 F6000.000
G1 E3.00000 F4200.000
G1 X23.765 Y176.235 E13.33433 F882.000
G1 X23.765 Y23.765 E23.66865
G1 X176.235 Y23.765 E34.00298
G1 X176.235 Y176.155 E44.33191
G1 X175.776 Y175.970 F6000.000
G1 F4200.000 E41.33191
G92 E0
G1 X171.135 Y171.135 F6000.000
G1 E3.00000 F4200.000
G1 X28.865 Y171.135 E12.64297 F1260.000
G1 X28.865 Y28.865 E22.28595
G1 X171.135 Y28.865 E31.92892
G1 X171.135 Y171.055 E41.56651
G1 F4200.000 E38.56651
G92 E0
G1 X166.035 Y166.035 F6000.000
G1 E3.00000 F4200.000
G1 X33.965 Y166.035 E11.95163 F1260.000
G1 X33.965 Y33.965 E20.90325
G1 X166.035 Y33.965 E29.85488
G1 X166.035 Y165.956 E38.80111
G1 X165.565 Y165.565 F6000.000
G1 X34.435 Y165.565 E47.68903 F882.000
G1 X34.435 Y34.435 E56.57694
G1 X165.565 Y34.435 E65.46485
G1 X165.565 Y165.486 E74.34738
G1 X165.565 Y166.095 F6000.000
G1 F4200.000 E71.34738
G92 E0
G1 X170.665 Y170.665 F6000.000
G1 E3.00000 F4200.000
G1 X29.335 Y170.665 E12.57926 F1260.000
G1 X29.335 Y29.335 E22.15852
G1 X170.665 Y29.335 E31.73779
G1 X170.665 Y170.585 E41.31166
G1 F4200.000 E38.31166
G92 E0
G1 X175.765 Y175.765 F6000.000
G1 E3.00000 F4200.000
G1 X24.235 Y175.765 E13.27061 F1260.000
G1 X24.235 Y24.235 E23.54122
G1 X175.765 Y24.235 E33.81184
G1 X175.765 Y175.685 E44.07706
G1 F4200.000 E41.07706
G92 E0
G1 Z2.643 F6000.000
G1 X176.235 Y176.235 F6000.000
G1 E3.00000 F4200.000
G1 X23.765 Y176.235 E13.33433 F882.000
G1 X23.765 Y23.765 E23.66865
G1 X176.235 Y23.765 E34.00298
G1 X176.235 Y176.155 E44.33191
G1 X175.776 Y175.970 F6000.000
G1 F4200.000 E41.33191
G92 E0
G1 X171.135 Y171.135 F6000.000
G1 E3.00000 F4200.000
G1 X28.865 Y171.135 E12.64297 F1260.000
G1 X28.865 Y28.865 E22.28595
G1 X171.135 Y28.865 E31.92892
G1 X171.135 Y171.055 E41.56651
G1 F4200.000 E38.56651
G92 E0
G1 X166.035 Y166.035 F6000.000
G1 E3.00000 F4200.000
G1 X33.965 Y166.035 E11.95163 F1260.000
G1 X33.965 Y33.965 E20.90325
G1 X166.035 Y33.965 E29.85488
G1 X166.035 Y165.956 E38.80111
G1 X165.565 Y165.565 F6000.000
G1 X34.435 Y165.565 E47.68903 F882.000
G1 X34.435 Y34.435 E56.57694
G1 X165.565 Y34.435 E65.46485
G1 X165.565 Y165.486 E74.34738
G1 X165.565 Y166.095 F6000.000
G1 F4200.000 E71.34738
G92 E0
G1 X170.665 Y170.665 F6000.000
G1 E3.00000 F4200.000
G1 X29.335 Y170.665 E12.57926 F1260.000
G1 X29.335 Y29.335 E22.15852
G1 X170.665 Y29.335 E31.73779
G1 X170.665 Y170.585 E41.31166
G1 F4200.000 E38.31166
G92 E0
G1 X175.765 Y175.765 F6000.000
G1 E3.00000 F4200.000
G1 X24.235 Y175.765 E13.27061 F1260.000
G1 X24.235 Y24.235 E23.54122
G1 X175.765 Y24.235 E33.81184
G1 X175.765 Y175.685 E44.07706
G1 F4200.000 E41.07706
G92 E0
G1 Z2.937 F6000.000
G1 X176.235 Y176.235 F6000.000
G1 E3.00000 F4200.000
G1 X23.765 Y176.235 E13.33433 F882.000
G1 X23.765 Y23.765 E23.66865
G1 X176.235 Y23.765 E34.00298
G1 X176.235 Y176.155 E44.33191
G1 X175.776 Y175.970 F6000.000
G1 F4200.000 E41.33191
G92 E0
G1 X171.135 Y171.135 F6000.000
G1 E3.00000 F4200.000
G1 X28.865 Y171.135 E12.64297 F1260.000
G1 X28.865 Y28.865 E22.28595
G1 X171.135 Y28.865 E31.92892
G1 X171.135 Y171.055 E41.56651
G1 F4200.000 E38.56651
G92 E0
G1 X166.035 Y166.035 F6000.000
