; generated by Slic3r 1.1.7 on 2015-03-03 at 22:54:34

; perimeters extrusion width = 0.40mm
; infill extrusion width = 0.67mm
; solid infill extrusion width = 0.26mm
; top infill extrusion width = 0.26mm

G21 ; set units to millimeters
M190 S60 ; wait for bed temperature to be reached
M104 S230 ; set temperature
G28 ; home all axes Start of G Code Slic3r
 
 
M109 S230 ; wait for temperature to be reached
G90 ; use absolute coordinates
G92 E0
M82 ; use absolute distances for extrusion
M106 S255
G1 F4200.000 E-3.00000
G92 E0
G1 Z0.200 F6000.000
G1 X18.460 Y19.270 F6000.000
G1 E3.00000 F4200.000
G1 X20.211 Y17.801 E3.06201 F1800.000
G1 X23.500 Y16.920 E3.15438
G1 X176.500 Y16.920 E7.30514
G1 X178.751 Y17.317 E7.36715
G1 X180.730 Y18.460 E7.42916
G1 X182.199 Y20.211 E7.49117
G1 X183.080 Y23.500 E7.58354
G1 X183.080 Y176.500 E11.73430
G1 X182.683 Y178.751 E11.79631
G1 X181.540 Y180.730 E11.85832
G1 X179.789 Y182.199 E11.92032
G1 X176.500 Y183.080 E12.01270
G1 X23.500 Y183.080 E16.16346
G1 X21.249 Y182.683 E16.22547
G1 X19.270 Y181.540 E16.28747
G1 X17.801 Y179.789 E16.34948
G1 X16.920 Y176.500 E16.44186
G1 X16.920 Y23.500 E20.59262
G1 X17.317 Y21.249 E20.65463
G1 X18.430 Y19.322 E20.71501
G1 X18.747 Y19.380 F6000.000
G1 X20.487 Y17.978 E20.77562 F1800.000
G1 X23.500 Y17.210 E20.85997
G1 X176.500 Y17.210 E25.01073
G1 X178.699 Y17.607 E25.07135
G1 X180.620 Y18.747 E25.13196
G1 X182.022 Y20.487 E25.19258
G1 X182.790 Y23.500 E25.27693
G1 X182.790 Y176.500 E29.42769
G1 X182.393 Y178.699 E29.48830
G1 X181.253 Y180.620 E29.54892
G1 X179.513 Y182.022 E29.60953
G1 X176.500 Y182.790 E29.69388
G1 X23.500 Y182.790 E33.84465
G1 X21.301 Y182.393 E33.90526
G1 X19.380 Y181.253 E33.96587
G1 X17.978 Y179.513 E34.02649
G1 X17.210 Y176.500 E34.11084
G1 X17.210 Y23.500 E38.26160
G1 X17.607 Y21.301 E38.32222
G1 X18.717 Y19.431 E38.38120
G1 F4200.000 E35.38120
G92 E0
G1 X175.630 Y175.630 F6000.000
G1 E3.00000 F4200.000
G1 X24.370 Y175.630 E7.10356 F1800.000
G1 X24.370 Y24.370 E11.20712
G1 X175.630 Y24.370 E15.31067
G1 X175.630 Y175.570 E19.41260
G1 F4200.000 E16.41260
G92 E0
G1 X170.530 Y170.530 F6000.000
G1 E3.00000 F4200.000
G1 X29.470 Y170.530 E6.82684 F1800.000
G1 X29.470 Y29.470 E10.65368
G1 X170.530 Y29.470 E14.48052
G1 X170.530 Y170.470 E18.30573
G1 F4200.000 E15.30573
G92 E0
G1 X165.430 Y165.430 F6000.000
G1 E3.00000 F4200.000
G1 X34.570 Y165.430 E6.55012 F1800.000
G1 X34.570 Y34.570 E10.10025
G1 X165.430 Y34.570 E13.65037
G1 X165.430 Y165.370 E17.19886
G1 X165.430 Y165.830 F6000.000
G1 X166.170 Y166.170 F6000.000
G1 X33.830 Y166.170 E20.78914 F1800.000
G1 X33.830 Y33.830 E24.37941
G1 X166.170 Y33.830 E27.96969
G1 X166.170 Y166.110 E31.55833
G1 F4200.000 E28.55833
G92 E0
G1 X171.270 Y171.270 F6000.000
G1 E3.00000 F4200.000
G1 X28.730 Y171.270 E6.86699 F1800.000
G1 X28.730 Y28.730 E10.73398
G1 X171.270 Y28.730 E14.60097
G1 X171.270 Y171.210 E18.46634
G1 F4200.000 E15.46634
G92 E0
G1 X176.370 Y176.370 F6000.000
G1 E3.00000 F4200.000
G1 X23.630 Y176.370 E7.14371 F1800.000
G1 X23.630 Y23.630 E11.28742
G1 X176.370 Y23.630 E15.43113
G1 X176.370 Y176.310 E19.57321
G1 X176.024 Y176.170 F6000.000
G1 X24.039 Y175.961 F6000.000
G1 X24.000 Y175.775 E19.58019 F1800.000
G1 X24.000 Y24.225 E25.13891
G1 X24.039 Y24.039 E25.14589
G1 X24.225 Y24.000 E25.15287
G1 X175.775 Y24.000 E30.71159
G1 X175.961 Y24.039 E30.71857
G1 X176.000 Y24.225 E30.72556
G1 X176.000 Y175.775 E36.28428
G1 X175.961 Y175.961 E36.29126
G1 X175.775 Y176.000 E36.29824
G1 X24.225 Y176.000 E41.85696
G1 X24.097 Y175.974 E41.86174
G1 F4200.000 E38.86174
G92 E0
G1 X29.139 Y170.861 F6000.000
G1 E3.00000 F4200.000
G1 X29.100 Y170.675 E3.00698 F1800.000
G1 X29.100 Y29.325 E8.19157
G1 X29.139 Y29.139 E8.19856
G1 X29.325 Y29.100 E8.20554
G1 X170.675 Y29.100 E13.39013
G1 X170.861 Y29.139 E13.39711
G1 X170.900 Y29.325 E13.40409
G1 X170.900 Y170.675 E18.58869
G1 X170.861 Y170.861 E18.59567
G1 X170.675 Y170.900 E18.60265
G1 X29.325 Y170.900 E23.78724
G1 X29.197 Y170.874 E23.79202
G1 F4200.000 E20.79202
G92 E0
G1 X34.239 Y165.761 F6000.000
G1 E3.00000 F4200.000
G1 X34.200 Y165.575 E3.00698 F1800.000
G1 X34.200 Y34.425 E7.81745
G1 X34.239 Y34.239 E7.82443
G1 X34.425 Y34.200 E7.83141
G1 X165.575 Y34.200 E12.64188
G1 X165.761 Y34.239 E12.64886
G1 X165.800 Y34.425 E12.65584
G1 X165.800 Y165.575 E17.46631
G1 X165.761 Y165.761 E17.47329
G1 X165.575 Y165.800 E17.48027
G1 X34.425 Y165.800 E22.29074
G1 X34.297 Y165.774 E22.29552
M140 S50 ; set bed temperature
G1 F4200.000 E19.29552
G92 E0
G1 Z0.400 F6000.000
G1 X24.300 Y175.700 F6000.000
G1 E3.00000 F4200.000
G1 X24.300 Y24.300 E8.66445 F2400.000
G1 X175.700 Y24.300 E14.32891
G1 X175.700 Y175.700 E19.99336
G1 X24.360 Y175.700 E25.65557
G1 F4200.000 E22.65557
G92 E0
G1 X29.400 Y170.600 F6000.000
G1 E3.00000 F4200.000
G1 X29.400 Y29.400 E8.28283 F2400.000
G1 X170.600 Y29.400 E13.56567
G1 X170.600 Y170.600 E18.84850
G1 X29.460 Y170.600 E24.12909
G1 F4200.000 E21.12909
G92 E0
G1 X34.500 Y165.500 F6000.000
G1 E3.00000 F4200.000
G1 X34.500 Y34.500 E7.90121 F1800.000
G1 X165.500 Y34.500 E12.80243
G1 X165.500 Y165.500 E17.70364
G1 X34.560 Y165.500 E22.60261
G1 X34.100 Y165.500 F6000.000
G1 X33.900 Y166.100 F6000.000
G1 X33.900 Y33.900 E27.54872 F2400.000
G1 X166.100 Y33.900 E32.49483
G1 X166.100 Y166.100 E37.44093
G1 X33.960 Y166.100 E42.38480
G1 F4200.000 E39.38480
G92 E0
G1 X28.800 Y171.200 F6000.000
G1 E3.00000 F4200.000
G1 X28.800 Y28.800 E8.32773 F2400.000
G1 X171.200 Y28.800 E13.65546
G1 X171.200 Y171.200 E18.98319
G1 X28.860 Y171.200 E24.30868
G1 F4200.000 E21.30868
G92 E0
G1 X23.700 Y176.300 F6000.000
G1 E3.00000 F4200.000
G1 X23.700 Y23.700 E8.70935 F1800.000
G1 X176.300 Y23.700 E14.41870
G1 X176.300 Y176.300 E20.12805
G1 X23.760 Y176.300 E25.83516
G1 X23.900 Y175.954 F6000.000
G1 F4200.000 E22.83516
G92 E0
G1 Z0.600 F6000.000
G1 X24.300 Y175.700 F6000.000
G1 E3.00000 F4200.000
G1 X24.300 Y24.300 E8.66445 F2400.000
G1 X175.700 Y24.300 E14.32891
G1 X175.700 Y175.700 E19.99336
G1 X24.360 Y175.700 E25.65557
G1 F4200.000 E22.65557
G92 E0
G1 X29.400 Y170.600 F6000.000
G1 E3.00000 F4200.000
G1 X29.400 Y29.400 E8.28283 F2400.000
G1 X170.600 Y29.400 E13.56567
G1 X170.600 Y170.600 E18.84850
G1 X29.460 Y170.600 E24.12909
G1 F4200.000 E21.12909
G92 E0
G1 X34.500 Y165.500 F6000.000
G1 E3.00000 F4200.000
G1 X34.500 Y34.500 E7.90121 F1800.000
G1 X165.500 Y34.500 E12.80243
G1 X165.500 Y165.500 E17.70364
G1 X34.560 Y165.500 E22.60261
G1 X34.100 Y165.500 F6000.000
G1 X33.900 Y166.100 F6000.000
G1 X33.900 Y33.900 E27.54872 F2400.000
G1 X166.100 Y33.900 E32.49483
G1 X166.100 Y166.100 E37.44093
G1 X33.960 Y166.100 E42.38480
G1 F4200.000 E39.38480
G92 E0
G1 X28.800 Y171.200 F6000.000
G1 E3.00000 F4200.000
G1 X28.800 Y28.800 E8.32773 F2400.000
G1 X171.200 Y28.800 E13.65546
G1 X171.200 Y171.200 E18.98319
G1 X28.860 Y171.200 E24.30868
G1 F4200.000 E21.30868
G92 E0
G1 X23.700 Y176.300 F6000.000
G1 E3.00000 F4200.000
G1 X23.700 Y23.700 E8.70935 F1800.000
G1 X176.300 Y23.700 E14.41870
G1 X176.300 Y176.300 E20.12805
G1 X23.760 Y176.300 E25.83516
G1 X23.900 Y175.954 F6000.000
G1 F4200.000 E22.83516
G92 E0
G1 Z0.800 F6000.000
G1 X24.300 Y175.700 F6000.000
G1 E3.00000 F4200.000
G1 X24.300 Y24.300 E8.66445 F2400.000
G1 X175.700 Y24.300 E14.32891
G1 X175.700 Y175.700 E19.99336
G1 X24.360 Y175.700 E25.65557
G1 F4200.000 E22.65557
G92 E0
G1 X29.400 Y170.600 F6000.000
G1 E3.00000 F4200.000
G1 X29.400 Y29.400 E8.28283 F2400.000
G1 X170.600 Y29.400 E13.56567
G1 X170.600 Y170.600 E18.84850
G1 X29.460 Y170.600 E24.12909
G1 F4200.000 E21.12909
G92 E0
G1 X34.500 Y165.500 F6000.000
G1 E3.00000 F4200.000
G1 X34.500 Y34.500 E7.90121 F1800.000
G1 X165.500 Y34.500 E12.80243
G1 X165.500 Y165.500 E17.70364
G1 X34.560 Y165.500 E22.60261
G1 X34.100 Y165.500 F6000.000
G1 X33.900 Y166.100 F6000.000
G1 X33.900 Y33.900 E27.54872 F2400.000
G1 X166.100 Y33.900 E32.49483
G1 X166.100 Y166.100 E37.44093
G1 X33.960 Y166.100 E42.38480
G1 F4200.000 E39.38480
G92 E0
G1 X28.800 Y171.200 F6000.000
G1 E3.00000 F4200.000
G1 X28.800 Y28.800 E8.32773 F2400.000
G1 X171.200 Y28.800 E13.65546
G1 X171.200 Y171.200 E18.98319
G1 X28.860 Y171.200 E24.30868
G1 F4200.000 E21.30868
G92 E0
G1 X23.700 Y176.300 F6000.000
G1 E3.00000 F4200.000
G1 X23.700 Y23.700 E8.70935 F1800.000
G1 X176.300 Y23.700 E14.41870
G1 X176.300 Y176.300 E20.12805
G1 X23.760 Y176.300 E25.83516
G1 X23.900 Y175.954 F6000.000
G1 F4200.000 E22.83516
G92 E0
G1 Z1.000 F6000.000
G1 X24.300 Y175.700 F6000.000
G1 E3.00000 F4200.000
G1 X24.300 Y24.300 E8.66445 F2400.000
G1 X175.700 Y24.300 E14.32891
G1 X175.700 Y175.700 E19.99336
G1 X24.360 Y175.700 E25.65557
G1 F4200.000 E22.65557
G92 E0
G1 X29.400 Y170.600 F6000.000
G1 E3.00000 F4200.000
G1 X29.400 Y29.400 E8.28283 F2400.000
G1 X170.600 Y29.400 E13.56567
G1 X170.600 Y170.600 E18.84850
G1 X29.460 Y170.600 E24.12909
G1 F4200.000 E21.12909
G92 E0
G1 X34.500 Y165.500 F6000.000
G1 E3.00000 F4200.000
G1 X34.500 Y34.500 E7.90121 F1800.000
G1 X165.500 Y34.500 E12.80243
G1 X165.500 Y165.500 E17.70364
G1 X34.560 Y165.500 E22.60261
G1 X34.100 Y165.500 F6000.000
G1 X33.900 Y166.100 F6000.000
G1 X33.900 Y33.900 E27.54872 F2400.000
G1 X166.100 Y33.900 E32.49483
G1 X166.100 Y166.100 E37.44093
G1 X33.960 Y166.100 E42.38480
G1 F4200.000 E39.38480
G92 E0
G1 X28.800 Y171.200 F6000.000
G1 E3.00000 F4200.000
G1 X28.800 Y28.800 E8.32773 F2400.000
G1 X171.200 Y28.800 E13.65546
G1 X171.200 Y171.200 E18.98319
G1 X28.860 Y171.200 E24.30868
G1 F4200.000 E21.30868
G92 E0
G1 X23.700 Y176.300 F6000.000
G1 E3.00000 F4200.000
G1 X23.700 Y23.700 E8.70935 F1800.000
G1 X176.300 Y23.700 E14.41870
G1 X176.300 Y176.300 E20.12805
G1 X23.760 Y176.300 E25.83516
G1 X23.900 Y175.954 F6000.000
G1 F4200.000 E22.83516
G92 E0
G1 Z1.200 F6000.000
G1 X24.300 Y175.700 F6000.000
G1 E3.00000 F4200.000
G1 X24.300 Y24.300 E8.66445 F2400.000
G1 X175.700 Y24.300 E14.32891
G1 X175.700 Y175.700 E19.99336
G1 X24.360 Y175.700 E25.65557
G1 F4200.000 E22.65557
G92 E0
G1 X29.400 Y170.600 F6000.000
G1 E3.00000 F4200.000
G1 X29.400 Y29.400 E8.28283 F2400.000
G1 X170.600 Y29.400 E13.56567
G1 X170.600 Y170.600 E18.84850
G1 X29.460 Y170.600 E24.12909
G1 F4200.000 E21.12909
G92 E0
G1 X34.500 Y165.500 F6000.000
G1 E3.00000 F4200.000
G1 X34.500 Y34.500 E7.90121 F1800.000
G1 X165.500 Y34.500 E12.80243
G1 X165.500 Y165.500 E17.70364
G1 X34.560 Y165.500 E22.60261
G1 X34.100 Y165.500 F6000.000
G1 X33.900 Y166.100 F6000.000
G1 X33.900 Y33.900 E27.54872 F2400.000
G1 X166.100 Y33.900 E32.49483
G1 X166.100 Y166.100 E37.44093
G1 X33.960 Y166.100 E42.38480
G1 F4200.000 E39.38480
G92 E0
G1 X28.800 Y171.200 F6000.000
G1 E3.00000 F4200.000
G1 X28.800 Y28.800 E8.32773 F2400.000
G1 X171.200 Y28.800 E13.65546
G1 X171.200 Y171.200 E18.98319
G1 X28.860 Y171.200 E24.30868
G1 F4200.000 E21.30868
G92 E0
G1 X23.700 Y176.300 F6000.000
G1 E3.00000 F4200.000
G1 X23.700 Y23.700 E8.70935 F1800.000
G1 X176.300 Y23.700 E14.41870
G1 X176.300 Y176.300 E20.12805
G1 X23.760 Y176.300 E25.83516
G1 X23.900 Y175.954 F6000.000
G1 F4200.000 E22.83516
G92 E0
G1 Z1.400 F6000.000
G1 X24.300 Y175.700 F6000.000
G1 E3.00000 F4200.000
G1 X24.300 Y24.300 E8.66445 F2400.000
G1 X175.700 Y24.300 E14.32891
G1 X175.700 Y175.700 E19.99336
G1 X24.360 Y175.700 E25.65557
G1 F4200.000 E22.65557
G92 E0
G1 X29.400 Y170.600 F6000.000
G1 E3.00000 F4200.000
G1 X29.400 Y29.400 E8.28283 F2400.000
G1 X170.600 Y29.400 E13.56567
G1 X170.600 Y170.600 E18.84850
G1 X29.460 Y170.600 E24.12909
G1 F4200.000 E21.12909
G92 E0
G1 X34.500 Y165.500 F6000.000
G1 E3.00000 F4200.000
G1 X34.500 Y34.500 E7.90121 F1800.000
G1 X165.500 Y34.500 E12.80243
G1 X165.500 Y165.500 E17.70364
G1 X34.560 Y165.500 E22.60261
G1 X34.100 Y165.500 F6000.000
G1 X33.900 Y166.100 F6000.000
G1 X33.900 Y33.900 E27.54872 F2400.000
G1 X166.100 Y33.900 E32.49483
G1 X166.100 Y166.100 E37.44093
G1 X33.960 Y166.100 E42.38480
G1 F4200.000 E39.38480
G92 E0
G1 X28.800 Y171.200 F6000.000
G1 E3.00000 F4200.000
G1 X28.800 Y28.800 E8.32773 F2400.000
G1 X171.200 Y28.800 E13.65546
G1 X171.200 Y171.200 E18.98319
G1 X28.860 Y171.200 E24.30868
G1 F4200.000 E21.30868
G92 E0
G1 X23.700 Y176.300 F6000.000
G1 E3.00000 F4200.000
G1 X23.700 Y23.700 E8.70935 F1800.000
G1 X176.300 Y23.700 E14.41870
G1 X176.300 Y176.300 E20.12805
G1 X23.760 Y176.300 E25.83516
G1 X23.900 Y175.954 F6000.000
G1 F4200.000 E22.83516
G92 E0
G1 Z1.600 F6000.000
G1 X24.300 Y175.700 F6000.000
G1 E3.00000 F4200.000
G1 X24.300 Y24.300 E8.66445 F2400.000
G1 X175.700 Y24.300 E14.32891
G1 X175.700 Y175.700 E19.99336
G1 X24.360 Y175.700 E25.65557
G1 F4200.000 E22.65557
G92 E0
G1 X29.400 Y170.600 F6000.000
G1 E3.00000 F4200.000
G1 X29.400 Y29.400 E8.28283 F2400.000
G1 X170.600 Y29.400 E13.56567
G1 X170.600 Y170.600 E18.84850
G1 X29.460 Y170.600 E24.12909
G1 F4200.000 E21.12909
G92 E0
G1 X34.500 Y165.500 F6000.000
G1 E3.00000 F4200.000
G1 X34.500 Y34.500 E7.90121 F1800.000
G1 X165.500 Y34.500 E12.80243
G1 X165.500 Y165.500 E17.70364
G1 X34.560 Y165.500 E22.60261
G1 X34.100 Y165.500 F6000.000
G1 X33.900 Y166.100 F6000.000
G1 X33.900 Y33.900 E27.54872 F2400.000
G1 X166.100 Y33.900 E32.49483
G1 X166.100 Y166.100 E37.44093
G1 X33.960 Y166.100 E42.38480
G1 F4200.000 E39.38480
G92 E0
G1 X28.800 Y171.200 F6000.000
G1 E3.00000 F4200.000
G1 X28.800 Y28.800 E8.32773 F2400.000
G1 X171.200 Y28.800 E13.65546
G1 X171.200 Y171.200 E18.98319
G1 X28.860 Y171.200 E24.30868
G1 F4200.000 E21.30868
G92 E0
G1 X23.700 Y176.300 F6000.000
G1 E3.00000 F4200.000
G1 X23.700 Y23.700 E8.70935 F1800.000
G1 X176.300 Y23.700 E14.41870
G1 X176.300 Y176.300 E20.12805
G1 X23.760 Y176.300 E25.83516
G1 X23.900 Y175.954 F6000.000
G1 F4200.000 E22.83516
G92 E0
G1 Z1.800 F6000.000
G1 X24.300 Y175.700 F6000.000
G1 E3.00000 F4200.000
G1 X24.300 Y24.300 E8.66445 F2400.000
G1 X175.700 Y24.300 E14.32891
G1 X175.700 Y175.700 E19.99336
G1 X24.360 Y175.700 E25.65557
G1 F4200.000 E22.65557
G92 E0
G1 X29.400 Y170.600 F6000.000
G1 E3.00000 F4200.000
G1 X29.400 Y29.400 E8.28283 F2400.000
G1 X170.600 Y29.400 E13.56567
G1 X170.600 Y170.600 E18.84850
G1 X29.460 Y170.600 E24.12909
G1 F4200.000 E21.12909
G92 E0
G1 X34.500 Y165.500 F6000.000
G1 E3.00000 F4200.000
G1 X34.500 Y34.500 E7.90121 F1800.000
G1 X165.500 Y34.500 E12.80243
G1 X165.500 Y165.500 E17.70364
G1 X34.560 Y165.500 E22.60261
G1 X34.100 Y165.500 F6000.000
G1 X33.900 Y166.100 F6000.000
G1 X33.900 Y33.900 E27.54872 F2400.000
G1 X166.100 Y33.900 E32.49483
G1 X166.100 Y166.100 E37.44093
G1 X33.960 Y166.100 E42.38480
G1 F4200.000 E39.38480
G92 E0
G1 X28.800 Y171.200 F6000.000
G1 E3.00000 F4200.000
G1 X28.800 Y28.800 E8.32773 F2400.000
G1 X171.200 Y28.800 E13.65546
G1 X171.200 Y171.200 E18.98319
G1 X28.860 Y171.200 E24.30868
G1 F4200.000 E21.30868
G92 E0
G1 X23.700 Y176.300 F6000.000
G1 E3.00000 F4200.000
G1 X23.700 Y23.700 E8.70935 F1800.000
G1 X176.300 Y23.700 E14.41870
G1 X176.300 Y176.300 E20.12805
G1 X23.760 Y176.300 E25.83516
G1 X23.900 Y175.954 F6000.000
G1 F4200.000 E22.83516
G92 E0
G1 Z2.000 F6000.000
G1 X24.300 Y175.700 F6000.000
G1 E3.00000 F4200.000
G1 X24.300 Y24.300 E8.66445 F2400.000
G1 X175.700 Y24.300 E14.32891
G1 X175.700 Y175.700 E19.99336
G1 X24.360 Y175.700 E25.65557
G1 F4200.000 E22.65557
G92 E0
G1 X29.400 Y170.600 F6000.000
G1 E3.00000 F4200.000
G1 X29.400 Y29.400 E8.28283 F2400.000
G1 X170.600 Y29.400 E13.56567
G1 X170.600 Y170.600 E18.84850
G1 X29.460 Y170.600 E24.12909
G1 F4200.000 E21.12909
G92 E0
G1 X34.500 Y165.500 F6000.000
G1 E3.00000 F4200.000
G1 X34.500 Y34.500 E7.90121 F1800.000
G1 X165.500 Y34.500 E12.80243
G1 X165.500 Y165.500 E17.70364
G1 X34.560 Y165.500 E22.60261
G1 X34.100 Y165.500 F6000.000
G1 X33.900 Y166.100 F6000.000
G1 X33.900 Y33.900 E27.54872 F2400.000
G1 X166.100 Y33.900 E32.49483
G1 X166.100 Y166.100 E37.44093
G1 X33.960 Y166.100 E42.38480
G1 F4200.000 E39.38480
G92 E0
G1 X28.800 Y171.200 F6000.000
G1 E3.00000 F4200.000
G1 X28.800 Y28.800 E8.32773 F2400.000
G1 X171.200 Y28.800 E13.65546
G1 X171.200 Y171.200 E18.98319
G1 X28.860 Y171.200 E24.30868
G1 F4200.000 E21.30868
G92 E0
G1 X23.700 Y176.300 F6000.000
G1 E3.00000 F4200.000
G1 X23.700 Y23.700 E8.70935 F1800.000
