; generated by Slic3r 1.1.7 on 2014-12-05 at 10:34:56

; perimeters extrusion width = 0.42mm
; infill extrusion width = 0.74mm
; solid infill extrusion width = 0.71mm
; top infill extrusion width = 0.71mm

G21 ; set units to millimeters
M190 S60 ; wait for bed temperature to be reached
M104 S186 ; set temperature
G28 ; home all axes
M109 S186 ; wait for temperature to be reached
G90 ; use absolute coordinates
G92 E0
M82 ; use absolute distances for extrusion
M106 S127
G1 F1860.000 E-3.00000
G92 E0
G1 Z0.200 F6000.000
G1 X80.045 Y80.802 F6000.000
G1 E3.10000 F1860.000
G1 X81.097 Y79.809 E3.12677 F1200.000
G1 X94.399 Y69.809 E3.43463
G1 X96.424 Y68.783 E3.47664
G1 X98.301 Y68.506 E3.51175
G1 X107.833 Y68.544 E3.68809
G1 X108.262 Y68.590 E3.69607 F1200.000
G1 X109.611 Y68.885 E3.72161
G1 X110.709 Y69.297 E3.74331
G1 X111.284 Y69.600 E3.75533
G1 X111.641 Y69.812 E3.76302
G1 X112.628 Y70.531 E3.78561
G1 X113.068 Y70.937 E3.79668
G1 X113.977 Y71.986 E3.82236
G1 X114.688 Y73.124 E3.84719
G1 X117.040 Y78.015 E3.94758
G1 X118.905 Y83.102 E4.04783
G1 X119.090 Y83.729 E4.05992
G1 X120.373 Y88.804 E4.15675
G1 X121.188 Y94.153 E4.25687
G1 X121.244 Y94.796 E4.26881
G1 X121.494 Y100.029 E4.36573
G1 X121.230 Y105.425 E4.46567
G1 X121.157 Y106.068 E4.47765
G1 X120.368 Y111.223 E4.57412
G1 X119.047 Y116.432 E4.67354
G1 X118.915 Y116.867 E4.68196
G1 X117.116 Y121.800 E4.77909
G1 X116.857 Y122.391 E4.79104
G1 X114.699 Y126.855 E4.88276
G1 X114.217 Y127.668 E4.90026
G1 X113.970 Y128.023 E4.90824
G1 X113.065 Y129.065 E4.93378
G1 X112.179 Y129.830 E4.95543
G1 X111.636 Y130.191 E4.96750
G1 X111.279 Y130.403 E4.97519
G1 X110.176 Y130.924 E4.99776
G1 X109.608 Y131.116 E5.00885
G1 X108.251 Y131.411 E5.03452
G1 X107.131 Y131.494 E5.05531
G1 X98.301 Y131.494 E5.21866
G1 X96.066 Y131.098 E5.26067
G1 X94.399 Y130.191 E5.29577
G1 X81.097 Y120.191 E5.60364
G1 X79.549 Y118.530 E5.64564
G1 X78.667 Y116.438 E5.68765
G1 X78.506 Y115.000 E5.71442
G1 X78.506 Y85.000 E6.26943
G1 X78.902 Y82.764 E6.31143
G1 X80.013 Y80.856 E6.35227
G1 X80.267 Y80.934 F6000.000
G1 X81.246 Y80.007 E6.37723 F1200.000
G1 X94.547 Y70.007 E6.68509
G1 X96.537 Y69.007 E6.72628
G1 X98.301 Y68.753 E6.75926
G1 X107.806 Y68.789 E6.93511
G1 X108.235 Y68.836 E6.94309 F1200.000
G1 X109.533 Y69.119 E6.96766
G1 X110.604 Y69.521 E6.98883
G1 X111.158 Y69.813 E7.00040
G1 X111.515 Y70.025 E7.00809
G1 X112.464 Y70.716 E7.02982
G1 X112.899 Y71.118 E7.04077
G1 X113.774 Y72.127 E7.06547
G1 X114.467 Y73.235 E7.08966
G1 X116.812 Y78.109 E7.18972
G1 X118.670 Y83.181 E7.28964
G1 X118.850 Y83.790 E7.30140
G1 X120.130 Y88.850 E7.39796
G1 X120.943 Y94.183 E7.49776
G1 X120.997 Y94.809 E7.50937
G1 X121.246 Y100.027 E7.60602
G1 X120.984 Y105.405 E7.70565
G1 X120.913 Y106.031 E7.71730
G1 X120.126 Y111.172 E7.81351
G1 X118.809 Y116.365 E7.91263
G1 X118.607 Y117.000 E7.92495
G1 X116.887 Y121.708 E8.01769
G1 X116.731 Y122.075 E8.02506
G1 X114.480 Y126.742 E8.12092
G1 X114.014 Y127.527 E8.13782
G1 X113.767 Y127.881 E8.14580
G1 X112.897 Y128.885 E8.17037
G1 X112.033 Y129.631 E8.19149
G1 X111.510 Y129.978 E8.20311
G1 X111.152 Y130.190 E8.21080
G1 X110.091 Y130.692 E8.23251
G1 X109.530 Y130.882 E8.24348
G1 X108.225 Y131.166 E8.26818
G1 X107.131 Y131.247 E8.28848
G1 X98.301 Y131.247 E8.45182
G1 X96.110 Y130.850 E8.49302
G1 X94.547 Y129.993 E8.52600
G1 X81.246 Y119.993 E8.83386
G1 X79.733 Y118.360 E8.87505
G1 X78.889 Y116.299 E8.91624
G1 X78.753 Y115.000 E8.94041
G1 X78.753 Y85.000 E9.49542
G1 X79.150 Y82.809 E9.53661
G1 X80.235 Y80.989 E9.57582
G1 F1860.000 E6.57582
G92 E0
G1 X98.648 Y114.653 F6000.000
G1 E3.10000 F1860.000
G1 X85.347 Y114.653 E3.34608 F1200.000
G1 X85.347 Y110.847 E3.41648
G1 X99.522 Y110.847 E3.67871
G1 X102.302 Y110.482 E3.73060
G1 X104.920 Y109.399 E3.78301
G1 X107.170 Y107.675 E3.83544
G1 X107.246 Y107.576 E3.83775
G1 X108.896 Y105.427 E3.88787
G1 X109.980 Y102.809 E3.94029
G1 X110.350 Y100.001 E3.99269
G1 X110.334 Y99.877 E3.99501
G1 X109.981 Y97.193 E4.04508
G1 X108.897 Y94.576 E4.09748
G1 X107.174 Y92.329 E4.14988
G1 X107.072 Y92.251 E4.15225
G1 X104.931 Y90.607 E4.20219
G1 X102.325 Y89.525 E4.25438
G1 X99.523 Y89.153 E4.30669
G1 X85.347 Y89.153 E4.56894
G1 X85.347 Y85.347 E4.63934
G1 X98.648 Y85.347 E4.88542
G1 X98.648 Y75.347 E5.07042
G1 X107.107 Y75.347 E5.22690
G1 X107.485 Y75.388 E5.23394
G1 X107.817 Y75.498 E5.24040
G1 X108.119 Y75.678 E5.24692
G1 X108.378 Y75.919 E5.25345
G1 X108.587 Y76.220 E5.26024
G1 X110.723 Y80.643 E5.35111
G1 X112.441 Y85.346 E5.44373
G1 X113.675 Y90.200 E5.53640
G1 X114.406 Y95.059 E5.62730
G1 X114.652 Y99.967 E5.71821
G1 X114.392 Y105.048 E5.81234
G1 X113.671 Y109.822 E5.90166
G1 X112.458 Y114.591 E5.99269
G1 X110.734 Y119.334 E6.08606
G1 X108.590 Y123.775 E6.17729
G1 X108.376 Y124.084 E6.18424
G1 X108.120 Y124.322 E6.19070
G1 X107.817 Y124.501 E6.19721
G1 X107.482 Y124.613 E6.20375
G1 X107.112 Y124.653 E6.21065
G1 X98.648 Y124.653 E6.36722
G1 X98.648 Y114.716 E6.55105
G1 X98.401 Y114.900 F6000.000
G1 X85.100 Y114.900 E6.79713 F1200.000
G1 X85.100 Y110.600 E6.87668
G1 X99.506 Y110.600 E7.14320
G1 X102.240 Y110.241 E7.19420
G1 X104.797 Y109.183 E7.24540
G1 X106.994 Y107.498 E7.29662
G1 X107.051 Y107.425 E7.29833
G1 X108.680 Y105.302 E7.34784
G1 X109.739 Y102.745 E7.39905
G1 X110.101 Y100.001 E7.45025
G1 X110.089 Y99.908 E7.45197
G1 X109.740 Y97.257 E7.50144
G1 X108.681 Y94.701 E7.55263
G1 X106.997 Y92.505 E7.60383
G1 X106.921 Y92.446 E7.60560
G1 X104.804 Y90.821 E7.65498
G1 X102.258 Y89.765 E7.70598
G1 X99.507 Y89.400 E7.75732
G1 X85.100 Y89.400 E8.02384
G1 X85.100 Y85.100 E8.10340
G1 X98.401 Y85.100 E8.34947
G1 X98.401 Y75.100 E8.53447
G1 X107.124 Y75.100 E8.69584
G1 X107.538 Y75.145 E8.70356
G1 X107.920 Y75.272 E8.71099
G1 X108.268 Y75.479 E8.71850
G1 X108.566 Y75.756 E8.72602
G1 X108.800 Y76.093 E8.73361
G1 X110.949 Y80.542 E8.82501
G1 X112.678 Y85.275 E8.91823
G1 X113.918 Y90.159 E9.01145
G1 X114.652 Y95.037 E9.10272
G1 X114.899 Y99.962 E9.19395
G1 X114.637 Y105.084 E9.28883
G1 X113.914 Y109.866 E9.37831
G1 X112.697 Y114.655 E9.46971
G1 X110.961 Y119.432 E9.56374
G1 X108.801 Y123.905 E9.65564
G1 X108.564 Y124.247 E9.66334
G1 X108.269 Y124.521 E9.67078
G1 X107.921 Y124.727 E9.67828
G1 X107.535 Y124.856 E9.68580
G1 X107.125 Y124.900 E9.69342
G1 X98.401 Y124.900 E9.85482
G1 X98.401 Y114.963 E10.03865
G1 X98.401 Y114.480 F6000.000
G1 X98.550 Y114.494 F6000.000
G1 X95.063 Y111.006 E10.12989 F1200.000
G1 X94.711 Y111.006 E10.13639
G1 X98.199 Y114.494 E10.22763
G1 X97.847 Y114.494 E10.23413
G1 X94.360 Y111.006 E10.32536
G1 X94.009 Y111.006 E10.33187
G1 X97.496 Y114.494 E10.42310
G1 X97.144 Y114.494 E10.42960
G1 X93.657 Y111.006 E10.52084
G1 X93.306 Y111.006 E10.52734
G1 X96.793 Y114.494 E10.61858
G1 X96.441 Y114.494 E10.62508
G1 X92.954 Y111.006 E10.71631
G1 X92.603 Y111.006 E10.72282
G1 X96.090 Y114.494 E10.81405
G1 X95.738 Y114.494 E10.82055
G1 X92.251 Y111.006 E10.91179
G1 X91.900 Y111.006 E10.91829
G1 X95.387 Y114.494 E11.00953
G1 X95.036 Y114.494 E11.01603
G1 X91.548 Y111.006 E11.10726
G1 X91.197 Y111.006 E11.11376
G1 X94.684 Y114.494 E11.20500
G1 X94.333 Y114.494 E11.21150
G1 X90.846 Y111.006 E11.30274
G1 X90.494 Y111.006 E11.30924
G1 X93.981 Y114.494 E11.40047
G1 X93.630 Y114.494 E11.40698
G1 X90.143 Y111.006 E11.49821
G1 X89.791 Y111.006 E11.50471
G1 X93.278 Y114.494 E11.59595
G1 X92.927 Y114.494 E11.60245
G1 X89.440 Y111.006 E11.69369
G1 X89.088 Y111.006 E11.70019
G1 X92.575 Y114.494 E11.79142
G1 X92.224 Y114.494 E11.79793
G1 X88.737 Y111.006 E11.88916
G1 X88.385 Y111.006 E11.89566
G1 X91.873 Y114.494 E11.98690
G1 X91.521 Y114.494 E11.99340
G1 X88.034 Y111.006 E12.08464
G1 X87.682 Y111.006 E12.09114
G1 X91.170 Y114.494 E12.18237
G1 X90.818 Y114.494 E12.18888
G1 X87.331 Y111.006 E12.28011
G1 X86.980 Y111.006 E12.28661
G1 X90.467 Y114.494 E12.37785
G1 X90.115 Y114.494 E12.38435
G1 X86.628 Y111.006 E12.47559
G1 X86.277 Y111.006 E12.48209
G1 X89.764 Y114.494 E12.57332
G1 X89.412 Y114.494 E12.57982
G1 X85.925 Y111.006 E12.67106
G1 X85.574 Y111.006 F6000.000
G1 X89.061 Y114.494 E12.76230 F1200.000
G1 X88.709 Y114.494 E12.76880
G1 X85.506 Y111.291 E12.85260
G1 X85.506 Y111.642 E12.85910
G1 X88.358 Y114.494 E12.93371
G1 X88.007 Y114.494 E12.94021
G1 X85.506 Y111.993 E13.00562
G1 X85.506 Y112.345 E13.01212
G1 X87.655 Y114.494 E13.06834
G1 X87.304 Y114.494 E13.07484
G1 X85.506 Y112.696 E13.12187
G1 X85.506 Y113.048 E13.12837
G1 X86.952 Y114.494 E13.16619
G1 X86.601 Y114.494 E13.17270
G1 X85.506 Y113.399 E13.20133
G1 X85.506 Y113.751 E13.20783
G1 X86.249 Y114.494 E13.22727
G1 X85.898 Y114.494 E13.23377
G1 X85.506 Y114.102 E13.24401
G1 X85.506 Y114.454 E13.25051
G1 X85.546 Y114.494 E13.25156
G1 F1860.000 E10.25156
G92 E0
G1 X98.808 Y114.751 F6000.000
G1 E3.10000 F1860.000
G1 X108.131 Y124.074 E3.34392 F1200.000
G1 X108.307 Y123.899 E3.34852
G1 X95.414 Y111.006 E3.68582
G1 X95.766 Y111.006 E3.69233
G1 X108.448 Y123.688 E4.02413
G1 X108.568 Y123.457 E4.02895
G1 X96.117 Y111.006 E4.35471
G1 X96.469 Y111.006 E4.36121
G1 X108.682 Y123.220 E4.68076
G1 X108.797 Y122.983 E4.68563
G1 X96.820 Y111.006 E4.99897
G1 X97.172 Y111.006 E5.00547
G1 X108.911 Y122.745 E5.31261
G1 X109.025 Y122.508 E5.31748
G1 X97.523 Y111.006 E5.61840
G1 X97.875 Y111.006 E5.62490
G1 X109.139 Y122.271 E5.91962
G1 X109.253 Y122.034 E5.92449
G1 X98.226 Y111.006 E6.21300
G1 X98.577 Y111.006 E6.21950
G1 X109.367 Y121.796 E6.50179
G1 X109.481 Y121.559 E6.50667
G1 X98.929 Y111.006 E6.78275
G1 X99.280 Y111.006 E6.78925
G1 X109.595 Y121.322 E7.05913
G1 X109.710 Y121.084 E7.06400
G1 X99.620 Y110.995 E7.32798
G1 X99.931 Y110.954 E7.33377
G1 X109.824 Y120.847 E7.59260
G1 X109.938 Y120.610 E7.59748
G1 X100.241 Y110.913 E7.85117
G1 X100.552 Y110.872 E7.85696
G1 X110.052 Y120.372 E8.10551
G1 X110.166 Y120.135 E8.11039
G1 X100.863 Y110.832 E8.35379
G1 X101.173 Y110.791 E8.35959
G1 X110.280 Y119.898 E8.59786
G1 X110.394 Y119.660 E8.60273
G1 X101.484 Y110.750 E8.83586
G1 X101.795 Y110.709 E8.84165
G1 X110.509 Y119.423 E9.06964
G1 X110.621 Y119.184 E9.07452
G1 X102.105 Y110.668 E9.29734
G1 X102.401 Y110.613 E9.30291
G1 X110.715 Y118.927 E9.52043
G1 X110.809 Y118.669 E9.52550
G1 X102.650 Y110.510 E9.73897
G1 X102.899 Y110.407 E9.74395
G1 X110.903 Y118.412 E9.95337
G1 X110.997 Y118.154 E9.95844
G1 X103.147 Y110.305 E10.16381
G1 X103.396 Y110.202 E10.16878
G1 X111.091 Y117.897 E10.37010
G1 X111.185 Y117.639 E10.37518
G1 X103.645 Y110.099 E10.57245
G1 X103.893 Y109.996 E10.57743
G1 X111.278 Y117.381 E10.77065
G1 X111.372 Y117.124 E10.77572
G1 X104.142 Y109.893 E10.96489
G1 X104.390 Y109.790 E10.96987
G1 X111.466 Y116.866 E11.15500
G1 X111.560 Y116.609 E11.16007
G1 X104.639 Y109.688 E11.34114
G1 X104.888 Y109.585 E11.34612
G1 X111.654 Y116.351 E11.52315
G1 X111.748 Y116.093 E11.52822
G1 X105.109 Y109.455 E11.70191
G1 X105.308 Y109.302 E11.70655
G1 X111.842 Y115.836 E11.87748
G1 X111.936 Y115.578 E11.88256
G1 X105.507 Y109.150 E12.05075
G1 X105.706 Y108.997 E12.05538
G1 X112.029 Y115.321 E12.22082
G1 X112.123 Y115.063 E12.22590
G1 X105.905 Y108.845 E12.38859
G1 X106.104 Y108.692 E12.39322
G1 X112.217 Y114.806 E12.55317
G1 X112.305 Y114.541 E12.55831
G1 X106.303 Y108.540 E12.71534
G1 X106.502 Y108.387 E12.71997
G1 X112.376 Y114.261 E12.87366
G1 X112.447 Y113.981 E12.87901
G1 X106.701 Y108.235 E13.02935
G1 X106.900 Y108.082 E13.03399
G1 X112.519 Y113.701 E13.18100
G1 X112.590 Y113.421 E13.18635
G1 X107.099 Y107.930 E13.33002
G1 X107.294 Y107.774 E13.33465
G1 X112.661 Y113.141 E13.47507
G1 X112.733 Y112.861 E13.48041
G1 X107.447 Y107.575 E13.61871
G1 X107.599 Y107.376 E13.62335
G1 X112.804 Y112.581 E13.75951
G1 X112.875 Y112.301 E13.76486
G1 X107.752 Y107.177 E13.89890
G1 X107.905 Y106.979 E13.90354
G1 X112.947 Y112.021 E14.03545
G1 X113.018 Y111.740 E14.04080
G1 X108.057 Y106.780 E14.17058
G1 X108.210 Y106.581 E14.17522
G1 X113.089 Y111.460 E14.30288
G1 X113.161 Y111.180 E14.30822
G1 X108.363 Y106.382 E14.43376
G1 X108.515 Y106.183 E14.43839
G1 X113.232 Y110.900 E14.56180
G1 X113.303 Y110.620 E14.56715
G1 X108.668 Y105.985 E14.68842
G1 X108.821 Y105.786 E14.69306
G1 X113.375 Y110.340 E14.81221
G1 X113.446 Y110.060 E14.81756
G1 X108.973 Y105.587 E14.93458
G1 X109.096 Y105.359 E14.93938
G1 X113.516 Y109.779 E15.05502
G1 X113.563 Y109.473 E15.06074
G1 X109.199 Y105.110 E15.17489
G1 X109.302 Y104.862 E15.17987
G1 X113.609 Y109.168 E15.29253
G1 X113.655 Y108.863 E15.29824
G1 X109.405 Y104.613 E15.40942
G1 X109.508 Y104.365 E15.41440
G1 X113.701 Y108.557 E15.52409
G1 X113.747 Y108.252 E15.52980
G1 X109.611 Y104.116 E15.63801
G1 X109.714 Y103.868 E15.64298
G1 X113.793 Y107.947 E15.74970
G1 X113.839 Y107.641 E15.75541
G1 X109.817 Y103.619 E15.86064
G1 X109.920 Y103.371 E15.86561
G1 X113.885 Y107.336 E15.96935
G1 X113.931 Y107.030 E15.97507
G1 X110.023 Y103.122 E16.07732
G1 X110.126 Y102.874 E16.08230
G1 X113.977 Y106.725 E16.18306
G1 X114.023 Y106.420 E16.18877
G1 X110.172 Y102.569 E16.28952
G1 X110.213 Y102.258 E16.29532
G1 X114.069 Y106.114 E16.39621
G1 X114.115 Y105.809 E16.40192
G1 X110.254 Y101.948 E16.50294
G1 X110.295 Y101.637 E16.50873
G1 X114.162 Y105.504 E16.60989
G1 X114.208 Y105.198 E16.61560
G1 X110.336 Y101.327 E16.71690
G1 X110.377 Y101.016 E16.72269
G1 X114.248 Y104.887 E16.82397
G1 X114.265 Y104.552 E16.83017
G1 X110.418 Y100.706 E16.93082
G1 X110.459 Y100.395 E16.93661
G1 X114.281 Y104.218 E17.03662
G1 X114.298 Y103.883 E17.04282
G1 X110.500 Y100.084 E17.14220
G1 X110.472 Y99.705 E17.14923
G1 X114.315 Y103.548 E17.24978
G1 X114.331 Y103.213 E17.25598
G1 X110.419 Y99.300 E17.35835
G1 X110.365 Y98.896 E17.36590
G1 X114.348 Y102.878 E17.47010
G1 X114.365 Y102.544 E17.47630
G1 X110.312 Y98.491 E17.58233
G1 X110.259 Y98.086 E17.58988
G1 X114.381 Y102.209 E17.69773
G1 X114.398 Y101.874 E17.70393
G1 X110.206 Y97.682 E17.81362
G1 X110.152 Y97.277 E17.82117
G1 X114.415 Y101.539 E17.93268
G1 X114.431 Y101.204 E17.93888
G1 X109.965 Y96.738 E18.05575
G1 X109.716 Y96.138 F6000.000
G1 X114.448 Y100.870 E18.17954 F1200.000
G1 X114.465 Y100.535 E18.18574
G1 X109.468 Y95.538 E18.31647
G1 X109.219 Y94.938 F6000.000
G1 X114.481 Y100.200 E18.45414 F1200.000
G1 X114.487 Y99.854 E18.46053
G1 X108.734 Y94.101 E18.61105
G1 X107.575 Y92.591 F6000.000
G1 X114.469 Y99.484 E18.79140 F1200.000
G1 X114.450 Y99.114 E18.79826
G1 X98.808 Y83.472 E19.20751
G1 X98.808 Y83.121 E19.21401
G1 X114.431 Y98.744 E19.62278
G1 X114.413 Y98.374 E19.62964
G1 X98.808 Y82.769 E20.03792
G1 X98.808 Y82.418 E20.04442
G1 X114.394 Y98.004 E20.45222
G1 X114.376 Y97.634 E20.45907
G1 X98.808 Y82.066 E20.86638
G1 X98.808 Y81.715 E20.87289
G1 X114.357 Y97.264 E21.27971
G1 X114.339 Y96.894 E21.28657
G1 X98.808 Y81.363 E21.69291
G1 X98.808 Y81.012 E21.69941
G1 X114.320 Y96.524 E22.10527
G1 X114.302 Y96.154 E22.11212
G1 X98.808 Y80.661 E22.51749
G1 X98.808 Y80.309 E22.52399
G1 X114.283 Y95.784 E22.92888
G1 X114.264 Y95.414 E22.93573
G1 X98.808 Y79.958 E23.34013
G1 X98.808 Y79.606 E23.34663
G1 X114.242 Y95.041 E23.75045
G1 X114.180 Y94.627 E23.75820
G1 X98.808 Y79.255 E24.16039
G1 X98.808 Y78.903 E24.16689
G1 X114.118 Y94.213 E24.56745
G1 X114.055 Y93.800 E24.57519
G1 X98.808 Y78.552 E24.97412
G1 X98.808 Y78.200 E24.98062
G1 X113.993 Y93.386 E25.37792
G1 X113.931 Y92.972 E25.38567
G1 X98.808 Y77.849 E25.78134
G1 X98.808 Y77.497 E25.78784
G1 X113.869 Y92.558 E26.18188
G1 X113.806 Y92.145 E26.18962
G1 X98.808 Y77.146 E26.58203
G1 X98.808 Y76.795 E26.58854
G1 X113.744 Y91.731 E26.97932
G1 X113.682 Y91.317 E26.98706
G1 X98.808 Y76.443 E27.37621
G1 X98.808 Y76.092 E27.38271
G1 X113.619 Y90.903 E27.77024
G1 X113.557 Y90.490 E27.77798
G1 X98.808 Y75.740 E28.16387
G1 X98.925 Y75.506 E28.16871
G1 X113.473 Y90.054 E28.54933
G1 X113.353 Y89.583 E28.55833
G1 X99.277 Y75.506 E28.92662
G1 X99.628 Y75.506 E28.93312
G1 X113.234 Y89.112 E29.28908
G1 X113.114 Y88.641 E29.29808
G1 X99.980 Y75.506 E29.64171
G1 X100.331 Y75.506 E29.64821
G1 X112.994 Y88.169 E29.97952
G1 X112.874 Y87.698 E29.98851
G1 X100.683 Y75.506 E30.30749
G1 X101.034 Y75.506 E30.31399
G1 X112.755 Y87.227 E30.62064
G1 X112.635 Y86.756 E30.62963
G1 X101.385 Y75.506 E30.92396
G1 X101.737 Y75.506 E30.93046
