; generated by Slic3r 1.1.7 on 2014-12-22 at 14:31:33

; perimeters extrusion width = 0.42mm
; infill extrusion width = 0.74mm
; solid infill extrusion width = 0.71mm
; top infill extrusion width = 0.71mm
; support material extrusion width = 0.42mm

G21 ; set units to millimeters
M190 S101 ; wait for bed temperature to be reached
M104 S220 ; set temperature
G28 ; home all axes Start of G Code Slic3r
 
M109 S220 ; wait for temperature to be reached
G90 ; use absolute coordinates
G92 E0
M82 ; use absolute distances for extrusion
M106 S127
G1 F1860.000 E-3.00000
G92 E0
G1 Z0.200 F6000.000
G1 X37.680 Y73.956 F6000.000
G1 E3.10000 F1860.000
G1 X38.664 Y73.487 E3.11823 F1200.000
G1 X39.706 Y73.105 E3.13678
G1 X101.377 Y54.559 E4.21338
G1 X102.728 Y54.203 E4.23673
G1 X104.108 Y53.951 E4.26018
G1 X105.493 Y53.809 E4.28345
G1 X106.896 Y53.774 E4.30691
G1 X108.285 Y53.848 E4.33017
G1 X109.675 Y54.029 E4.35360 F1200.000
G1 X110.885 Y54.276 E4.37426
G1 X144.065 Y62.611 E4.94617
G1 X144.995 Y62.874 E4.96232
G1 X146.149 Y63.329 E4.98306
G1 X147.131 Y63.834 E5.00152
G1 X147.871 Y64.301 E5.01615
G1 X148.270 Y64.578 E5.02427
G1 X149.266 Y65.405 E5.04591
G1 X150.058 Y66.212 E5.06482
G1 X150.670 Y66.960 E5.08097
G1 X150.967 Y67.377 E5.08953
G1 X170.683 Y97.500 E5.69138
G1 X170.910 Y97.915 E5.69930
G1 X171.379 Y98.899 E5.71752
G1 X171.710 Y99.780 E5.73325
G1 X171.961 Y100.679 E5.74885
G1 X172.090 Y101.277 E5.75909
G1 X172.233 Y102.248 E5.77550
G1 X172.292 Y103.621 E5.79846
G1 X170.463 Y134.984 E6.32367
G1 X170.433 Y135.327 E6.32943
G1 X170.292 Y136.252 E6.34507
G1 X170.174 Y136.795 E6.35435
G1 X169.918 Y137.709 E6.37023
G1 X169.444 Y138.921 E6.39198
G1 X169.329 Y139.158 E6.39639
G1 X168.938 Y139.907 E6.41051
G1 X168.472 Y140.643 E6.42507
G1 X168.095 Y141.172 E6.43593
G1 X167.369 Y142.038 E6.45483
G1 X166.554 Y142.837 E6.47390
G1 X165.909 Y143.367 E6.48786
G1 X165.370 Y143.757 E6.49898
G1 X164.679 Y144.198 E6.51268
G1 X164.264 Y144.425 E6.52059
G1 X163.280 Y144.894 E6.53882
G1 X162.553 Y145.173 E6.55183
G1 X162.046 Y145.331 E6.56071
G1 X161.322 Y145.521 E6.57322
G1 X160.902 Y145.606 E6.58039
G1 X159.930 Y145.749 E6.59681
G1 X158.594 Y145.808 E6.61917
G1 X39.677 Y143.165 E8.60765
G1 X38.571 Y143.071 E8.62620
G1 X37.929 Y142.966 E8.63707
G1 X37.010 Y142.754 E8.65284
G1 X35.718 Y142.306 E8.67570
G1 X34.884 Y141.921 E8.69107
G1 X34.536 Y141.731 E8.69769
G1 X33.942 Y141.379 E8.70924
G1 X33.596 Y141.148 E8.71619
G1 X32.680 Y140.442 E8.73552
G1 X31.845 Y139.651 E8.75475
G1 X31.357 Y139.102 E8.76703
G1 X30.929 Y138.557 E8.77862
G1 X30.370 Y137.732 E8.79528
G1 X29.925 Y136.932 E8.81058
G1 X29.765 Y136.601 E8.81673
G1 X29.436 Y135.819 E8.83091
G1 X29.267 Y135.331 E8.83955
G1 X29.095 Y134.755 E8.84959
G1 X28.959 Y134.182 E8.85943
G1 X28.799 Y133.279 E8.87476
G1 X28.713 Y132.243 E8.89215
G1 X27.708 Y110.582 E9.25465
G1 X27.716 Y110.371 E9.25817
G1 X27.752 Y109.728 E9.26894
G1 X27.798 Y109.301 E9.27612
G1 X31.549 Y82.776 E9.72397
G1 X31.652 Y82.129 E9.73493
G1 X31.782 Y81.544 E9.74495
G1 X32.044 Y80.617 E9.76104
G1 X32.500 Y79.460 E9.78183
G1 X33.008 Y78.472 E9.80040
G1 X33.472 Y77.738 E9.81493
G1 X33.847 Y77.211 E9.82573
G1 X34.576 Y76.342 E9.84469
G1 X35.381 Y75.552 E9.86356
G1 X36.284 Y74.824 E9.88295
G1 X37.259 Y74.186 E9.90242
G1 X37.624 Y73.985 E9.90939
G1 X37.778 Y74.149 F6000.000
G1 X38.744 Y73.687 E9.92729 F1200.000
G1 X39.768 Y73.311 E9.94553
G1 X101.435 Y54.766 E11.02205
G1 X102.770 Y54.414 E11.04513
G1 X104.133 Y54.166 E11.06829
G1 X105.501 Y54.025 E11.09128
G1 X106.887 Y53.990 E11.11446
G1 X108.260 Y54.062 E11.13745
G1 X109.633 Y54.241 E11.16059 F1200.000
G1 X110.833 Y54.485 E11.18106
G1 X144.009 Y62.819 E11.75292
G1 X144.925 Y63.078 E11.76884
G1 X146.058 Y63.525 E11.78919
G1 X147.024 Y64.021 E11.80734
G1 X147.754 Y64.482 E11.82177
G1 X148.140 Y64.751 E11.82964
G1 X149.117 Y65.561 E11.85087
G1 X149.897 Y66.355 E11.86946
G1 X150.499 Y67.091 E11.88537
G1 X150.787 Y67.495 E11.89365
G1 X170.497 Y97.610 E12.49534
G1 X170.717 Y98.013 E12.50302
G1 X171.178 Y98.979 E12.52092
G1 X171.505 Y99.847 E12.53643
G1 X171.753 Y100.733 E12.55181
G1 X171.877 Y101.313 E12.56171
G1 X172.019 Y102.270 E12.57789
G1 X172.076 Y103.615 E12.60039
G1 X170.248 Y134.970 E13.12546
G1 X170.218 Y135.303 E13.13105
G1 X170.079 Y136.214 E13.14646
G1 X169.965 Y136.740 E13.15546
G1 X169.713 Y137.642 E13.17111
G1 X169.248 Y138.830 E13.19244
G1 X169.137 Y139.060 E13.19671
G1 X168.750 Y139.799 E13.21066
G1 X168.291 Y140.526 E13.22502
G1 X167.926 Y141.039 E13.23555
G1 X167.212 Y141.890 E13.25412
G1 X166.412 Y142.675 E13.27287
G1 X165.774 Y143.199 E13.28666
G1 X165.253 Y143.576 E13.29742
G1 X164.569 Y144.012 E13.31097
G1 X164.166 Y144.233 E13.31865
G1 X163.200 Y144.694 E13.33655
G1 X162.481 Y144.970 E13.34942
G1 X161.991 Y145.123 E13.35801
G1 X161.273 Y145.311 E13.37041
G1 X160.866 Y145.393 E13.37735
G1 X159.909 Y145.534 E13.39353
G1 X158.599 Y145.593 E13.41545
G1 X39.683 Y142.950 E15.40392
G1 X38.596 Y142.857 E15.42216
G1 X37.975 Y142.755 E15.43267
G1 X37.069 Y142.546 E15.44821
G1 X35.804 Y142.108 E15.47059
G1 X34.982 Y141.729 E15.48573
G1 X34.645 Y141.545 E15.49214
G1 X34.057 Y141.196 E15.50358
G1 X33.722 Y140.972 E15.51032
G1 X32.822 Y140.280 E15.52930
G1 X32.002 Y139.504 E15.54817
G1 X31.520 Y138.960 E15.56031
G1 X31.105 Y138.432 E15.57153
G1 X30.555 Y137.621 E15.58793
G1 X30.117 Y136.832 E15.60301
G1 X29.962 Y136.512 E15.60895
G1 X29.637 Y135.741 E15.62294
G1 X29.474 Y135.268 E15.63130
G1 X29.303 Y134.696 E15.64128
G1 X29.171 Y134.142 E15.65081
G1 X29.013 Y133.252 E15.66592
G1 X28.928 Y132.233 E15.68302
G1 X27.924 Y110.588 E16.04525
G1 X27.931 Y110.383 E16.04868
G1 X27.967 Y109.745 E16.05936
G1 X28.012 Y109.332 E16.06632
G1 X31.762 Y82.809 E16.51411
G1 X31.865 Y82.167 E16.52499
G1 X31.990 Y81.599 E16.53470
G1 X32.248 Y80.687 E16.55056
G1 X32.696 Y79.551 E16.57097
G1 X33.195 Y78.580 E16.58922
G1 X33.653 Y77.855 E16.60356
G1 X34.016 Y77.345 E16.61402
G1 X34.732 Y76.491 E16.63266
G1 X35.524 Y75.714 E16.65120
G1 X36.411 Y74.998 E16.67026
G1 X37.369 Y74.372 E16.68939
G1 X37.722 Y74.177 E16.69612
G1 F1860.000 E13.69612
G92 E0
G1 X158.942 Y135.930 F6000.000
G1 E3.10000 F1860.000
G1 X158.531 Y135.930 E3.10687 F1200.000
G1 X158.131 Y135.841 E3.11373
G1 X157.758 Y135.669 E3.12058
G1 X157.432 Y135.421 E3.12744
G1 X157.166 Y135.108 E3.13430
G1 X156.974 Y134.745 E3.14116
G1 X156.864 Y134.351 E3.14801
G1 X156.842 Y133.940 E3.15489
G1 X156.908 Y133.535 E3.16174
G1 X157.060 Y133.155 E3.16859
G1 X157.291 Y132.815 E3.17547
G1 X157.589 Y132.532 E3.18233
G1 X157.940 Y132.321 E3.18917
G1 X158.329 Y132.190 E3.19604
G1 X158.737 Y132.146 E3.20290
G1 X159.107 Y132.185 E3.20912
G1 X159.534 Y132.321 E3.21661 F1200.000
G1 X159.885 Y132.532 E3.22346
G1 X160.182 Y132.815 E3.23032
G1 X160.414 Y133.155 E3.23719
G1 X160.565 Y133.535 E3.24404
G1 X160.632 Y133.941 E3.25091
G1 X160.609 Y134.350 E3.25776
G1 X160.499 Y134.745 E3.26463
G1 X160.307 Y135.108 E3.27148
G1 X160.041 Y135.421 E3.27835
G1 X159.715 Y135.669 E3.28520
G1 X159.343 Y135.841 E3.29206
G1 X159.004 Y135.916 E3.29786
G1 X158.918 Y135.714 F6000.000
G1 X158.555 Y135.714 E3.30394 F1200.000
G1 X158.200 Y135.635 E3.31002
G1 X157.870 Y135.483 E3.31609
G1 X157.581 Y135.264 E3.32216
G1 X157.346 Y134.986 E3.32824
G1 X157.176 Y134.665 E3.33432
G1 X157.078 Y134.315 E3.34039
G1 X157.058 Y133.952 E3.34647
G1 X157.117 Y133.594 E3.35254
G1 X157.252 Y133.256 E3.35861
G1 X157.456 Y132.955 E3.36470
G1 X157.720 Y132.705 E3.37077
G1 X158.031 Y132.518 E3.37684
G1 X158.375 Y132.402 E3.38292
G1 X158.722 Y132.364 E3.38875
G1 X159.098 Y132.402 E3.39506 F1200.000
G1 X159.443 Y132.518 E3.40114
G1 X159.753 Y132.705 E3.40721
G1 X160.017 Y132.955 E3.41328
G1 X160.222 Y133.256 E3.41937
G1 X160.356 Y133.594 E3.42544
G1 X160.415 Y133.952 E3.43152
G1 X160.395 Y134.315 E3.43758
G1 X160.297 Y134.665 E3.44366
G1 X160.127 Y134.986 E3.44974
G1 X159.892 Y135.264 E3.45582
G1 X159.603 Y135.483 E3.46189
G1 X159.273 Y135.635 E3.46796
G1 X158.980 Y135.701 E3.47298
G1 F1860.000 E0.47298
G92 E0
G1 X158.726 Y131.987 F6000.000
G1 X159.445 Y139.025 F6000.000
G1 E3.10000 F1860.000
G1 X159.239 Y139.057 E3.10347 F1200.000
G1 X158.701 Y139.081 E3.11248
G1 X158.215 Y139.055 E3.12062
G1 X157.681 Y138.970 E3.12966
G1 X157.173 Y138.834 E3.13846
G1 X156.683 Y138.644 E3.14724
G1 X156.223 Y138.410 E3.15586
G1 X155.770 Y138.117 E3.16489
G1 X155.362 Y137.785 E3.17368
G1 X154.992 Y137.414 E3.18244
G1 X154.663 Y137.009 E3.19115
G1 X154.370 Y136.557 E3.20017
G1 X154.133 Y136.091 E3.20891
G1 X153.946 Y135.608 E3.21757
G1 X153.809 Y135.095 E3.22644
G1 X153.725 Y134.564 E3.23543
G1 X153.698 Y134.039 E3.24421
G1 X153.725 Y133.521 E3.25289
G1 X153.808 Y132.994 E3.26180
G1 X153.946 Y132.479 E3.27072
G1 X154.136 Y131.989 E3.27951
G1 X154.370 Y131.530 E3.28813
G1 X154.663 Y131.077 E3.29715
G1 X154.995 Y130.668 E3.30594
G1 X155.366 Y130.298 E3.31470
G1 X155.770 Y129.970 E3.32342
G1 X156.223 Y129.676 E3.33244
G1 X156.689 Y129.439 E3.34117
G1 X157.172 Y129.252 E3.34983
G1 X157.685 Y129.115 E3.35870
G1 X158.282 Y129.028 E3.36880
G1 X158.740 Y129.004 E3.37647 F1200.000
G1 X159.259 Y129.031 E3.38514
G1 X159.785 Y129.115 E3.39406
G1 X160.301 Y129.252 E3.40298
G1 X160.791 Y129.442 E3.41176
G1 X161.250 Y129.676 E3.42038
G1 X161.703 Y129.970 E3.42940
G1 X162.112 Y130.301 E3.43820
G1 X162.482 Y130.672 E3.44695
G1 X162.810 Y131.077 E3.45567
G1 X163.120 Y131.562 E3.46530
G1 X163.341 Y131.995 E3.47342
G1 X163.527 Y132.479 E3.48209
G1 X163.664 Y132.991 E3.49095
G1 X163.749 Y133.522 E3.49994
G1 X163.776 Y134.047 E3.50873
G1 X163.749 Y134.565 E3.51740
G1 X163.665 Y135.092 E3.52632
G1 X163.528 Y135.607 E3.53524
G1 X163.338 Y136.097 E3.54402
G1 X163.115 Y136.535 E3.55223
G1 X162.810 Y137.010 E3.56166
G1 X162.479 Y137.418 E3.57046
G1 X162.108 Y137.788 E3.57921
G1 X161.703 Y138.117 E3.58793
G1 X161.250 Y138.410 E3.59695
G1 X160.784 Y138.647 E3.60569
G1 X160.301 Y138.834 E3.61435
G1 X159.789 Y138.971 E3.62322
G1 X159.507 Y139.016 E3.62798
G1 X159.479 Y139.239 F6000.000
G1 X159.252 Y139.272 E3.63181 F1200.000
G1 X158.692 Y139.297 E3.64118
G1 X158.189 Y139.269 E3.64961
G1 X157.629 Y139.179 E3.65909
G1 X157.111 Y139.041 E3.66805
G1 X156.598 Y138.843 E3.67724
G1 X156.110 Y138.594 E3.68639
G1 X155.634 Y138.284 E3.69590
G1 X155.219 Y137.947 E3.70483
G1 X154.831 Y137.559 E3.71401
G1 X154.487 Y137.134 E3.72314
G1 X154.185 Y136.668 E3.73243
G1 X153.936 Y136.180 E3.74159
G1 X153.740 Y135.672 E3.75070
G1 X153.597 Y135.136 E3.75996
G1 X153.508 Y134.559 E3.76974
G1 X153.482 Y134.042 E3.77838
G1 X153.510 Y133.495 E3.78753
G1 X153.597 Y132.951 E3.79676
G1 X153.739 Y132.417 E3.80598
G1 X153.937 Y131.905 E3.81517
G1 X154.186 Y131.417 E3.82432
G1 X154.486 Y130.953 E3.83356
G1 X154.832 Y130.526 E3.84275
G1 X155.221 Y130.138 E3.85194
G1 X155.645 Y129.793 E3.86107
G1 X156.112 Y129.491 E3.87036
G1 X156.600 Y129.243 E3.87952
G1 X157.108 Y129.046 E3.88863
G1 X157.644 Y128.904 E3.89789
G1 X158.189 Y128.817 E3.90713
G1 X158.781 Y128.789 E3.91703
G1 X159.284 Y128.817 E3.92546 F1200.000
G1 X159.829 Y128.903 E3.93468
G1 X160.362 Y129.045 E3.94391
G1 X160.875 Y129.243 E3.95310
G1 X161.363 Y129.492 E3.96225
G1 X161.827 Y129.793 E3.97149
G1 X162.254 Y130.139 E3.98068
G1 X162.642 Y130.527 E3.98986
G1 X162.986 Y130.952 E3.99900
G1 X163.289 Y131.418 E4.00829
G1 X163.537 Y131.906 E4.01745
G1 X163.733 Y132.414 E4.02655
G1 X163.872 Y132.932 E4.03552
G1 X163.966 Y133.528 E4.04559
G1 X163.992 Y134.044 E4.05424
G1 X163.963 Y134.591 E4.06339
G1 X163.876 Y135.136 E4.07261
G1 X163.734 Y135.669 E4.08184
G1 X163.537 Y136.182 E4.09102
G1 X163.307 Y136.634 E4.09950
G1 X162.983 Y137.139 E4.10953
G1 X162.641 Y137.560 E4.11861
G1 X162.252 Y137.949 E4.12779
G1 X161.828 Y138.293 E4.13692
G1 X161.362 Y138.595 E4.14621
G1 X160.873 Y138.844 E4.15537
G1 X160.369 Y139.039 E4.16442
G1 X159.830 Y139.183 E4.17374
G1 X159.541 Y139.229 E4.17864
G1 F1860.000 E1.17864
G92 E0
G1 X159.144 Y129.000 F6000.000
G1 X160.421 Y129.445 F6000.000
G1 E3.10000 F1860.000
G1 X163.335 Y132.359 E3.16888 F1200.000
G1 X163.473 Y132.803 E3.17666
G1 X159.977 Y129.307 E3.25932
G1 X159.584 Y129.221 E3.26604
G1 X163.559 Y133.196 E3.36001
G1 X163.614 Y133.557 E3.36613
G1 X159.223 Y129.166 E3.46995
G1 X158.899 Y129.148 E3.47537
G1 X163.631 Y133.881 E3.58725
G1 X163.632 Y134.188 E3.59239
G1 X158.592 Y129.148 E3.71154
G1 X158.301 Y129.163 E3.71642
G1 X163.616 Y134.479 E3.84210
G1 X163.581 Y134.750 E3.84667
G1 X158.030 Y129.199 E3.97792
G1 X157.765 Y129.241 E3.98240
G1 X163.539 Y135.015 E4.11891
G1 X163.479 Y135.261 E4.12315
G1 X157.519 Y129.301 E4.26405
G1 X157.277 Y129.366 E4.26824
G1 X163.414 Y135.503 E4.41334
G1 X163.334 Y135.729 E4.41735
G1 X157.051 Y129.446 E4.56591
G1 X156.830 Y129.531 E4.56987
G1 X159.446 Y132.147 E4.63172
G1 X159.032 Y132.040 E4.63886
G1 X156.619 Y129.628 E4.69589
G1 X156.416 Y129.731 E4.69970
G1 X158.698 Y132.013 E4.75364
G1 X158.421 Y132.042 E4.75830
G1 X156.220 Y129.841 E4.81034
G1 X156.034 Y129.962 E4.81405
G1 X158.171 Y132.099 E4.86458
G1 X157.942 Y132.176 E4.86862
G1 X155.848 Y130.082 E4.91813
G1 X155.679 Y130.220 E4.92177
G1 X157.741 Y132.282 E4.97052
G1 X157.549 Y132.397 E4.97425
G1 X155.518 Y130.365 E5.02228
G1 X155.365 Y130.519 E5.02590
G1 X157.384 Y132.538 E5.07365
G1 X157.227 Y132.687 E5.07727
G1 X155.212 Y130.672 E5.12492
G1 X155.058 Y130.825 E5.12854
G1 X157.094 Y132.861 E5.17668
G1 X156.970 Y133.044 E5.18037
G1 X154.913 Y130.986 E5.22900
G1 X154.775 Y131.155 E5.23264
G1 X156.874 Y133.253 E5.28225
G1 X156.786 Y133.472 E5.28619
G1 X154.655 Y131.341 E5.33659
G1 X154.534 Y131.527 E5.34030
G1 X156.738 Y133.730 E5.39239
G1 X156.709 Y134.008 E5.39706
G1 X154.424 Y131.723 E5.45107
G1 X154.321 Y131.926 E5.45487
G1 X156.726 Y134.332 E5.51175
G1 X156.833 Y134.745 E5.51887
G1 X154.225 Y132.137 E5.58053
G1 X154.139 Y132.358 E5.58449
G1 X160.422 Y138.641 E5.73303
G1 X160.643 Y138.555 E5.73700
G1 X158.035 Y135.947 E5.79866
G1 X158.445 Y136.051 E5.80572
G1 X160.853 Y138.459 E5.86266
G1 X161.056 Y138.356 E5.86647
G1 X158.767 Y136.066 E5.92059
G1 X159.053 Y136.045 E5.92537
G1 X161.253 Y138.246 E5.97740
G1 X161.439 Y138.125 E5.98110
G1 X159.303 Y135.990 E6.03159
G1 X159.527 Y135.906 E6.03558
G1 X161.625 Y138.005 E6.08518
G1 X161.794 Y137.867 E6.08882
G1 X159.736 Y135.810 E6.13747
G1 X159.919 Y135.686 E6.14116
G1 X161.955 Y137.722 E6.18929
G1 X162.108 Y137.568 E6.19291
G1 X160.093 Y135.553 E6.24055
G1 X160.242 Y135.396 E6.24418
G1 X162.261 Y137.415 E6.29192
G1 X162.415 Y137.262 E6.29554
G1 X160.383 Y135.230 E6.34358
G1 X160.498 Y135.039 E6.34732
G1 X162.560 Y137.100 E6.39606
G1 X162.698 Y136.932 E6.39970
G1 X160.604 Y134.838 E6.44919
G1 X160.679 Y134.607 E6.45326
G1 X162.818 Y136.746 E6.50383
G1 X162.939 Y136.560 E6.50753
G1 X160.745 Y134.366 E6.55940
G1 X160.761 Y134.076 E6.56426
G1 X163.049 Y136.364 E6.61835
G1 X163.152 Y136.161 E6.62216
G1 X160.738 Y133.747 E6.67923
G1 X160.632 Y133.334 E6.68636
G1 X163.248 Y135.950 E6.74823
G1 F1860.000 E3.74823
G92 E0
G1 X160.196 Y138.721 F6000.000
G1 E3.10000 F1860.000
G1 X154.059 Y132.584 E3.24508 F1200.000
G1 X153.994 Y132.826 E3.24927
G1 X159.954 Y138.786 E3.39016
G1 X159.708 Y138.846 E3.39440
G1 X153.934 Y133.072 E3.53090
G1 X153.892 Y133.337 E3.53537
G1 X159.443 Y138.888 E3.66661
G1 X159.172 Y138.923 E3.67118
G1 X153.857 Y133.608 E3.79684
G1 X153.842 Y133.899 E3.80171
G1 X158.881 Y138.938 E3.92084
G1 X158.573 Y138.937 E3.92598
G1 X153.843 Y134.207 E4.03782
G1 X153.860 Y134.530 E4.04323
G1 X158.250 Y138.920 E4.14702
G1 X157.888 Y138.865 E4.15314
G1 X153.915 Y134.892 E4.24707
G1 X154.001 Y135.284 E4.25379
G1 X157.495 Y138.779 E4.33641
G1 X157.050 Y138.640 E4.34420
G1 X154.139 Y135.729 E4.41303
G1 X154.381 Y136.277 F6000.000
G1 X156.503 Y138.400 E4.46321 F1200.000
G1 X155.590 Y137.793 F6000.000
G1 X154.978 Y137.181 E4.47768 F1200.000
G1 F1860.000 E1.47768
G92 E0
G1 X160.968 Y129.686 F6000.000
G1 E3.10000 F1860.000
G1 X163.094 Y131.811 E3.15026 F1200.000
G1 X162.500 Y130.911 F6000.000
G1 X161.870 Y130.281 E3.16515 F1200.000
G1 F1860.000 E0.16515
G92 E0
G1 X136.305 Y134.604 F6000.000
G1 E3.10000 F1860.000
G1 X130.713 Y134.604 E3.19348 F1200.000
