; generated by Slic3r 1.1.7 on 2014-12-21 at 22:45:23

; perimeters extrusion width = 0.42mm
; infill extrusion width = 0.74mm
; solid infill extrusion width = 0.71mm
; top infill extrusion width = 0.71mm
; support material extrusion width = 0.42mm

G21 ; set units to millimeters
M190 S110 ; wait for bed temperature to be reached
M104 S220 ; set temperature
G28 ; home all axes Start of G Code Slic3r
 
M109 S220 ; wait for temperature to be reached
G90 ; use absolute coordinates
G92 E0
M82 ; use absolute distances for extrusion
M106 S127
G1 F1860.000 E-3.00000
G92 E0
G1 Z0.200 F6000.000
G1 X48.990 Y66.252 F6000.000
G1 E3.10000 F1860.000
G1 X51.057 Y65.521 E3.13666 F1200.000
G1 X102.350 Y56.798 E4.00644
G1 X103.363 Y56.729 E4.02343
G1 X132.446 Y56.729 E4.50962
G1 X134.671 Y57.126 E4.54739
G1 X136.620 Y58.268 E4.58517 F1200.000
G1 X138.055 Y60.013 E4.62294
G1 X138.878 Y63.161 E4.67732
G1 X138.877 Y66.245 E4.72889
G1 X138.546 Y91.187 E5.14589
G1 X137.415 Y116.426 E5.56824
G1 X137.182 Y117.874 E5.59277
G1 X132.459 Y134.710 E5.88508
G1 X132.004 Y136.076 E5.90914
G1 X131.415 Y137.389 E5.93320
G1 X130.701 Y138.634 E5.95719
G1 X130.270 Y139.266 E5.96999
G1 X129.863 Y139.807 E5.98131
G1 X128.915 Y140.886 E6.00532
G1 X128.344 Y141.443 E6.01865
G1 X126.475 Y142.712 E6.05643
G1 X123.853 Y143.271 E6.10124
G1 X113.079 Y143.268 E6.28136
G1 X59.769 Y141.690 E7.17295
G1 X57.558 Y141.227 E7.21072
G1 X55.412 Y139.809 E7.25372
G1 X53.412 Y137.809 E7.30101
G1 X52.119 Y135.955 E7.33878
G1 X51.561 Y133.910 E7.37422
G1 X45.706 Y75.861 E8.34958
G1 X45.706 Y71.861 E8.41645
G1 X46.103 Y69.636 E8.45422
G1 X47.245 Y67.687 E8.49199
G1 X48.942 Y66.292 E8.52871
G1 X49.135 Y66.434 F6000.000
G1 X49.195 Y66.385 E8.53001 F1200.000
G1 X51.094 Y65.733 E8.56356
G1 X102.370 Y57.012 E9.43309
G1 X103.363 Y56.945 E9.44972
G1 X132.446 Y56.945 E9.93592
G1 X134.631 Y57.342 E9.97304
G1 X136.538 Y58.481 E10.01017 F1200.000
G1 X137.922 Y60.219 E10.04730
G1 X138.662 Y63.161 E10.09802
G1 X138.662 Y66.243 E10.14954
G1 X138.331 Y91.177 E10.56642
G1 X137.199 Y116.416 E10.98877
G1 X136.975 Y117.816 E11.01248
G1 X132.253 Y134.646 E11.30470
G1 X131.805 Y135.992 E11.32840
G1 X131.226 Y137.285 E11.35210
G1 X130.523 Y138.512 E11.37574
G1 X130.092 Y139.145 E11.38854
G1 X129.697 Y139.668 E11.39949
G1 X128.764 Y140.732 E11.42314
G1 X128.193 Y141.289 E11.43648
G1 X126.352 Y142.530 E11.47361
G1 X123.853 Y143.055 E11.51629
G1 X113.085 Y143.052 E11.69631
G1 X59.776 Y141.474 E12.58790
G1 X57.603 Y141.013 E12.62502
G1 X55.564 Y139.656 E12.66596
G1 X53.564 Y137.656 E12.71325
G1 X52.300 Y135.830 E12.75038
G1 X51.775 Y133.888 E12.78401
G1 X45.922 Y75.861 E13.75900
G1 X45.922 Y71.861 E13.82587
G1 X46.319 Y69.676 E13.86300
G1 X47.458 Y67.769 E13.90012
G1 X49.086 Y66.473 E13.93491
G1 F1860.000 E10.93491
G92 E0
G1 X119.497 Y132.195 F6000.000
G1 E3.10000 F1860.000
G1 X119.146 Y132.380 E3.10664 F1200.000
G1 X118.760 Y132.475 E3.11328
G1 X118.362 Y132.475 E3.11993
G1 X117.976 Y132.380 E3.12658
G1 X117.625 Y132.195 E3.13322
G1 X117.328 Y131.932 E3.13985
G1 X117.102 Y131.605 E3.14649
G1 X116.961 Y131.234 E3.15313
G1 X116.913 Y130.839 E3.15977
G1 X116.961 Y130.445 E3.16642
G1 X117.102 Y130.073 E3.17306
G1 X117.328 Y129.747 E3.17969
G1 X117.625 Y129.483 E3.18633
G1 X117.976 Y129.299 E3.19297
G1 X118.362 Y129.203 E3.19961
G1 X118.760 Y129.203 E3.20627
G1 X119.146 Y129.299 E3.21291
G1 X119.497 Y129.483 E3.21955 F1200.000
G1 X119.794 Y129.747 E3.22618
G1 X120.020 Y130.073 E3.23282
G1 X120.161 Y130.445 E3.23946
G1 X120.209 Y130.839 E3.24610
G1 X120.161 Y131.234 E3.25275
G1 X120.020 Y131.605 E3.25939
G1 X119.794 Y131.932 E3.26603
G1 X119.544 Y132.153 E3.27161
G1 X119.374 Y132.016 F6000.000
G1 X119.069 Y132.177 E3.27737 F1200.000
G1 X118.734 Y132.259 E3.28314
G1 X118.388 Y132.259 E3.28891
G1 X118.053 Y132.177 E3.29468
G1 X117.748 Y132.016 E3.30044
G1 X117.491 Y131.788 E3.30620
G1 X117.295 Y131.504 E3.31197
G1 X117.172 Y131.182 E3.31773
G1 X117.130 Y130.839 E3.32350
G1 X117.172 Y130.497 E3.32926
G1 X117.295 Y130.175 E3.33503
G1 X117.491 Y129.891 E3.34079
G1 X117.748 Y129.662 E3.34655
G1 X118.053 Y129.502 E3.35231
G1 X118.388 Y129.419 E3.35808
G1 X118.734 Y129.419 E3.36386 F1200.000
G1 X119.069 Y129.502 E3.36962
G1 X119.374 Y129.662 E3.37538
G1 X119.631 Y129.891 E3.38114
G1 X119.827 Y130.175 E3.38691
G1 X119.950 Y130.497 E3.39267
G1 X119.992 Y130.839 E3.39844
G1 X119.950 Y131.182 E3.40420
G1 X119.827 Y131.504 E3.40997
G1 X119.631 Y131.788 E3.41573
G1 X119.421 Y131.975 E3.42044
G1 F1860.000 E0.42044
G92 E0
G1 X118.333 Y129.078 F6000.000
G1 X119.374 Y136.543 F6000.000
G1 E3.10000 F1860.000
G1 X113.389 Y136.543 E3.20004 F1200.000
G1 X112.915 Y136.081 E3.21112
G1 X112.421 Y135.492 E3.22396
G1 X111.989 Y134.858 E3.23680
G1 X111.621 Y134.183 E3.24966
G1 X111.322 Y133.475 E3.26250
G1 X111.096 Y132.741 E3.27534
G1 X110.943 Y131.988 E3.28818
G1 X110.867 Y131.224 E3.30102
G1 X110.867 Y130.455 E3.31387
G1 X110.943 Y129.690 E3.32672
G1 X111.096 Y128.937 E3.33956
G1 X111.322 Y128.203 E3.35240
G1 X111.621 Y127.496 E3.36524
G1 X111.989 Y126.821 E3.37810
G1 X112.421 Y126.186 E3.39093
G1 X112.915 Y125.598 E3.40378
G1 X113.389 Y125.135 E3.41485
G1 X123.733 Y125.135 E3.58777 F1200.000
G1 X124.207 Y125.598 E3.59884
G1 X124.701 Y126.186 E3.61169
G1 X125.133 Y126.821 E3.62452
G1 X125.501 Y127.496 E3.63738
G1 X125.800 Y128.203 E3.65022
G1 X126.026 Y128.937 E3.66306
G1 X126.179 Y129.690 E3.67590
G1 X126.255 Y130.455 E3.68875
G1 X126.255 Y131.224 E3.70160
G1 X126.179 Y131.988 E3.71444
G1 X126.026 Y132.741 E3.72728
G1 X125.800 Y133.475 E3.74012
G1 X125.501 Y134.183 E3.75297
G1 X125.133 Y134.858 E3.76582
G1 X124.701 Y135.492 E3.77866
G1 X124.207 Y136.081 E3.79150
G1 X123.733 Y136.543 E3.80258
G1 X119.437 Y136.543 E3.87439
G1 X119.374 Y136.759 F6000.000
G1 X113.302 Y136.759 E3.97590 F1200.000
G1 X112.757 Y136.228 E3.98863
G1 X112.249 Y135.623 E4.00183
G1 X111.804 Y134.970 E4.01503
G1 X111.426 Y134.276 E4.02824
G1 X111.119 Y133.549 E4.04144
G1 X110.887 Y132.794 E4.05464
G1 X110.729 Y132.020 E4.06785
G1 X110.651 Y131.234 E4.08105
G1 X110.651 Y130.444 E4.09426
G1 X110.729 Y129.658 E4.10747
G1 X110.887 Y128.884 E4.12067
G1 X111.119 Y128.130 E4.13387
G1 X111.426 Y127.402 E4.14707
G1 X111.804 Y126.708 E4.16029
G1 X112.249 Y126.056 E4.17348
G1 X112.757 Y125.451 E4.18669
G1 X113.302 Y124.919 E4.19941
G1 X123.820 Y124.919 E4.37526
G1 X124.365 Y125.451 E4.38798
G1 X124.873 Y126.056 E4.40119 F1200.000
G1 X125.318 Y126.708 E4.41438
G1 X125.696 Y127.402 E4.42760
G1 X126.003 Y128.130 E4.44080
G1 X126.235 Y128.884 E4.45400
G1 X126.393 Y129.658 E4.46720
G1 X126.471 Y130.444 E4.48041
G1 X126.471 Y131.234 E4.49362
G1 X126.393 Y132.020 E4.50682
G1 X126.235 Y132.794 E4.52003
G1 X126.003 Y133.549 E4.53323
G1 X125.696 Y134.276 E4.54643
G1 X125.318 Y134.970 E4.55964
G1 X124.873 Y135.623 E4.57284
G1 X124.365 Y136.228 E4.58604
G1 X123.820 Y136.759 E4.59877
G1 X119.437 Y136.759 E4.67205
G1 F1860.000 E1.67205
G92 E0
G1 X124.548 Y125.829 F6000.000
G1 X124.255 Y125.867 F6000.000
G1 E3.10000 F1860.000
G1 X123.659 Y125.271 E3.11408 F1200.000
G1 X123.350 Y125.271 F6000.000
G1 X125.072 Y126.993 E3.15479 F1200.000
G1 X125.417 Y127.648 F6000.000
G1 X123.041 Y125.271 E3.21096 F1200.000
G1 X122.732 Y125.271 E3.21613
G1 X125.643 Y128.182 E3.28495
G1 X125.792 Y128.640 E3.29301
G1 X122.423 Y125.271 E3.37265
G1 X122.113 Y125.271 E3.37782
G1 X125.914 Y129.072 E3.46768
G1 X125.993 Y129.460 E3.47430
G1 X121.804 Y125.271 E3.57333
G1 X121.495 Y125.271 E3.57850
G1 X126.056 Y129.832 E3.68633
G1 X126.090 Y130.176 E3.69210
G1 X121.186 Y125.271 E3.80804
G1 X120.877 Y125.271 E3.81321
G1 X126.119 Y130.513 E3.93714
G1 X126.119 Y130.822 E3.94231
G1 X120.568 Y125.271 E4.07355
G1 X120.259 Y125.271 E4.07872
G1 X126.119 Y131.132 E4.21726
G1 X126.098 Y131.421 E4.22210
G1 X119.949 Y125.271 E4.36748
G1 X119.640 Y125.271 E4.37265
G1 X126.070 Y131.702 E4.52468
G1 X126.041 Y131.982 E4.52938
G1 X119.331 Y125.271 E4.68802
G1 X119.022 Y125.271 E4.69319
G1 X125.989 Y132.238 E4.85791
G1 X125.937 Y132.495 E4.86229
G1 X118.713 Y125.271 E5.03308
G1 X118.404 Y125.271 E5.03825
G1 X125.881 Y132.749 E5.21503
G1 X125.808 Y132.985 E5.21916
G1 X118.094 Y125.271 E5.40153
G1 X117.785 Y125.271 E5.40669
G1 X125.735 Y133.221 E5.59465
G1 X125.660 Y133.455 E5.59875
G1 X117.476 Y125.271 E5.79224
G1 X117.167 Y125.271 E5.79741
G1 X125.568 Y133.673 E5.99603
G1 X125.476 Y133.890 E5.99997
G1 X116.858 Y125.271 E6.20374
G1 X116.549 Y125.271 E6.20891
G1 X125.385 Y134.108 E6.41781
G1 X125.277 Y134.309 E6.42163
G1 X116.239 Y125.271 E6.63530
G1 X115.930 Y125.271 E6.64046
G1 X125.168 Y134.509 E6.85886
G1 X125.059 Y134.709 E6.86267
G1 X115.621 Y125.271 E7.08580
G1 X115.312 Y125.271 E7.09097
G1 X119.229 Y129.188 E7.18356
G1 X118.805 Y129.074 E7.19089
G1 X115.003 Y125.271 E7.28079
G1 X114.694 Y125.271 E7.28596
G1 X118.489 Y129.067 E7.37569
G1 X118.213 Y129.100 E7.38035
G1 X114.384 Y125.271 E7.47086
G1 X114.075 Y125.271 E7.47603
G1 X117.965 Y129.161 E7.56798
G1 X117.755 Y129.260 E7.57186
G1 X113.766 Y125.271 E7.66617
G1 X113.460 Y125.274 E7.67129
G1 X117.552 Y129.367 E7.76805
G1 X117.388 Y129.511 E7.77171
G1 X113.305 Y125.429 E7.86822
G1 X113.151 Y125.583 E7.87188
G1 X117.224 Y129.657 E7.96818
G1 X117.098 Y129.840 E7.97190
G1 X112.996 Y125.738 E8.06887
G1 X112.844 Y125.895 E8.07253
G1 X116.975 Y130.026 E8.17019
G1 X116.889 Y130.249 E8.17419
G1 X112.703 Y126.063 E8.27317
G1 X112.561 Y126.231 E8.27684
G1 X116.818 Y130.488 E8.37748
G1 X116.785 Y130.763 E8.38212
G1 X112.433 Y126.411 E8.48501
G1 X112.307 Y126.595 E8.48873
G1 X116.806 Y131.094 E8.59510
G1 X116.924 Y131.521 E8.60251
G1 X112.182 Y126.779 E8.71462
G1 X112.063 Y126.969 E8.71837
G1 X121.501 Y136.407 E8.94150
G1 X121.810 Y136.407 E8.94667
G1 X117.893 Y132.490 E9.03927
G1 X118.317 Y132.604 E9.04659
G1 X122.119 Y136.407 E9.13649
G1 X122.428 Y136.407 E9.14166
G1 X118.633 Y132.611 E9.23140
G1 X118.909 Y132.579 E9.23605
G1 X122.738 Y136.407 E9.32656
G1 X123.047 Y136.407 E9.33173
G1 X119.157 Y132.517 E9.42368
G1 X119.367 Y132.418 E9.42756
G1 X123.356 Y136.407 E9.52187
G1 X123.662 Y136.404 E9.52699
G1 X119.570 Y132.312 E9.62375
G1 X119.734 Y132.167 E9.62741
G1 X123.817 Y136.250 E9.72393
G1 X123.971 Y136.095 E9.72758
G1 X119.898 Y132.021 E9.82389
G1 X120.024 Y131.839 E9.82760
G1 X124.126 Y135.940 E9.92458
G1 X124.278 Y135.784 E9.92823
G1 X120.147 Y131.653 E10.02589
G1 X120.233 Y131.429 E10.02990
G1 X124.419 Y135.615 E10.12888
G1 X124.560 Y135.447 E10.13254
G1 X120.304 Y131.191 E10.23318
G1 X120.337 Y130.915 E10.23782
G1 X124.689 Y135.267 E10.34072
G1 X124.815 Y135.083 E10.34444
G1 X120.316 Y130.584 E10.45080
G1 X120.198 Y130.157 E10.45821
G1 X124.940 Y134.899 E10.57033
G1 F1860.000 E7.57033
G92 E0
G1 X121.192 Y136.407 F6000.000
G1 E3.10000 F1860.000
G1 X111.954 Y127.169 E3.31840 F1200.000
G1 X111.845 Y127.369 E3.32221
G1 X120.883 Y136.407 E3.53587
G1 X120.573 Y136.407 E3.54104
G1 X111.737 Y127.571 E3.74995
G1 X111.645 Y127.788 E3.75389
G1 X120.264 Y136.407 E3.95766
G1 X119.955 Y136.407 E3.96282
G1 X111.554 Y128.006 E4.16145
G1 X111.462 Y128.223 E4.16539
G1 X119.646 Y136.407 E4.35888
G1 X119.337 Y136.407 E4.36404
G1 X111.387 Y128.457 E4.55200
G1 X111.314 Y128.693 E4.55613
G1 X119.028 Y136.407 E4.73849
G1 X118.718 Y136.407 E4.74366
G1 X111.241 Y128.930 E4.92044
G1 X111.185 Y129.183 E4.92478
G1 X118.409 Y136.407 E5.09557
G1 X118.100 Y136.407 E5.10074
G1 X111.133 Y129.440 E5.26545
G1 X111.081 Y129.697 E5.26983
G1 X117.791 Y136.407 E5.42848
G1 X117.482 Y136.407 E5.43365
G1 X111.051 Y129.977 E5.58567
G1 X111.023 Y130.258 E5.59039
G1 X117.173 Y136.407 E5.73577
G1 X116.863 Y136.407 E5.74094
G1 X111.003 Y130.547 E5.87949
G1 X111.003 Y130.856 E5.88466
G1 X116.554 Y136.407 E6.01589
G1 X116.245 Y136.407 E6.02106
G1 X111.003 Y131.165 E6.14499
G1 X111.032 Y131.503 E6.15066
G1 X115.936 Y136.407 E6.26660
G1 X115.627 Y136.407 E6.27177
G1 X111.066 Y131.846 E6.37960
G1 X111.129 Y132.218 E6.38591
G1 X115.318 Y136.407 E6.48494
G1 X115.008 Y136.407 E6.49011
G1 X111.208 Y132.606 E6.57997
G1 X111.330 Y133.038 E6.58747
G1 X114.699 Y136.407 E6.66712
G1 X114.390 Y136.407 E6.67229
G1 X111.479 Y133.496 E6.74111
G1 X111.705 Y134.031 F6000.000
G1 X114.081 Y136.407 E6.79728 F1200.000
G1 X113.772 Y136.407 E6.80245
G1 X112.050 Y134.685 E6.84316
G1 X112.867 Y135.811 F6000.000
G1 X113.463 Y136.407 E6.85724 F1200.000
G1 F1860.000 E3.85724
G92 E0
G1 X88.375 Y109.027 F6000.000
G1 E3.10000 F1860.000
G1 X87.977 Y109.027 E3.10665 F1200.000
G1 X87.591 Y108.932 E3.11329
G1 X87.239 Y108.748 E3.11993
G1 X86.943 Y108.484 E3.12657
G1 X86.717 Y108.157 E3.13321
G1 X86.576 Y107.786 E3.13985
G1 X86.528 Y107.391 E3.14649
G1 X86.576 Y106.997 E3.15314
G1 X86.717 Y106.626 E3.15978
G1 X86.943 Y106.299 E3.16641
G1 X87.239 Y106.035 E3.17305
G1 X87.591 Y105.851 E3.17969
G1 X87.977 Y105.756 E3.18633
G1 X88.375 Y105.756 E3.19298
G1 X88.761 Y105.851 E3.19963
G1 X89.112 Y106.035 E3.20627 F1200.000
G1 X89.409 Y106.299 E3.21290
G1 X89.635 Y106.626 E3.21954
G1 X89.776 Y106.997 E3.22618
G1 X89.824 Y107.391 E3.23282
G1 X89.776 Y107.786 E3.23947
G1 X89.635 Y108.157 E3.24611
G1 X89.409 Y108.484 E3.25274
G1 X89.112 Y108.748 E3.25938
G1 X88.761 Y108.932 E3.26602
G1 X88.436 Y109.012 E3.27161
G1 X88.349 Y108.811 F6000.000
G1 X88.003 Y108.811 E3.27739 F1200.000
G1 X87.668 Y108.729 E3.28315
G1 X87.363 Y108.569 E3.28891
G1 X87.106 Y108.340 E3.29467
G1 X86.910 Y108.056 E3.30044
G1 X86.787 Y107.734 E3.30620
G1 X86.745 Y107.391 E3.31197
G1 X86.787 Y107.049 E3.31773
G1 X86.910 Y106.727 E3.32350
G1 X87.106 Y106.443 E3.32926
G1 X87.363 Y106.214 E3.33503
G1 X87.668 Y106.054 E3.34079
G1 X88.003 Y105.971 E3.34655
G1 X88.349 Y105.971 E3.35233 F1200.000
G1 X88.683 Y106.054 E3.35809
G1 X88.989 Y106.214 E3.36386
G1 X89.246 Y106.443 E3.36962
G1 X89.442 Y106.727 E3.37538
G1 X89.565 Y107.049 E3.38115
G1 X89.606 Y107.391 E3.38691
G1 X89.565 Y107.734 E3.39268
G1 X89.442 Y108.056 E3.39844
G1 X89.246 Y108.340 E3.40421
G1 X88.989 Y108.569 E3.40997
G1 X88.683 Y108.729 E3.41573
G1 X88.410 Y108.796 E3.42044
G1 F1860.000 E0.42044
G92 E0
G1 X87.975 Y105.627 F6000.000
G1 X88.349 Y113.096 F6000.000
G1 E3.10000 F1860.000
G1 X83.004 Y113.096 E3.18934 F1200.000
G1 X82.530 Y112.633 E3.20042
G1 X82.036 Y112.045 E3.21326
G1 X81.604 Y111.410 E3.22610
G1 X81.236 Y110.735 E3.23895
G1 X80.937 Y110.027 E3.25180
G1 X80.711 Y109.293 E3.26464
G1 X80.558 Y108.540 E3.27748
G1 X80.482 Y107.776 E3.29032
G1 X80.482 Y107.007 E3.30317
G1 X80.558 Y106.243 E3.31602
G1 X80.711 Y105.490 E3.32886
G1 X80.937 Y104.756 E3.34170
G1 X81.236 Y104.048 E3.35454
G1 X81.604 Y103.373 E3.36740
G1 X82.036 Y102.738 E3.38023
G1 X82.530 Y102.150 E3.39308
G1 X83.004 Y101.687 E3.40415
G1 X93.348 Y101.687 E3.57707 F1200.000
G1 X93.822 Y102.150 E3.58814
G1 X94.316 Y102.738 E3.60099
G1 X94.748 Y103.373 E3.61382
G1 X95.116 Y104.048 E3.62668
G1 X95.415 Y104.756 E3.63952
G1 X95.641 Y105.490 E3.65236
G1 X95.794 Y106.243 E3.66520
G1 X95.870 Y107.007 E3.67805
G1 X95.870 Y107.776 E3.69090
G1 X95.794 Y108.540 E3.70374
G1 X95.641 Y109.293 E3.71658
G1 X95.415 Y110.027 E3.72942
G1 X95.116 Y110.735 E3.74226
G1 X94.748 Y111.410 E3.75512
G1 X94.316 Y112.045 E3.76796
G1 X93.822 Y112.633 E3.78080
G1 X93.348 Y113.096 E3.79188
G1 X88.412 Y113.096 E3.87439
G1 X88.349 Y113.311 F6000.000
G1 X82.916 Y113.311 E3.96520 F1200.000
G1 X82.372 Y112.780 E3.97793
G1 X81.864 Y112.175 E3.99113
G1 X81.419 Y111.523 E4.00433
G1 X81.041 Y110.829 E4.01754
G1 X80.734 Y110.101 E4.03074
G1 X80.502 Y109.347 E4.04394
G1 X80.344 Y108.572 E4.05715
G1 X80.266 Y107.786 E4.07035
G1 X80.266 Y106.996 E4.08356
G1 X80.344 Y106.210 E4.09677
G1 X80.502 Y105.436 E4.10997
G1 X80.734 Y104.682 E4.12317
G1 X81.041 Y103.954 E4.13637
G1 X81.419 Y103.260 E4.14958
G1 X81.864 Y102.608 E4.16278
G1 X82.372 Y102.003 E4.17599
G1 X82.916 Y101.471 E4.18871
G1 X93.435 Y101.471 E4.36456
G1 X93.980 Y102.003 E4.37728
G1 X94.488 Y102.608 E4.39049 F1200.000
G1 X94.933 Y103.260 E4.40368
G1 X95.311 Y103.954 E4.41690
G1 X95.618 Y104.682 E4.43010
G1 X95.850 Y105.436 E4.44330
G1 X96.008 Y106.210 E4.45650
G1 X96.086 Y106.996 E4.46971
G1 X96.086 Y107.786 E4.48292
G1 X96.008 Y108.572 E4.49612
