; generated by Slic3r 1.1.7 on 2014-12-22 at 17:37:57

; perimeters extrusion width = 0.42mm
; infill extrusion width = 0.74mm
; solid infill extrusion width = 0.71mm
; top infill extrusion width = 0.71mm
; support material extrusion width = 0.42mm

G21 ; set units to millimeters
M190 S101 ; wait for bed temperature to be reached
M104 S220 ; set temperature
G28 ; home all axes Start of G Code Slic3r
 
M109 S220 ; wait for temperature to be reached
G90 ; use absolute coordinates
G92 E0
M82 ; use absolute distances for extrusion
M106 S127
G1 F1860.000 E-3.00000
G92 E0
G1 Z0.200 F6000.000
G1 X61.671 Y70.740 F6000.000
G1 E3.10000 F1860.000
G1 X62.590 Y69.999 E3.11973 F1200.000
G1 X63.580 Y69.351 E3.13952
G1 X64.014 Y69.114 E3.14779
G1 X65.017 Y68.636 E3.16636
G1 X65.748 Y68.356 E3.17945
G1 X66.817 Y68.047 E3.19805
G1 X67.438 Y67.913 E3.20867
G1 X68.422 Y67.768 E3.22529
G1 X69.683 Y67.706 E3.24641
G1 X130.745 Y68.109 E4.26723
G1 X131.850 Y68.177 E4.28574 F1200.000
G1 X132.768 Y68.319 E4.30126
G1 X133.373 Y68.454 E4.31162
G1 X134.306 Y68.724 E4.32787
G1 X135.385 Y69.153 E4.34727
G1 X136.176 Y69.554 E4.36210
G1 X136.748 Y69.893 E4.37322
G1 X137.643 Y70.515 E4.39143
G1 X138.658 Y71.397 E4.41391
G1 X139.263 Y72.029 E4.42854
G1 X139.900 Y72.824 E4.44557
G1 X140.237 Y73.309 E4.45545
G1 X140.624 Y73.932 E4.46771
G1 X140.800 Y74.252 E4.47381
G1 X141.322 Y75.375 E4.49452
G1 X141.607 Y76.166 E4.50857
G1 X141.756 Y76.682 E4.51756
G1 X141.907 Y77.302 E4.52822
G1 X142.017 Y77.924 E4.53878
G1 X142.128 Y78.873 E4.55475
G1 X142.155 Y79.820 E4.57058
G1 X142.151 Y100.378 E4.91427
G1 X142.078 Y101.341 E4.93041
G1 X141.997 Y101.894 E4.93976
G1 X141.806 Y102.826 E4.95566
G1 X141.723 Y103.123 E4.96081
G1 X141.422 Y104.058 E4.97723
G1 X141.326 Y104.298 E4.98155
G1 X140.912 Y105.221 E4.99846
G1 X140.432 Y106.082 E5.01494
G1 X140.174 Y106.472 E5.02275
G1 X139.593 Y107.267 E5.03923
G1 X138.589 Y108.356 E5.06399
G1 X137.866 Y108.998 E5.08015
G1 X137.159 Y109.526 E5.09490
G1 X136.653 Y109.854 E5.10498
G1 X135.915 Y110.277 E5.11920
G1 X95.577 Y130.886 E5.87647
G1 X94.574 Y131.364 E5.89504
G1 X93.842 Y131.645 E5.90814
G1 X93.317 Y131.808 E5.91734
G1 X92.584 Y132.000 E5.93000
G1 X92.153 Y132.087 E5.93736
G1 X91.171 Y132.232 E5.95396
G1 X90.808 Y132.260 E5.96004
G1 X89.767 Y132.292 E5.97744
G1 X88.630 Y132.221 E5.99649
G1 X87.705 Y132.079 E6.01214
G1 X87.305 Y131.997 E6.01896
G1 X86.026 Y131.632 E6.04120
G1 X84.982 Y131.215 E6.05999
G1 X83.979 Y130.699 E6.07884
G1 X83.234 Y130.228 E6.09359
G1 X82.821 Y129.942 E6.10198
G1 X81.807 Y129.100 E6.12401
G1 X81.222 Y128.517 E6.13782
G1 X61.258 Y107.992 E6.61649
G1 X60.554 Y107.182 E6.63444
G1 X59.993 Y106.404 E6.65045
G1 X59.664 Y105.879 E6.66081
G1 X59.303 Y105.221 E6.67337
G1 X59.138 Y104.882 E6.67967
G1 X58.805 Y104.088 E6.69407
G1 X58.631 Y103.585 E6.70296
G1 X58.457 Y103.005 E6.71308
G1 X58.317 Y102.414 E6.72323
G1 X58.151 Y101.463 E6.73938
G1 X58.061 Y100.263 E6.75950
G1 X57.660 Y79.505 E7.10659
G1 X57.702 Y78.673 E7.12051
G1 X57.768 Y78.092 E7.13028
G1 X57.872 Y77.441 E7.14130
G1 X58.006 Y76.838 E7.15163
G1 X58.315 Y75.774 E7.17016
G1 X58.737 Y74.719 E7.18915
G1 X58.855 Y74.475 E7.19368
G1 X59.253 Y73.714 E7.20804
G1 X59.723 Y72.970 E7.22275
G1 X60.010 Y72.558 E7.23115
G1 X60.852 Y71.544 E7.25317
G1 X61.625 Y70.784 E7.27131
G1 X61.813 Y70.902 F6000.000
G1 X62.717 Y70.173 E7.29070 F1200.000
G1 X63.690 Y69.537 E7.31015
G1 X64.112 Y69.306 E7.31819
G1 X65.097 Y68.837 E7.33642
G1 X65.820 Y68.559 E7.34938
G1 X66.872 Y68.255 E7.36767
G1 X67.473 Y68.126 E7.37796
G1 X68.443 Y67.982 E7.39435
G1 X69.682 Y67.921 E7.41508
G1 X130.740 Y68.324 E8.43583
G1 X131.825 Y68.392 E8.45402 F1200.000
G1 X132.730 Y68.531 E8.46932
G1 X133.316 Y68.662 E8.47937
G1 X134.235 Y68.928 E8.49536
G1 X135.295 Y69.349 E8.51442
G1 X136.075 Y69.745 E8.52904
G1 X136.629 Y70.073 E8.53981
G1 X137.509 Y70.684 E8.55773
G1 X138.504 Y71.548 E8.57976
G1 X139.101 Y72.172 E8.59419
G1 X139.728 Y72.954 E8.61095
G1 X140.054 Y73.424 E8.62051
G1 X140.608 Y74.351 E8.63856
G1 X141.121 Y75.453 E8.65888
G1 X141.402 Y76.234 E8.67275
G1 X141.546 Y76.734 E8.68145
G1 X141.696 Y77.349 E8.69204
G1 X141.804 Y77.952 E8.70228
G1 X141.912 Y78.887 E8.71801
G1 X141.939 Y79.820 E8.73361
G1 X141.935 Y100.370 E9.07717
G1 X141.863 Y101.318 E9.09305
G1 X141.785 Y101.854 E9.10211
G1 X141.597 Y102.772 E9.11778
G1 X141.517 Y103.060 E9.12278
G1 X141.220 Y103.981 E9.13894
G1 X141.127 Y104.214 E9.14314
G1 X140.721 Y105.121 E9.15976
G1 X140.248 Y105.969 E9.17599
G1 X139.998 Y106.348 E9.18357
G1 X139.426 Y107.130 E9.19978
G1 X138.442 Y108.197 E9.22404
G1 X137.731 Y108.829 E9.23994
G1 X137.034 Y109.350 E9.25449
G1 X136.543 Y109.668 E9.26426
G1 X135.815 Y110.085 E9.27829
G1 X95.479 Y130.694 E10.03553
G1 X94.494 Y131.163 E10.05376
G1 X93.770 Y131.441 E10.06674
G1 X93.261 Y131.600 E10.07564
G1 X92.535 Y131.790 E10.08819
G1 X92.117 Y131.874 E10.09532
G1 X91.149 Y132.017 E10.11168
G1 X90.797 Y132.044 E10.11758
G1 X89.773 Y132.076 E10.13471
G1 X88.655 Y132.007 E10.15344
G1 X87.742 Y131.867 E10.16887
G1 X87.355 Y131.787 E10.17548
G1 X86.099 Y131.429 E10.19731
G1 X85.073 Y131.019 E10.21578
G1 X84.087 Y130.512 E10.23433
G1 X83.351 Y130.047 E10.24888
G1 X82.951 Y129.769 E10.25702
G1 X81.956 Y128.943 E10.27864
G1 X81.377 Y128.366 E10.29230
G1 X61.416 Y107.844 E10.77091
G1 X60.723 Y107.048 E10.78855
G1 X60.171 Y106.282 E10.80432
G1 X59.852 Y105.773 E10.81437
G1 X59.335 Y104.793 E10.83289
G1 X59.006 Y104.011 E10.84708
G1 X58.838 Y103.523 E10.85571
G1 X58.665 Y102.946 E10.86578
G1 X58.529 Y102.374 E10.87560
G1 X58.365 Y101.436 E10.89152
G1 X58.277 Y100.258 E10.91127
G1 X57.875 Y79.511 E11.25818
G1 X57.917 Y78.689 E11.27194
G1 X57.981 Y78.126 E11.28141
G1 X58.085 Y77.479 E11.29236
G1 X58.214 Y76.893 E11.30239
G1 X58.518 Y75.847 E11.32061
G1 X58.932 Y74.810 E11.33927
G1 X59.047 Y74.573 E11.34368
G1 X59.440 Y73.821 E11.35785
G1 X59.905 Y73.087 E11.37237
G1 X60.182 Y72.687 E11.38052
G1 X61.008 Y71.692 E11.40213
G1 X61.768 Y70.945 E11.41995
G1 X61.956 Y71.063 F6000.000
G1 X62.844 Y70.348 E11.43900 F1200.000
G1 X63.801 Y69.723 E11.45811
G1 X64.210 Y69.498 E11.46591
G1 X65.176 Y69.037 E11.48381
G1 X65.893 Y68.762 E11.49664
G1 X66.927 Y68.464 E11.51463
G1 X67.509 Y68.339 E11.52459
G1 X68.464 Y68.197 E11.54074
G1 X69.680 Y68.137 E11.56109
G1 X130.734 Y68.540 E12.58177
G1 X131.801 Y68.606 E12.59964 F1200.000
G1 X132.692 Y68.743 E12.61471
G1 X133.260 Y68.870 E12.62444
G1 X134.164 Y69.132 E12.64019
G1 X135.205 Y69.545 E12.65890
G1 X135.973 Y69.935 E12.67331
G1 X136.510 Y70.253 E12.68373
G1 X137.376 Y70.853 E12.70135
G1 X138.350 Y71.700 E12.72293
G1 X138.940 Y72.315 E12.73717
G1 X139.556 Y73.084 E12.75365
G1 X139.872 Y73.539 E12.76290
G1 X140.417 Y74.450 E12.78065
G1 X140.919 Y75.531 E12.80057
G1 X141.197 Y76.301 E12.81427
G1 X141.337 Y76.785 E12.82269
G1 X141.485 Y77.396 E12.83320
G1 X141.590 Y77.981 E12.84312
G1 X141.697 Y78.900 E12.85860
G1 X141.724 Y79.820 E12.87398
G1 X141.719 Y100.362 E13.21740
G1 X141.649 Y101.295 E13.23303
G1 X141.573 Y101.814 E13.24180
G1 X141.388 Y102.719 E13.25724
G1 X141.310 Y102.998 E13.26209
G1 X141.019 Y103.903 E13.27798
G1 X140.928 Y104.129 E13.28206
G1 X140.529 Y105.022 E13.29839
G1 X140.064 Y105.856 E13.31438
G1 X139.821 Y106.223 E13.32173
G1 X139.259 Y106.993 E13.33766
G1 X138.296 Y108.039 E13.36143
G1 X137.597 Y108.660 E13.37707
G1 X136.910 Y109.174 E13.39141
G1 X136.434 Y109.482 E13.40088
G1 X135.716 Y109.894 E13.41472
G1 X95.381 Y130.502 E14.17193
G1 X94.415 Y130.963 E14.18983
G1 X93.698 Y131.238 E14.20267
G1 X93.206 Y131.391 E14.21129
G1 X92.486 Y131.580 E14.22372
G1 X92.082 Y131.661 E14.23061
G1 X91.128 Y131.803 E14.24674
G1 X90.786 Y131.829 E14.25247
G1 X89.779 Y131.861 E14.26931
G1 X88.679 Y131.792 E14.28773
G1 X87.780 Y131.654 E14.30294
G1 X87.405 Y131.577 E14.30934
G1 X86.173 Y131.226 E14.33076
G1 X85.164 Y130.823 E14.34892
G1 X84.194 Y130.325 E14.36715
G1 X83.468 Y129.866 E14.38151
G1 X83.080 Y129.597 E14.38940
G1 X82.104 Y128.787 E14.41060
G1 X61.573 Y107.696 E14.90266
G1 X60.892 Y106.914 E14.92000
G1 X60.349 Y106.160 E14.93553
G1 X60.040 Y105.667 E14.94526
G1 X59.532 Y104.705 E14.96345
G1 X59.207 Y103.933 E14.97744
G1 X59.044 Y103.460 E14.98580
G1 X58.873 Y102.887 E14.99581
G1 X58.741 Y102.334 E15.00531
G1 X58.579 Y101.410 E15.02099
G1 X58.493 Y100.254 E15.04037
G1 X58.091 Y79.517 E15.38712
G1 X58.132 Y78.704 E15.40071
G1 X58.194 Y78.159 E15.40988
G1 X58.297 Y77.516 E15.42076
G1 X58.423 Y76.949 E15.43048
G1 X58.721 Y75.920 E15.44839
G1 X59.128 Y74.901 E15.46674
G1 X59.240 Y74.671 E15.47101
G1 X59.627 Y73.929 E15.48501
G1 X60.086 Y73.205 E15.49933
G1 X60.355 Y72.817 E15.50722
G1 X61.165 Y71.841 E15.52843
G1 X61.911 Y71.107 E15.54592
G1 F1860.000 E12.54592
G92 E0
G1 X92.747 Y102.796 F6000.000
G1 E3.10000 F1860.000
G1 X87.156 Y102.796 E3.19348 F1200.000
G1 X87.156 Y97.204 E3.28695
G1 X92.747 Y97.204 E3.38043
G1 X92.747 Y102.733 E3.47286
G1 X92.531 Y102.580 F6000.000
G1 X87.371 Y102.580 E3.55912 F1200.000
G1 X87.371 Y97.420 E3.64538
G1 X92.531 Y97.420 E3.73164
G1 X92.531 Y102.517 E3.81685
G1 X92.531 Y103.000 F6000.000
G1 X93.200 Y103.304 F6000.000
G1 X92.914 Y103.568 E3.82335 F1200.000
G1 X92.519 Y103.863 E3.83160
G1 X92.084 Y104.119 E3.84003
G1 X91.635 Y104.322 E3.84827
G1 X91.177 Y104.473 E3.85633
G1 X90.684 Y104.580 E3.86477
G1 X90.194 Y104.632 E3.87300
G1 X89.707 Y104.632 E3.88114
G1 X89.218 Y104.580 E3.88936
G1 X88.728 Y104.473 E3.89775
G1 X88.260 Y104.319 E3.90599
G1 X87.819 Y104.119 E3.91408
G1 X87.380 Y103.860 E3.92260
G1 X86.985 Y103.566 E3.93083
G1 X86.625 Y103.232 E3.93904
G1 X86.321 Y102.885 E3.94676
G1 X86.018 Y102.457 E3.95552
G1 X85.778 Y102.023 E3.96381
G1 X85.589 Y101.574 E3.97196
G1 X85.448 Y101.106 E3.98013
G1 X85.354 Y100.610 E3.98857
G1 X85.316 Y100.086 E3.99735
G1 X85.328 Y99.636 E4.00488
G1 X85.393 Y99.144 E4.01317
G1 X85.512 Y98.656 E4.02157
G1 X85.680 Y98.193 E4.02981
G1 X85.894 Y97.754 E4.03797
G1 X86.158 Y97.332 E4.04630
G1 X86.463 Y96.944 E4.05454
G1 X86.808 Y96.589 E4.06282
G1 X87.181 Y96.280 E4.07091
G1 X87.602 Y96.001 E4.07935
G1 X88.037 Y95.776 E4.08754
G1 X88.490 Y95.598 E4.09568
G1 X88.967 Y95.468 E4.10394
G1 X89.506 Y95.386 E4.11307
G1 X89.956 Y95.362 E4.12059 F1200.000
G1 X90.424 Y95.387 E4.12843
G1 X90.934 Y95.468 E4.13705
G1 X91.412 Y95.598 E4.14534
G1 X91.873 Y95.779 E4.15363
G1 X92.302 Y96.002 E4.16170
G1 X92.722 Y96.280 E4.17013
G1 X93.098 Y96.593 E4.17830
G1 X93.440 Y96.943 E4.18649
G1 X93.744 Y97.330 E4.19471
G1 X94.011 Y97.758 E4.20315
G1 X94.225 Y98.200 E4.21136
G1 X94.391 Y98.657 E4.21948
G1 X94.507 Y99.132 E4.22766
G1 X94.575 Y99.635 E4.23614
G1 X94.588 Y100.131 E4.24444
G1 X94.550 Y100.608 E4.25244
G1 X94.455 Y101.106 E4.26091
G1 X94.308 Y101.590 E4.26937
G1 X94.123 Y102.026 E4.27729
G1 X93.886 Y102.456 E4.28549
G1 X93.597 Y102.868 E4.29391
G1 X93.247 Y103.262 E4.30272
G1 X93.347 Y103.463 F6000.000
G1 X93.051 Y103.735 E4.30944 F1200.000
G1 X92.647 Y104.036 E4.31786
G1 X92.188 Y104.308 E4.32678
G1 X91.717 Y104.521 E4.33541
G1 X91.231 Y104.682 E4.34398
G1 X90.722 Y104.792 E4.35268
G1 X90.179 Y104.848 E4.36181
G1 X89.693 Y104.847 E4.36993
G1 X89.202 Y104.795 E4.37819
G1 X88.673 Y104.682 E4.38722
G1 X88.183 Y104.520 E4.39585
G1 X87.715 Y104.308 E4.40446
G1 X87.269 Y104.045 E4.41311
G1 X86.838 Y103.723 E4.42210
G1 X86.473 Y103.385 E4.43042
G1 X86.158 Y103.026 E4.43840
G1 X85.849 Y102.593 E4.44729
G1 X85.585 Y102.120 E4.45635
G1 X85.396 Y101.674 E4.46445
G1 X85.238 Y101.156 E4.47351
G1 X85.140 Y100.643 E4.48224
G1 X85.099 Y100.129 E4.49085
G1 X85.113 Y99.614 E4.49947
G1 X85.181 Y99.101 E4.50812
G1 X85.312 Y98.576 E4.51716
G1 X85.480 Y98.112 E4.52541
G1 X85.693 Y97.672 E4.53359
G1 X85.980 Y97.210 E4.54268
G1 X86.300 Y96.801 E4.55136
G1 X86.664 Y96.428 E4.56006
G1 X87.055 Y96.105 E4.56855
G1 X87.489 Y95.817 E4.57726
G1 X87.947 Y95.580 E4.58587
G1 X88.425 Y95.392 E4.59447
G1 X88.920 Y95.257 E4.60303
G1 X89.437 Y95.174 E4.61179
G1 X89.983 Y95.147 E4.62093
G1 X90.458 Y95.173 E4.62889 F1200.000
G1 X90.959 Y95.253 E4.63737
G1 X91.478 Y95.393 E4.64636
G1 X91.967 Y95.584 E4.65514
G1 X92.413 Y95.817 E4.66355
G1 X92.848 Y96.105 E4.67226
G1 X93.284 Y96.473 E4.68180
G1 X93.603 Y96.801 E4.68945
G1 X93.911 Y97.194 E4.69779
G1 X94.199 Y97.652 E4.70684
G1 X94.424 Y98.114 E4.71543
G1 X94.598 Y98.596 E4.72401
G1 X94.717 Y99.080 E4.73234
G1 X94.790 Y99.618 E4.74141
G1 X94.804 Y100.131 E4.74999
G1 X94.765 Y100.623 E4.75824
G1 X94.666 Y101.153 E4.76726
G1 X94.507 Y101.673 E4.77635
G1 X94.318 Y102.121 E4.78447
G1 X94.072 Y102.566 E4.79298
G1 X93.768 Y103.000 E4.80182
G1 X93.393 Y103.420 E4.81124
G1 F1860.000 E1.81124
G92 E0
G1 X90.368 Y95.314 F6000.000
G1 X91.945 Y95.970 F6000.000
G1 E3.10000 F1860.000
G1 X93.978 Y98.003 E3.14806 F1200.000
G1 X92.734 Y97.068 F6000.000
G1 X91.410 Y95.744 E3.17936 F1200.000
G1 X90.978 Y95.621 E3.18687
G1 X92.425 Y97.068 E3.22107
G1 X92.116 Y97.068 E3.22623
G1 X90.600 Y95.552 E3.26207
G1 X90.254 Y95.514 E3.26790
G1 X91.807 Y97.068 E3.30462
G1 X91.498 Y97.068 E3.30979
G1 X89.930 Y95.500 E3.34686
G1 X89.637 Y95.516 E3.35176
G1 X91.189 Y97.068 E3.38845
G1 X90.880 Y97.068 E3.39361
G1 X89.356 Y95.544 E3.42965
G1 X89.090 Y95.586 E3.43416
G1 X90.571 Y97.068 E3.46918
G1 X90.262 Y97.068 E3.47435
G1 X88.840 Y95.645 E3.50797
G1 X88.596 Y95.711 E3.51219
G1 X89.953 Y97.068 E3.54426
G1 X89.644 Y97.068 E3.54943
G1 X88.369 Y95.792 E3.57958
G1 X88.147 Y95.879 E3.58357
G1 X89.335 Y97.068 E3.61166
G1 X89.026 Y97.068 E3.61683
G1 X87.939 Y95.980 E3.64253
G1 X87.735 Y96.086 E3.64637
G1 X88.717 Y97.068 E3.66958
G1 X88.408 Y97.068 E3.67474
G1 X87.544 Y96.204 E3.69517
G1 X87.358 Y96.327 E3.69890
G1 X88.099 Y97.068 E3.71642
G1 X87.790 Y97.068 E3.72158
G1 X87.180 Y96.458 E3.73600
G1 X87.016 Y96.603 E3.73966
G1 X87.481 Y97.068 E3.75065
G1 X87.172 Y97.068 E3.75582
G1 X86.861 Y96.757 E3.76316
G1 X86.707 Y96.912 E3.76681
G1 X87.019 Y97.224 E3.77419
G1 X87.019 Y97.533 E3.77936
G1 X86.552 Y97.066 E3.79040
G1 X86.410 Y97.233 E3.79406
G1 X87.019 Y97.842 E3.80847
G1 X87.019 Y98.151 E3.81364
G1 X86.274 Y97.406 E3.83126
G1 X86.154 Y97.595 E3.83501
G1 X87.019 Y98.460 E3.85546
G1 X87.019 Y98.769 E3.86062
G1 X86.035 Y97.785 E3.88389
G1 X85.931 Y97.990 E3.88773
G1 X87.019 Y99.078 E3.91346
G1 X87.019 Y99.387 E3.91862
G1 X85.830 Y98.198 E3.94674
G1 X85.743 Y98.420 E3.95073
G1 X87.019 Y99.696 E3.98090
G1 X87.019 Y100.005 E3.98607
G1 X85.661 Y98.647 E4.01818
G1 X85.596 Y98.891 E4.02240
G1 X87.019 Y100.314 E4.05606
G1 X87.019 Y100.623 E4.06122
G1 X85.535 Y99.139 E4.09632
G1 X85.496 Y99.409 E4.10088
G1 X87.019 Y100.932 E4.13690
G1 X87.019 Y101.241 E4.14207
G1 X85.463 Y99.685 E4.17886
G1 X85.455 Y99.986 E4.18389
G1 X87.019 Y101.550 E4.22087
G1 X87.019 Y101.859 E4.22604
G1 X85.469 Y100.309 E4.26270
G1 X85.500 Y100.649 E4.26841
G1 X87.019 Y102.168 E4.30434
G1 X87.019 Y102.477 E4.30950
G1 X85.572 Y101.030 E4.34371
G1 X85.701 Y101.468 E4.35132
G1 X88.478 Y104.245 E4.41699
G1 X88.917 Y104.375 E4.42463
G1 X87.474 Y102.932 E4.45873
G1 X87.783 Y102.932 E4.46390
G1 X89.302 Y104.451 E4.49981
G1 X89.647 Y104.487 E4.50560
G1 X88.092 Y102.932 E4.54235
G1 X88.401 Y102.932 E4.54752
G1 X89.964 Y104.496 E4.58448
G1 X90.265 Y104.487 E4.58951
G1 X88.710 Y102.932 E4.62626
G1 X89.019 Y102.932 E4.63143
G1 X90.544 Y104.457 E4.66749
G1 X90.809 Y104.413 E4.67198
G1 X89.328 Y102.932 E4.70699
G1 X89.637 Y102.932 E4.71215
G1 X91.063 Y104.358 E4.74586
G1 X91.302 Y104.288 E4.75002
G1 X89.946 Y102.932 E4.78208
G1 X90.255 Y102.932 E4.78724
G1 X91.534 Y104.211 E4.81748
G1 X91.751 Y104.119 E4.82143
G1 X90.564 Y102.932 E4.84949
G1 X90.873 Y102.932 E4.85466
G1 X91.964 Y104.023 E4.88045
G1 X92.164 Y103.914 E4.88425
G1 X91.182 Y102.932 E4.90745
G1 X91.491 Y102.932 E4.91262
G1 X92.358 Y103.799 E4.93311
G1 X92.543 Y103.675 E4.93683
G1 X91.800 Y102.932 E4.95439
G1 X92.109 Y102.932 E4.95955
G1 X92.720 Y103.543 E4.97399
G1 X92.887 Y103.401 E4.97765
G1 X92.418 Y102.932 E4.98873
G1 X92.727 Y102.932 E4.99389
G1 X93.041 Y103.246 E5.00132
G1 X93.196 Y103.092 E5.00497
G1 X92.884 Y102.780 E5.01235
G1 X92.884 Y102.471 E5.01751
G1 X93.350 Y102.937 E5.02854
G1 X93.496 Y102.774 E5.03220
