; generated by Slic3r 1.1.7 on 2014-12-21 at 22:37:26

; perimeters extrusion width = 0.42mm
; infill extrusion width = 0.74mm
; solid infill extrusion width = 0.71mm
; top infill extrusion width = 0.71mm
; support material extrusion width = 0.42mm

G21 ; set units to millimeters
M190 S110 ; wait for bed temperature to be reached
M104 S220 ; set temperature
G28 ; home all axes Start of G Code Slic3r
 
M109 S220 ; wait for temperature to be reached
G90 ; use absolute coordinates
G92 E0
M82 ; use absolute distances for extrusion
M106 S127
G1 F1860.000 E-3.00000
G92 E0
G1 Z0.200 F6000.000
G1 X37.680 Y73.956 F6000.000
G1 E3.10000 F1860.000
G1 X38.664 Y73.487 E3.11823 F1200.000
G1 X39.706 Y73.105 E3.13678
G1 X101.378 Y54.559 E4.21338
G1 X102.728 Y54.203 E4.23673
G1 X104.108 Y53.951 E4.26018
G1 X105.493 Y53.809 E4.28345
G1 X106.896 Y53.774 E4.30691
G1 X108.285 Y53.848 E4.33017
G1 X109.675 Y54.029 E4.35360 F1200.000
G1 X110.885 Y54.276 E4.37426
G1 X144.065 Y62.611 E4.94617
G1 X144.995 Y62.874 E4.96233
G1 X146.149 Y63.329 E4.98307
G1 X147.137 Y63.837 E5.00163
G1 X147.871 Y64.301 E5.01615
G1 X148.271 Y64.579 E5.02430
G1 X149.266 Y65.405 E5.04591
G1 X150.068 Y66.223 E5.06507
G1 X150.669 Y66.959 E5.08095
G1 X150.967 Y67.377 E5.08953
G1 X170.679 Y97.494 E5.69127
G1 X170.910 Y97.915 E5.69930
G1 X171.379 Y98.900 E5.71753
G1 X171.712 Y99.785 E5.73334
G1 X171.962 Y100.679 E5.74886
G1 X172.090 Y101.276 E5.75907
G1 X172.233 Y102.246 E5.77546
G1 X172.292 Y103.621 E5.79847
G1 X170.463 Y134.983 E6.32365
G1 X170.431 Y135.340 E6.32964
G1 X170.292 Y136.252 E6.34507
G1 X170.173 Y136.795 E6.35436
G1 X169.920 Y137.704 E6.37014
G1 X169.443 Y138.922 E6.39200
G1 X169.329 Y139.158 E6.39639
G1 X168.936 Y139.909 E6.41054
G1 X168.472 Y140.644 E6.42508
G1 X168.097 Y141.169 E6.43587
G1 X167.368 Y142.039 E6.45484
G1 X166.539 Y142.851 E6.47424
G1 X165.908 Y143.368 E6.48788
G1 X165.370 Y143.757 E6.49898
G1 X164.684 Y144.195 E6.51259
G1 X164.264 Y144.425 E6.52059
G1 X163.280 Y144.895 E6.53882
G1 X162.555 Y145.172 E6.55180
G1 X162.046 Y145.331 E6.56070
G1 X161.320 Y145.522 E6.57325
G1 X160.903 Y145.605 E6.58037
G1 X159.934 Y145.749 E6.59674
G1 X158.594 Y145.808 E6.61917
G1 X39.677 Y143.165 E8.60764
G1 X38.570 Y143.071 E8.62623
G1 X37.928 Y142.966 E8.63709
G1 X37.011 Y142.754 E8.65283
G1 X35.719 Y142.306 E8.67569
G1 X34.886 Y141.922 E8.69103
G1 X34.536 Y141.731 E8.69769
G1 X33.942 Y141.379 E8.70923
G1 X33.597 Y141.148 E8.71617
G1 X32.678 Y140.441 E8.73556
G1 X31.845 Y139.652 E8.75474
G1 X31.356 Y139.101 E8.76705
G1 X30.929 Y138.557 E8.77862
G1 X30.369 Y137.731 E8.79529
G1 X29.924 Y136.929 E8.81062
G1 X29.765 Y136.601 E8.81672
G1 X29.436 Y135.819 E8.83092
G1 X29.267 Y135.331 E8.83955
G1 X29.095 Y134.754 E8.84961
G1 X28.959 Y134.182 E8.85944
G1 X28.799 Y133.278 E8.87479
G1 X28.713 Y132.243 E8.89215
G1 X27.708 Y110.582 E9.25465
G1 X27.716 Y110.371 E9.25818
G1 X27.752 Y109.725 E9.26901
G1 X27.798 Y109.301 E9.27612
G1 X31.549 Y82.776 E9.72397
G1 X31.652 Y82.129 E9.73493
G1 X31.782 Y81.544 E9.74495
G1 X32.045 Y80.614 E9.76111
G1 X32.500 Y79.460 E9.78184
G1 X33.008 Y78.472 E9.80041
G1 X33.472 Y77.738 E9.81493
G1 X33.846 Y77.212 E9.82572
G1 X34.576 Y76.342 E9.84469
G1 X35.381 Y75.552 E9.86356
G1 X36.284 Y74.823 E9.88295
G1 X37.258 Y74.187 E9.90240
G1 X37.624 Y73.985 E9.90939
G1 X37.777 Y74.149 F6000.000
G1 X38.744 Y73.687 E9.92729 F1200.000
G1 X39.768 Y73.311 E9.94553
G1 X101.435 Y54.766 E11.02206
G1 X102.770 Y54.414 E11.04513
G1 X104.133 Y54.166 E11.06829
G1 X105.501 Y54.025 E11.09128
G1 X106.887 Y53.990 E11.11447
G1 X108.260 Y54.062 E11.13745
G1 X109.633 Y54.241 E11.16059 F1200.000
G1 X110.833 Y54.485 E11.18106
G1 X144.009 Y62.819 E11.75292
G1 X144.926 Y63.078 E11.76884
G1 X146.059 Y63.525 E11.78920
G1 X147.030 Y64.024 E11.80745
G1 X147.754 Y64.482 E11.82177
G1 X148.141 Y64.751 E11.82967
G1 X149.118 Y65.561 E11.85087
G1 X149.906 Y66.365 E11.86970
G1 X150.498 Y67.090 E11.88535
G1 X150.787 Y67.495 E11.89365
G1 X170.494 Y97.604 E12.49523
G1 X170.717 Y98.013 E12.50302
G1 X171.179 Y98.979 E12.52092
G1 X171.507 Y99.852 E12.53651
G1 X171.753 Y100.734 E12.55182
G1 X171.877 Y101.312 E12.56170
G1 X172.019 Y102.267 E12.57785
G1 X172.076 Y103.615 E12.60040
G1 X170.248 Y134.969 E13.12544
G1 X170.217 Y135.315 E13.13126
G1 X170.079 Y136.214 E13.14646
G1 X169.965 Y136.741 E13.15547
G1 X169.715 Y137.637 E13.17102
G1 X169.248 Y138.831 E13.19246
G1 X169.137 Y139.060 E13.19672
G1 X168.749 Y139.801 E13.21069
G1 X168.291 Y140.526 E13.22504
G1 X167.928 Y141.036 E13.23549
G1 X167.211 Y141.890 E13.25414
G1 X166.397 Y142.688 E13.27319
G1 X165.774 Y143.199 E13.28667
G1 X165.252 Y143.576 E13.29742
G1 X164.574 Y144.010 E13.31088
G1 X164.166 Y144.233 E13.31865
G1 X163.200 Y144.694 E13.33655
G1 X162.483 Y144.969 E13.34939
G1 X161.991 Y145.122 E13.35801
G1 X161.271 Y145.311 E13.37044
G1 X160.867 Y145.393 E13.37733
G1 X159.913 Y145.534 E13.39346
G1 X158.599 Y145.593 E13.41546
G1 X39.683 Y142.950 E15.40391
G1 X38.594 Y142.857 E15.42218
G1 X37.974 Y142.755 E15.43269
G1 X37.070 Y142.546 E15.44820
G1 X35.805 Y142.108 E15.47059
G1 X34.984 Y141.730 E15.48569
G1 X34.645 Y141.545 E15.49214
G1 X34.057 Y141.196 E15.50358
G1 X33.723 Y140.973 E15.51030
G1 X32.820 Y140.279 E15.52933
G1 X32.003 Y139.504 E15.54816
G1 X31.519 Y138.959 E15.56033
G1 X31.105 Y138.433 E15.57153
G1 X30.554 Y137.620 E15.58794
G1 X30.116 Y136.830 E15.60305
G1 X29.962 Y136.513 E15.60895
G1 X29.637 Y135.741 E15.62294
G1 X29.474 Y135.268 E15.63130
G1 X29.302 Y134.695 E15.64131
G1 X29.171 Y134.142 E15.65081
G1 X29.013 Y133.250 E15.66595
G1 X28.928 Y132.233 E15.68302
G1 X27.924 Y110.588 E16.04525
G1 X27.931 Y110.383 E16.04868
G1 X27.968 Y109.741 E16.05943
G1 X28.012 Y109.332 E16.06632
G1 X31.762 Y82.809 E16.51411
G1 X31.865 Y82.167 E16.52499
G1 X31.990 Y81.599 E16.53471
G1 X32.250 Y80.683 E16.55062
G1 X32.696 Y79.551 E16.57097
G1 X33.195 Y78.579 E16.58923
G1 X33.653 Y77.855 E16.60356
G1 X34.016 Y77.345 E16.61401
G1 X34.732 Y76.491 E16.63266
G1 X35.524 Y75.713 E16.65120
G1 X36.411 Y74.998 E16.67026
G1 X37.368 Y74.373 E16.68937
G1 X37.721 Y74.177 E16.69612
G1 F1860.000 E13.69612
G92 E0
G1 X93.494 Y104.683 F6000.000
G1 E3.10000 F1860.000
G1 X92.986 Y105.001 E3.11002 F1200.000
G1 X92.438 Y105.245 E3.12004
G1 X91.862 Y105.410 E3.13006
G1 X91.273 Y105.492 E3.14000
G1 X90.664 Y105.492 E3.15019
G1 X90.075 Y105.410 E3.16013
G1 X89.302 Y105.188 E3.17357
G1 X89.302 Y105.157 E3.17409
G1 X88.951 Y105.001 E3.18051
G1 X88.443 Y104.683 E3.19053
G1 X87.983 Y104.298 E3.20056
G1 X87.583 Y103.853 E3.21057
G1 X87.248 Y103.356 E3.22059
G1 X86.984 Y102.816 E3.23062
G1 X86.800 Y102.247 E3.24063
G1 X86.695 Y101.657 E3.25065
G1 X86.674 Y101.057 E3.26068
G1 X86.737 Y100.461 E3.27071
G1 X86.882 Y99.880 E3.28072
G1 X87.107 Y99.324 E3.29073
G1 X87.406 Y98.805 E3.30076
G1 X87.775 Y98.332 E3.31078
G1 X88.207 Y97.916 E3.32080
G1 X88.691 Y97.564 E3.33081
G1 X89.221 Y97.283 E3.34084
G1 X89.784 Y97.077 E3.35085
G1 X90.370 Y96.953 E3.36088
G1 X90.968 Y96.911 E3.37090
G1 X91.511 Y96.949 E3.38000
G1 X92.153 Y97.077 E3.39094 F1200.000
G1 X92.716 Y97.283 E3.40096
G1 X93.246 Y97.564 E3.41098
G1 X93.730 Y97.916 E3.42100
G1 X94.162 Y98.332 E3.43102
G1 X94.530 Y98.805 E3.44104
G1 X94.830 Y99.324 E3.45107
G1 X95.054 Y99.880 E3.46108
G1 X95.199 Y100.461 E3.47109
G1 X95.263 Y101.057 E3.48112
G1 X95.241 Y101.656 E3.49114
G1 X95.137 Y102.247 E3.50117
G1 X94.952 Y102.816 E3.51118
G1 X94.689 Y103.356 E3.52121
G1 X94.354 Y103.853 E3.53123
G1 X93.953 Y104.298 E3.54124
G1 X93.542 Y104.643 E3.55022
G1 X93.367 Y104.508 F6000.000
G1 X92.884 Y104.810 E3.55973 F1200.000
G1 X92.364 Y105.042 E3.56925
G1 X91.817 Y105.199 E3.57876
G1 X91.254 Y105.277 E3.58826
G1 X90.705 Y105.278 E3.59744
G1 X90.120 Y105.199 E3.60731
G1 X89.518 Y105.026 E3.61779
G1 X89.053 Y104.810 E3.62636
G1 X88.570 Y104.508 E3.63587
G1 X88.134 Y104.142 E3.64540
G1 X87.753 Y103.720 E3.65490
G1 X87.435 Y103.247 E3.66442
G1 X87.185 Y102.735 E3.67394
G1 X87.010 Y102.195 E3.68345
G1 X86.911 Y101.634 E3.69297
G1 X86.890 Y101.065 E3.70249
G1 X86.950 Y100.498 E3.71201
G1 X87.088 Y99.947 E3.72152
G1 X87.301 Y99.419 E3.73103
G1 X87.586 Y98.926 E3.74055
G1 X87.936 Y98.477 E3.75007
G1 X88.346 Y98.082 E3.75958
G1 X88.806 Y97.747 E3.76909
G1 X89.309 Y97.480 E3.77861
G1 X89.843 Y97.285 E3.78812
G1 X90.400 Y97.167 E3.79764
G1 X90.928 Y97.130 E3.80649
G1 X91.537 Y97.167 E3.81668 F1200.000
G1 X92.093 Y97.285 E3.82620
G1 X92.628 Y97.480 E3.83571
G1 X93.131 Y97.747 E3.84523
G1 X93.591 Y98.082 E3.85474
G1 X94.001 Y98.477 E3.86425
G1 X94.351 Y98.926 E3.87377
G1 X94.635 Y99.419 E3.88329
G1 X94.849 Y99.947 E3.89280
G1 X94.986 Y100.498 E3.90231
G1 X95.047 Y101.065 E3.91183
G1 X95.026 Y101.634 E3.92135
G1 X94.927 Y102.195 E3.93087
G1 X94.752 Y102.735 E3.94038
G1 X94.502 Y103.247 E3.94990
G1 X94.184 Y103.720 E3.95942
G1 X93.803 Y104.142 E3.96893
G1 X93.415 Y104.468 E3.97740
G1 F1860.000 E0.97740
G92 E0
G1 X90.891 Y96.712 F6000.000
G1 X97.557 Y110.382 F6000.000
G1 E3.10000 F1860.000
G1 X97.180 Y110.652 E3.10776 F1200.000
G1 X96.430 Y111.105 E3.12241
G1 X95.646 Y111.498 E3.13706
G1 X94.834 Y111.829 E3.15172
G1 X94.000 Y112.098 E3.16638
G1 X93.147 Y112.299 E3.18103
G1 X92.281 Y112.435 E3.19569
G1 X91.407 Y112.503 E3.21034
G1 X90.530 Y112.503 E3.22500
G1 X89.656 Y112.435 E3.23965
G1 X88.790 Y112.299 E3.25430
G1 X87.937 Y112.098 E3.26896
G1 X87.102 Y111.829 E3.28361
G1 X86.290 Y111.498 E3.29827
G1 X85.527 Y111.115 E3.31256
G1 X84.757 Y110.652 E3.32757
G1 X84.043 Y110.142 E3.34223
G1 X83.372 Y109.578 E3.35689
G1 X82.746 Y108.965 E3.37154
G1 X82.170 Y108.304 E3.38620
G1 X81.646 Y107.601 E3.40086
G1 X81.179 Y106.859 E3.41550
G1 X80.761 Y106.063 E3.43053
G1 X80.423 Y105.279 E3.44482
G1 X80.139 Y104.449 E3.45948
G1 X79.917 Y103.579 E3.47449
G1 X79.769 Y102.737 E3.48878
G1 X79.683 Y101.865 E3.50343
G1 X79.666 Y100.988 E3.51809
G1 X79.717 Y100.113 E3.53274
G1 X79.836 Y99.244 E3.54740
G1 X80.022 Y98.387 E3.56206
G1 X80.273 Y97.548 E3.57671
G1 X80.589 Y96.730 E3.59137
G1 X80.967 Y95.939 E3.60603
G1 X81.405 Y95.180 E3.62068
G1 X81.901 Y94.457 E3.63533
G1 X82.451 Y93.775 E3.64997
G1 X83.054 Y93.137 E3.66465
G1 X83.702 Y92.548 E3.67930
G1 X84.395 Y92.011 E3.69395
G1 X85.128 Y91.529 E3.70861
G1 X85.895 Y91.106 E3.72326
G1 X86.694 Y90.743 E3.73792
G1 X87.496 Y90.451 E3.75220
G1 X88.362 Y90.208 E3.76723
G1 X89.221 Y90.039 E3.78188
G1 X90.093 Y89.938 E3.79654
G1 X90.946 Y89.904 E3.81082
G1 X91.844 Y89.938 E3.82584 F1200.000
G1 X92.715 Y90.039 E3.84050
G1 X93.575 Y90.208 E3.85515
G1 X94.420 Y90.443 E3.86981
G1 X95.243 Y90.743 E3.88446
G1 X96.042 Y91.106 E3.89912
G1 X96.809 Y91.529 E3.91377
G1 X97.541 Y92.011 E3.92843
G1 X98.234 Y92.548 E3.94308
G1 X98.883 Y93.137 E3.95773
G1 X99.486 Y93.775 E3.97240
G1 X100.035 Y94.457 E3.98705
G1 X100.532 Y95.180 E4.00170
G1 X100.970 Y95.939 E4.01635
G1 X101.347 Y96.730 E4.03101
G1 X101.664 Y97.548 E4.04567
G1 X101.915 Y98.387 E4.06032
G1 X102.100 Y99.244 E4.07498
G1 X102.219 Y100.113 E4.08964
G1 X102.270 Y100.988 E4.10429
G1 X102.254 Y101.865 E4.11895
G1 X102.168 Y102.737 E4.13360
G1 X102.016 Y103.601 E4.14826
G1 X101.798 Y104.449 E4.16290
G1 X101.513 Y105.279 E4.17756
G1 X101.167 Y106.084 E4.19222
G1 X100.758 Y106.859 E4.20688
G1 X100.291 Y107.601 E4.22152
G1 X99.767 Y108.304 E4.23618
G1 X99.191 Y108.965 E4.25084
G1 X98.565 Y109.578 E4.26549
G1 X97.893 Y110.142 E4.28015
G1 X97.609 Y110.345 E4.28600
G1 X97.683 Y110.558 F6000.000
G1 X97.298 Y110.832 E4.29389 F1200.000
G1 X96.534 Y111.294 E4.30882
G1 X95.736 Y111.695 E4.32375
G1 X94.908 Y112.032 E4.33869
G1 X94.058 Y112.306 E4.35363
G1 X93.188 Y112.511 E4.36856
G1 X92.306 Y112.649 E4.38350
G1 X91.415 Y112.718 E4.39843
G1 X90.522 Y112.718 E4.41337
G1 X89.631 Y112.649 E4.42830
G1 X88.748 Y112.511 E4.44323
G1 X87.879 Y112.306 E4.45817
G1 X87.029 Y112.032 E4.47310
G1 X86.201 Y111.695 E4.48804
G1 X85.430 Y111.307 E4.50247
G1 X84.638 Y110.832 E4.51790
G1 X83.911 Y110.313 E4.53284
G1 X83.227 Y109.738 E4.54778
G1 X82.589 Y109.113 E4.56271
G1 X82.002 Y108.440 E4.57765
G1 X81.468 Y107.723 E4.59259
G1 X80.992 Y106.967 E4.60752
G1 X80.563 Y106.149 E4.62296
G1 X80.222 Y105.357 E4.63739
G1 X79.932 Y104.511 E4.65233
G1 X79.705 Y103.616 E4.66776
G1 X79.555 Y102.766 E4.68219
G1 X79.467 Y101.877 E4.69712
G1 X79.450 Y100.984 E4.71206
G1 X79.503 Y100.092 E4.72699
G1 X79.624 Y99.207 E4.74193
G1 X79.813 Y98.333 E4.75687
G1 X80.069 Y97.478 E4.77180
G1 X80.391 Y96.644 E4.78674
G1 X80.776 Y95.838 E4.80168
G1 X81.222 Y95.065 E4.81661
G1 X81.728 Y94.328 E4.83154
G1 X82.288 Y93.633 E4.84646
G1 X82.902 Y92.983 E4.86141
G1 X83.564 Y92.382 E4.87635
G1 X84.270 Y91.835 E4.89128
G1 X85.016 Y91.344 E4.90622
G1 X85.798 Y90.913 E4.92115
G1 X86.612 Y90.543 E4.93609
G1 X87.423 Y90.248 E4.95051
G1 X88.312 Y89.998 E4.96596
G1 X89.188 Y89.826 E4.98089
G1 X90.076 Y89.722 E4.99583
G1 X90.999 Y89.689 E5.01127
G1 X91.861 Y89.722 E5.02569 F1200.000
G1 X92.748 Y89.826 E5.04063
G1 X93.625 Y89.998 E5.05556
G1 X94.485 Y90.237 E5.07049
G1 X95.325 Y90.543 E5.08543
G1 X96.138 Y90.913 E5.10036
G1 X96.921 Y91.344 E5.11530
G1 X97.667 Y91.835 E5.13023
G1 X98.373 Y92.382 E5.14517
G1 X99.034 Y92.983 E5.16010
G1 X99.648 Y93.633 E5.17505
G1 X100.208 Y94.328 E5.18998
G1 X100.714 Y95.065 E5.20491
G1 X101.161 Y95.838 E5.21984
G1 X101.546 Y96.644 E5.23478
G1 X101.868 Y97.478 E5.24972
G1 X102.124 Y98.333 E5.26465
G1 X102.313 Y99.207 E5.27959
G1 X102.434 Y100.092 E5.29453
G1 X102.486 Y100.984 E5.30946
G1 X102.469 Y101.877 E5.32440
G1 X102.382 Y102.766 E5.33932
G1 X102.227 Y103.647 E5.35427
G1 X102.004 Y104.511 E5.36919
G1 X101.715 Y105.357 E5.38413
G1 X101.361 Y106.177 E5.39907
G1 X100.945 Y106.967 E5.41401
G1 X100.469 Y107.723 E5.42893
G1 X99.935 Y108.440 E5.44388
G1 X99.348 Y109.113 E5.45881
G1 X98.710 Y109.738 E5.47374
G1 X98.026 Y110.313 E5.48868
G1 X97.734 Y110.521 E5.49467
G1 F1860.000 E2.49467
G92 E0
G1 X91.379 Y89.868 F6000.000
G1 X95.157 Y90.857 F6000.000
G1 E3.10000 F1860.000
G1 X101.309 Y97.009 E3.24545 F1200.000
G1 X101.502 Y97.508 F6000.000
G1 X94.676 Y90.681 E3.40684 F1200.000
G1 X94.218 Y90.530 E3.41489
G1 X101.643 Y97.955 E3.59043
G1 X101.773 Y98.391 E3.59804
G1 X93.793 Y90.411 E3.78671
G1 X93.386 Y90.310 E3.79372
G1 X101.861 Y98.785 E3.99409
G1 X101.946 Y99.176 E4.00077
G1 X93.005 Y90.235 E4.21215
G1 X92.631 Y90.167 E4.21851
G1 X102.003 Y99.539 E4.44009
G1 X102.051 Y99.893 E4.44608
G1 X92.284 Y90.126 E4.67699
G1 X91.938 Y90.086 E4.68282
G1 X102.088 Y100.236 E4.92279
G1 X102.108 Y100.562 E4.92825
G1 X91.611 Y90.065 E5.17642
G1 X91.293 Y90.053 E5.18174
G1 X102.128 Y100.888 E5.43791
G1 X102.130 Y101.196 E5.44306
G1 X90.974 Y90.040 E5.70681
G1 X90.679 Y90.051 E5.71174
G1 X102.124 Y101.496 E5.98233
G1 X102.118 Y101.797 E5.98735
G1 X90.385 Y90.063 E6.26476
G1 X90.091 Y90.075 E6.26968
G1 X102.095 Y102.079 E6.55348
G1 X102.067 Y102.358 E6.55815
G1 X89.817 Y90.108 E6.84776
G1 X89.544 Y90.140 E6.85237
G1 X102.039 Y102.636 E7.14779
G1 X102.000 Y102.903 E7.15230
G1 X89.270 Y90.172 E7.45328
G1 X89.011 Y90.219 E7.45768
G1 X101.954 Y103.163 E7.76369
G1 X101.909 Y103.423 E7.76810
G1 X88.755 Y90.270 E8.07907
G1 X88.500 Y90.320 E8.08343
G1 X101.856 Y103.676 E8.39920
G1 X101.793 Y103.919 E8.40340
G1 X88.253 Y90.380 E8.72350
G1 X88.014 Y90.446 E8.72766
G1 X101.730 Y104.163 E9.05194
G1 X101.667 Y104.405 E9.05613
G1 X87.774 Y90.513 E9.38457
G1 X87.537 Y90.581 E9.38871
G1 X101.589 Y104.634 E9.72093
G1 X101.511 Y104.862 E9.72497
G1 X87.312 Y90.663 E10.06066
G1 X87.088 Y90.745 E10.06465
G1 X101.434 Y105.090 E10.40382
G1 X101.350 Y105.313 E10.40779
G1 X86.863 Y90.826 E10.75029
G1 X86.646 Y90.915 E10.75421
G1 X93.022 Y97.290 E10.90495
G1 X92.474 Y97.049 F6000.000
G1 X86.436 Y91.011 E11.04772 F1200.000
G1 X86.226 Y91.107 E11.05158
G1 X92.031 Y96.912 E11.18883
G1 X91.642 Y96.829 E11.19547
G1 X86.016 Y91.202 E11.32851
G1 X85.814 Y91.306 E11.33230
G1 X91.305 Y96.798 E11.46213
G1 X90.976 Y96.775 E11.46764
G1 X85.616 Y91.415 E11.59435
G1 X85.419 Y91.524 E11.59811
G1 X90.689 Y96.794 E11.72269
G1 X90.403 Y96.814 E11.72749
G1 X85.222 Y91.633 E11.84997
G1 X85.036 Y91.753 E11.85367
G1 X90.144 Y96.861 E11.97444
G1 X89.892 Y96.915 E11.97876
