; generated by Slic3r 1.1.7 on 2014-12-22 at 16:33:03

; perimeters extrusion width = 0.42mm
; infill extrusion width = 0.74mm
; solid infill extrusion width = 0.71mm
; top infill extrusion width = 0.71mm
; support material extrusion width = 0.42mm

G21 ; set units to millimeters
M190 S101 ; wait for bed temperature to be reached
M104 S220 ; set temperature
G28 ; home all axes Start of G Code Slic3r
 
M109 S220 ; wait for temperature to be reached
G90 ; use absolute coordinates
G92 E0
M82 ; use absolute distances for extrusion
M106 S127
G1 F1860.000 E-3.00000
G92 E0
G1 Z0.200 F6000.000
G1 X48.990 Y66.252 F6000.000
G1 E3.10000 F1860.000
G1 X51.057 Y65.521 E3.13666 F1200.000
G1 X102.350 Y56.798 E4.00644
G1 X103.363 Y56.729 E4.02343
G1 X132.446 Y56.729 E4.50962
G1 X134.671 Y57.126 E4.54739
G1 X136.620 Y58.268 E4.58517 F1200.000
G1 X138.055 Y60.013 E4.62294
G1 X138.878 Y63.161 E4.67732
G1 X138.877 Y66.245 E4.72889
G1 X138.546 Y91.187 E5.14589
G1 X137.415 Y116.426 E5.56824
G1 X137.182 Y117.874 E5.59277
G1 X132.459 Y134.710 E5.88508
G1 X132.004 Y136.076 E5.90914
G1 X131.415 Y137.389 E5.93320
G1 X130.701 Y138.634 E5.95719
G1 X130.270 Y139.266 E5.96999
G1 X129.863 Y139.807 E5.98131
G1 X128.915 Y140.886 E6.00532
G1 X128.344 Y141.443 E6.01866
G1 X126.474 Y142.712 E6.05643
G1 X123.853 Y143.271 E6.10124
G1 X113.079 Y143.268 E6.28136
G1 X59.769 Y141.690 E7.17295
G1 X57.557 Y141.227 E7.21072
G1 X55.412 Y139.809 E7.25372
G1 X53.412 Y137.809 E7.30101
G1 X52.119 Y135.955 E7.33878
G1 X51.561 Y133.910 E7.37422
G1 X45.706 Y75.861 E8.34958
G1 X45.706 Y71.861 E8.41645
G1 X46.103 Y69.636 E8.45422
G1 X47.245 Y67.687 E8.49199
G1 X48.942 Y66.292 E8.52871
G1 X49.135 Y66.434 F6000.000
G1 X49.195 Y66.385 E8.53001 F1200.000
G1 X51.094 Y65.733 E8.56356
G1 X102.371 Y57.012 E9.43309
G1 X103.363 Y56.945 E9.44972
G1 X132.446 Y56.945 E9.93592
G1 X134.631 Y57.342 E9.97304
G1 X136.538 Y58.482 E10.01017 F1200.000
G1 X137.922 Y60.219 E10.04730
G1 X138.662 Y63.161 E10.09802
G1 X138.662 Y66.243 E10.14954
G1 X138.331 Y91.177 E10.56642
G1 X137.199 Y116.416 E10.98877
G1 X136.975 Y117.816 E11.01248
G1 X132.253 Y134.646 E11.30470
G1 X131.805 Y135.992 E11.32840
G1 X131.226 Y137.285 E11.35210
G1 X130.523 Y138.512 E11.37574
G1 X130.092 Y139.145 E11.38854
G1 X129.697 Y139.668 E11.39949
G1 X128.764 Y140.732 E11.42314
G1 X128.193 Y141.289 E11.43648
G1 X126.352 Y142.531 E11.47361
G1 X123.853 Y143.055 E11.51629
G1 X113.085 Y143.052 E11.69631
G1 X59.776 Y141.474 E12.58790
G1 X57.603 Y141.013 E12.62502
G1 X55.564 Y139.656 E12.66596
G1 X53.564 Y137.656 E12.71325
G1 X52.300 Y135.830 E12.75038
G1 X51.775 Y133.888 E12.78401
G1 X45.922 Y75.861 E13.75900
G1 X45.922 Y71.861 E13.82587
G1 X46.319 Y69.676 E13.86300
G1 X47.458 Y67.769 E13.90012
G1 X49.086 Y66.473 E13.93491
G1 F1860.000 E10.93491
G92 E0
G1 X119.497 Y132.195 F6000.000
G1 E3.10000 F1860.000
G1 X119.146 Y132.380 E3.10664 F1200.000
G1 X118.760 Y132.475 E3.11328
G1 X118.362 Y132.475 E3.11993
G1 X117.976 Y132.380 E3.12657
G1 X117.625 Y132.195 E3.13322
G1 X117.328 Y131.932 E3.13985
G1 X117.102 Y131.605 E3.14649
G1 X116.961 Y131.234 E3.15313
G1 X116.913 Y130.839 E3.15977
G1 X116.961 Y130.445 E3.16642
G1 X117.102 Y130.073 E3.17306
G1 X117.328 Y129.747 E3.17969
G1 X117.625 Y129.483 E3.18633
G1 X117.976 Y129.299 E3.19297
G1 X118.362 Y129.203 E3.19961
G1 X118.760 Y129.203 E3.20627
G1 X119.146 Y129.299 E3.21291
G1 X119.497 Y129.483 E3.21955 F1200.000
G1 X119.794 Y129.747 E3.22618
G1 X120.020 Y130.073 E3.23282
G1 X120.161 Y130.445 E3.23946
G1 X120.209 Y130.839 E3.24610
G1 X120.161 Y131.234 E3.25275
G1 X120.020 Y131.605 E3.25939
G1 X119.794 Y131.932 E3.26603
G1 X119.544 Y132.153 E3.27161
G1 X119.374 Y132.016 F6000.000
G1 X119.069 Y132.177 E3.27737 F1200.000
G1 X118.734 Y132.259 E3.28314
G1 X118.388 Y132.259 E3.28891
G1 X118.053 Y132.177 E3.29468
G1 X117.748 Y132.016 E3.30044
G1 X117.491 Y131.788 E3.30620
G1 X117.295 Y131.504 E3.31197
G1 X117.172 Y131.182 E3.31773
G1 X117.130 Y130.839 E3.32350
G1 X117.172 Y130.497 E3.32926
G1 X117.295 Y130.175 E3.33503
G1 X117.491 Y129.891 E3.34079
G1 X117.748 Y129.662 E3.34655
G1 X118.053 Y129.502 E3.35231
G1 X118.388 Y129.419 E3.35808
G1 X118.734 Y129.419 E3.36385 F1200.000
G1 X119.069 Y129.502 E3.36962
G1 X119.374 Y129.662 E3.37538
G1 X119.631 Y129.891 E3.38114
G1 X119.827 Y130.175 E3.38691
G1 X119.950 Y130.497 E3.39267
G1 X119.992 Y130.839 E3.39844
G1 X119.950 Y131.182 E3.40420
G1 X119.827 Y131.504 E3.40997
G1 X119.631 Y131.788 E3.41573
G1 X119.421 Y131.975 E3.42044
G1 F1860.000 E0.42044
G92 E0
G1 X118.333 Y129.078 F6000.000
G1 X119.374 Y136.543 F6000.000
G1 E3.10000 F1860.000
G1 X113.389 Y136.543 E3.20004 F1200.000
G1 X112.915 Y136.081 E3.21112
G1 X112.421 Y135.492 E3.22396
G1 X111.989 Y134.858 E3.23680
G1 X111.621 Y134.183 E3.24966
G1 X111.322 Y133.475 E3.26250
G1 X111.096 Y132.741 E3.27534
G1 X110.943 Y131.988 E3.28818
G1 X110.867 Y131.223 E3.30102
G1 X110.867 Y130.455 E3.31387
G1 X110.943 Y129.690 E3.32672
G1 X111.096 Y128.937 E3.33956
G1 X111.322 Y128.203 E3.35240
G1 X111.621 Y127.496 E3.36524
G1 X111.989 Y126.821 E3.37810
G1 X112.421 Y126.186 E3.39093
G1 X112.915 Y125.598 E3.40378
G1 X113.389 Y125.135 E3.41485
G1 X123.733 Y125.135 E3.58777 F1200.000
G1 X124.207 Y125.598 E3.59884
G1 X124.701 Y126.186 E3.61169
G1 X125.133 Y126.821 E3.62452
G1 X125.501 Y127.496 E3.63738
G1 X125.800 Y128.203 E3.65022
G1 X126.026 Y128.937 E3.66306
G1 X126.179 Y129.690 E3.67590
G1 X126.255 Y130.455 E3.68875
G1 X126.255 Y131.224 E3.70160
G1 X126.179 Y131.988 E3.71444
G1 X126.026 Y132.741 E3.72728
G1 X125.800 Y133.475 E3.74012
G1 X125.501 Y134.183 E3.75297
G1 X125.133 Y134.858 E3.76582
G1 X124.701 Y135.492 E3.77866
G1 X124.207 Y136.081 E3.79150
G1 X123.733 Y136.543 E3.80258
G1 X119.437 Y136.543 E3.87439
G1 X119.374 Y136.759 F6000.000
G1 X113.302 Y136.759 E3.97590 F1200.000
G1 X112.757 Y136.228 E3.98863
G1 X112.249 Y135.623 E4.00183
G1 X111.804 Y134.970 E4.01503
G1 X111.426 Y134.276 E4.02824
G1 X111.119 Y133.549 E4.04144
G1 X110.887 Y132.794 E4.05464
G1 X110.729 Y132.020 E4.06785
G1 X110.651 Y131.234 E4.08105
G1 X110.651 Y130.444 E4.09426
G1 X110.729 Y129.658 E4.10747
G1 X110.887 Y128.884 E4.12067
G1 X111.119 Y128.130 E4.13387
G1 X111.426 Y127.402 E4.14707
G1 X111.804 Y126.708 E4.16028
G1 X112.249 Y126.056 E4.17348
G1 X112.757 Y125.451 E4.18669
G1 X113.302 Y124.919 E4.19941
G1 X123.820 Y124.919 E4.37526
G1 X124.365 Y125.451 E4.38798
G1 X124.873 Y126.056 E4.40119 F1200.000
G1 X125.318 Y126.708 E4.41438
G1 X125.696 Y127.402 E4.42760
G1 X126.003 Y128.130 E4.44080
G1 X126.235 Y128.884 E4.45400
G1 X126.393 Y129.658 E4.46720
G1 X126.471 Y130.444 E4.48041
G1 X126.471 Y131.234 E4.49362
G1 X126.393 Y132.020 E4.50682
G1 X126.235 Y132.794 E4.52003
G1 X126.003 Y133.549 E4.53323
G1 X125.696 Y134.276 E4.54643
G1 X125.318 Y134.970 E4.55964
G1 X124.873 Y135.623 E4.57284
G1 X124.365 Y136.228 E4.58604
G1 X123.820 Y136.759 E4.59877
G1 X119.437 Y136.759 E4.67205
G1 F1860.000 E1.67205
G92 E0
G1 X124.548 Y125.829 F6000.000
G1 X124.255 Y125.867 F6000.000
G1 E3.10000 F1860.000
G1 X123.659 Y125.271 E3.11408 F1200.000
G1 X123.350 Y125.271 F6000.000
G1 X125.072 Y126.993 E3.15479 F1200.000
G1 X125.417 Y127.648 F6000.000
G1 X123.041 Y125.271 E3.21097 F1200.000
G1 X122.732 Y125.271 E3.21613
G1 X125.643 Y128.182 E3.28495
G1 X125.792 Y128.640 E3.29301
G1 X122.423 Y125.271 E3.37266
G1 X122.113 Y125.271 E3.37782
G1 X125.914 Y129.072 E3.46768
G1 X125.993 Y129.460 E3.47430
G1 X121.804 Y125.271 E3.57333
G1 X121.495 Y125.271 E3.57850
G1 X126.056 Y129.832 E3.68633
G1 X126.090 Y130.176 E3.69210
G1 X121.186 Y125.271 E3.80804
G1 X120.877 Y125.271 E3.81321
G1 X126.119 Y130.513 E3.93714
G1 X126.119 Y130.822 E3.94231
G1 X120.568 Y125.271 E4.07355
G1 X120.259 Y125.271 E4.07872
G1 X126.119 Y131.132 E4.21726
G1 X126.098 Y131.421 E4.22211
G1 X119.949 Y125.271 E4.36748
G1 X119.640 Y125.271 E4.37265
G1 X126.070 Y131.702 E4.52468
G1 X126.041 Y131.982 E4.52938
G1 X119.331 Y125.271 E4.68802
G1 X119.022 Y125.271 E4.69319
G1 X125.989 Y132.238 E4.85791
G1 X125.937 Y132.495 E4.86229
G1 X118.713 Y125.271 E5.03308
G1 X118.404 Y125.271 E5.03825
G1 X125.881 Y132.749 E5.21503
G1 X125.808 Y132.985 E5.21916
G1 X118.094 Y125.271 E5.40153
G1 X117.785 Y125.271 E5.40670
G1 X125.735 Y133.221 E5.59465
G1 X125.660 Y133.455 E5.59876
G1 X117.476 Y125.271 E5.79224
G1 X117.167 Y125.271 E5.79741
G1 X125.568 Y133.673 E5.99603
G1 X125.476 Y133.890 E5.99997
G1 X116.858 Y125.271 E6.20374
G1 X116.549 Y125.271 E6.20891
G1 X125.385 Y134.108 E6.41781
G1 X125.277 Y134.309 E6.42163
G1 X116.239 Y125.271 E6.63530
G1 X115.930 Y125.271 E6.64047
G1 X125.168 Y134.509 E6.85886
G1 X125.059 Y134.709 E6.86267
G1 X115.621 Y125.271 E7.08580
G1 X115.312 Y125.271 E7.09097
G1 X119.229 Y129.188 E7.18357
G1 X118.805 Y129.074 E7.19089
G1 X115.003 Y125.271 E7.28079
G1 X114.694 Y125.271 E7.28596
G1 X118.489 Y129.067 E7.37570
G1 X118.213 Y129.100 E7.38035
G1 X114.384 Y125.271 E7.47086
G1 X114.075 Y125.271 E7.47603
G1 X117.965 Y129.161 E7.56798
G1 X117.755 Y129.260 E7.57186
G1 X113.766 Y125.271 E7.66617
G1 X113.460 Y125.274 E7.67129
G1 X117.552 Y129.367 E7.76805
G1 X117.388 Y129.511 E7.77171
G1 X113.305 Y125.429 E7.86823
G1 X113.151 Y125.583 E7.87188
G1 X117.224 Y129.657 E7.96819
G1 X117.098 Y129.840 E7.97190
G1 X112.996 Y125.738 E8.06888
G1 X112.844 Y125.895 E8.07253
G1 X116.975 Y130.026 E8.17019
G1 X116.889 Y130.249 E8.17420
G1 X112.703 Y126.063 E8.27318
G1 X112.561 Y126.231 E8.27684
G1 X116.818 Y130.488 E8.37748
G1 X116.785 Y130.763 E8.38212
G1 X112.433 Y126.411 E8.48502
G1 X112.307 Y126.595 E8.48874
G1 X116.806 Y131.094 E8.59510
G1 X116.924 Y131.521 E8.60251
G1 X112.182 Y126.779 E8.71463
G1 X112.063 Y126.969 E8.71838
G1 X121.501 Y136.407 E8.94150
G1 X121.192 Y136.407 E8.94667
G1 X111.954 Y127.169 E9.16507
G1 X111.845 Y127.369 E9.16888
G1 X120.883 Y136.407 E9.38255
G1 X120.573 Y136.407 E9.38771
G1 X111.737 Y127.571 E9.59662
G1 X111.645 Y127.788 E9.60057
G1 X120.264 Y136.407 E9.80433
G1 X119.955 Y136.407 E9.80950
G1 X111.554 Y128.006 E10.00812
G1 X111.462 Y128.223 E10.01207
G1 X119.646 Y136.407 E10.20555
G1 X119.337 Y136.407 E10.21072
G1 X111.387 Y128.457 E10.39867
G1 X111.314 Y128.693 E10.40280
G1 X119.028 Y136.407 E10.58517
G1 X118.718 Y136.407 E10.59034
G1 X111.241 Y128.930 E10.76711
G1 X111.185 Y129.183 E10.77145
G1 X118.409 Y136.407 E10.94224
G1 X118.100 Y136.407 E10.94741
G1 X111.133 Y129.440 E11.11213
G1 X111.081 Y129.697 E11.11651
G1 X117.791 Y136.407 E11.27515
G1 X117.482 Y136.407 E11.28032
G1 X111.051 Y129.977 E11.43234
G1 X111.023 Y130.258 E11.43707
G1 X117.173 Y136.407 E11.58245
G1 X116.863 Y136.407 E11.58761
G1 X111.003 Y130.547 E11.72616
G1 X111.003 Y130.856 E11.73133
G1 X116.554 Y136.407 E11.86257
G1 X116.245 Y136.407 E11.86774
G1 X111.003 Y131.165 E11.99167
G1 X111.032 Y131.503 E11.99733
G1 X115.936 Y136.407 E12.11328
G1 X115.627 Y136.407 E12.11845
G1 X111.066 Y131.846 E12.22628
G1 X111.129 Y132.218 E12.23259
G1 X115.318 Y136.407 E12.33162
G1 X115.008 Y136.407 E12.33679
G1 X111.208 Y132.606 E12.42664
G1 X111.330 Y133.038 E12.43415
G1 X114.699 Y136.407 E12.51380
G1 X114.390 Y136.407 E12.51896
G1 X111.479 Y133.496 E12.58778
G1 X111.705 Y134.031 F6000.000
G1 X114.081 Y136.407 E12.64396 F1200.000
G1 X113.772 Y136.407 E12.64913
G1 X112.050 Y134.685 E12.68983
G1 X112.867 Y135.811 F6000.000
G1 X113.463 Y136.407 E12.70392 F1200.000
G1 F1860.000 E9.70392
G92 E0
G1 X117.893 Y132.490 F6000.000
G1 E3.10000 F1860.000
G1 X121.810 Y136.407 E3.19260 F1200.000
G1 X122.119 Y136.407 E3.19776
G1 X118.317 Y132.604 E3.28767
G1 X118.633 Y132.611 E3.29296
G1 X122.428 Y136.407 E3.38269
G1 X122.738 Y136.407 E3.38786
G1 X118.909 Y132.579 E3.47837
G1 X119.157 Y132.517 E3.48264
G1 X123.047 Y136.407 E3.57459
G1 X123.356 Y136.407 E3.57976
G1 X119.367 Y132.418 E3.67407
G1 X119.570 Y132.312 E3.67790
G1 X123.662 Y136.404 E3.77466
G1 X123.817 Y136.250 E3.77831
G1 X119.734 Y132.167 E3.87483
G1 X119.898 Y132.021 E3.87849
G1 X123.971 Y136.095 E3.97479
G1 X124.126 Y135.940 E3.97845
G1 X120.024 Y131.839 E4.07542
G1 X120.147 Y131.653 E4.07915
G1 X124.278 Y135.784 E4.17681
G1 X124.419 Y135.615 E4.18048
G1 X120.233 Y131.429 E4.27946
G1 X120.304 Y131.191 E4.28361
G1 X124.560 Y135.447 E4.38425
G1 X124.689 Y135.267 E4.38795
G1 X120.337 Y130.915 E4.49084
G1 X120.316 Y130.584 E4.49639
G1 X124.815 Y135.083 E4.60275
G1 X124.940 Y134.899 E4.60647
G1 X120.198 Y130.157 E4.71859
G1 F1860.000 E1.71859
G92 E0
G1 X121.544 Y116.473 F6000.000
G1 E3.10000 F1860.000
G1 X120.883 Y116.390 E3.11114 F1200.000
G1 X120.232 Y116.223 E3.12238
G1 X119.608 Y115.975 E3.13360
G1 X119.020 Y115.652 E3.14482
G1 X118.476 Y115.257 E3.15605
G1 X117.987 Y114.798 E3.16726
G1 X117.559 Y114.280 E3.17850
G1 X117.200 Y113.713 E3.18972
G1 X116.914 Y113.106 E3.20094
G1 X116.706 Y112.467 E3.21216
G1 X116.580 Y111.808 E3.22339
G1 X116.538 Y111.138 E3.23461
G1 X116.580 Y110.467 E3.24584
G1 X116.706 Y109.808 E3.25706
G1 X116.914 Y109.170 E3.26829
G1 X117.200 Y108.562 E3.27951
G1 X117.559 Y107.996 E3.29072
G1 X117.987 Y107.478 E3.30196
G1 X118.476 Y107.018 E3.31318
G1 X119.020 Y106.623 E3.32441
G1 X119.608 Y106.301 E3.33563
G1 X120.232 Y106.053 E3.34684
G1 X120.883 Y105.886 E3.35808
G1 X121.549 Y105.802 E3.36930
G1 X122.220 Y105.802 E3.38052
G1 X122.851 Y105.881 E3.39116
G1 X123.537 Y106.053 E3.40298 F1200.000
G1 X124.161 Y106.301 E3.41419
G1 X124.749 Y106.623 E3.42542
G1 X125.292 Y107.018 E3.43664
G1 X125.781 Y107.478 E3.44786
G1 X126.210 Y107.995 E3.45910
G1 X126.569 Y108.562 E3.47031
G1 X126.855 Y109.170 E3.48154
G1 X127.062 Y109.808 E3.49276
G1 X127.188 Y110.467 E3.50398
G1 X127.231 Y111.138 E3.51521
G1 X127.188 Y111.808 E3.52644
G1 X127.062 Y112.467 E3.53766
G1 X126.855 Y113.106 E3.54888
G1 X126.569 Y113.713 E3.56011
G1 X126.210 Y114.280 E3.57132
G1 X125.781 Y114.798 E3.58256
G1 X125.292 Y115.257 E3.59377
G1 X124.749 Y115.652 E3.60500
G1 X124.161 Y115.975 E3.61622
G1 X123.537 Y116.223 E3.62744
G1 X122.886 Y116.390 E3.63868
G1 X122.224 Y116.473 E3.64982
G1 X121.607 Y116.475 E3.66014
G1 X121.561 Y116.258 F6000.000
G1 X120.923 Y116.177 E3.67089 F1200.000
G1 X120.299 Y116.017 E3.68167
G1 X119.700 Y115.779 E3.69244
G1 X119.135 Y115.469 E3.70321
G1 X118.614 Y115.090 E3.71398
G1 X118.145 Y114.650 E3.72474
G1 X117.733 Y114.153 E3.73553
G1 X117.389 Y113.609 E3.74628
G1 X117.115 Y113.026 E3.75705
G1 X116.916 Y112.414 E3.76782
G1 X116.799 Y111.801 E3.77824
G1 X116.754 Y111.138 E3.78936
G1 X116.795 Y110.495 E3.80013
G1 X116.916 Y109.862 E3.81091
G1 X117.115 Y109.249 E3.82167
G1 X117.389 Y108.666 E3.83245
G1 X117.733 Y108.123 E3.84320
G1 X118.145 Y107.626 E3.85399
G1 X118.614 Y107.185 E3.86475
G1 X119.135 Y106.806 E3.87552
G1 X119.700 Y106.496 E3.88629
G1 X120.299 Y106.258 E3.89706
G1 X120.923 Y106.098 E3.90784
G1 X121.562 Y106.018 E3.91861
G1 X122.206 Y106.018 E3.92937 F1200.000
G1 X122.845 Y106.098 E3.94014
G1 X123.470 Y106.258 E3.95092
G1 X124.068 Y106.496 E3.96169
G1 X124.633 Y106.806 E3.97246
G1 X125.154 Y107.185 E3.98323
G1 X125.624 Y107.626 E3.99399
G1 X126.035 Y108.123 E4.00478
G1 X126.380 Y108.666 E4.01553
G1 X126.654 Y109.249 E4.02630
G1 X126.853 Y109.862 E4.03707
G1 X126.974 Y110.495 E4.04784
G1 X127.015 Y111.138 E4.05862
G1 X126.974 Y111.781 E4.06939
G1 X126.853 Y112.414 E4.08016
G1 X126.654 Y113.026 E4.09093
G1 X126.380 Y113.609 E4.10170
G1 X126.035 Y114.153 E4.11246
G1 X125.624 Y114.650 E4.12324
G1 X125.154 Y115.090 E4.13400
G1 X124.633 Y115.469 E4.14478
G1 X124.068 Y115.779 E4.15555
G1 X123.470 Y116.017 E4.16631
G1 X122.845 Y116.177 E4.17709
G1 X122.208 Y116.258 E4.18784
G1 X121.624 Y116.260 E4.19759
G1 F1860.000 E1.19759
G92 E0
G1 X121.554 Y105.598 F6000.000
G1 X130.694 Y115.874 F6000.000
G1 E3.10000 F1860.000
G1 X128.420 Y116.891 E3.14163 F1200.000
G1 X127.802 Y117.521 E3.15639
G1 X127.180 Y118.045 E3.16999
G1 X126.513 Y118.509 E3.18358
G1 X125.805 Y118.908 E3.19716
G1 X125.062 Y119.240 E3.21077
G1 X124.292 Y119.502 E3.22436
G1 X123.501 Y119.690 E3.23795
G1 X122.697 Y119.804 E3.25154
G1 X121.877 Y119.842 E3.26525
G1 X106.332 Y119.842 E3.52513
G1 X106.332 Y102.433 E3.81615
G1 X121.877 Y102.433 E4.07603
G1 X122.697 Y102.472 E4.08974
G1 X123.501 Y102.586 E4.10333
