; generated by Slic3r 1.1.7 on 2014-12-06 at 13:32:20

; perimeters extrusion width = 0.42mm
; infill extrusion width = 0.74mm
; solid infill extrusion width = 0.71mm
; top infill extrusion width = 0.71mm
; support material extrusion width = 0.42mm

G21 ; set units to millimeters
M190 S60 ; wait for bed temperature to be reached
M104 S186 ; set temperature
G28 ; home all axes
M109 S186 ; wait for temperature to be reached
G90 ; use absolute coordinates
G92 E0
M82 ; use absolute distances for extrusion
M106 S127
G1 F1860.000 E-3.00000
G92 E0
G1 Z0.200 F6000.000
G1 X63.850 Y67.681 F6000.000
G1 E3.10000 F1860.000
G1 X64.859 Y66.773 E3.12511 F1200.000
G1 X65.535 Y66.282 E3.14058
G1 X66.711 Y65.603 E3.16570
G1 X67.475 Y65.263 E3.18117
G1 X68.766 Y64.843 E3.20628
G1 X69.564 Y64.674 E3.22138
G1 X70.595 Y64.536 E3.24061
G1 X71.352 Y64.506 E3.25464
G1 X75.692 Y64.514 E3.33493
G1 X77.121 Y64.669 E3.36152 F1200.000
G1 X78.109 Y64.882 E3.38022
G1 X128.165 Y76.939 E4.33275
G1 X130.246 Y77.848 E4.37476
G1 X131.886 Y79.418 E4.41676
G1 X132.686 Y80.871 E4.44745
G1 X143.690 Y108.785 E5.00254
G1 X144.142 Y111.167 E5.04739
G1 X144.142 Y115.227 E5.12251
G1 X143.745 Y117.463 E5.16451
G1 X142.603 Y119.425 E5.20652
G1 X140.855 Y120.874 E5.24853
G1 X139.229 Y121.526 E5.28093
G1 X84.485 Y135.269 E6.32513
G1 X83.125 Y135.476 E6.35058
G1 X82.602 Y135.494 E6.36026
G1 X63.762 Y135.486 E6.70881
G1 X62.568 Y135.343 E6.73105
G1 X62.211 Y135.267 E6.73782
G1 X60.920 Y134.847 E6.76292
G1 X60.586 Y134.698 E6.76969
G1 X59.411 Y134.020 E6.79479
G1 X59.115 Y133.805 E6.80156
G1 X58.105 Y132.896 E6.82669
G1 X57.860 Y132.624 E6.83347
G1 X57.063 Y131.527 E6.85855
G1 X56.879 Y131.209 E6.86535
G1 X56.327 Y129.969 E6.89046
G1 X56.214 Y129.621 E6.89723
G1 X55.932 Y128.292 E6.92237
G1 X55.858 Y127.250 E6.94169
G1 X55.893 Y122.074 E7.03746
G1 X60.981 Y73.490 E7.94119
G1 X61.263 Y72.162 E7.96631
G1 X61.522 Y71.365 E7.98180
G1 X62.074 Y70.126 E8.00689
G1 X62.492 Y69.401 E8.02238
G1 X63.290 Y68.303 E8.04748
G1 X63.808 Y67.728 E8.06180
G1 X64.034 Y67.847 F6000.000
G1 X65.004 Y66.973 E8.08595 F1200.000
G1 X65.680 Y66.482 E8.10142
G1 X66.811 Y65.829 E8.12559
G1 X67.575 Y65.489 E8.14106
G1 X68.817 Y65.085 E8.16521
G1 X69.616 Y64.915 E8.18031
G1 X70.607 Y64.783 E8.19883
G1 X71.352 Y64.753 E8.21262
G1 X75.679 Y64.761 E8.29266
G1 X77.070 Y64.911 E8.31854 F1200.000
G1 X78.051 Y65.122 E8.33711
G1 X128.107 Y77.179 E9.28965
G1 X130.144 Y78.078 E9.33084
G1 X131.737 Y79.634 E9.37203
G1 X132.456 Y80.962 E9.39997
G1 X143.460 Y108.876 E9.95505
G1 X143.895 Y111.167 E9.99819
G1 X143.895 Y115.227 E10.07332
G1 X143.498 Y117.418 E10.11451
G1 X142.358 Y119.331 E10.15570
G1 X140.620 Y120.722 E10.19689
G1 X139.169 Y121.286 E10.22569
G1 X84.434 Y135.027 E11.26973
G1 X83.112 Y135.229 E11.29445
G1 X82.602 Y135.247 E11.30390
G1 X63.775 Y135.239 E11.65221
G1 X62.620 Y135.101 E11.67373
G1 X62.262 Y135.025 E11.68050
G1 X61.021 Y134.621 E11.70465
G1 X60.686 Y134.473 E11.71141
G1 X59.556 Y133.820 E11.73556
G1 X59.260 Y133.605 E11.74233
G1 X58.289 Y132.731 E11.76650
G1 X58.044 Y132.459 E11.77328
G1 X57.277 Y131.404 E11.79741
G1 X57.093 Y131.085 E11.80421
G1 X56.562 Y129.893 E11.82836
G1 X56.449 Y129.545 E11.83513
G1 X56.177 Y128.266 E11.85931
G1 X56.105 Y127.250 E11.87816
G1 X56.139 Y122.099 E11.97345
G1 X61.227 Y73.515 E12.87718
G1 X61.498 Y72.238 E12.90134
G1 X61.757 Y71.442 E12.91683
G1 X62.288 Y70.250 E12.94097
G1 X62.706 Y69.524 E12.95646
G1 X63.473 Y68.469 E12.98060
G1 X63.991 Y67.894 E12.99492
G1 F1860.000 E9.99492
G92 E0
G1 X137.301 Y114.880 F6000.000
G1 E3.10000 F1860.000
G1 X113.631 Y114.880 E3.53789 F1200.000
G1 X113.631 Y85.120 E4.08845
G1 X116.997 Y85.120 E4.15073
G1 X116.997 Y109.177 E4.59579
G1 X117.046 Y109.639 E4.60438
G1 X117.115 Y109.900 E4.60937
G1 X117.305 Y110.328 E4.61805
G1 X117.452 Y110.555 E4.62304
G1 X117.766 Y110.903 E4.63172
G1 X117.957 Y111.059 E4.63628
G1 X118.163 Y111.195 E4.64084
G1 X118.382 Y111.307 E4.64540
G1 X118.612 Y111.397 E4.64996
G1 X118.850 Y111.461 E4.65452
G1 X119.093 Y111.501 E4.65908
G1 X119.334 Y111.514 E4.66356
G1 X137.301 Y111.514 E4.99593
G1 X137.301 Y114.817 E5.05704
G1 X137.548 Y115.127 F6000.000
G1 X113.384 Y115.127 E5.50407 F1200.000
G1 X113.384 Y84.873 E6.06379
G1 X117.245 Y84.873 E6.13521
G1 X117.245 Y109.170 E6.58473
G1 X117.289 Y109.596 E6.59265
G1 X117.349 Y109.819 E6.59691
G1 X117.523 Y110.211 E6.60485
G1 X117.649 Y110.405 E6.60912
G1 X117.936 Y110.724 E6.61706
G1 X118.107 Y110.863 E6.62114
G1 X118.487 Y111.083 E6.62927
G1 X118.905 Y111.220 E6.63741
G1 X119.341 Y111.267 E6.64552
G1 X137.548 Y111.267 E6.98235
G1 X137.548 Y115.064 E7.05260
G1 X137.184 Y114.917 F6000.000
G1 F1860.000 E4.05260
G92 E0
G1 X136.851 Y111.673 F6000.000
G1 E3.10000 F1860.000
G1 X137.141 Y111.963 E3.10759 F1200.000
G1 X137.141 Y112.315 E3.11411
G1 X136.499 Y111.673 E3.13091
G1 X136.147 Y111.673 E3.13743
G1 X137.141 Y112.668 E3.16345
G1 X137.141 Y113.020 E3.16997
G1 X135.794 Y111.673 E3.20521
G1 X135.442 Y111.673 E3.21173
G1 X137.141 Y113.372 E3.25618
G1 X137.141 Y113.725 E3.26270
G1 X135.090 Y111.673 E3.31637
G1 X134.738 Y111.673 E3.32289
G1 X137.141 Y114.077 E3.38578
G1 X137.141 Y114.429 E3.39230
G1 X134.385 Y111.673 E3.46440
G1 X134.033 Y111.673 E3.47092
G1 X137.081 Y114.721 E3.55066
G1 X136.728 Y114.721 E3.55718
G1 X133.681 Y111.673 E3.63692
G1 X133.328 Y111.673 E3.64343
G1 X136.376 Y114.721 E3.72317
G1 X136.024 Y114.721 E3.72969
G1 X132.976 Y111.673 E3.80943
G1 X132.624 Y111.673 E3.81595
G1 X135.672 Y114.721 E3.89569
G1 X135.319 Y114.721 E3.90220
G1 X132.272 Y111.673 E3.98194
G1 X131.919 Y111.673 E3.98846
G1 X134.967 Y114.721 E4.06820
G1 X134.615 Y114.721 E4.07472
G1 X131.567 Y111.673 E4.15446
G1 X131.215 Y111.673 E4.16097
G1 X134.263 Y114.721 E4.24071
G1 X133.910 Y114.721 E4.24723
G1 X130.863 Y111.673 E4.32697
G1 X130.510 Y111.673 E4.33349
G1 X133.558 Y114.721 E4.41323
G1 X133.206 Y114.721 E4.41974
G1 X130.158 Y111.673 E4.49948
G1 X129.806 Y111.673 E4.50600
G1 X132.853 Y114.721 E4.58574
G1 X132.501 Y114.721 E4.59226
G1 X129.453 Y111.673 E4.67200
G1 X129.101 Y111.673 E4.67851
G1 X132.149 Y114.721 E4.75825
G1 X131.797 Y114.721 E4.76477
G1 X128.749 Y111.673 E4.84451
G1 X128.397 Y111.673 E4.85103
G1 X131.444 Y114.721 E4.93077
G1 X131.092 Y114.721 E4.93728
G1 X128.044 Y111.673 E5.01702
G1 X127.692 Y111.673 E5.02354
G1 X130.740 Y114.721 E5.10328
G1 X130.388 Y114.721 E5.10980
G1 X127.340 Y111.673 E5.18954
G1 X126.987 Y111.673 E5.19605
G1 X130.035 Y114.721 E5.27579
G1 X129.683 Y114.721 E5.28231
G1 X126.635 Y111.673 E5.36205
G1 X126.283 Y111.673 E5.36857
G1 X129.331 Y114.721 E5.44831
G1 X128.978 Y114.721 E5.45482
G1 X125.931 Y111.673 E5.53456
G1 X125.578 Y111.673 E5.54108
G1 X128.626 Y114.721 E5.62082
G1 X128.274 Y114.721 E5.62734
G1 X125.226 Y111.673 E5.70708
G1 X124.874 Y111.673 E5.71359
G1 X127.922 Y114.721 E5.79333
G1 X127.569 Y114.721 E5.79985
G1 X124.522 Y111.673 E5.87959
G1 X124.169 Y111.673 E5.88611
G1 X127.217 Y114.721 E5.96585
G1 X126.865 Y114.721 E5.97236
G1 X123.817 Y111.673 E6.05210
G1 X123.465 Y111.673 E6.05862
G1 X126.512 Y114.721 E6.13836
G1 X126.160 Y114.721 E6.14488
G1 X123.112 Y111.673 E6.22462
G1 X122.760 Y111.673 E6.23113
G1 X125.808 Y114.721 E6.31087
G1 X125.456 Y114.721 E6.31739
G1 X122.408 Y111.673 E6.39713
G1 X122.056 Y111.673 E6.40365
G1 X125.103 Y114.721 E6.48339
G1 X124.751 Y114.721 E6.48990
G1 X121.703 Y111.673 E6.56964
G1 X121.351 Y111.673 E6.57616
G1 X124.399 Y114.721 E6.65590
G1 X124.047 Y114.721 E6.66242
G1 X120.999 Y111.673 E6.74216
G1 X120.646 Y111.673 E6.74867
G1 X123.694 Y114.721 E6.82841
G1 X123.342 Y114.721 E6.83493
G1 X120.294 Y111.673 E6.91467
G1 X119.942 Y111.673 E6.92119
G1 X122.990 Y114.721 E7.00093
G1 X122.637 Y114.721 E7.00744
G1 X119.590 Y111.673 E7.08718
G1 X119.232 Y111.667 E7.09380
G1 X122.285 Y114.721 E7.17369
G1 X121.933 Y114.721 E7.18021
G1 X118.817 Y111.605 E7.26173
G1 X118.308 Y111.449 F6000.000
G1 X121.581 Y114.721 E7.34734 F1200.000
G1 X121.228 Y114.721 E7.35386
G1 X113.791 Y107.283 E7.54846
G1 X113.791 Y107.635 E7.55497
G1 X120.876 Y114.721 E7.74036
G1 X120.524 Y114.721 E7.74687
G1 X113.791 Y107.988 E7.92304
G1 X113.791 Y108.340 E7.92955
G1 X120.171 Y114.721 E8.09650
G1 X119.819 Y114.721 E8.10302
G1 X113.791 Y108.692 E8.26075
G1 X113.791 Y109.044 E8.26727
G1 X119.467 Y114.721 E8.41578
G1 X119.115 Y114.721 E8.42230
G1 X113.791 Y109.397 E8.56159
G1 X113.791 Y109.749 E8.56811
G1 X118.762 Y114.721 E8.69819
G1 X118.410 Y114.721 E8.70471
G1 X113.791 Y110.101 E8.82557
G1 X113.791 Y110.454 E8.83209
G1 X118.058 Y114.721 E8.94374
G1 X117.706 Y114.721 E8.95025
G1 X113.791 Y110.806 E9.05268
G1 X113.791 Y111.158 E9.05920
G1 X117.353 Y114.721 E9.15242
G1 X117.001 Y114.721 E9.15893
G1 X113.791 Y111.510 E9.24293
G1 X113.791 Y111.863 E9.24945
G1 X116.649 Y114.721 E9.32423
G1 X116.296 Y114.721 E9.33074
G1 X113.791 Y112.215 E9.39631
G1 X113.791 Y112.567 E9.40282
G1 X115.944 Y114.721 E9.45917
G1 X115.592 Y114.721 E9.46569
G1 X113.791 Y112.919 E9.51282
G1 X113.791 Y113.272 E9.51934
G1 X115.240 Y114.721 E9.55725
G1 X114.887 Y114.721 E9.56377
G1 X113.791 Y113.624 E9.59246
G1 X113.791 Y113.976 E9.59898
G1 X114.535 Y114.721 E9.61846
G1 X114.183 Y114.721 E9.62498
G1 X113.791 Y114.329 E9.63524
G1 X113.791 Y114.681 E9.64176
G1 X113.831 Y114.721 E9.64280
G1 F1860.000 E6.64280
G92 E0
G1 X117.066 Y110.206 F6000.000
G1 E3.10000 F1860.000
G1 X113.791 Y106.931 E3.18570 F1200.000
G1 X113.791 Y106.578 E3.19221
G1 X116.892 Y109.680 E3.27335
G1 X116.844 Y109.280 E3.28081
G1 X113.791 Y106.226 E3.36070
G1 X113.791 Y105.874 E3.36721
G1 X116.838 Y108.922 E3.44695
G1 X116.838 Y108.569 E3.45347
G1 X113.791 Y105.522 E3.53321
G1 X113.791 Y105.169 E3.53973
G1 X116.838 Y108.217 E3.61947
G1 X116.838 Y107.865 E3.62598
G1 X113.791 Y104.817 E3.70572
G1 X113.791 Y104.465 E3.71224
G1 X116.838 Y107.513 E3.79198
G1 X116.838 Y107.160 E3.79850
G1 X113.791 Y104.113 E3.87824
G1 X113.791 Y103.760 E3.88475
G1 X116.838 Y106.808 E3.96449
G1 X116.838 Y106.456 E3.97101
G1 X113.791 Y103.408 E4.05075
G1 X113.791 Y103.056 E4.05727
G1 X116.838 Y106.103 E4.13701
G1 X116.838 Y105.751 E4.14352
G1 X113.791 Y102.703 E4.22326
G1 X113.791 Y102.351 E4.22978
G1 X116.838 Y105.399 E4.30952
G1 X116.838 Y105.047 E4.31604
G1 X113.791 Y101.999 E4.39578
G1 X113.791 Y101.647 E4.40229
G1 X116.838 Y104.694 E4.48203
G1 X116.838 Y104.342 E4.48855
G1 X113.791 Y101.294 E4.56829
G1 X113.791 Y100.942 E4.57481
G1 X116.838 Y103.990 E4.65455
G1 X116.838 Y103.638 E4.66106
G1 X113.791 Y100.590 E4.74080
G1 X113.791 Y100.238 E4.74732
G1 X116.838 Y103.285 E4.82706
G1 X116.838 Y102.933 E4.83358
G1 X113.791 Y99.885 E4.91332
G1 X113.791 Y99.533 E4.91983
G1 X116.838 Y102.581 E4.99957
G1 X116.838 Y102.228 E5.00609
G1 X113.791 Y99.181 E5.08583
G1 X113.791 Y98.828 E5.09235
G1 X116.838 Y101.876 E5.17209
G1 X116.838 Y101.524 E5.17860
G1 X113.791 Y98.476 E5.25834
G1 X113.791 Y98.124 E5.26486
G1 X116.838 Y101.172 E5.34460
G1 X116.838 Y100.819 E5.35112
G1 X113.791 Y97.772 E5.43086
G1 X113.791 Y97.419 E5.43737
G1 X116.838 Y100.467 E5.51711
G1 X116.838 Y100.115 E5.52363
G1 X113.791 Y97.067 E5.60337
G1 X113.791 Y96.715 E5.60989
G1 X116.838 Y99.762 E5.68963
G1 X116.838 Y99.410 E5.69614
G1 X113.791 Y96.362 E5.77588
G1 X113.791 Y96.010 E5.78240
G1 X116.838 Y99.058 E5.86214
G1 X116.838 Y98.706 E5.86866
G1 X113.791 Y95.658 E5.94840
G1 X113.791 Y95.306 E5.95491
G1 X116.838 Y98.353 E6.03465
G1 X116.838 Y98.001 E6.04117
G1 X113.791 Y94.953 E6.12091
G1 X113.791 Y94.601 E6.12743
G1 X116.838 Y97.649 E6.20717
G1 X116.838 Y97.297 E6.21368
G1 X113.791 Y94.249 E6.29342
G1 X113.791 Y93.897 E6.29994
G1 X116.838 Y96.944 E6.37968
G1 X116.838 Y96.592 E6.38620
G1 X113.791 Y93.544 E6.46594
G1 X113.791 Y93.192 E6.47245
G1 X116.838 Y96.240 E6.55219
G1 X116.838 Y95.887 E6.55871
G1 X113.791 Y92.840 E6.63845
G1 X113.791 Y92.487 E6.64497
G1 X116.838 Y95.535 E6.72471
G1 X116.838 Y95.183 E6.73122
G1 X113.791 Y92.135 E6.81096
G1 X113.791 Y91.783 E6.81748
G1 X116.838 Y94.831 E6.89722
G1 X116.838 Y94.478 E6.90374
G1 X113.791 Y91.431 E6.98348
G1 X113.791 Y91.078 E6.98999
G1 X116.838 Y94.126 E7.06973
G1 X116.838 Y93.774 E7.07625
G1 X113.791 Y90.726 E7.15599
G1 X113.791 Y90.374 E7.16251
G1 X116.838 Y93.422 E7.24225
G1 X116.838 Y93.069 E7.24876
G1 X113.791 Y90.021 E7.32850
G1 X113.791 Y89.669 E7.33502
G1 X116.838 Y92.717 E7.41476
G1 X116.838 Y92.365 E7.42128
G1 X113.791 Y89.317 E7.50102
G1 X113.791 Y88.965 E7.50753
G1 X116.838 Y92.012 E7.58727
G1 X116.838 Y91.660 E7.59379
G1 X113.791 Y88.612 E7.67353
G1 X113.791 Y88.260 E7.68005
G1 X116.838 Y91.308 E7.75979
G1 X116.838 Y90.956 E7.76630
G1 X113.791 Y87.908 E7.84604
G1 X113.791 Y87.556 E7.85256
G1 X116.838 Y90.603 E7.93230
G1 X116.838 Y90.251 E7.93882
G1 X113.791 Y87.203 E8.01856
G1 X113.791 Y86.851 E8.02507
G1 X116.838 Y89.899 E8.10481
G1 X116.838 Y89.546 E8.11133
G1 X113.791 Y86.499 E8.19107
G1 X113.791 Y86.146 E8.19759
G1 X116.838 Y89.194 E8.27733
G1 X116.838 Y88.842 E8.28384
G1 X113.791 Y85.794 E8.36358
G1 X113.791 Y85.442 E8.37010
G1 X116.838 Y88.490 E8.44984
G1 X116.838 Y88.137 E8.45636
G1 X113.980 Y85.279 E8.53114
G1 X114.332 Y85.279 E8.53765
G1 X116.838 Y87.785 E8.60322
G1 X116.838 Y87.433 E8.60973
G1 X114.685 Y85.279 E8.66608
G1 X115.037 Y85.279 E8.67260
G1 X116.838 Y87.081 E8.71973
G1 X116.838 Y86.728 E8.72625
G1 X115.389 Y85.279 E8.76416
G1 X115.741 Y85.279 E8.77068
G1 X116.838 Y86.376 E8.79937
G1 X116.838 Y86.024 E8.80589
G1 X116.094 Y85.279 E8.82537
G1 X116.446 Y85.279 E8.83189
G1 X116.838 Y85.671 E8.84215
G1 X116.838 Y85.319 E8.84867
G1 X116.798 Y85.279 E8.84971
G1 F1860.000 E5.84971
G92 E0
G1 X118.188 Y83.253 F6000.000
G1 E3.10000 F1860.000
G1 X117.847 Y83.933 E3.12391 F1200.000
G1 X118.566 Y84.373 E3.15040
G1 X119.128 Y83.253 E3.18978
G1 X120.067 Y83.253 E3.21931
G1 X118.926 Y85.529 E3.29934
G1 X118.931 Y87.395 E3.35799
G1 X121.007 Y83.253 E3.50363
G1 X121.946 Y83.253 E3.53316
G1 X118.388 Y90.353 E3.78280
G1 X119.327 Y90.353 E3.81234
G1 X122.886 Y83.253 E4.06198
G1 X123.826 Y83.253 E4.09151
G1 X120.267 Y90.353 E4.34115
G1 X121.206 Y90.353 E4.37068
G1 X124.765 Y83.253 E4.62032
G1 X125.705 Y83.253 E4.64986
G1 X122.146 Y90.353 E4.89950
G1 X123.086 Y90.353 E4.92903
G1 X126.644 Y83.253 E5.17867
G1 X126.986 Y84.446 E5.21768
G1 X124.025 Y90.353 E5.42537
G1 X124.965 Y90.353 E5.45490
G1 X126.986 Y86.321 E5.59667
G1 X126.986 Y88.195 E5.65560
G1 X125.904 Y90.353 E5.73146
G1 X126.844 Y90.353 E5.76099
G1 X126.986 Y90.070 E5.77095
G1 F1860.000 E2.77095
G92 E0
G1 X111.324 Y87.575 F6000.000
G1 E3.10000 F1860.000
G1 X110.794 Y88.633 E3.13718 F1200.000
G1 X109.854 Y88.633 E3.16671
G1 X111.325 Y85.697 E3.26993
G1 X111.989 Y84.373 F6000.000
G1 X112.401 Y83.552 E3.29880 F1200.000
G1 X111.611 Y83.253 E3.32534
G1 X108.914 Y88.633 E3.51449
G1 X107.975 Y88.633 E3.54402
G1 X110.671 Y83.253 E3.73317
G1 X109.732 Y83.253 E3.76270
G1 X107.035 Y88.633 E3.95185
G1 X106.096 Y88.633 E3.98138
G1 X108.792 Y83.253 E4.17053
G1 X107.852 Y83.253 E4.20006
G1 X102.126 Y94.678 E4.60176
G1 X102.600 Y95.608 E4.63456
G1 X105.594 Y89.634 E4.84458
G1 X106.067 Y90.564 E4.87737
G1 X103.073 Y96.538 E5.08739
G1 X103.547 Y97.467 E5.12019
G1 X106.541 Y91.493 E5.33021
G1 X107.015 Y92.423 E5.36300
G1 X104.021 Y98.397 E5.57302
G1 X104.494 Y99.326 E5.60582
G1 X107.488 Y93.353 E5.81584
G1 X107.962 Y94.282 E5.84863
G1 X104.968 Y100.256 E6.05865
G1 X105.442 Y101.185 E6.09145
G1 X108.436 Y95.212 E6.30147
G1 X108.909 Y96.141 E6.33426
G1 X105.915 Y102.115 E6.54428
G1 X106.389 Y103.045 E6.57707
G1 X109.383 Y97.071 E6.78710
G1 X109.857 Y98.000 E6.81989
G1 X106.863 Y103.974 E7.02991
G1 X107.337 Y104.904 E7.06270
G1 X110.331 Y98.930 E7.27272
G1 X110.804 Y99.860 E7.30551
G1 X107.810 Y105.833 E7.51553
G1 X108.284 Y106.763 E7.54833
G1 X111.278 Y100.789 E7.75835
G1 X111.319 Y102.581 E7.81469
G1 X108.758 Y107.692 E7.99438
G1 X109.231 Y108.622 E8.02718
G1 X111.319 Y104.456 E8.17364
G1 X111.322 Y106.325 E8.23239
G1 X109.705 Y109.552 E8.34581
G1 X110.388 Y110.064 E8.37265
G1 X111.327 Y108.190 E8.43854
G1 F1860.000 E5.43854
G92 E0
G1 X106.913 Y83.253 F6000.000
G1 E3.10000 F1860.000
G1 X101.652 Y93.749 E3.46902 F1200.000
G1 X101.178 Y92.819 E3.50181
