; generated by Slic3r 1.1.7 on 2014-12-26 at 18:49:26

; perimeters extrusion width = 0.40mm
; infill extrusion width = 0.67mm
; solid infill extrusion width = 0.67mm
; top infill extrusion width = 0.67mm
; support material extrusion width = 0.40mm

G21 ; set units to millimeters
M190 S110 ; wait for bed temperature to be reached
M104 S220 ; set temperature
G28 ; home all axes Start of G Code Slic3r
 
M109 S220 ; wait for temperature to be reached
G90 ; use absolute coordinates
G92 E0
M82 ; use absolute distances for extrusion
M106 S127
G1 F1860.000 E-3.00000
G92 E0
G1 Z0.200 F6000.000
G1 X64.748 Y70.215 F6000.000
G1 E3.10000 F1860.000
G1 X83.328 Y53.081 E3.57562 F1200.000
G1 X85.239 Y51.859 E3.61832
G1 X87.725 Y51.364 E3.66601
G1 X111.972 Y51.364 E4.12231
G1 X114.206 Y51.761 E4.16501
G1 X116.349 Y53.064 E4.21222 F1200.000
G1 X161.278 Y94.164 E5.35812
G1 X162.658 Y95.965 E5.40082
G1 X163.334 Y98.131 E5.44352
G1 X163.222 Y100.397 E5.48623
G1 X162.337 Y102.486 E5.52893
G1 X161.274 Y103.738 E5.55983
G1 X116.275 Y144.839 E6.70672
G1 X114.358 Y146.053 E6.74942
G1 X111.901 Y146.536 E6.79654
G1 X88.099 Y146.536 E7.24447
G1 X85.865 Y146.139 E7.28717
G1 X83.728 Y144.842 E7.33421
G1 X38.729 Y103.791 E8.48047
G1 X37.346 Y101.992 E8.52317
G1 X36.667 Y99.827 E8.56587
G1 X36.776 Y97.561 E8.60857
G1 X37.659 Y95.470 E8.65128
G1 X38.703 Y94.231 E8.68177
G1 X64.704 Y70.255 E9.34734
G1 X64.912 Y70.393 F6000.000
G1 X83.492 Y53.260 E9.82296 F1200.000
G1 X85.372 Y52.067 E9.86485
G1 X87.725 Y51.607 E9.90997
G1 X111.972 Y51.607 E10.36627
G1 X114.162 Y52.003 E10.40816
G1 X116.185 Y53.243 E10.45282 F1200.000
G1 X161.114 Y94.343 E11.59872
G1 X162.462 Y96.114 E11.64060
G1 X163.103 Y98.246 E11.68249
G1 X162.956 Y100.467 E11.72438
G1 X162.039 Y102.495 E11.76627
G1 X161.110 Y103.559 E11.79284
G1 X116.111 Y144.660 E12.93973
G1 X114.226 Y145.844 E12.98162
G1 X111.901 Y146.293 E13.02619
G1 X88.099 Y146.293 E13.47412
G1 X85.909 Y145.897 E13.51600
G1 X83.892 Y144.663 E13.56051
G1 X38.893 Y103.612 E14.70676
G1 X37.542 Y101.842 E14.74865
G1 X36.898 Y99.712 E14.79054
G1 X37.042 Y97.491 E14.83243
G1 X37.957 Y95.461 E14.87431
G1 X38.868 Y94.410 E14.90049
G1 X64.868 Y70.434 E15.56607
G1 F1860.000 E12.56607
G92 E0
G1 X118.254 Y125.423 F6000.000
G1 E3.10000 F1860.000
G1 X118.254 Y72.476 E4.09639 F1200.000
G1 X147.312 Y98.949 E4.83614
G1 X118.298 Y125.382 E5.57475
G1 X118.497 Y124.873 F6000.000
G1 X118.497 Y73.026 E6.55044 F1200.000
G1 X146.951 Y98.950 E7.27482
G1 X118.541 Y124.832 E7.99808
G1 X118.109 Y124.970 F6000.000
G1 F1860.000 E4.99808
G92 E0
G1 X81.146 Y125.838 F6000.000
G1 E3.10000 F1860.000
G1 X52.087 Y99.397 E3.83935 F1200.000
G1 X81.146 Y72.956 E4.57869
G1 X81.146 Y125.778 E5.57274
G1 X80.903 Y125.289 F6000.000
G1 X52.448 Y99.397 E6.29672 F1200.000
G1 X80.903 Y73.505 E7.02070
G1 X80.903 Y125.229 E7.99407
G1 X80.714 Y125.641 F6000.000
G1 F1860.000 E4.99407
G92 E0
G1 X43.609 Y99.000 F6000.000
G1 E3.10000 F1860.000
G1 X88.067 Y58.444 E4.23246 F1200.000
G1 X88.067 Y58.192 E4.23720
G1 X111.767 Y58.192 E4.68319
G1 X156.392 Y98.950 E5.82051
G1 X111.766 Y139.708 E6.95787
G1 X88.235 Y139.708 E7.40069
G1 X43.653 Y99.040 E8.53628
G1 X43.248 Y99.000 F6000.000
G1 X87.825 Y58.337 E9.67173 F1200.000
G1 X87.825 Y57.950 E9.67903
G1 X111.861 Y57.950 E10.13136
G1 X156.752 Y98.950 E11.27547
G1 X111.860 Y139.950 E12.41960
G1 X88.141 Y139.950 E12.86596
G1 X43.293 Y99.040 E14.00834
G1 X43.636 Y98.902 F6000.000
G1 X44.216 Y98.657 F6000.000
G1 X52.026 Y106.467 E14.21619 F1200.000
G1 F1860.000 E11.21619
G92 E0
G1 X55.579 Y102.785 F6000.000
G1 E3.10000 F1860.000
G1 X92.346 Y139.551 E4.07849 F1200.000
G1 X93.379 Y139.551 F6000.000
G1 X67.056 Y113.228 E4.77905 F1200.000
G1 F1860.000 E1.77905
G92 E0
G1 X63.798 Y117.205 F6000.000
G1 E3.10000 F1860.000
G1 X44.757 Y98.164 E3.60675 F1200.000
G1 X44.178 Y99.308 F6000.000
G1 X43.870 Y99.000 E3.61496 F1200.000
G1 X44.042 Y98.827 E3.61954
G1 X48.102 Y102.887 E3.72759
G1 F1860.000 E0.72759
G92 E0
G1 X55.950 Y110.046 F6000.000
G1 E3.10000 F1860.000
G1 X44.396 Y98.492 E3.40748 F1200.000
G1 X44.577 Y98.328 E3.41207
G1 X59.874 Y113.625 E3.81919
G1 F1860.000 E0.81919
G92 E0
G1 X63.231 Y109.747 F6000.000
G1 E3.10000 F1860.000
G1 X93.035 Y139.551 E3.89320 F1200.000
G1 X92.690 Y139.551 E3.89968
G1 X59.405 Y106.266 E4.78553
G1 F1860.000 E1.78553
G92 E0
G1 X70.882 Y116.710 F6000.000
G1 E3.10000 F1860.000
G1 X93.724 Y139.551 E3.70791 F1200.000
G1 X94.068 Y139.551 E3.71439
G1 X74.708 Y120.191 E4.22965
G1 F1860.000 E1.22965
G92 E0
G1 X78.533 Y123.672 F6000.000
G1 E3.10000 F1860.000
G1 X94.413 Y139.551 E3.52261 F1200.000
G1 X94.757 Y139.551 E3.52910
G1 X81.302 Y126.096 E3.88719
G1 X81.302 Y125.752 E3.89368
G1 X95.102 Y139.551 E4.26094
G1 X95.446 Y139.551 E4.26743
G1 X81.302 Y125.407 E4.64386
G1 X81.302 Y125.063 E4.65034
G1 X95.791 Y139.551 E5.03595
G1 X96.135 Y139.551 E5.04243
G1 X81.302 Y124.718 E5.43720
G1 X81.302 Y124.374 E5.44369
G1 X96.480 Y139.551 E5.84763
G1 X96.824 Y139.551 E5.85411
G1 X81.302 Y124.029 E6.26722
G1 X81.302 Y123.685 E6.27370
G1 X97.169 Y139.551 E6.69598
G1 X97.513 Y139.551 E6.70246
G1 X81.302 Y123.340 E7.13391
G1 X81.302 Y122.996 E7.14039
G1 X97.858 Y139.551 E7.58101
G1 X98.203 Y139.551 E7.58749
G1 X81.302 Y122.651 E8.03728
G1 X81.302 Y122.306 E8.04376
G1 X98.547 Y139.551 E8.50271
G1 X98.892 Y139.551 E8.50919
G1 X81.302 Y121.962 E8.97732
G1 X81.302 Y121.617 E8.98380
G1 X99.236 Y139.551 E9.46109
G1 X99.581 Y139.551 E9.46757
G1 X81.302 Y121.273 E9.95403
G1 X81.302 Y120.928 E9.96051
G1 X99.925 Y139.551 E10.45614
G1 X100.270 Y139.551 E10.46262
G1 X81.302 Y120.584 E10.96742
G1 X81.302 Y120.239 E10.97390
G1 X100.614 Y139.551 E11.48787
G1 X100.959 Y139.551 E11.49435
G1 X81.302 Y119.895 E12.01748
G1 X81.302 Y119.550 E12.02397
G1 X101.303 Y139.551 E12.55627
G1 X101.648 Y139.551 E12.56275
G1 X81.302 Y119.206 E13.10422
G1 X81.302 Y118.861 E13.11071
G1 X101.992 Y139.551 E13.66135
G1 X102.337 Y139.551 E13.66783
G1 X81.302 Y118.517 E14.22764
G1 X81.302 Y118.172 E14.23412
G1 X102.681 Y139.551 E14.80310
G1 X103.026 Y139.551 E14.80958
G1 X81.302 Y117.828 E15.38773
G1 X81.302 Y117.483 E15.39421
G1 X103.370 Y139.551 E15.98152
G1 X103.715 Y139.551 E15.98801
G1 X81.302 Y117.139 E16.58449
G1 X81.302 Y116.794 E16.59097
G1 X104.059 Y139.551 E17.19662
G1 X104.404 Y139.551 E17.20311
G1 X81.302 Y116.450 E17.81793
G1 X81.302 Y116.105 E17.82441
G1 X104.748 Y139.551 E18.44840
G1 X105.093 Y139.551 E18.45488
G1 X81.302 Y115.761 E19.08804
G1 X81.302 Y115.416 E19.09452
G1 X105.437 Y139.551 E19.73685
G1 X105.782 Y139.551 E19.74333
G1 X81.302 Y115.072 E20.39483
G1 X81.302 Y114.727 E20.40131
G1 X106.126 Y139.551 E21.06197
G1 X106.471 Y139.551 E21.06846
G1 X81.302 Y114.383 E21.73829
G1 X81.302 Y114.038 E21.74477
G1 X106.815 Y139.551 E22.42377
G1 X107.160 Y139.551 E22.43026
G1 X81.302 Y113.694 E23.11843
G1 X81.302 Y113.349 E23.12491
G1 X107.504 Y139.551 E23.82225
G1 X107.849 Y139.551 E23.82873
G1 X81.302 Y113.005 E24.53524
G1 X81.302 Y112.660 E24.54172
G1 X108.193 Y139.551 E25.25740
G1 X108.538 Y139.551 E25.26388
G1 X81.302 Y112.316 E25.98872
G1 X81.302 Y111.971 E25.99521
G1 X108.882 Y139.551 E26.72922
G1 X109.227 Y139.551 E26.73570
G1 X81.302 Y111.627 E27.47888
G1 X81.302 Y111.282 E27.48537
G1 X109.571 Y139.551 E28.23772
G1 X109.916 Y139.551 E28.24420
G1 X81.302 Y110.938 E29.00572
G1 X81.302 Y110.593 E29.01220
G1 X110.260 Y139.551 E29.78289
G1 X110.605 Y139.551 E29.78937
G1 X81.302 Y110.249 E30.56923
G1 X81.302 Y109.904 E30.57571
G1 X110.949 Y139.551 E31.36474
G1 X111.294 Y139.551 E31.37122
G1 X81.302 Y109.560 E32.16941
G1 X81.302 Y109.215 E32.17590
G1 X111.638 Y139.551 E32.98326
G1 X111.850 Y139.419 E32.98796
G1 X81.302 Y108.871 E33.80097
G1 X81.302 Y108.526 E33.80745
G1 X112.030 Y139.255 E34.62525
G1 X112.211 Y139.090 E34.62984
G1 X81.302 Y108.182 E35.45243
G1 X81.302 Y107.837 E35.45891
G1 X112.391 Y138.926 E36.28629
G1 X112.571 Y138.761 E36.29088
G1 X81.302 Y107.493 E37.12305
G1 X81.302 Y107.148 E37.12953
G1 X112.751 Y138.597 E37.96650
G1 X112.931 Y138.432 E37.97109
G1 X81.302 Y106.804 E38.81284
G1 X81.302 Y106.459 E38.81933
G1 X113.111 Y138.268 E39.66588
G1 X113.291 Y138.103 E39.67046
G1 X81.302 Y106.115 E40.52180
G1 X81.302 Y105.770 E40.52829
G1 X113.471 Y137.939 E41.38442
G1 X113.651 Y137.774 E41.38901
G1 X81.302 Y105.425 E42.24993
G1 X81.302 Y105.081 E42.25642
G1 X113.831 Y137.610 E43.12213
G1 X114.011 Y137.446 E43.12672
G1 X81.302 Y104.736 E43.99723
G1 X81.302 Y104.392 E44.00371
G1 X114.191 Y137.281 E44.87901
G1 X114.371 Y137.117 E44.88360
G1 X81.302 Y104.047 E45.76370
G1 X81.302 Y103.703 E45.77018
G1 X114.551 Y136.952 E46.65506
G1 X114.731 Y136.788 E46.65965
G1 X81.302 Y103.358 E47.54933
G1 X81.302 Y103.014 E47.55581
G1 X114.911 Y136.623 E48.45028
G1 X115.091 Y136.459 E48.45487
G1 X81.302 Y102.669 E49.35413
G1 X81.302 Y102.325 E49.36061
G1 X115.271 Y136.294 E50.26466
G1 X115.452 Y136.130 E50.26925
G1 X81.302 Y101.980 E51.17810
G1 X81.302 Y101.636 E51.18458
G1 X115.632 Y135.965 E52.09822
G1 X115.812 Y135.801 E52.10281
G1 X81.302 Y101.291 E53.02123
G1 X81.302 Y100.947 E53.02772
G1 X115.992 Y135.637 E53.95094
G1 X116.172 Y135.472 E53.95553
G1 X81.302 Y100.602 E54.88354
G1 X81.302 Y100.258 E54.89002
G1 X116.352 Y135.308 E55.82283
G1 X116.532 Y135.143 E55.82742
G1 X81.302 Y99.913 E56.76501
G1 X81.302 Y99.569 E56.77149
G1 X116.712 Y134.979 E57.71388
G1 X116.892 Y134.814 E57.71847
G1 X81.302 Y99.224 E58.66565
G1 X81.302 Y98.880 E58.67214
G1 X117.072 Y134.650 E59.62411
G1 X117.252 Y134.485 E59.62870
G1 X81.302 Y98.535 E60.58546
G1 X81.302 Y98.191 E60.59194
G1 X117.432 Y134.321 E61.55350
G1 X117.612 Y134.156 E61.55809
G1 X81.302 Y97.846 E62.52444
G1 X81.302 Y97.502 E62.53092
G1 X117.792 Y133.992 E63.50206
G1 X117.972 Y133.828 E63.50665
G1 X81.302 Y97.157 E64.48258
G1 X81.302 Y96.813 E64.48906
G1 X118.152 Y133.663 E65.46979
G1 X118.332 Y133.499 E65.47438
G1 X81.302 Y96.468 E66.45989
G1 X81.302 Y96.124 E66.46638
G1 X118.513 Y133.334 E67.45669
G1 X118.693 Y133.170 E67.46127
G1 X81.302 Y95.779 E68.45637
G1 X81.302 Y95.435 E68.46286
G1 X118.873 Y133.005 E69.46275
G1 X119.053 Y132.841 E69.46734
G1 X81.302 Y95.090 E70.47202
G1 X81.302 Y94.746 E70.47851
G1 X119.233 Y132.676 E71.48798
G1 X119.413 Y132.512 E71.49257
G1 X81.302 Y94.401 E72.50684
G1 X81.302 Y94.057 E72.51332
G1 X119.593 Y132.348 E73.53238
G1 X119.773 Y132.183 E73.53697
G1 X81.302 Y93.712 E74.56082
G1 X81.302 Y93.368 E74.56731
G1 X119.953 Y132.019 E75.59595
G1 X120.133 Y131.854 E75.60054
G1 X81.302 Y93.023 E76.63398
G1 X81.302 Y92.679 E76.64046
G1 X120.313 Y131.690 E77.67869
G1 X120.493 Y131.525 E77.68328
G1 X81.302 Y92.334 E78.72630
G1 X81.302 Y91.990 E78.73278
G1 X120.673 Y131.361 E79.78059
G1 X120.853 Y131.196 E79.78518
G1 X81.302 Y91.645 E80.83778
G1 X81.302 Y91.301 E80.84427
G1 X121.033 Y131.032 E81.90166
G1 X121.213 Y130.867 E81.90625
G1 X81.302 Y90.956 E82.96844
G1 X81.302 Y90.612 E82.97492
G1 X121.393 Y130.703 E84.04190
G1 X121.574 Y130.539 E84.04649
G1 X81.302 Y90.267 E85.11826
G1 X81.302 Y89.923 E85.12475
G1 X121.754 Y130.374 E86.20131
G1 X121.934 Y130.210 E86.20590
G1 X81.302 Y89.578 E87.28726
G1 X81.302 Y89.234 E87.29374
G1 X122.114 Y130.045 E88.37989
G1 X122.294 Y129.881 E88.38448
G1 X118.146 Y125.733 E88.49487
G1 X118.326 Y125.568 E88.49946
G1 X122.474 Y129.716 E88.60985
G1 X122.654 Y129.552 E88.61444
G1 X118.506 Y125.404 E88.72482
G1 X118.687 Y125.240 E88.72941
G1 X122.834 Y129.387 E88.83978
G1 X123.014 Y129.223 E88.84437
G1 X118.867 Y125.076 E88.95474
G1 X119.047 Y124.912 E88.95933
G1 X123.194 Y129.058 E89.06970
G1 X123.374 Y128.894 E89.07429
G1 X119.227 Y124.747 E89.18465
G1 X119.408 Y124.583 E89.18924
G1 X123.554 Y128.730 E89.29959
G1 X123.734 Y128.565 E89.30418
G1 X119.588 Y124.419 E89.41453
G1 X119.768 Y124.255 E89.41912
G1 X123.914 Y128.401 E89.52946
G1 X124.094 Y128.236 E89.53405
G1 X119.948 Y124.090 E89.64438
G1 X120.129 Y123.926 E89.64897
G1 X124.274 Y128.072 E89.75930
G1 X124.454 Y127.907 E89.76389
G1 X120.309 Y123.762 E89.87422
G1 X120.489 Y123.598 E89.87881
G1 X124.634 Y127.743 E89.98913
G1 X124.815 Y127.578 E89.99372
G1 X120.670 Y123.433 E90.10403
G1 X120.850 Y123.269 E90.10862
G1 X124.995 Y127.414 E90.21893
G1 X125.175 Y127.249 E90.22352
G1 X121.030 Y123.105 E90.33382
G1 X121.210 Y122.941 E90.33841
G1 X125.355 Y127.085 E90.44870
G1 X125.535 Y126.921 E90.45329
G1 X121.391 Y122.776 E90.56358
G1 X121.571 Y122.612 E90.56817
G1 X125.715 Y126.756 E90.67846
G1 X125.895 Y126.592 E90.68305
G1 X121.751 Y122.448 E90.79333
G1 X121.931 Y122.284 E90.79791
G1 X126.075 Y126.427 E90.90819
G1 X126.255 Y126.263 E90.91278
G1 X122.112 Y122.120 E91.02304
G1 X122.292 Y121.955 E91.02763
G1 X126.435 Y126.098 E91.13790
G1 X126.615 Y125.934 E91.14248
G1 X122.472 Y121.791 E91.25274
G1 X122.653 Y121.627 E91.25733
G1 X126.795 Y125.769 E91.36758
G1 X126.975 Y125.605 E91.37217
G1 X122.833 Y121.463 E91.48241
G1 X123.013 Y121.298 E91.48700
G1 X127.155 Y125.441 E91.59724
G1 X127.335 Y125.276 E91.60183
G1 X123.193 Y121.134 E91.71207
G1 X123.374 Y120.970 E91.71665
G1 X127.515 Y125.112 E91.82688
G1 X127.695 Y124.947 E91.83147
G1 X123.554 Y120.806 E91.94169
G1 X123.734 Y120.641 E91.94628
G1 X127.876 Y124.783 E92.05650
G1 X128.056 Y124.618 E92.06109
G1 X123.914 Y120.477 E92.17130
G1 X124.095 Y120.313 E92.17589
G1 X128.236 Y124.454 E92.28609
G1 X128.416 Y124.289 E92.29068
G1 X124.275 Y120.149 E92.40088
G1 X124.455 Y119.984 E92.40547
G1 X128.596 Y124.125 E92.51566
G1 X128.776 Y123.960 E92.52025
G1 X124.636 Y119.820 E92.63044
G1 X124.816 Y119.656 E92.63503
G1 X128.956 Y123.796 E92.74521
G1 X129.136 Y123.632 E92.74980
G1 X124.996 Y119.492 E92.85998
G1 X125.176 Y119.327 E92.86456
G1 X129.316 Y123.467 E92.97473
G1 X129.496 Y123.303 E92.97932
G1 X125.357 Y119.163 E93.08949
G1 X125.537 Y118.999 E93.09408
G1 X129.676 Y123.138 E93.20424
G1 X129.856 Y122.974 E93.20883
G1 X125.717 Y118.835 E93.31898
G1 X125.897 Y118.671 E93.32357
G1 X130.036 Y122.809 E93.43372
G1 X130.216 Y122.645 E93.43830
G1 X126.078 Y118.506 E93.54845
G1 X126.258 Y118.342 E93.55304
G1 X130.396 Y122.480 E93.66317
G1 X130.576 Y122.316 E93.66776
G1 X126.438 Y118.178 E93.77789
G1 X126.619 Y118.014 E93.78248
G1 X130.756 Y122.151 E93.89260
G1 X130.936 Y121.987 E93.89719
G1 X126.799 Y117.849 E94.00731
G1 X126.979 Y117.685 E94.01190
G1 X131.117 Y121.823 E94.12201
G1 X131.297 Y121.658 E94.12660
G1 X127.159 Y117.521 E94.23671
G1 X127.340 Y117.357 E94.24130
G1 X131.477 Y121.494 E94.35140
G1 X131.657 Y121.329 E94.35599
G1 X127.520 Y117.192 E94.46609
G1 X127.700 Y117.028 E94.47068
G1 X131.837 Y121.165 E94.58077
G1 X132.017 Y121.000 E94.58535
G1 X127.880 Y116.864 E94.69544
G1 X128.061 Y116.700 E94.70003
G1 X132.197 Y120.836 E94.81011
G1 X132.377 Y120.671 E94.81470
G1 X128.241 Y116.535 E94.92477
G1 X128.421 Y116.371 E94.92936
G1 X132.557 Y120.507 E95.03942
G1 X132.737 Y120.342 E95.04401
G1 X128.602 Y116.207 E95.15408
G1 X128.782 Y116.043 E95.15866
G1 X132.917 Y120.178 E95.26872
G1 X133.097 Y120.014 E95.27331
G1 X128.962 Y115.878 E95.38336
G1 X129.142 Y115.714 E95.38795
G1 X133.277 Y119.849 E95.49799
G1 X133.457 Y119.685 E95.50258
G1 X129.323 Y115.550 E95.61262
G1 X129.503 Y115.386 E95.61721
G1 X133.637 Y119.520 E95.72724
G1 X133.817 Y119.356 E95.73183
G1 X129.683 Y115.222 E95.84186
G1 X129.863 Y115.057 E95.84645
G1 X133.997 Y119.191 E95.95647
G1 X134.178 Y119.027 E95.96106
G1 X130.044 Y114.893 E96.07107
G1 X130.224 Y114.729 E96.07566
G1 X134.358 Y118.862 E96.18567
G1 X134.538 Y118.698 E96.19026
G1 X130.404 Y114.565 E96.30027
G1 X130.585 Y114.400 E96.30486
G1 X134.718 Y118.534 E96.41485
G1 X134.898 Y118.369 E96.41944
G1 X130.765 Y114.236 E96.52943
G1 X130.945 Y114.072 E96.53402
G1 X135.078 Y118.205 E96.64401
G1 X135.258 Y118.040 E96.64860
G1 X131.125 Y113.908 E96.75858
G1 X131.306 Y113.743 E96.76317
G1 X135.438 Y117.876 E96.87315
G1 X135.618 Y117.711 E96.87774
G1 X131.486 Y113.579 E96.98770
G1 X131.666 Y113.415 E96.99229
G1 X135.798 Y117.547 E97.10226
G1 X135.978 Y117.382 E97.10685
G1 X131.846 Y113.251 E97.21681
G1 X132.027 Y113.086 E97.22139
G1 X136.158 Y117.218 E97.33135
G1 X136.338 Y117.053 E97.33594
G1 X132.207 Y112.922 E97.44588
