; generated by Slic3r 1.1.7 on 2015-03-28 at 11:38:47

; perimeters extrusion width = 0.40mm
; infill extrusion width = 0.42mm
; solid infill extrusion width = 0.42mm
; top infill extrusion width = 0.42mm
; support material extrusion width = 0.40mm

G21 ; set units to millimeters
M190 S75 ; wait for bed temperature to be reached
M104 S240 ; set temperature
M106 S255; Turn on Fan fully
G28 ; home all axes Start of G Code Slic3r
G1 Z18
M280 P0 S10 
G1 Z20
G29 ; AutoBed leveing
G1 X208 Y20 F4000
G1 Z4
 
  
M109 S240 ; wait for temperature to be reached
G90 ; use absolute coordinates
G92 E0
M82 ; use absolute distances for extrusion
M106 S127
G1 F1980.000 E-4.00000
G92 E0
G1 Z0.300 F6000.000
G1 X85.490 Y46.750 F6000.000
G1 E4.00000 F1980.000
G1 X93.635 Y31.856 E4.69643 F1650.000
G1 X94.334 Y30.846 E4.74684
G1 X94.771 Y30.365 E4.77350
G1 X99.864 Y25.272 E5.06899
G1 X100.351 Y24.820 E5.09626
G1 X101.353 Y24.111 E5.14662
G1 X102.464 Y23.587 E5.19702
G1 X103.650 Y23.263 E5.24744
G1 X104.553 Y23.157 E5.28475
G1 X146.944 Y21.125 E7.02592
G1 X148.167 Y21.226 E7.07628
G1 X149.357 Y21.538 E7.12676 F1650.000
G1 X150.472 Y22.051 E7.17710
G1 X151.481 Y22.750 E7.22746
G1 X151.963 Y23.187 E7.25416
G1 X169.788 Y41.012 E8.28835
G1 X170.391 Y41.651 E8.32439
G1 X171.135 Y42.714 E8.37763
G1 X171.651 Y43.836 E8.42830
G1 X171.948 Y44.949 E8.47557
G1 X172.061 Y46.241 E8.52878
G1 X171.960 Y47.394 E8.57627
G1 X171.648 Y48.583 E8.62670
G1 X171.210 Y49.564 E8.67077
G1 X106.330 Y168.205 E14.21846
G1 X105.666 Y169.154 E14.26599
G1 X105.229 Y169.635 E14.29266
G1 X99.648 Y175.180 E14.61541
G1 X98.647 Y175.889 E14.66575
G1 X97.536 Y176.414 E14.71618
G1 X96.351 Y176.737 E14.76657
G1 X95.447 Y176.843 E14.80389
G1 X53.056 Y178.875 E16.54507
G1 X51.833 Y178.775 E16.59541
G1 X50.642 Y178.462 E16.64592
G1 X49.459 Y177.909 E16.69948
G1 X48.519 Y177.250 E16.74660
G1 X48.037 Y176.813 E16.77330
G1 X29.610 Y158.350 E17.84349
G1 X28.853 Y157.264 E17.89779
G1 X28.349 Y156.162 E17.94751
G1 X28.040 Y154.980 E17.99762
G1 X27.939 Y153.759 E18.04791
G1 X28.040 Y152.606 E18.09540
G1 X28.352 Y151.417 E18.14582
G1 X28.790 Y150.436 E18.18990
G1 X85.461 Y46.802 E23.03582
G1 F1980.000 E19.03582
G92 E0
G1 X85.772 Y46.904 F6000.000
G1 E4.00000 F1980.000
G1 X93.913 Y32.017 E4.69612 F1650.000
G1 X94.581 Y31.053 E4.74424
G1 X94.998 Y30.592 E4.76974
G1 X100.091 Y25.499 E5.06524
G1 X100.558 Y25.067 E5.09135
G1 X101.514 Y24.390 E5.13941
G1 X102.574 Y23.889 E5.18752
G1 X103.705 Y23.579 E5.23564
G1 X104.568 Y23.478 E5.27128
G1 X146.944 Y21.446 E7.01182
G1 X148.112 Y21.542 E7.05988
G1 X149.247 Y21.840 E7.10805 F1650.000
G1 X150.311 Y22.330 E7.15610
G1 X151.275 Y22.996 E7.20416
G1 X151.736 Y23.415 E7.22971
G1 X169.560 Y41.239 E8.26391
G1 X170.144 Y41.857 E8.29879
G1 X170.856 Y42.874 E8.34970
G1 X171.348 Y43.946 E8.39809
G1 X171.631 Y45.005 E8.44307
G1 X171.739 Y46.171 E8.49110
G1 X171.643 Y47.339 E8.53918
G1 X171.346 Y48.473 E8.58731
G1 X170.928 Y49.410 E8.62939
G1 X106.087 Y167.983 E14.17388
G1 X105.420 Y168.947 E14.22199
G1 X105.002 Y169.408 E14.24751
G1 X99.442 Y174.933 E14.56911
G1 X98.486 Y175.610 E14.61716
G1 X97.426 Y176.112 E14.66528
G1 X96.295 Y176.421 E14.71338
G1 X95.432 Y176.522 E14.74903
G1 X53.056 Y178.554 E16.48957
G1 X51.889 Y178.458 E16.53761
G1 X50.752 Y178.160 E16.58582
G1 X49.621 Y177.631 E16.63706
G1 X48.726 Y177.004 E16.68190
G1 X48.264 Y176.585 E16.70746
G1 X29.856 Y158.143 E17.77650
G1 X29.179 Y157.187 E17.82456
G1 X28.679 Y156.130 E17.87255
G1 X28.368 Y154.994 E17.92084
G1 X28.261 Y153.829 E17.96884
G1 X28.370 Y152.585 E18.02009
G1 X28.654 Y151.527 E18.06503
G1 X29.072 Y150.590 E18.10712
G1 X85.743 Y46.957 E22.95304
G1 F1980.000 E18.95304
G92 E0
G1 X132.434 Y56.872 F6000.000
G1 E4.00000 F1980.000
G1 X132.253 Y56.977 E4.00859 F900.000
G1 X132.056 Y57.049 E4.01718
G1 X131.850 Y57.085 E4.02576
G1 X131.641 Y57.085 E4.03435
G1 X131.435 Y57.049 E4.04294
G1 X131.238 Y56.977 E4.05153
G1 X131.057 Y56.872 E4.06011
G1 X130.923 Y56.760 E4.06727
G1 X119.837 Y45.674 E4.71050
G1 X119.726 Y45.541 E4.71760
G1 X119.621 Y45.362 E4.72611
G1 X119.550 Y45.167 E4.73463
G1 X119.513 Y44.963 E4.74314
G1 X119.511 Y44.756 E4.75165
G1 X119.545 Y44.551 E4.76016
G1 X119.614 Y44.355 E4.76867
G1 X119.716 Y44.174 E4.77719
G1 X119.848 Y44.014 E4.78570
G1 X120.005 Y43.878 E4.79421
G1 X120.183 Y43.772 E4.80273
G1 X120.376 Y43.697 E4.81124
G1 X120.580 Y43.657 E4.81975
G1 X120.787 Y43.653 E4.82826
G1 X120.958 Y43.679 E4.83536
G1 X138.772 Y48.021 E5.58759 F900.000
G1 X138.926 Y48.073 E5.59427
G1 X139.099 Y48.163 E5.60228
G1 X139.255 Y48.281 E5.61029
G1 X139.390 Y48.422 E5.61830
G1 X139.500 Y48.583 E5.62632
G1 X139.583 Y48.760 E5.63433
G1 X139.635 Y48.949 E5.64234
G1 X139.657 Y49.143 E5.65035
G1 X139.646 Y49.338 E5.65836
G1 X139.605 Y49.528 E5.66637
G1 X139.533 Y49.710 E5.67438
G1 X139.432 Y49.877 E5.68240
G1 X139.327 Y50.001 E5.68908
G1 X132.480 Y56.834 E6.08590
G1 F1980.000 E2.08590
G92 E0
G1 X132.249 Y56.608 F6000.000
G1 E4.00000 F1980.000
G1 X132.117 Y56.684 E4.00628 F900.000
G1 X131.973 Y56.737 E4.01256
G1 X131.822 Y56.763 E4.01884
G1 X131.669 Y56.763 E4.02512
G1 X131.518 Y56.737 E4.03140
G1 X131.374 Y56.684 E4.03768
G1 X131.140 Y56.523 E4.04935
G1 X120.074 Y45.456 E4.69143
G1 X119.913 Y45.225 E4.70299
G1 X119.861 Y45.082 E4.70922
G1 X119.834 Y44.933 E4.71544
G1 X119.833 Y44.781 E4.72167
G1 X119.858 Y44.632 E4.72789
G1 X119.908 Y44.489 E4.73412
G1 X119.983 Y44.356 E4.74034
G1 X120.079 Y44.239 E4.74657
G1 X120.194 Y44.140 E4.75279
G1 X120.324 Y44.062 E4.75902
G1 X120.465 Y44.007 E4.76524
G1 X120.614 Y43.978 E4.77147
G1 X120.896 Y43.995 E4.78304 F900.000
G1 X138.683 Y48.330 E5.53415
G1 X138.927 Y48.436 E5.54504
G1 X139.139 Y48.625 E5.55672
G1 X139.280 Y48.872 E5.56840
G1 X139.334 Y49.152 E5.58008
G1 X139.296 Y49.434 E5.59176
G1 X139.244 Y49.567 E5.59762
G1 X139.090 Y49.783 E5.60851
G1 X132.295 Y56.569 E6.00250
G1 F1980.000 E2.00250
G92 E0
G1 X131.697 Y56.442 F6000.000
G1 E4.00000 F1980.000
G1 X131.511 Y56.392 E4.00792 F720.000
G1 X131.358 Y56.286 E4.01556
G1 X120.311 Y45.239 E4.65649
G1 X120.205 Y45.087 E4.66407
G1 X120.155 Y44.903 E4.67192
G1 X120.154 Y44.807 E4.67585
G1 X120.202 Y44.622 E4.68370
G1 X120.249 Y44.538 E4.68764
G1 X120.383 Y44.401 E4.69548
G1 X120.555 Y44.317 E4.70333
G1 X120.745 Y44.297 E4.71117
G1 X138.594 Y48.640 E5.46484
G1 X138.754 Y48.708 E5.47198
G1 X138.889 Y48.828 E5.47937
G1 X138.978 Y48.984 E5.48675
G1 X139.012 Y49.161 E5.49414
G1 X138.988 Y49.340 E5.50153
G1 X138.955 Y49.424 E5.50524
G1 X138.853 Y49.565 E5.51238
G1 X132.133 Y56.286 E5.90229
G1 X131.980 Y56.392 E5.90993
G1 X131.757 Y56.442 E5.91932
G1 F1980.000 E1.91932
G92 E0
G1 X131.582 Y56.597 F6000.000
G1 X130.720 Y58.608 F6000.000
G1 E4.00000 F1980.000
G1 X104.907 Y32.796 E5.49765 F900.000
G1 X101.329 Y36.374 E5.70527
G1 X100.303 Y35.349 E5.76478
G1 X104.907 Y30.744 E6.03191
G1 X114.646 Y40.483 E6.59693
G1 X114.886 Y40.662 E6.60922
G1 X115.163 Y40.774 E6.62151
G1 X141.361 Y47.159 E7.72779
G1 X146.369 Y52.167 E8.01834
G1 X145.343 Y53.193 E8.07785
G1 X141.765 Y49.614 E8.28547
G1 X37.586 Y153.794 E14.33002
G1 X53.021 Y169.229 E15.22556
G1 X60.177 Y162.072 E15.64080
G1 X61.203 Y163.098 E15.70031
G1 X53.021 Y171.280 E16.17507
G1 X35.534 Y153.794 E17.18963
G1 X121.309 Y68.019 E22.16634
G1 X121.421 Y67.885 E22.17350
G1 X121.526 Y67.704 E22.18209
G1 X121.598 Y67.507 E22.19068
G1 X121.634 Y67.301 E22.19926
G1 X121.634 Y67.092 E22.20785
G1 X121.598 Y66.886 E22.21644
G1 X121.526 Y66.689 E22.22503
G1 X121.421 Y66.508 E22.23361
G1 X121.309 Y66.374 E22.24078
G1 X118.553 Y63.618 E22.40068
G1 X121.726 Y60.445 E22.58476
G1 X122.752 Y61.471 E22.64427
G1 X120.605 Y63.618 E22.76884
G1 X123.157 Y66.171 E22.91695
G1 X130.677 Y58.651 E23.35327
G1 F1980.000 E19.35327
G92 E0
G1 X130.265 Y58.608 F6000.000
G1 E4.00000 F1980.000
G1 X104.907 Y33.250 E5.47127 F900.000
G1 X101.329 Y36.829 E5.67889
G1 X99.849 Y35.349 E5.76478
G1 X104.907 Y30.290 E6.05829
G1 X114.865 Y40.248 E6.63604
G1 X115.043 Y40.381 E6.64519
G1 X115.250 Y40.464 E6.65433
G1 X141.525 Y46.868 E7.76385
G1 X146.824 Y52.167 E8.07128
G1 X145.343 Y53.647 E8.15717
G1 X141.765 Y50.069 E8.36479
G1 X38.040 Y153.794 E14.38296
G1 X53.021 Y168.774 E15.25213
G1 X60.177 Y161.617 E15.66737
G1 X61.658 Y163.098 E15.75326
G1 X53.021 Y171.735 E16.25439
G1 X35.080 Y153.794 E17.29533
G1 X121.072 Y67.801 E22.28465
G1 X121.234 Y67.567 E22.29632
G1 X121.286 Y67.424 E22.30260
G1 X121.312 Y67.273 E22.30888
G1 X121.312 Y67.120 E22.31516
G1 X121.286 Y66.969 E22.32144
G1 X121.234 Y66.825 E22.32772
G1 X121.157 Y66.693 E22.33400
G1 X118.099 Y63.618 E22.51192
G1 X121.726 Y59.991 E22.72238
G1 X123.206 Y61.471 E22.80827
G1 X121.059 Y63.618 E22.93284
G1 X123.157 Y65.716 E23.05457
G1 X130.223 Y58.651 E23.46452
G1 F1980.000 E19.46452
G92 E0
G1 X129.811 Y58.608 F6000.000
G1 E4.00000 F1980.000
G1 X104.907 Y33.705 E5.44489 F720.000
G1 X101.514 Y37.099 E5.64179
G1 X101.395 Y37.169 E5.64745
G1 X101.263 Y37.169 E5.65285
G1 X101.144 Y37.099 E5.65852
G1 X99.579 Y35.533 E5.74934
G1 X99.524 Y35.456 E5.75323
G1 X99.501 Y35.371 E5.75685
G1 X99.524 Y35.241 E5.76225
G1 X99.579 Y35.164 E5.76614
G1 X104.723 Y30.020 E6.06458
G1 X104.842 Y29.950 E6.07025
G1 X104.973 Y29.950 E6.07565
G1 X105.092 Y30.020 E6.08131
G1 X115.085 Y40.013 E6.66108
G1 X115.201 Y40.101 E6.66708
G1 X115.337 Y40.155 E6.67307
G1 X141.652 Y46.571 E7.78433
G1 X141.743 Y46.632 E7.78879
G1 X147.094 Y51.982 E8.09924
G1 X147.164 Y52.101 E8.10490
G1 X147.164 Y52.233 E8.11030
G1 X147.094 Y52.352 E8.11597
G1 X145.528 Y53.917 E8.20678
G1 X145.409 Y53.987 E8.21245
G1 X145.278 Y53.987 E8.21785
G1 X145.159 Y53.917 E8.22352
G1 X141.765 Y50.524 E8.42041
G1 X38.495 Y153.794 E14.41220
G1 X53.021 Y168.320 E15.25500
G1 X60.031 Y161.315 E15.66159
G1 X60.112 Y161.278 E15.66522
G1 X60.200 Y161.270 E15.66884
G1 X60.285 Y161.293 E15.67246
G1 X60.362 Y161.348 E15.67636
G1 X61.960 Y162.952 E15.76925
G1 X61.997 Y163.032 E15.77287
G1 X62.005 Y163.120 E15.77650
G1 X61.982 Y163.205 E15.78012
G1 X61.927 Y163.283 E15.78401
G1 X53.205 Y172.005 E16.29007
G1 X53.128 Y172.059 E16.29396
G1 X53.043 Y172.082 E16.29758
G1 X52.955 Y172.075 E16.30121
G1 X52.875 Y172.037 E16.30483
G1 X34.810 Y153.979 E17.35278
G1 X34.755 Y153.901 E17.35668
G1 X34.732 Y153.816 E17.36030
G1 X34.740 Y153.728 E17.36392
G1 X34.777 Y153.648 E17.36755
G1 X120.835 Y67.584 E22.36083
G1 X120.941 Y67.431 E22.36848
G1 X120.991 Y67.245 E22.37639
G1 X120.974 Y67.053 E22.38430
G1 X120.893 Y66.878 E22.39222
G1 X117.829 Y63.803 E22.57031
G1 X117.774 Y63.725 E22.57420
G1 X117.751 Y63.596 E22.57960
G1 X117.774 Y63.511 E22.58322
G1 X117.829 Y63.433 E22.58712
G1 X121.541 Y59.721 E22.80250
G1 X121.660 Y59.651 E22.80817
G1 X121.792 Y59.651 E22.81357
G1 X121.911 Y59.721 E22.81924
G1 X123.476 Y61.286 E22.91005
G1 X123.546 Y61.405 E22.91572
G1 X123.546 Y61.537 E22.92112
G1 X123.476 Y61.656 E22.92678
G1 X121.514 Y63.618 E23.04063
G1 X123.157 Y65.261 E23.13599
G1 X129.768 Y58.651 E23.51955
G1 F1980.000 E19.51955
G92 E0
G1 X130.093 Y58.325 F6000.000
G1 X131.576 Y57.290 F6000.000
G1 E4.00000 F1980.000
G1 X132.682 Y58.396 E4.06417 F900.000
G1 X132.910 Y58.168 E4.07739
G1 X132.014 Y57.272 E4.12937
G1 X132.359 Y57.162 E4.14422
G1 X133.138 Y57.940 E4.18940
G1 X133.365 Y57.713 E4.20262
G1 X132.635 Y56.982 E4.24501
G1 X132.869 Y56.760 E4.25823
G1 X133.593 Y57.485 E4.30026
G1 X133.821 Y57.257 E4.31347
G1 X133.097 Y56.533 E4.35550
G1 X133.324 Y56.305 E4.36872
G1 X134.049 Y57.029 E4.41075
G1 X134.276 Y56.802 E4.42396
G1 X133.552 Y56.077 E4.46599
G1 X133.780 Y55.849 E4.47920
G1 X134.504 Y56.574 E4.52123
G1 X134.732 Y56.346 E4.53445
G1 X134.008 Y55.622 E4.57648
G1 X134.235 Y55.394 E4.58969
G1 X134.960 Y56.118 E4.63172
G1 X135.187 Y55.891 E4.64494
G1 X134.463 Y55.166 E4.68697
G1 X134.691 Y54.939 E4.70018
G1 X135.415 Y55.663 E4.74221
G1 X135.643 Y55.435 E4.75542
G1 X134.919 Y54.711 E4.79745
G1 X135.146 Y54.483 E4.81067
G1 X135.871 Y55.207 E4.85270
G1 X136.098 Y54.980 E4.86591
G1 X135.374 Y54.255 E4.90794
G1 X135.602 Y54.028 E4.92116
G1 X136.326 Y54.752 E4.96319
G1 X136.554 Y54.524 E4.97640
G1 X135.830 Y53.800 E5.01843
G1 X136.057 Y53.572 E5.03165
G1 X136.782 Y54.296 E5.07368
G1 X137.009 Y54.069 E5.08689
G1 X136.285 Y53.344 E5.12892
G1 X136.513 Y53.117 E5.14213
G1 X137.237 Y53.841 E5.18416
G1 X137.465 Y53.613 E5.19738
G1 X136.740 Y52.889 E5.23941
G1 X136.968 Y52.661 E5.25262
G1 X137.693 Y53.385 E5.29465
G1 X137.920 Y53.158 E5.30787
G1 X137.196 Y52.433 E5.34990
G1 X137.424 Y52.206 E5.36311
G1 X138.148 Y52.930 E5.40514
G1 X138.376 Y52.702 E5.41835
G1 X137.651 Y51.978 E5.46038
G1 X137.879 Y51.750 E5.47360
G1 X138.604 Y52.474 E5.51563
G1 X138.831 Y52.247 E5.52884
G1 X138.107 Y51.522 E5.57087
G1 X138.335 Y51.295 E5.58409
G1 X139.059 Y52.019 E5.62612
G1 X139.287 Y51.791 E5.63933
G1 X138.562 Y51.067 E5.68136
G1 X138.790 Y50.839 E5.69457
G1 X139.515 Y51.564 E5.73660
G1 X139.742 Y51.336 E5.74982
G1 X139.018 Y50.611 E5.79185
G1 X139.246 Y50.384 E5.80506
G1 X139.970 Y51.108 E5.84709
G1 X140.198 Y50.880 E5.86031
G1 X139.473 Y50.156 E5.90234
G1 X139.669 Y49.896 E5.91568
G1 X140.426 Y50.653 E5.95956
G1 X140.653 Y50.425 E5.97278
G1 X139.811 Y49.582 E6.02165
G1 X139.868 Y49.184 E6.03817
G1 X140.881 Y50.197 E6.09695
G1 X141.109 Y49.969 E6.11017
G1 X139.746 Y48.606 E6.18926
G1 F1980.000 E2.18926
G92 E0
G1 X141.216 Y47.343 F6000.000
G1 E4.00000 F1980.000
G1 X146.054 Y52.181 E4.28071 F900.000
G1 X145.826 Y52.409 E4.29392
G1 X140.613 Y47.196 E4.59636
G1 X140.011 Y47.050 E4.62180
G1 X145.598 Y52.637 E4.94597
G1 X145.370 Y52.864 E4.95918
G1 X139.409 Y46.903 E5.30509
G1 X138.806 Y46.756 E5.33052
G1 X141.564 Y49.514 E5.49053
G1 X141.337 Y49.742 E5.50375
G1 X138.204 Y46.609 E5.68549
G1 X137.602 Y46.462 E5.71093
G1 X139.021 Y47.882 E5.79328
G1 X138.394 Y47.710 E5.81996
G1 X137.000 Y46.316 E5.90086
G1 X136.397 Y46.169 E5.92629
G1 X137.792 Y47.563 E6.00719
G1 X137.189 Y47.416 E6.03263
G1 X135.795 Y46.022 E6.11352
G1 X135.193 Y45.875 E6.13896
G1 X136.587 Y47.269 E6.21986
G1 X135.985 Y47.123 E6.24529
G1 X134.590 Y45.728 E6.32619
G1 X133.988 Y45.582 E6.35162
G1 X135.382 Y46.976 E6.43252
G1 X134.780 Y46.829 E6.45795
G1 X133.386 Y45.435 E6.53885
G1 X132.784 Y45.288 E6.56428
G1 X134.178 Y46.682 E6.64518
G1 X133.576 Y46.535 E6.67062
G1 X132.181 Y45.141 E6.75151
G1 X131.579 Y44.994 E6.77695
G1 X132.973 Y46.389 E6.85785
G1 X132.371 Y46.242 E6.88328
G1 X130.977 Y44.847 E6.96418
G1 X130.374 Y44.701 E6.98961
G1 X131.769 Y46.095 E7.07051
G1 X131.166 Y45.948 E7.09594
G1 X129.772 Y44.554 E7.17684
G1 X129.170 Y44.407 E7.20227
G1 X130.564 Y45.801 E7.28317
G1 X129.962 Y45.655 E7.30861
G1 X128.567 Y44.260 E7.38950
G1 X127.965 Y44.113 E7.41494
G1 X129.359 Y45.508 E7.49584
G1 X128.757 Y45.361 E7.52127
G1 X127.363 Y43.967 E7.60217
G1 X126.761 Y43.820 E7.62760
G1 X128.155 Y45.214 E7.70850
G1 X127.553 Y45.067 E7.73393
G1 X126.158 Y43.673 E7.81483
G1 X125.556 Y43.526 E7.84026
G1 X126.950 Y44.921 E7.92116
G1 X126.348 Y44.774 E7.94659
G1 X124.954 Y43.379 E8.02749
G1 X124.351 Y43.233 E8.05293
G1 X125.746 Y44.627 E8.13382
G1 X125.143 Y44.480 E8.15926
G1 X123.749 Y43.086 E8.24016
G1 X123.147 Y42.939 E8.26559
G1 X124.541 Y44.333 E8.34649
G1 X123.939 Y44.187 E8.37192
G1 X122.545 Y42.792 E8.45282
G1 X121.942 Y42.645 E8.47825
G1 X123.337 Y44.040 E8.55915
G1 X122.734 Y43.893 E8.58458
G1 X121.340 Y42.499 E8.66548
G1 X120.738 Y42.352 E8.69092
G1 X122.132 Y43.746 E8.77181
G1 X121.530 Y43.599 E8.79725
G1 X120.135 Y42.205 E8.87815
G1 X119.533 Y42.058 E8.90358
G1 X120.935 Y43.460 E8.98492
G1 X120.479 Y43.460 E9.00363
G1 X118.931 Y41.911 E9.09347
G1 X118.329 Y41.765 E9.11890
G1 X120.128 Y43.564 E9.22332
G1 X119.844 Y43.735 E9.23693
G1 X117.726 Y41.618 E9.35980
G1 X117.124 Y41.471 E9.38523
G1 X119.615 Y43.962 E9.52975
G1 X119.436 Y44.238 E9.54326
G1 X116.522 Y41.324 E9.71234
G1 X115.919 Y41.177 E9.73778
G1 X119.324 Y44.582 E9.93533
G1 X119.306 Y45.020 E9.95330
G1 X115.317 Y41.031 E10.18476
G1 F1980.000 E6.18476
G92 E0
G1 X104.705 Y32.697 F6000.000
G1 E4.00000 F1980.000
G1 X103.995 Y31.986 E4.04121 F900.000
G1 X103.767 Y32.214 E4.05442
G1 X104.478 Y32.924 E4.09563
G1 X104.250 Y33.152 E4.10885
