; generated by Slic3r 1.1.7 on 2015-04-17 at 21:04:32

; perimeters extrusion width = 0.40mm
; infill extrusion width = 0.42mm
; solid infill extrusion width = 0.42mm
; top infill extrusion width = 0.42mm
; support material extrusion width = 0.40mm

G21 ; set units to millimeters
M190 S110 ; wait for bed temperature to be reached
M104 S240 ; set temperature
M106 S255; Turn on Fan fully
G28 ; home all axes Start of G Code Slic3r
G1 Z20
M280 P0 S10 
G1 Z22
G29 ; AutoBed leveing
G1 X208 Y20 F4000
G1 Z4
 
  
M109 S240 ; wait for temperature to be reached
G90 ; use absolute coordinates
G92 E0
M82 ; use absolute distances for extrusion
M106 S127
G1 F1980.000 E-4.00000
G92 E0
G1 Z0.300 F6000.000
G1 X28.214 Y33.627 F6000.000
G1 E4.00000 F1980.000
G1 X29.123 Y32.873 E4.05074 F1650.000
G1 X30.125 Y32.294 E4.10051
G1 X30.657 Y32.067 E4.12538
G1 X68.413 Y17.864 E5.85961
G1 X69.337 Y17.602 E5.90092
G1 X70.289 Y17.467 E5.94225
G1 X70.798 Y17.448 E5.96415
G1 X149.227 Y17.473 E9.33593
G1 X150.436 Y17.680 E9.38869 F1650.000
G1 X151.592 Y18.094 E9.44149
G1 X152.659 Y18.703 E9.49430
G1 X153.605 Y19.488 E9.54712
G1 X154.399 Y20.425 E9.59993
G1 X155.018 Y21.485 E9.65270
G1 X155.444 Y22.638 E9.70553
G1 X155.632 Y23.560 E9.74599
G1 X173.882 Y162.507 E15.77090
G1 X173.913 Y163.157 E15.79885
G1 X173.888 Y176.084 E16.35460
G1 X173.662 Y177.362 E16.41042
G1 X173.236 Y178.515 E16.46326
G1 X172.658 Y179.517 E16.51300
G1 X171.822 Y180.512 E16.56886
G1 X170.873 Y181.300 E16.62190
G1 X169.873 Y181.877 E16.67151
G1 X168.723 Y182.302 E16.72423
G1 X167.516 Y182.521 E16.77698
G1 X166.865 Y182.552 E16.80498
G1 X70.509 Y182.527 E20.94748
G1 X69.300 Y182.320 E21.00024
G1 X68.082 Y181.877 E21.05596
G1 X67.018 Y181.255 E21.10893
G1 X66.082 Y180.462 E21.16167
G1 X65.295 Y179.514 E21.21466
G1 X64.718 Y178.514 E21.26428
G1 X64.334 Y177.511 E21.31047
G1 X26.319 Y47.742 E27.12392
G1 X26.119 Y46.602 E27.17368
G1 X26.087 Y45.952 E27.20163
G1 X26.118 Y38.016 E27.54284
G1 X26.347 Y36.774 E27.59712
G1 X26.778 Y35.626 E27.64986
G1 X27.387 Y34.589 E27.70155
G1 X28.169 Y33.666 E27.75357
G1 F1980.000 E23.75357
G92 E0
G1 X28.425 Y33.875 F6000.000
G1 E4.00000 F1980.000
G1 X29.249 Y33.177 E4.04644 F1650.000
G1 X30.261 Y32.585 E4.09682
G1 X30.770 Y32.368 E4.12063
G1 X68.521 Y18.167 E5.85461
G1 X69.403 Y17.916 E5.89404
G1 X70.311 Y17.788 E5.93348
G1 X70.798 Y17.769 E5.95444
G1 X149.199 Y17.793 E9.32502
G1 X150.353 Y17.991 E9.37536 F1650.000
G1 X151.457 Y18.386 E9.42575
G1 X152.475 Y18.966 E9.47615
G1 X153.377 Y19.715 E9.52657
G1 X154.135 Y20.609 E9.57696
G1 X154.727 Y21.621 E9.62733
G1 X155.133 Y22.721 E9.67775
G1 X155.313 Y23.602 E9.71640
G1 X173.561 Y162.535 E15.74071
G1 X173.591 Y163.157 E15.76745
G1 X173.567 Y176.056 E16.32200
G1 X173.370 Y177.211 E16.37239
G1 X172.945 Y178.379 E16.42583
G1 X172.394 Y179.333 E16.47317
G1 X171.645 Y180.235 E16.52360
G1 X170.752 Y180.992 E16.57391
G1 X169.737 Y181.585 E16.62445
G1 X168.640 Y181.991 E16.67477
G1 X167.488 Y182.201 E16.72511
G1 X166.865 Y182.231 E16.75190
G1 X70.537 Y182.207 E20.89320
G1 X69.383 Y182.009 E20.94355
G1 X68.282 Y181.615 E20.99384
G1 X67.260 Y181.033 E21.04440
G1 X66.310 Y180.235 E21.09772
G1 X65.559 Y179.330 E21.14829
G1 X65.010 Y178.378 E21.19555
G1 X64.643 Y177.420 E21.23964
G1 X26.648 Y47.727 E27.04974
G1 X26.439 Y46.574 E27.10011
G1 X26.409 Y45.952 E27.12686
G1 X26.433 Y38.114 E27.46384
G1 X26.630 Y36.959 E27.51423
G1 X27.025 Y35.856 E27.56461
G1 X27.606 Y34.837 E27.61501
G1 X28.380 Y33.914 E27.66680
G1 F1980.000 E23.66680
G92 E0
G1 X141.322 Y38.775 F6000.000
G1 E4.00000 F1980.000
G1 X141.150 Y38.895 E4.00900 F900.000
G1 X140.961 Y38.984 E4.01800
G1 X140.758 Y39.038 E4.02700
G1 X140.585 Y39.053 E4.03450
G1 X124.906 Y39.053 E4.70853
G1 X124.734 Y39.038 E4.71597
G1 X124.533 Y38.985 E4.72489
G1 X124.345 Y38.898 E4.73381
G1 X124.174 Y38.780 E4.74274
G1 X124.027 Y38.634 E4.75166
G1 X123.906 Y38.465 E4.76058
G1 X123.817 Y38.278 E4.76950
G1 X123.761 Y38.078 E4.77842
G1 X123.740 Y37.872 E4.78734
G1 X123.755 Y37.665 E4.79626
G1 X123.806 Y37.464 E4.80518
G1 X123.890 Y37.274 E4.81410
G1 X124.006 Y37.102 E4.82301
G1 X124.149 Y36.952 E4.83194
G1 X124.289 Y36.850 E4.83938
G1 X139.955 Y27.324 E5.62763
G1 X140.101 Y27.251 E5.63464
G1 X140.287 Y27.193 E5.64303
G1 X140.481 Y27.166 E5.65143
G1 X140.676 Y27.170 E5.65982
G1 X140.868 Y27.207 E5.66822 F900.000
G1 X141.051 Y27.273 E5.67661
G1 X141.221 Y27.369 E5.68501
G1 X141.374 Y27.491 E5.69340
G1 X141.504 Y27.636 E5.70180
G1 X141.610 Y27.801 E5.71019
G1 X141.687 Y27.980 E5.71859
G1 X141.734 Y28.170 E5.72698
G1 X141.748 Y28.332 E5.73399
G1 X141.748 Y37.890 E6.14491
G1 X141.732 Y38.064 E6.15241
G1 X141.678 Y38.266 E6.16141
G1 X141.590 Y38.456 E6.17041
G1 X141.470 Y38.627 E6.17941
G1 X141.364 Y38.733 E6.18583
G1 F1980.000 E2.18583
G92 E0
G1 X141.114 Y38.528 F6000.000
G1 E4.00000 F1980.000
G1 X140.989 Y38.616 E4.00658 F900.000
G1 X140.850 Y38.681 E4.01316
G1 X140.570 Y38.732 E4.02539
G1 X124.920 Y38.732 E4.69822
G1 X124.643 Y38.681 E4.71034
G1 X124.505 Y38.618 E4.71686
G1 X124.380 Y38.531 E4.72339
G1 X124.272 Y38.425 E4.72991
G1 X124.184 Y38.301 E4.73643
G1 X124.119 Y38.164 E4.74296
G1 X124.078 Y38.018 E4.74948
G1 X124.063 Y37.867 E4.75600
G1 X124.074 Y37.716 E4.76253
G1 X124.111 Y37.569 E4.76905
G1 X124.172 Y37.430 E4.77557
G1 X124.257 Y37.304 E4.78209
G1 X124.468 Y37.117 E4.79422
G1 X140.111 Y27.605 E5.58131
G1 X140.358 Y27.508 E5.59272
G1 X140.642 Y27.491 E5.60496 F900.000
G1 X140.782 Y27.518 E5.61110
G1 X141.041 Y27.636 E5.62334
G1 X141.152 Y27.726 E5.62948
G1 X141.325 Y27.952 E5.64172
G1 X141.382 Y28.083 E5.64786
G1 X141.426 Y28.345 E5.65927
G1 X141.426 Y37.876 E6.06903
G1 X141.375 Y38.156 E6.08125
G1 X141.310 Y38.294 E6.08783
G1 X141.157 Y38.486 E6.09838
G1 F1980.000 E2.09838
G92 E0
G1 X124.421 Y38.051 F6000.000
G1 E4.00000 F1980.000
G1 X124.385 Y37.863 E4.00822 F720.000
G1 X124.416 Y37.674 E4.01644
G1 X124.508 Y37.507 E4.02466
G1 X124.647 Y37.385 E4.03261
G1 X140.267 Y27.887 E4.81854
G1 X140.428 Y27.822 E4.82602
G1 X140.518 Y27.810 E4.82990
G1 X140.697 Y27.829 E4.83764
G1 X140.861 Y27.904 E4.84539
G1 X140.931 Y27.960 E4.84927
G1 X141.040 Y28.103 E4.85701
G1 X141.076 Y28.186 E4.86090
G1 X141.105 Y28.358 E4.86838
G1 X141.105 Y37.862 E5.27697
G1 X141.072 Y38.045 E5.28498
G1 X141.031 Y38.133 E5.28914
G1 X140.975 Y38.212 E5.29330
G1 X140.828 Y38.336 E5.30160
G1 X140.740 Y38.377 E5.30576
G1 X140.556 Y38.410 E5.31377
G1 X124.934 Y38.410 E5.98540
G1 X124.752 Y38.378 E5.99334
G1 X124.665 Y38.338 E5.99747
G1 X124.518 Y38.216 E6.00569
G1 X124.447 Y38.105 E6.01135
G1 F1980.000 E2.01135
G92 E0
G1 X124.234 Y38.009 F6000.000
G1 X141.748 Y40.504 F6000.000
G1 E4.00000 F1980.000
G1 X105.243 Y40.504 E5.56938 F900.000
G1 X105.243 Y45.564 E5.78695
G1 X103.793 Y45.564 E5.84931
G1 X103.793 Y39.053 E6.12923
G1 X117.565 Y39.053 E6.72132
G1 X117.861 Y39.011 E6.73420
G1 X118.137 Y38.893 E6.74708
G1 X141.177 Y24.883 E7.90634
G1 X148.259 Y24.883 E8.21081
G1 X148.259 Y26.334 E8.27317
G1 X143.198 Y26.334 E8.49073
G1 X143.198 Y173.666 E14.82480
G1 X165.027 Y173.666 E15.76324
G1 X165.027 Y163.545 E16.19837
G1 X166.477 Y163.545 E16.26073
G1 X166.477 Y175.117 E16.75822
G1 X141.748 Y175.117 E17.82138
G1 X141.748 Y53.812 E23.03646
G1 X141.732 Y53.638 E23.04397
G1 X141.678 Y53.436 E23.05297
G1 X141.590 Y53.247 E23.06196
G1 X141.470 Y53.075 E23.07096
G1 X141.322 Y52.927 E23.07996
G1 X141.150 Y52.807 E23.08896
G1 X140.961 Y52.719 E23.09796
G1 X140.758 Y52.664 E23.10696
G1 X140.584 Y52.649 E23.11446
G1 X136.687 Y52.649 E23.28202
G1 X136.687 Y48.162 E23.47492
G1 X138.138 Y48.162 E23.53728
G1 X138.138 Y51.199 E23.66782
G1 X141.748 Y51.199 E23.82303
G1 X141.748 Y40.564 E24.28024
G1 F1980.000 E20.28024
G92 E0
G1 X141.426 Y40.825 F6000.000
G1 E4.00000 F1980.000
G1 X105.565 Y40.825 E5.54174 F900.000
G1 X105.565 Y45.886 E5.75931
G1 X103.471 Y45.886 E5.84931
G1 X103.471 Y38.732 E6.15687
G1 X117.554 Y38.732 E6.76231
G1 X117.775 Y38.700 E6.77189
G1 X117.979 Y38.613 E6.78147
G1 X141.087 Y24.562 E7.94413
G1 X148.580 Y24.562 E8.26629
G1 X148.580 Y26.655 E8.35629
G1 X143.520 Y26.655 E8.57385
G1 X143.520 Y173.345 E14.88028
G1 X164.705 Y173.345 E15.79108
G1 X164.705 Y163.223 E16.22621
G1 X166.799 Y163.223 E16.31621
G1 X166.799 Y175.438 E16.84134
G1 X141.426 Y175.438 E17.93214
G1 X141.426 Y53.826 E23.16044
G1 X141.375 Y53.547 E23.17267
G1 X141.310 Y53.408 E23.17925
G1 X141.223 Y53.283 E23.18583
G1 X141.114 Y53.174 E23.19240
G1 X140.989 Y53.087 E23.19899
G1 X140.850 Y53.022 E23.20557
G1 X140.702 Y52.982 E23.21215
G1 X136.366 Y52.971 E23.39860
G1 X136.366 Y47.841 E23.61914
G1 X138.459 Y47.841 E23.70914
G1 X138.459 Y50.877 E23.83968
G1 X141.426 Y50.877 E23.96724
G1 X141.426 Y40.885 E24.39682
G1 F1980.000 E20.39682
G92 E0
G1 X141.105 Y41.147 F6000.000
G1 E4.00000 F1980.000
G1 X105.886 Y41.147 E5.51410 F720.000
G1 X105.886 Y45.946 E5.72043
G1 X105.852 Y46.080 E5.72636
G1 X105.759 Y46.173 E5.73202
G1 X105.625 Y46.207 E5.73796
G1 X103.411 Y46.207 E5.83313
G1 X103.318 Y46.191 E5.83720
G1 X103.210 Y46.116 E5.84286
G1 X103.166 Y46.039 E5.84666
G1 X103.150 Y45.946 E5.85074
G1 X103.150 Y38.672 E6.16347
G1 X103.185 Y38.538 E6.16941
G1 X103.278 Y38.445 E6.17506
G1 X103.411 Y38.410 E6.18100
G1 X117.543 Y38.410 E6.78854
G1 X117.688 Y38.390 E6.79482
G1 X117.822 Y38.332 E6.80110
G1 X140.967 Y24.262 E7.96559
G1 X141.073 Y24.241 E7.97026
G1 X148.640 Y24.241 E8.29558
G1 X148.774 Y24.275 E8.30152
G1 X148.867 Y24.368 E8.30718
G1 X148.902 Y24.502 E8.31311
G1 X148.902 Y26.715 E8.40828
G1 X148.867 Y26.849 E8.41422
G1 X148.774 Y26.942 E8.41987
G1 X148.640 Y26.977 E8.42581
G1 X143.841 Y26.977 E8.63214
G1 X143.841 Y173.023 E14.91092
G1 X164.384 Y173.023 E15.79408
G1 X164.388 Y163.113 E16.22015
G1 X164.418 Y163.030 E16.22395
G1 X164.475 Y162.962 E16.22775
G1 X164.552 Y162.918 E16.23154
G1 X164.645 Y162.902 E16.23562
G1 X166.909 Y162.906 E16.33297
G1 X166.992 Y162.936 E16.33677
G1 X167.060 Y162.993 E16.34056
G1 X167.104 Y163.070 E16.34436
G1 X167.120 Y163.163 E16.34844
G1 X167.120 Y175.498 E16.87873
G1 X167.104 Y175.592 E16.88281
G1 X167.060 Y175.668 E16.88661
G1 X166.992 Y175.725 E16.89040
G1 X166.909 Y175.755 E16.89420
G1 X141.366 Y175.759 E17.99235
G1 X141.273 Y175.744 E17.99643
G1 X141.196 Y175.699 E18.00022
G1 X141.139 Y175.632 E18.00402
G1 X141.109 Y175.549 E18.00782
G1 X141.105 Y53.840 E23.24027
G1 X141.072 Y53.657 E23.24828
G1 X140.975 Y53.490 E23.25657
G1 X140.828 Y53.366 E23.26487
G1 X140.646 Y53.300 E23.27316
G1 X136.306 Y53.292 E23.45978
G1 X136.212 Y53.276 E23.46386
G1 X136.136 Y53.232 E23.46765
G1 X136.060 Y53.124 E23.47331
G1 X136.044 Y53.031 E23.47739
G1 X136.044 Y47.781 E23.70310
G1 X136.079 Y47.647 E23.70903
G1 X136.172 Y47.554 E23.71469
G1 X136.306 Y47.519 E23.72063
G1 X138.519 Y47.519 E23.81580
G1 X138.653 Y47.554 E23.82173
G1 X138.746 Y47.647 E23.82739
G1 X138.780 Y47.781 E23.83333
G1 X138.780 Y50.556 E23.95263
G1 X141.105 Y50.556 E24.05255
G1 X141.105 Y41.207 E24.45449
G1 F1980.000 E20.45449
G92 E0
G1 X141.105 Y40.747 F6000.000
G1 X141.961 Y40.920 F6000.000
G1 E4.00000 F1980.000
G1 X142.985 Y41.944 E4.06229 F900.000
G1 X142.985 Y42.400 E4.08187
G1 X141.961 Y41.375 E4.14416
G1 X141.961 Y41.831 E4.16375
G1 X142.985 Y42.855 E4.22603
G1 X142.985 Y43.311 E4.24562
G1 X141.961 Y42.287 E4.30791
G1 X141.961 Y42.742 E4.32749
G1 X142.985 Y43.767 E4.38978
G1 X142.985 Y44.222 E4.40937
G1 X141.961 Y43.198 E4.47165
G1 X141.961 Y43.653 E4.49124
G1 X142.985 Y44.678 E4.55353
G1 X142.985 Y45.133 E4.57311
G1 X141.961 Y44.109 E4.63540
G1 X141.961 Y44.564 E4.65499
G1 X142.985 Y45.589 E4.71728
G1 X142.985 Y46.045 E4.73686
G1 X141.961 Y45.020 E4.79915
G1 X141.961 Y45.476 E4.81874
G1 X142.985 Y46.500 E4.88102
G1 X142.985 Y46.956 E4.90061
G1 X141.961 Y45.931 E4.96290
G1 X141.961 Y46.387 E4.98248
G1 X142.985 Y47.411 E5.04477
G1 X142.985 Y47.867 E5.06436
G1 X141.961 Y46.842 E5.12664
G1 X141.961 Y47.298 E5.14623
G1 X142.985 Y48.322 E5.20852
G1 X142.985 Y48.778 E5.22810
G1 X141.961 Y47.754 E5.29039
G1 X141.961 Y48.209 E5.30998
G1 X142.985 Y49.234 E5.37226
G1 X142.985 Y49.689 E5.39185
G1 X141.961 Y48.665 E5.45414
G1 X141.961 Y49.120 E5.47372
G1 X142.985 Y50.145 E5.53601
G1 X142.985 Y50.600 E5.55560
G1 X141.961 Y49.576 E5.61788
G1 X141.961 Y50.032 E5.63747
G1 X142.985 Y51.056 E5.69976
G1 X142.985 Y51.512 E5.71934
G1 X141.961 Y50.487 E5.78163
G1 X141.961 Y50.943 E5.80122
G1 X142.985 Y51.967 E5.86350
G1 X142.985 Y52.423 E5.88309
G1 X141.961 Y51.398 E5.94538
G1 X141.519 Y51.412 E5.96440
G1 X142.985 Y52.878 E6.05357
G1 X142.985 Y53.334 E6.07315
G1 X141.063 Y51.412 E6.19002
G1 X140.607 Y51.412 E6.20961
G1 X142.985 Y53.790 E6.35418
G1 X142.985 Y54.245 E6.37377
G1 X140.152 Y51.412 E6.54604
G1 X139.696 Y51.412 E6.56562
G1 X140.733 Y52.448 E6.62865
G1 X140.265 Y52.436 E6.64877
G1 X139.241 Y51.412 E6.71105
G1 X138.785 Y51.412 E6.73064
G1 X139.809 Y52.436 E6.79293
G1 X139.354 Y52.436 E6.81251
G1 X138.329 Y51.412 E6.87480
G1 F1980.000 E2.87480
G92 E0
G1 X137.925 Y51.007 F6000.000
G1 E4.00000 F1980.000
G1 X136.900 Y49.982 E4.06229 F900.000
G1 X136.900 Y49.527 E4.08187
G1 X137.925 Y50.551 E4.14416
G1 X137.925 Y50.096 E4.16375
G1 X136.900 Y49.071 E4.22603
G1 X136.900 Y48.616 E4.24562
G1 X137.925 Y49.640 E4.30791
G1 X137.925 Y49.185 E4.32750
G1 X137.115 Y48.375 E4.37669
G1 X137.571 Y48.375 E4.39628
G1 X137.925 Y48.729 E4.41777
G1 F1980.000 E0.41777
G92 E0
G1 X136.900 Y50.438 F6000.000
G1 E4.00000 F1980.000
G1 X138.898 Y52.436 E4.12149 F900.000
G1 X138.443 Y52.436 E4.14108
G1 X136.900 Y50.894 E4.23487
G1 X136.900 Y51.349 E4.25445
G1 X137.987 Y52.436 E4.32054
G1 X137.531 Y52.436 E4.34013
G1 X136.900 Y51.805 E4.37852
G1 X136.900 Y52.260 E4.39811
G1 X137.076 Y52.436 E4.40880
G1 F1980.000 E0.40880
G92 E0
G1 X141.949 Y53.664 F6000.000
G1 E4.00000 F1980.000
G1 X142.985 Y54.701 E4.06303 F900.000
G1 X142.985 Y55.156 E4.08261
G1 X141.961 Y54.132 E4.14490
G1 X141.961 Y54.587 E4.16449
G1 X142.985 Y55.612 E4.22677
G1 X142.985 Y56.068 E4.24636
G1 X141.961 Y55.043 E4.30865
G1 X141.961 Y55.499 E4.32823
G1 X142.985 Y56.523 E4.39052
G1 X142.985 Y56.979 E4.41011
G1 X141.961 Y55.954 E4.47239
G1 X141.961 Y56.410 E4.49198
G1 X142.985 Y57.434 E4.55427
G1 X142.985 Y57.890 E4.57385
G1 X141.961 Y56.865 E4.63614
G1 X141.961 Y57.321 E4.65573
G1 X142.985 Y58.345 E4.71801
G1 X142.985 Y58.801 E4.73760
G1 X141.961 Y57.777 E4.79989
G1 X141.961 Y58.232 E4.81947
G1 X142.985 Y59.257 E4.88176
G1 X142.985 Y59.712 E4.90135
G1 X141.961 Y58.688 E4.96364
G1 X141.961 Y59.143 E4.98322
G1 X142.985 Y60.168 E5.04551
G1 X142.985 Y60.623 E5.06510
G1 X141.961 Y59.599 E5.12738
G1 X141.961 Y60.055 E5.14697
G1 X142.985 Y61.079 E5.20926
G1 X142.985 Y61.535 E5.22884
G1 X141.961 Y60.510 E5.29113
G1 X141.961 Y60.966 E5.31072
G1 X142.985 Y61.990 E5.37300
G1 X142.985 Y62.446 E5.39259
G1 X141.961 Y61.421 E5.45488
G1 X141.961 Y61.877 E5.47446
G1 X142.985 Y62.901 E5.53675
G1 X142.985 Y63.357 E5.55634
G1 X141.961 Y62.333 E5.61862
G1 X141.961 Y62.788 E5.63821
G1 X142.985 Y63.813 E5.70050
G1 X142.985 Y64.268 E5.72008
G1 X141.961 Y63.244 E5.78237
G1 X141.961 Y63.699 E5.80196
G1 X142.985 Y64.724 E5.86424
G1 X142.985 Y65.179 E5.88383
G1 X141.961 Y64.155 E5.94612
G1 X141.961 Y64.610 E5.96570
G1 X142.985 Y65.635 E6.02799
G1 X142.985 Y66.091 E6.04758
G1 X141.961 Y65.066 E6.10986
G1 X141.961 Y65.522 E6.12945
G1 X142.985 Y66.546 E6.19174
G1 X142.985 Y67.002 E6.21132
G1 X141.961 Y65.977 E6.27361
G1 X141.961 Y66.433 E6.29320
G1 X142.985 Y67.457 E6.35548
G1 X142.985 Y67.913 E6.37507
G1 X141.961 Y66.888 E6.43736
G1 X141.961 Y67.344 E6.45695
G1 X142.985 Y68.368 E6.51923
G1 X142.985 Y68.824 E6.53882
G1 X141.961 Y67.800 E6.60111
G1 X141.961 Y68.255 E6.62069
G1 X142.985 Y69.280 E6.68298
G1 X142.985 Y69.735 E6.70257
G1 X141.961 Y68.711 E6.76485
G1 X141.961 Y69.166 E6.78444
G1 X142.985 Y70.191 E6.84673
G1 X142.985 Y70.646 E6.86631
G1 X141.961 Y69.622 E6.92860
G1 X141.961 Y70.078 E6.94819
G1 X142.985 Y71.102 E7.01047
G1 X142.985 Y71.558 E7.03006
G1 X141.961 Y70.533 E7.09235
G1 X141.961 Y70.989 E7.11193
G1 X142.985 Y72.013 E7.17422
G1 X142.985 Y72.469 E7.19381
G1 X141.961 Y71.444 E7.25609
G1 X141.961 Y71.900 E7.27568
G1 X142.985 Y72.924 E7.33797
