; generated by Slic3r 1.1.7 on 2015-03-28 at 11:44:09

; perimeters extrusion width = 0.40mm
; infill extrusion width = 0.42mm
; solid infill extrusion width = 0.42mm
; top infill extrusion width = 0.42mm
; support material extrusion width = 0.40mm

G21 ; set units to millimeters
M190 S75 ; wait for bed temperature to be reached
M104 S240 ; set temperature
M106 S255; Turn on Fan fully
G28 ; home all axes Start of G Code Slic3r
G1 Z18
M280 P0 S10 
G1 Z20
G29 ; AutoBed leveing
G1 X208 Y20 F4000
G1 Z4
 
  
M109 S240 ; wait for temperature to be reached
G90 ; use absolute coordinates
G92 E0
M82 ; use absolute distances for extrusion
M106 S127
G1 F1980.000 E-4.00000
G92 E0
G1 Z0.300 F6000.000
G1 X40.008 Y33.708 F6000.000
G1 E4.00000 F1980.000
G1 X41.004 Y32.873 E4.05332 F1650.000
G1 X42.007 Y32.294 E4.10083
G1 X42.539 Y32.067 E4.12454
G1 X80.294 Y17.865 E5.77949
G1 X81.218 Y17.602 E5.81893
G1 X82.170 Y17.467 E5.85837
G1 X82.679 Y17.448 E5.87927
G1 X117.931 Y17.495 E7.32554
G1 X119.538 Y17.882 E7.39335 F1650.000
G1 X120.814 Y18.516 E7.45179
G1 X121.886 Y19.352 E7.50756
G1 X122.740 Y20.332 E7.56089
G1 X123.280 Y21.212 E7.60325
G1 X123.683 Y22.152 E7.64524
G1 X161.781 Y152.190 E13.20450
G1 X162.000 Y153.398 E13.25487
G1 X162.032 Y154.048 E13.28155
G1 X162.006 Y161.914 E13.60428
G1 X161.799 Y163.124 E13.65466
G1 X161.385 Y164.280 E13.70505
G1 X160.776 Y165.348 E13.75546
G1 X159.941 Y166.342 E13.80873
G1 X158.997 Y167.127 E13.85912
G1 X157.993 Y167.706 E13.90666
G1 X157.461 Y167.933 E13.93037
G1 X119.707 Y182.135 E15.58527
G1 X118.781 Y182.399 E15.62479
G1 X117.830 Y182.533 E15.66418
G1 X117.321 Y182.552 E15.68509
G1 X82.069 Y182.505 E17.13134
G1 X80.521 Y182.140 E17.19659
G1 X79.134 Y181.451 E17.26013
G1 X78.072 Y180.608 E17.31577
G1 X77.306 Y179.732 E17.36349
G1 X76.720 Y178.789 E17.40906
G1 X76.317 Y177.847 E17.45107
G1 X76.209 Y177.510 E17.46559
G1 X38.201 Y47.742 E23.01323
G1 X38.000 Y46.602 E23.06071
G1 X37.968 Y45.952 E23.08739
G1 X38.000 Y38.016 E23.41300
G1 X38.201 Y36.876 E23.46050
G1 X38.615 Y35.720 E23.51088
G1 X39.224 Y34.652 E23.56130
G1 X39.970 Y33.754 E23.60920
G1 F1980.000 E19.60920
G92 E0
G1 X40.236 Y33.935 F6000.000
G1 E4.00000 F1980.000
G1 X41.130 Y33.176 E4.04814 F1650.000
G1 X42.142 Y32.585 E4.09623
G1 X42.652 Y32.368 E4.11894
G1 X80.401 Y18.167 E5.77364
G1 X81.284 Y17.916 E5.81128
G1 X82.192 Y17.788 E5.84892
G1 X82.679 Y17.769 E5.86892
G1 X117.893 Y17.814 E7.31361
G1 X119.427 Y18.184 E7.37835 F1650.000
G1 X120.641 Y18.787 E7.43397
G1 X121.663 Y19.584 E7.48714
G1 X122.480 Y20.521 E7.53814
G1 X122.994 Y21.358 E7.57844
G1 X123.379 Y22.256 E7.61853
G1 X161.470 Y152.273 E13.17691
G1 X161.680 Y153.426 E13.22499
G1 X161.710 Y154.048 E13.25052
G1 X161.686 Y161.886 E13.57210
G1 X161.489 Y163.041 E13.62018
G1 X161.094 Y164.145 E13.66827
G1 X160.513 Y165.163 E13.71638
G1 X159.764 Y166.065 E13.76445
G1 X158.870 Y166.823 E13.81256
G1 X157.857 Y167.415 E13.86068
G1 X157.348 Y167.632 E13.88338
G1 X119.599 Y181.832 E15.53805
G1 X118.715 Y182.084 E15.57576
G1 X117.808 Y182.212 E15.61336
G1 X117.321 Y182.231 E15.63336
G1 X82.108 Y182.186 E17.07804
G1 X80.632 Y181.838 E17.14023
G1 X79.307 Y181.180 E17.20091
G1 X78.337 Y180.416 E17.25158
G1 X77.566 Y179.542 E17.29939
G1 X77.006 Y178.642 E17.34287
G1 X76.621 Y177.744 E17.38298
G1 X76.517 Y177.420 E17.39693
G1 X38.529 Y47.727 E22.94137
G1 X38.320 Y46.574 E22.98944
G1 X38.290 Y45.952 E23.01497
G1 X38.314 Y38.114 E23.33655
G1 X38.511 Y36.959 E23.38463
G1 X38.906 Y35.856 E23.43271
G1 X39.487 Y34.837 E23.48083
G1 X40.197 Y33.981 E23.52643
G1 F1980.000 E19.52643
G92 E0
G1 X82.761 Y38.895 F6000.000
G1 E4.00000 F1980.000
G1 X82.572 Y38.984 E4.00859 F900.000
G1 X82.370 Y39.038 E4.01717
G1 X82.196 Y39.053 E4.02433
G1 X66.518 Y39.053 E4.66756
G1 X66.345 Y39.038 E4.67466
G1 X66.145 Y38.985 E4.68317
G1 X65.956 Y38.898 E4.69168
G1 X65.786 Y38.780 E4.70020
G1 X65.638 Y38.634 E4.70871
G1 X65.517 Y38.465 E4.71722
G1 X65.428 Y38.278 E4.72574
G1 X65.372 Y38.078 E4.73425
G1 X65.351 Y37.872 E4.74276
G1 X65.366 Y37.665 E4.75127
G1 X65.417 Y37.464 E4.75979
G1 X65.501 Y37.274 E4.76830
G1 X65.617 Y37.102 E4.77681
G1 X65.761 Y36.952 E4.78533
G1 X65.900 Y36.850 E4.79242
G1 X81.566 Y27.324 E5.54465
G1 X81.712 Y27.251 E5.55133
G1 X81.898 Y27.193 E5.55934
G1 X82.092 Y27.166 E5.56735
G1 X82.287 Y27.170 E5.57536
G1 X82.479 Y27.207 E5.58338 F900.000
G1 X82.662 Y27.273 E5.59139
G1 X82.833 Y27.369 E5.59940
G1 X82.985 Y27.491 E5.60741
G1 X83.116 Y27.636 E5.61542
G1 X83.221 Y27.801 E5.62343
G1 X83.298 Y27.980 E5.63145
G1 X83.346 Y28.170 E5.63946
G1 X83.359 Y28.332 E5.64614
G1 X83.359 Y37.890 E6.03828
G1 X83.344 Y38.064 E6.04544
G1 X83.289 Y38.266 E6.05403
G1 X83.201 Y38.456 E6.06262
G1 X83.081 Y38.627 E6.07120
G1 X82.933 Y38.775 E6.07979
G1 X82.811 Y38.861 E6.08592
G1 F1980.000 E2.08592
G92 E0
G1 X82.600 Y38.616 F6000.000
G1 E4.00000 F1980.000
G1 X82.461 Y38.681 E4.00628 F900.000
G1 X82.182 Y38.732 E4.01795
G1 X66.531 Y38.732 E4.66002
G1 X66.254 Y38.681 E4.67159
G1 X66.116 Y38.618 E4.67782
G1 X65.992 Y38.532 E4.68404
G1 X65.883 Y38.425 E4.69027
G1 X65.795 Y38.301 E4.69649
G1 X65.730 Y38.164 E4.70272
G1 X65.689 Y38.018 E4.70894
G1 X65.674 Y37.867 E4.71517
G1 X65.685 Y37.716 E4.72139
G1 X65.722 Y37.569 E4.72762
G1 X65.784 Y37.430 E4.73384
G1 X65.868 Y37.304 E4.74007
G1 X66.079 Y37.117 E4.75164
G1 X81.722 Y27.605 E5.50275
G1 X81.969 Y27.508 E5.51364
G1 X82.253 Y27.491 E5.52532 F900.000
G1 X82.394 Y27.518 E5.53118
G1 X82.652 Y27.636 E5.54286
G1 X82.764 Y27.726 E5.54872
G1 X82.936 Y27.952 E5.56040
G1 X82.993 Y28.083 E5.56626
G1 X83.037 Y28.345 E5.57715
G1 X83.037 Y37.876 E5.96818
G1 X82.986 Y38.156 E5.97984
G1 X82.922 Y38.294 E5.98612
G1 X82.834 Y38.420 E5.99240
G1 X82.649 Y38.582 E6.00247
G1 F1980.000 E2.00247
G92 E0
G1 X66.006 Y37.959 F6000.000
G1 E4.00000 F1980.000
G1 X66.003 Y37.767 E4.00785 F720.000
G1 X66.027 Y37.674 E4.01178
G1 X66.119 Y37.507 E4.01963
G1 X66.258 Y37.385 E4.02721
G1 X81.878 Y27.887 E4.77722
G1 X82.040 Y27.822 E4.78436
G1 X82.129 Y27.810 E4.78806
G1 X82.219 Y27.812 E4.79177
G1 X82.393 Y27.860 E4.79916
G1 X82.542 Y27.960 E4.80655
G1 X82.651 Y28.103 E4.81393
G1 X82.687 Y28.186 E4.81764
G1 X82.716 Y28.358 E4.82478
G1 X82.716 Y37.862 E5.21469
G1 X82.683 Y38.045 E5.22234
G1 X82.642 Y38.133 E5.22631
G1 X82.518 Y38.281 E5.23422
G1 X82.439 Y38.336 E5.23820
G1 X82.351 Y38.377 E5.24217
G1 X82.168 Y38.410 E5.24981
G1 X66.545 Y38.410 E5.89074
G1 X66.363 Y38.378 E5.89832
G1 X66.197 Y38.283 E5.90617
G1 X66.073 Y38.138 E5.91402
G1 X66.022 Y38.016 E5.91941
G1 F1980.000 E1.91941
G92 E0
G1 X65.830 Y37.885 F6000.000
G1 X83.359 Y40.504 F6000.000
G1 E4.00000 F1980.000
G1 X46.855 Y40.504 E5.49765 F900.000
G1 X46.855 Y45.564 E5.70527
G1 X45.404 Y45.564 E5.76478
G1 X45.404 Y39.053 E6.03191
G1 X59.176 Y39.053 E6.59693
G1 X59.473 Y39.011 E6.60922
G1 X59.748 Y38.893 E6.62152
G1 X82.788 Y24.883 E7.72779
G1 X89.870 Y24.883 E8.01834
G1 X89.870 Y26.334 E8.07785
G1 X84.814 Y26.334 E8.28529
G1 X83.985 Y173.666 E14.32993
G1 X100.352 Y173.666 E15.00143
G1 X100.352 Y163.545 E15.41667
G1 X100.983 Y163.545 E15.44255
G1 X100.983 Y175.117 E15.91730
G1 X83.359 Y175.117 E16.64036
G1 X83.359 Y53.812 E21.61707
G1 X83.344 Y53.639 E21.62423
G1 X83.289 Y53.436 E21.63282
G1 X83.201 Y53.247 E21.64141
G1 X83.081 Y53.075 E21.64999
G1 X82.933 Y52.927 E21.65858
G1 X82.762 Y52.807 E21.66717
G1 X82.572 Y52.719 E21.67576
G1 X82.370 Y52.664 E21.68435
G1 X82.196 Y52.649 E21.69151
G1 X78.298 Y52.649 E21.85141
G1 X78.298 Y48.162 E22.03549
G1 X79.749 Y48.162 E22.09500
G1 X79.749 Y51.199 E22.21957
G1 X83.359 Y51.199 E22.36768
G1 X83.359 Y40.564 E22.80400
G1 F1980.000 E18.80400
G92 E0
G1 X83.037 Y40.825 F6000.000
G1 E4.00000 F1980.000
G1 X47.176 Y40.825 E5.47127 F900.000
G1 X47.176 Y45.886 E5.67889
G1 X45.083 Y45.886 E5.76478
G1 X45.083 Y38.732 E6.05829
G1 X59.165 Y38.732 E6.63605
G1 X59.386 Y38.700 E6.64519
G1 X59.591 Y38.613 E6.65433
G1 X82.698 Y24.562 E7.76385
G1 X90.192 Y24.562 E8.07128
G1 X90.192 Y26.655 E8.15717
G1 X85.134 Y26.655 E8.36468
G1 X84.308 Y173.345 E14.38295
G1 X100.031 Y173.345 E15.02799
G1 X100.031 Y163.223 E15.44324
G1 X101.305 Y163.223 E15.49549
G1 X101.305 Y175.438 E15.99662
G1 X83.037 Y175.438 E16.74606
G1 X83.037 Y53.826 E21.73538
G1 X82.986 Y53.547 E21.74705
G1 X82.922 Y53.408 E21.75333
G1 X82.834 Y53.283 E21.75961
G1 X82.726 Y53.174 E21.76589
G1 X82.600 Y53.087 E21.77217
G1 X82.461 Y53.022 E21.77845
G1 X82.314 Y52.982 E21.78473
G1 X77.977 Y52.971 E21.96265
G1 X77.977 Y47.841 E22.17311
G1 X80.070 Y47.841 E22.25900
G1 X80.070 Y50.877 E22.38357
G1 X83.037 Y50.877 E22.50531
G1 X83.037 Y40.885 E22.91525
G1 F1980.000 E18.91525
G92 E0
G1 X82.716 Y41.147 F6000.000
G1 E4.00000 F1980.000
G1 X47.498 Y41.147 E5.44489 F720.000
G1 X47.498 Y45.946 E5.64179
G1 X47.463 Y46.080 E5.64745
G1 X47.370 Y46.173 E5.65286
G1 X47.236 Y46.207 E5.65852
G1 X45.023 Y46.207 E5.74934
G1 X44.929 Y46.191 E5.75323
G1 X44.853 Y46.147 E5.75685
G1 X44.777 Y46.039 E5.76225
G1 X44.761 Y45.946 E5.76614
G1 X44.761 Y38.672 E6.06458
G1 X44.796 Y38.538 E6.07025
G1 X44.889 Y38.445 E6.07565
G1 X45.023 Y38.410 E6.08131
G1 X59.154 Y38.410 E6.66108
G1 X59.299 Y38.390 E6.66708
G1 X59.433 Y38.332 E6.67307
G1 X82.578 Y24.262 E7.78433
G1 X82.685 Y24.241 E7.78879
G1 X90.252 Y24.241 E8.09924
G1 X90.385 Y24.275 E8.10490
G1 X90.453 Y24.332 E8.10852
G1 X90.497 Y24.408 E8.11215
G1 X90.513 Y24.502 E8.11604
G1 X90.513 Y26.715 E8.20686
G1 X90.478 Y26.849 E8.21252
G1 X90.385 Y26.942 E8.21792
G1 X90.252 Y26.977 E8.22359
G1 X85.453 Y26.977 E8.42045
G1 X84.632 Y173.023 E14.41234
G1 X99.710 Y173.023 E15.03093
G1 X99.713 Y163.106 E15.43781
G1 X99.757 Y162.975 E15.44345
G1 X99.824 Y162.902 E15.44754
G1 X101.512 Y162.902 E15.51677
G1 X101.598 Y163.013 E15.52254
G1 X101.626 Y163.161 E15.52874
G1 X101.626 Y175.500 E16.03495
G1 X101.598 Y175.648 E16.04115
G1 X101.512 Y175.759 E16.04693
G1 X82.831 Y175.759 E16.81334
G1 X82.763 Y175.686 E16.81743
G1 X82.720 Y175.556 E16.82307
G1 X82.716 Y53.840 E21.81664
G1 X82.683 Y53.657 E21.82429
G1 X82.587 Y53.490 E21.83220
G1 X82.439 Y53.366 E21.84012
G1 X82.258 Y53.300 E21.84803
G1 X77.917 Y53.292 E22.02612
G1 X77.823 Y53.276 E22.03001
G1 X77.747 Y53.232 E22.03364
G1 X77.671 Y53.124 E22.03904
G1 X77.655 Y53.031 E22.04293
G1 X77.655 Y47.781 E22.25832
G1 X77.690 Y47.647 E22.26398
G1 X77.783 Y47.554 E22.26938
G1 X77.917 Y47.519 E22.27505
G1 X80.130 Y47.519 E22.36586
G1 X80.264 Y47.554 E22.37153
G1 X80.357 Y47.647 E22.37693
G1 X80.392 Y47.781 E22.38259
G1 X80.392 Y50.556 E22.49644
G1 X82.716 Y50.556 E22.59180
G1 X82.716 Y41.207 E22.97536
G1 F1980.000 E18.97536
G92 E0
G1 X82.716 Y40.747 F6000.000
G1 X83.572 Y174.864 F6000.000
G1 E4.00000 F1980.000
G1 X83.612 Y174.904 E4.00232 F900.000
G1 X84.073 Y174.904 E4.02124
G1 X83.572 Y174.402 E4.05031
G1 X83.670 Y174.040 E4.06573
G1 X84.534 Y174.904 E4.11584
G1 X84.995 Y174.904 E4.13476
G1 X84.109 Y174.017 E4.18617
G1 X84.432 Y173.879 E4.20057
G1 X85.456 Y174.904 E4.26001
G1 X85.917 Y174.904 E4.27893
G1 X84.893 Y173.879 E4.33837
G1 X85.354 Y173.879 E4.35729
G1 X86.378 Y174.904 E4.41673
G1 X86.839 Y174.904 E4.43564
G1 X85.815 Y173.879 E4.49508
G1 X86.276 Y173.879 E4.51400
G1 X87.301 Y174.904 E4.57344
G1 X87.762 Y174.904 E4.59235
G1 X86.737 Y173.879 E4.65179
G1 X87.198 Y173.879 E4.67071
G1 X88.223 Y174.904 E4.73015
G1 X88.684 Y174.904 E4.74907
G1 X87.659 Y173.879 E4.80851
G1 X88.120 Y173.879 E4.82742
G1 X89.145 Y174.904 E4.88686
G1 X89.606 Y174.904 E4.90578
G1 X88.581 Y173.879 E4.96522
G1 X89.043 Y173.879 E4.98413
G1 X90.067 Y174.904 E5.04357
G1 X90.528 Y174.904 E5.06249
G1 X89.504 Y173.879 E5.12193
G1 X89.965 Y173.879 E5.14085
G1 X90.989 Y174.904 E5.20029
G1 X91.450 Y174.904 E5.21920
G1 X90.426 Y173.879 E5.27864
G1 X90.887 Y173.879 E5.29756
G1 X91.911 Y174.904 E5.35700
G1 X92.372 Y174.904 E5.37592
G1 X91.348 Y173.879 E5.43535
G1 X91.809 Y173.879 E5.45427
G1 X92.833 Y174.904 E5.51371
G1 X93.295 Y174.904 E5.53263
G1 X92.270 Y173.879 E5.59207
G1 X92.731 Y173.879 E5.61098
G1 X93.756 Y174.904 E5.67042
G1 X94.217 Y174.904 E5.68934
G1 X93.192 Y173.879 E5.74878
G1 X93.653 Y173.879 E5.76770
G1 X94.678 Y174.904 E5.82713
G1 X95.139 Y174.904 E5.84605
G1 X94.114 Y173.879 E5.90549
G1 X94.575 Y173.879 E5.92441
G1 X95.600 Y174.904 E5.98385
G1 X96.061 Y174.904 E6.00276
G1 X95.037 Y173.879 E6.06220
G1 X95.498 Y173.879 E6.08112
G1 X96.522 Y174.904 E6.14056
G1 X96.983 Y174.904 E6.15948
G1 X95.959 Y173.879 E6.21892
G1 X96.420 Y173.879 E6.23783
G1 X97.444 Y174.904 E6.29727
G1 X97.905 Y174.904 E6.31619
G1 X96.881 Y173.879 E6.37563
G1 X97.342 Y173.879 E6.39454
G1 X98.366 Y174.904 E6.45398
G1 X98.827 Y174.904 E6.47290
G1 X97.803 Y173.879 E6.53234
G1 X98.264 Y173.879 E6.55126
G1 X99.289 Y174.904 E6.61070
G1 X99.750 Y174.904 E6.62961
G1 X98.725 Y173.879 E6.68905
G1 X99.186 Y173.879 E6.70797
G1 X100.211 Y174.904 E6.76741
G1 X100.672 Y174.904 E6.78632
G1 X99.647 Y173.879 E6.84576
G1 X100.108 Y173.879 E6.86468
G1 X100.770 Y174.541 E6.90308
G1 X100.770 Y174.080 E6.92199
G1 X100.730 Y174.040 E6.92432
G1 F1980.000 E2.92432
G92 E0
G1 X100.668 Y173.827 F6000.000
G1 E4.00000 F1980.000
G1 X100.668 Y163.706 E4.56742 F600.000
G1 F1980.000 E0.56742
G92 E0
G1 X83.672 Y173.827 F6000.000
G1 E4.00000 F1980.000
G1 X83.808 Y125.272 E6.72208 F600.000
G1 F1980.000 E2.72208
G92 E0
G1 X83.572 Y125.019 F6000.000
G1 E4.00000 F1980.000
G1 X83.612 Y125.059 E4.00232 F900.000
G1 X84.037 Y125.029 E4.01980
G1 X83.572 Y124.564 E4.04677
G1 X83.572 Y124.109 E4.06543
G1 X84.048 Y124.585 E4.09306
G1 X84.051 Y124.133 E4.11161
G1 X83.572 Y123.654 E4.13939
G1 X83.572 Y123.200 E4.15805
G1 X84.053 Y123.681 E4.18598
G1 X84.056 Y123.229 E4.20453
G1 X83.572 Y122.745 E4.23261
G1 X83.572 Y122.290 E4.25127
G1 X84.058 Y122.776 E4.27949
G1 X84.061 Y122.324 E4.29804
G1 X83.572 Y121.835 E4.32642
G1 X83.572 Y121.380 E4.34507
G1 X84.063 Y121.872 E4.37359
G1 X84.066 Y121.420 E4.39215
G1 X83.572 Y120.926 E4.42081
G1 X83.572 Y120.471 E4.43947
G1 X84.069 Y120.967 E4.46828
G1 X84.071 Y120.515 E4.48684
G1 X83.572 Y120.016 E4.51580
G1 X83.572 Y119.561 E4.53446
G1 X84.074 Y120.063 E4.56357
G1 X84.076 Y119.611 E4.58212
G1 X83.572 Y119.106 E4.61138
G1 X83.572 Y118.652 E4.63004
G1 X84.079 Y119.158 E4.65944
G1 X84.081 Y118.706 E4.67799
G1 X83.572 Y118.197 E4.70755
G1 X83.572 Y117.742 E4.72620
G1 X84.084 Y118.254 E4.75590
G1 X84.086 Y117.802 E4.77446
G1 X83.572 Y117.287 E4.80430
G1 X83.572 Y116.832 E4.82296
G1 X84.089 Y117.349 E4.85296
G1 X84.091 Y116.897 E4.87151
G1 X83.572 Y116.378 E4.90165
G1 X83.572 Y115.923 E4.92031
G1 X84.094 Y116.445 E4.95060
G1 X84.096 Y115.993 E4.96916
G1 X83.572 Y115.468 E4.99959
G1 X83.572 Y115.013 E5.01825
G1 X84.099 Y115.540 E5.04884
G1 X84.102 Y115.088 E5.06739
G1 X83.572 Y114.558 E5.09812
G1 X83.572 Y114.104 E5.11678
G1 X84.104 Y114.636 E5.14766
G1 X84.107 Y114.184 E5.16621
G1 X83.572 Y113.649 E5.19724
G1 X83.572 Y113.194 E5.21590
G1 X84.109 Y113.731 E5.24708
G1 X84.112 Y113.279 E5.26563
G1 X83.572 Y112.739 E5.29695
G1 X83.572 Y112.284 E5.31561
G1 X84.114 Y112.827 E5.34708
G1 X84.117 Y112.375 E5.36564
G1 X83.572 Y111.830 E5.39725
G1 X83.572 Y111.375 E5.41591
G1 X84.119 Y111.922 E5.44768
G1 X84.122 Y111.470 E5.46623
G1 X83.572 Y110.920 E5.49814
G1 X83.572 Y110.465 E5.51680
G1 X84.124 Y111.018 E5.54886
G1 X84.127 Y110.566 E5.56742
G1 X83.572 Y110.011 E5.59963
G1 X83.572 Y109.556 E5.61828
G1 X84.130 Y110.113 E5.65064
G1 X84.132 Y109.661 E5.66920
G1 X83.572 Y109.101 E5.70170
G1 X83.572 Y108.646 E5.72036
G1 X84.135 Y109.209 E5.75301
G1 X84.137 Y108.757 E5.77156
G1 X83.572 Y108.191 E5.80436
G1 X83.572 Y107.737 E5.82302
G1 X84.140 Y108.304 E5.85597
G1 X84.142 Y107.852 E5.87452
G1 X83.572 Y107.282 E5.90761
G1 X83.572 Y106.827 E5.92627
G1 X84.145 Y107.400 E5.95951
G1 X84.147 Y106.948 E5.97807
G1 X83.572 Y106.372 E6.01146
G1 X83.572 Y105.917 E6.03012
G1 X84.150 Y106.495 E6.06365
G1 X84.152 Y106.043 E6.08221
G1 X83.572 Y105.463 E6.11589
G1 X83.572 Y105.008 E6.13455
G1 X84.155 Y105.591 E6.16838
G1 X84.158 Y105.139 E6.18694
G1 X83.572 Y104.553 E6.22091
G1 X83.572 Y104.098 E6.23957
G1 X84.160 Y104.686 E6.27370
G1 X84.163 Y104.234 E6.29225
G1 X83.572 Y103.643 E6.32653
