; generated by Slic3r 1.1.7 on 2015-01-04 at 21:06:39

; perimeters extrusion width = 0.40mm
; infill extrusion width = 0.44mm
; solid infill extrusion width = 0.44mm
; top infill extrusion width = 0.44mm

G21 ; set units to millimeters
M190 S110 ; wait for bed temperature to be reached
M104 S220 ; set temperature
G28 ; home all axes Start of G Code Slic3r
 
M109 S220 ; wait for temperature to be reached
G90 ; use absolute coordinates
G92 E0
M82 ; use absolute distances for extrusion
M106 S127
G1 F1860.000 E-3.00000
G92 E0
G1 Z0.294 F7800.000
G1 X74.132 Y44.433 F7800.000
G1 E3.10000 F1860.000
G1 X74.773 Y43.403 E3.17556 F1800.000
G1 X75.168 Y42.818 E3.21952
G1 X75.963 Y41.738 E3.30294
G1 X76.812 Y40.710 E3.38599
G1 X77.717 Y39.735 E3.46877
G1 X78.675 Y38.818 E3.55134
G1 X79.687 Y37.963 E3.63379
G1 X80.749 Y37.173 E3.71615
G1 X81.859 Y36.454 E3.79849
G1 X83.013 Y35.808 E3.88081
G1 X84.207 Y35.240 E3.96317
G1 X85.439 Y34.752 E4.04561
G1 X86.700 Y34.347 E4.12808
G1 X87.822 Y34.060 E4.20019
G1 X100.898 Y31.226 E5.03302
G1 X101.619 Y31.094 E5.07867
G1 X102.512 Y30.977 E5.13474
G1 X103.823 Y30.892 E5.21652
G1 X105.099 Y30.904 E5.29596
G1 X106.355 Y30.998 E5.37437 F1800.000
G1 X107.597 Y31.162 E5.45233
G1 X108.729 Y31.369 E5.52395
G1 X137.556 Y37.622 E7.36015
G1 X138.661 Y37.962 E7.43211
G1 X139.296 Y38.237 E7.47515
G1 X140.118 Y38.668 E7.53296
G1 X141.249 Y39.348 E7.61514
G1 X142.443 Y40.133 E7.70407
G1 X143.254 Y40.704 E7.76581
G1 X153.254 Y48.134 E8.54128
G1 X154.036 Y48.786 E8.60468
G1 X154.473 Y49.209 E8.64253
G1 X154.936 Y49.724 E8.68563
G1 X155.391 Y50.321 E8.73239
G1 X155.805 Y50.978 E8.78074
G1 X156.144 Y51.642 E8.82713
G1 X156.382 Y52.219 E8.86600
G1 X156.577 Y52.779 E8.90290
G1 X156.863 Y53.795 E8.96858
G1 X157.183 Y55.308 E9.06489
G1 X157.430 Y56.906 E9.16554
G1 X157.605 Y58.638 E9.27386
G1 X157.669 Y60.028 E9.36051
G1 X158.691 Y132.125 E13.84893
G1 X158.671 Y133.525 E13.93610
G1 X158.614 Y134.300 E13.98448
G1 X158.480 Y135.230 E14.04293
G1 X158.337 Y135.880 E14.08439
G1 X154.658 Y150.025 E14.99416
G1 X154.107 Y151.544 E15.09477
G1 X153.418 Y152.978 E15.19380
G1 X152.620 Y154.294 E15.28959
G1 X151.748 Y155.481 E15.38128
G1 X150.832 Y156.552 E15.46903
G1 X149.939 Y157.482 E15.54926
G1 X149.445 Y157.960 E15.59204
G1 X148.405 Y158.888 E15.67886
G1 X147.829 Y159.354 E15.72492
G1 X146.717 Y160.169 E15.81075
G1 X145.552 Y160.921 E15.89709
G1 X140.039 Y164.220 E16.29702
G1 X139.524 Y164.488 E16.33316
G1 X139.062 Y164.694 E16.36461
G1 X138.634 Y164.860 E16.39324
G1 X137.899 Y165.098 E16.44134
G1 X137.225 Y165.276 E16.48473
G1 X136.572 Y165.422 E16.52634
G1 X134.950 Y165.718 E16.62900
G1 X133.725 Y165.895 E16.70602
G1 X132.500 Y166.032 E16.78278
G1 X131.423 Y166.121 E16.85003
G1 X88.657 Y169.110 E19.51866
G1 X57.188 Y169.045 E21.47759
G1 X55.998 Y168.834 E21.55285
G1 X54.416 Y168.266 E21.65749
G1 X52.597 Y167.357 E21.78407
G1 X51.229 Y166.611 E21.88102
G1 X49.998 Y165.778 E21.97356
G1 X48.027 Y164.210 E22.13038
G1 X45.905 Y162.088 E22.31714
G1 X45.019 Y161.007 E22.40415
G1 X43.807 Y159.189 E22.54019
G1 X42.758 Y157.518 E22.66302
G1 X42.070 Y155.982 E22.76774
G1 X41.584 Y154.420 E22.86962
G1 X41.420 Y153.580 E22.92284
G1 X41.308 Y152.271 E23.00463
G1 X41.316 Y119.589 E25.03911
G1 X41.380 Y118.397 E25.11340
G1 X41.688 Y114.707 E25.34387
G1 X42.005 Y111.233 E25.56106
G1 X42.319 Y108.409 E25.73791
G1 X42.942 Y103.437 E26.04982
G1 X43.270 Y101.153 E26.19349
G1 X43.657 Y98.911 E26.33512
G1 X44.494 Y95.626 E26.54612
G1 X45.182 Y93.787 E26.66833
G1 X46.328 Y91.536 E26.82557
G1 X74.101 Y44.485 E30.22664
G1 X74.600 Y44.716 F7800.000
G1 X75.228 Y43.706 E30.30071 F1800.000
G1 X75.612 Y43.138 E30.34332
G1 X76.388 Y42.083 E30.42487
G1 X77.217 Y41.078 E30.50597
G1 X78.099 Y40.127 E30.58674
G1 X79.033 Y39.232 E30.66725
G1 X80.018 Y38.398 E30.74757
G1 X81.051 Y37.629 E30.82777
G1 X82.131 Y36.928 E30.90790
G1 X83.254 Y36.300 E30.98798
G1 X84.415 Y35.746 E31.06808
G1 X85.612 Y35.271 E31.14825
G1 X86.839 Y34.876 E31.22845
G1 X87.938 Y34.594 E31.29911
G1 X101.002 Y31.764 E32.13121
G1 X101.699 Y31.635 E32.17530
G1 X102.557 Y31.523 E32.22918
G1 X103.825 Y31.439 E32.30827
G1 X105.064 Y31.450 E32.38542
G1 X106.288 Y31.541 E32.46182 F1800.000
G1 X107.501 Y31.701 E32.53795
G1 X108.613 Y31.904 E32.60833
G1 X137.424 Y38.153 E34.44350
G1 X138.459 Y38.471 E34.51091
G1 X139.055 Y38.728 E34.55133
G1 X139.846 Y39.142 E34.60686
G1 X140.955 Y39.809 E34.68743
G1 X142.132 Y40.584 E34.77514
G1 X142.930 Y41.145 E34.83589
G1 X152.916 Y48.564 E35.61030
G1 X153.664 Y49.188 E35.67089
G1 X154.077 Y49.587 E35.70666
G1 X154.513 Y50.071 E35.74719
G1 X154.940 Y50.630 E35.79099
G1 X155.327 Y51.245 E35.83622
G1 X155.644 Y51.866 E35.87962
G1 X155.868 Y52.406 E35.91605
G1 X156.054 Y52.941 E35.95127
G1 X156.330 Y53.922 E36.01473
G1 X156.644 Y55.402 E36.10891
G1 X156.886 Y56.973 E36.20785
G1 X157.059 Y58.671 E36.31409
G1 X157.122 Y60.039 E36.39932
G1 X158.144 Y132.126 E40.88717
G1 X158.125 Y133.494 E40.97233
G1 X158.071 Y134.237 E41.01868
G1 X157.944 Y135.120 E41.07423
G1 X157.808 Y135.743 E41.11394
G1 X154.140 Y149.850 E42.02123
G1 X153.609 Y151.318 E42.11844
G1 X152.945 Y152.703 E42.21407
G1 X152.174 Y153.977 E42.30672
G1 X151.329 Y155.129 E42.39570
G1 X150.436 Y156.175 E42.48128
G1 X149.557 Y157.090 E42.56025
G1 X149.073 Y157.558 E42.60218
G1 X148.057 Y158.465 E42.68695
G1 X147.496 Y158.920 E42.73189
G1 X146.413 Y159.714 E42.81554
G1 X145.270 Y160.451 E42.90015
G1 X139.773 Y163.741 E43.29897
G1 X139.290 Y163.993 E43.33284
G1 X138.856 Y164.187 E43.36245
G1 X138.450 Y164.344 E43.38957
G1 X137.750 Y164.572 E43.43540
G1 X137.100 Y164.744 E43.47726
G1 X136.464 Y164.886 E43.51782
G1 X134.870 Y165.176 E43.61868
G1 X133.663 Y165.351 E43.69461
G1 X132.455 Y165.487 E43.77025
G1 X88.657 Y168.563 E46.50334
G1 X57.262 Y168.503 E48.45767
G1 X56.120 Y168.301 E48.52984
G1 X54.660 Y167.777 E48.62640
G1 X52.842 Y166.867 E48.75299
G1 X51.533 Y166.156 E48.84571
G1 X50.327 Y165.340 E48.93636
G1 X48.414 Y163.823 E49.08835
G1 X46.292 Y161.702 E49.27511
G1 X45.474 Y160.704 E49.35541
G1 X44.262 Y158.886 E49.49145
G1 X43.248 Y157.273 E49.61005
G1 X42.589 Y155.809 E49.70994
G1 X42.117 Y154.297 E49.80857
G1 X41.963 Y153.506 E49.85870
G1 X41.855 Y152.271 E49.93588
G1 X41.863 Y119.616 E51.96866
G1 X41.925 Y118.442 E52.04182
G1 X42.233 Y114.757 E52.27203
G1 X42.549 Y111.293 E52.48854
G1 X42.862 Y108.477 E52.66493
G1 X43.484 Y103.515 E52.97624
G1 X43.810 Y101.243 E53.11912
G1 X44.190 Y99.033 E53.25867
G1 X45.014 Y95.799 E53.46642
G1 X45.672 Y94.032 E53.58379
G1 X46.799 Y91.814 E53.73867
G1 X74.569 Y44.768 E57.13940
G1 F1860.000 E54.13940
G92 E0
G1 X96.848 Y154.689 F7800.000
G1 E3.10000 F1860.000
G1 X96.636 Y154.796 E3.11477 F441.000
G1 X96.535 Y154.998 E3.12883
G1 X96.333 Y155.099 E3.14289
G1 X96.242 Y155.280 E3.15552
G1 X96.242 Y155.599 E3.17534
G1 X96.029 Y155.705 E3.19017
G1 X95.929 Y155.907 E3.20418
G1 X95.727 Y156.008 E3.21825
G1 X95.636 Y156.189 E3.23087
G1 X95.636 Y156.508 E3.25071
G1 X95.424 Y156.614 E3.26545
G1 X95.323 Y156.816 E3.27953
G1 X95.120 Y156.917 E3.29364
G1 X95.020 Y157.119 E3.30766
G1 X94.818 Y157.219 E3.32168
G1 X94.717 Y157.422 E3.33580
G1 X94.515 Y157.523 E3.34983
G1 X94.414 Y157.725 E3.36392
G1 X94.212 Y157.826 E3.37797
G1 X94.111 Y158.028 E3.39203
G1 X93.909 Y158.128 E3.40605
G1 X93.808 Y158.331 E3.42017
G1 X93.606 Y158.432 E3.43420
G1 X93.505 Y158.634 E3.44828
G1 X93.303 Y158.735 E3.46233
G1 X93.197 Y158.947 E3.47711
G1 X92.878 Y158.947 E3.49693
G1 X92.697 Y159.038 E3.50956
G1 X92.596 Y159.240 E3.52362
G1 X92.394 Y159.341 E3.53766
G1 X92.293 Y159.543 E3.55174
G1 X92.090 Y159.644 E3.56584
G1 X91.985 Y159.856 E3.58056
G1 X91.666 Y159.856 E3.60045
G1 X91.485 Y159.947 E3.61305
G1 X91.384 Y160.149 E3.62712
G1 X91.182 Y160.250 E3.64115
G1 X91.075 Y160.462 E3.65596
G1 X90.757 Y160.462 E3.67578
G1 X90.576 Y160.553 E3.68839
G1 X90.469 Y160.765 E3.70319
G1 X90.151 Y160.765 E3.72300
G1 X89.969 Y160.856 E3.73562
G1 X89.868 Y161.058 E3.74969
G1 X89.667 Y161.159 E3.76370
G1 X89.560 Y161.372 E3.77853
G1 X89.242 Y161.372 E3.79836
G1 X89.060 Y161.462 E3.81101
G1 X88.955 Y161.675 E3.82575
G1 X88.635 Y161.675 E3.84563
G1 X88.540 Y161.722 E3.85225
G1 X58.264 Y161.722 E5.73692
G1 X58.168 Y161.675 E5.74358
G1 X57.850 Y161.675 E5.76338
G1 X57.743 Y161.462 E5.77818
G1 X57.562 Y161.372 E5.79079
G1 X57.244 Y161.372 E5.81061
G1 X57.137 Y161.159 E5.82541
G1 X56.956 Y161.069 E5.83802
G1 X56.638 Y161.069 E5.85784
G1 X56.532 Y160.856 E5.87262
G1 X56.350 Y160.765 E5.88524
G1 X56.032 Y160.765 E5.90505
G1 X55.925 Y160.553 E5.91985
G1 X55.744 Y160.462 E5.93246
G1 X55.426 Y160.462 E5.95228
G1 X55.319 Y160.250 E5.96708
G1 X55.117 Y160.149 E5.98113
G1 X55.016 Y159.947 E5.99517
G1 X54.835 Y159.856 E6.00780
G1 X54.516 Y159.856 E6.02767
G1 X54.411 Y159.644 E6.04239
G1 X54.208 Y159.543 E6.05648
G1 X54.107 Y159.341 E6.07055
G1 X53.905 Y159.240 E6.08461
G1 X53.804 Y159.038 E6.09866
G1 X53.623 Y158.947 E6.11129
G1 X53.304 Y158.947 E6.13111
G1 X53.198 Y158.735 E6.14587
G1 X52.996 Y158.634 E6.15994
G1 X52.895 Y158.432 E6.17403
G1 X52.693 Y158.331 E6.18807
G1 X52.592 Y158.128 E6.20217
G1 X52.390 Y158.028 E6.21619
G1 X52.289 Y157.826 E6.23023
G1 X52.087 Y157.725 E6.24430
G1 X51.986 Y157.523 E6.25838
G1 X51.784 Y157.422 E6.27243
G1 X51.683 Y157.219 E6.28652
G1 X51.481 Y157.119 E6.30055
G1 X51.381 Y156.917 E6.31457
G1 X51.168 Y156.811 E6.32939
G1 X51.168 Y156.492 E6.34922
G1 X51.077 Y156.311 E6.36184
G1 X50.875 Y156.210 E6.37590
G1 X50.774 Y156.008 E6.38995
G1 X50.562 Y155.902 E6.40473
G1 X50.562 Y155.583 E6.42455
G1 X50.471 Y155.402 E6.43716
G1 X50.269 Y155.301 E6.45124
G1 X50.168 Y155.099 E6.46528
G1 X49.956 Y154.992 E6.48008
G1 X49.956 Y154.674 E6.49988
G1 X49.865 Y154.492 E6.51253
G1 X49.663 Y154.391 E6.52657
G1 X49.562 Y154.189 E6.54066
G1 X49.350 Y154.084 E6.55539
G1 X49.350 Y153.765 E6.57526
G1 X49.259 Y153.584 E6.58788
G1 X49.047 Y153.477 E6.60266
G1 X49.047 Y152.856 E6.64132
G1 X48.956 Y152.674 E6.65395
G1 X48.744 Y152.568 E6.66872
G1 X48.744 Y152.250 E6.68855
G1 X48.696 Y152.154 E6.69521
G1 X48.696 Y120.060 E8.69304
G1 X48.744 Y119.964 E8.69970
G1 X48.744 Y119.040 E8.75726
G1 X48.956 Y118.934 E8.77201
G1 X49.047 Y118.752 E8.78466
G1 X49.047 Y115.403 E8.99312
G1 X49.259 Y115.297 E9.00788
G1 X49.350 Y115.116 E9.02051
G1 X49.350 Y112.070 E9.21011
G1 X49.562 Y111.964 E9.22489
G1 X49.653 Y111.782 E9.23751
G1 X49.653 Y109.343 E9.38939
G1 X49.864 Y109.237 E9.40413
G1 X49.956 Y109.055 E9.41678
G1 X49.956 Y106.918 E9.54979
G1 X50.168 Y106.812 E9.56456
G1 X50.259 Y106.631 E9.57719
G1 X50.259 Y104.494 E9.71019
G1 X50.471 Y104.388 E9.72499
G1 X50.562 Y104.207 E9.73759
G1 X50.562 Y102.373 E9.85174
G1 X50.774 Y102.267 E9.86649
G1 X50.865 Y102.086 E9.87913
G1 X50.865 Y100.555 E9.97442
G1 X51.077 Y100.449 E9.98917
G1 X51.168 Y100.267 E10.00181
G1 X51.168 Y99.343 E10.05936
G1 X51.380 Y99.236 E10.07416
G1 X51.471 Y99.055 E10.08677
G1 X51.471 Y98.131 E10.14432
G1 X51.683 Y98.024 E10.15910
G1 X51.774 Y97.843 E10.17172
G1 X51.774 Y97.222 E10.21041
G1 X51.986 Y97.115 E10.22518
G1 X52.077 Y96.934 E10.23782
G1 X52.077 Y96.615 E10.25765
G1 X52.289 Y96.510 E10.27239
G1 X52.380 Y96.328 E10.28505
G1 X52.380 Y96.009 E10.30487
G1 X52.592 Y95.903 E10.31965
G1 X52.644 Y95.799 E10.32689
G1 X52.683 Y95.722 E10.33228
G1 X52.683 Y95.403 E10.35211
G1 X52.895 Y95.297 E10.36685
G1 X52.996 Y95.095 E10.38093
G1 X53.198 Y94.994 E10.39499
G1 X53.289 Y94.813 E10.40762
G1 X53.289 Y94.494 E10.42744
G1 X53.502 Y94.388 E10.44224
G1 X53.602 Y94.186 E10.45629
G1 X53.804 Y94.085 E10.47035
G1 X53.905 Y93.883 E10.48440
G1 X54.107 Y93.782 E10.49846
G1 X54.198 Y93.601 E10.51109
G1 X54.198 Y93.282 E10.53091
G1 X54.411 Y93.176 E10.54571
G1 X54.511 Y92.974 E10.55976
G1 X54.713 Y92.873 E10.57381
G1 X54.814 Y92.671 E10.58786
G1 X55.016 Y92.570 E10.60191
G1 X55.107 Y92.388 E10.61456
G1 X55.107 Y92.070 E10.63439
G1 X55.319 Y91.964 E10.64917
G1 X55.420 Y91.762 E10.66323
G1 X55.622 Y91.661 E10.67728
G1 X55.723 Y91.459 E10.69134
G1 X55.925 Y91.358 E10.70538
G1 X56.016 Y91.176 E10.71802
G1 X56.016 Y90.858 E10.73785
G1 X56.228 Y90.752 E10.75262
G1 X56.330 Y90.550 E10.76668
G1 X56.531 Y90.449 E10.78072
G1 X56.633 Y90.247 E10.79480
G1 X56.834 Y90.146 E10.80883
G1 X56.936 Y89.944 E10.82291
G1 X57.138 Y89.843 E10.83697
G1 X57.228 Y89.661 E10.84960
G1 X57.228 Y89.343 E10.86942
G1 X57.441 Y89.236 E10.88423
G1 X57.542 Y89.034 E10.89827
G1 X57.744 Y88.933 E10.91232
G1 X57.845 Y88.732 E10.92637
G1 X58.046 Y88.631 E10.94042
G1 X58.137 Y88.449 E10.95307
G1 X58.137 Y88.131 E10.97290
G1 X58.350 Y88.024 E10.98772
G1 X58.451 Y87.822 E11.00175
G1 X58.653 Y87.721 E11.01580
G1 X58.754 Y87.519 E11.02986
G1 X58.955 Y87.419 E11.04389
G1 X59.047 Y87.237 E11.05654
G1 X59.047 Y86.918 E11.07637
G1 X59.259 Y86.812 E11.09114
G1 X59.360 Y86.610 E11.10521
G1 X59.561 Y86.510 E11.11922
G1 X59.663 Y86.307 E11.13333
G1 X59.864 Y86.206 E11.14736
G1 X59.956 Y86.025 E11.16001
G1 X59.956 Y85.706 E11.17986
G1 X60.168 Y85.601 E11.19461
G1 X60.269 Y85.398 E11.20869
G1 X60.471 Y85.297 E11.22277
G1 X60.601 Y85.037 E11.24085
G1 X86.116 Y85.037 E12.82912
G1 X86.232 Y85.095 E12.83721
G1 X86.333 Y85.297 E12.85130 F441.000
G1 X86.545 Y85.403 E12.86604
G1 X86.545 Y85.722 E12.88587
G1 X86.636 Y85.903 E12.89850
G1 X86.838 Y86.004 E12.91255
G1 X86.939 Y86.206 E12.92663
G1 X87.141 Y86.307 E12.94068
G1 X87.242 Y86.510 E12.95476
G1 X87.454 Y86.615 E12.96951
G1 X87.454 Y86.934 E12.98934
G1 X87.545 Y87.115 E13.00197
G1 X87.747 Y87.216 E13.01602
G1 X87.849 Y87.418 E13.03011
G1 X88.050 Y87.519 E13.04415
G1 X88.151 Y87.721 E13.05817
G1 X88.364 Y87.828 E13.07300
G1 X88.364 Y88.146 E13.09282
G1 X88.455 Y88.328 E13.10546
G1 X88.656 Y88.429 E13.11950
G1 X88.758 Y88.631 E13.13361
G1 X88.970 Y88.736 E13.14833
G1 X88.970 Y89.055 E13.16819
G1 X89.060 Y89.236 E13.18079
G1 X89.262 Y89.338 E13.19488
G1 X89.364 Y89.540 E13.20897
G1 X89.565 Y89.641 E13.22301
G1 X89.666 Y89.843 E13.23706
G1 X89.879 Y89.949 E13.25184
G1 X89.879 Y90.267 E13.27166
G1 X89.970 Y90.449 E13.28430
G1 X90.171 Y90.550 E13.29835
G1 X90.273 Y90.752 E13.31241
G1 X90.474 Y90.853 E13.32646
G1 X90.575 Y91.055 E13.34052
G1 X90.788 Y91.161 E13.35530
G1 X90.788 Y91.479 E13.37512
G1 X90.878 Y91.661 E13.38775
G1 X91.081 Y91.762 E13.40181
G1 X91.182 Y91.964 E13.41587
G1 X91.384 Y92.065 E13.42993
G1 X91.485 Y92.267 E13.44401
G1 X91.697 Y92.373 E13.45876
G1 X91.697 Y92.692 E13.47859
G1 X91.788 Y92.873 E13.49122
G1 X91.990 Y92.974 E13.50527
G1 X92.090 Y93.176 E13.51932
G1 X92.293 Y93.277 E13.53340
G1 X92.394 Y93.479 E13.54748
G1 X92.606 Y93.585 E13.56223
G1 X92.606 Y93.904 E13.58207
G1 X92.697 Y94.085 E13.59469
G1 X92.899 Y94.186 E13.60875
G1 X92.999 Y94.388 E13.62280
G1 X93.212 Y94.494 E13.63760
G1 X93.212 Y94.813 E13.65742
G1 X93.303 Y94.994 E13.67005
G1 X93.505 Y95.095 E13.68410
G1 X93.606 Y95.297 E13.69819
G1 X93.818 Y95.403 E13.71294
G1 X93.818 Y95.722 E13.73276
G1 X93.909 Y95.903 E13.74539
G1 X94.121 Y96.009 E13.76017
G1 X94.121 Y96.328 E13.77999
G1 X94.212 Y96.510 E13.79265
G1 X94.424 Y96.615 E13.80739
G1 X94.424 Y96.934 E13.82723
G1 X94.515 Y97.115 E13.83986
G1 X94.727 Y97.222 E13.85463
G1 X94.727 Y97.540 E13.87446
G1 X94.818 Y97.721 E13.88709
G1 X95.030 Y97.828 E13.90187
G1 X95.030 Y98.752 E13.95941
G1 X95.120 Y98.933 E13.97200
G1 X95.333 Y99.040 E13.98683
G1 X95.333 Y100.267 E14.06324
G1 X95.424 Y100.449 E14.07588
G1 X95.636 Y100.555 E14.09063
G1 X95.636 Y102.086 E14.18592
G1 X95.727 Y102.267 E14.19856
G1 X95.939 Y102.373 E14.21332
G1 X95.939 Y104.207 E14.32746
G1 X96.030 Y104.388 E14.34006
G1 X96.242 Y104.494 E14.35487
G1 X96.242 Y106.328 E14.46901
G1 X96.333 Y106.510 E14.48166
G1 X96.545 Y106.615 E14.49641
G1 X96.545 Y108.752 E14.62942
G1 X96.636 Y108.933 E14.64205
G1 X96.848 Y109.040 E14.65683
G1 X96.848 Y111.479 E14.80869
G1 X96.939 Y111.661 E14.82132
G1 X97.151 Y111.767 E14.83610
G1 X97.151 Y114.207 E14.98797
G1 X97.242 Y114.388 E15.00060
G1 X97.454 Y114.494 E15.01536
G1 X97.454 Y118.449 E15.26155
G1 X97.545 Y118.631 E15.27419
G1 X97.757 Y118.737 E15.28895
G1 X97.757 Y119.661 E15.34651
G1 X97.805 Y119.757 E15.35317
G1 X97.805 Y152.457 E17.38873
