; generated by Slic3r 1.1.7 on 2015-02-13 at 19:52:01

; perimeters extrusion width = 0.40mm
; infill extrusion width = 0.67mm
; solid infill extrusion width = 0.26mm
; top infill extrusion width = 0.26mm

G21 ; set units to millimeters
M190 S60 ; wait for bed temperature to be reached
M104 S230 ; set temperature
G28 ; home all axes Start of G Code Slic3r
 
 
M109 S230 ; wait for temperature to be reached
G90 ; use absolute coordinates
G92 E0
M82 ; use absolute distances for extrusion
M106 S193
G1 F4200.000 E-3.00000
G92 E0
G1 Z0.200 F6000.000
G1 X74.957 Y78.542 F6000.000
G1 E3.00000 F4200.000
G1 X75.215 Y78.296 E3.00911 F1800.000
G1 X75.691 Y77.896 E3.02500
G1 X76.857 Y77.011 E3.06241
G1 X77.576 Y76.578 E3.08386
G1 X79.005 Y75.846 E3.12490
G1 X79.649 Y75.601 E3.14252
G1 X80.999 Y75.167 E3.17875
G1 X81.860 Y74.988 E3.20122
G1 X83.441 Y74.774 E3.24199
G1 X84.143 Y74.757 E3.25993
G1 X85.928 Y74.835 E3.30560
G1 X86.432 Y74.915 E3.31864
G1 X88.157 Y75.288 E3.36375
G1 X88.892 Y75.544 E3.38365
G1 X91.090 Y76.792 E3.44823
G1 X92.791 Y78.660 E3.51280
G1 X93.828 Y80.964 E3.57738
G1 X94.106 Y83.205 E3.63508
G1 X93.924 Y93.698 E3.90330
G1 X93.483 Y96.186 E3.96788
G1 X92.291 Y98.414 E4.03245
G1 X90.466 Y100.161 E4.09702
G1 X87.792 Y101.361 E4.17192
G1 X86.475 Y101.656 E4.20641
G1 X85.752 Y101.739 E4.22501
G1 X84.149 Y101.821 E4.26603
G1 X83.457 Y101.781 E4.28375
G1 X81.731 Y101.565 E4.32820
G1 X81.189 Y101.434 E4.34246
G1 X79.395 Y100.878 E4.39046
G1 X79.008 Y100.708 E4.40126
G1 X77.203 Y99.773 E4.45320
G1 X75.687 Y98.682 E4.50094
G1 X75.171 Y98.214 E4.51875
G1 X73.843 Y96.809 E4.56816
G1 X72.860 Y95.430 E4.61143
G1 X72.383 Y94.577 E4.63641
G1 X71.622 Y92.875 E4.68407
G1 X71.179 Y91.367 E4.72423
G1 X71.038 Y90.712 E4.74136
G1 X70.970 Y90.227 E4.75387
G1 X70.831 Y88.861 E4.78895
G1 X70.834 Y87.927 E4.81283
G1 X70.971 Y86.248 E4.85589
G1 X71.087 Y85.652 E4.87140
G1 X71.360 Y84.506 E4.90151
G1 X71.636 Y83.661 E4.92422
G1 X71.727 Y83.438 E4.93039
G1 X72.401 Y81.930 E4.97260
G1 X72.720 Y81.384 E4.98876
G1 X73.502 Y80.192 E5.02519
G1 X74.058 Y79.512 E5.04765
G1 X74.916 Y78.586 E5.07990
G1 X75.161 Y78.747 F6000.000
G1 X75.410 Y78.511 E5.08869 F1800.000
G1 X75.869 Y78.125 E5.10400
G1 X77.020 Y77.251 E5.14093
G1 X77.712 Y76.833 E5.16161
G1 X79.120 Y76.113 E5.20202
G1 X79.741 Y75.876 E5.21900
G1 X81.074 Y75.448 E5.25479
G1 X81.903 Y75.274 E5.27644
G1 X83.461 Y75.064 E5.31661
G1 X84.137 Y75.047 E5.33390
G1 X85.892 Y75.123 E5.37879
G1 X86.378 Y75.200 E5.39136
G1 X88.073 Y75.566 E5.43569
G1 X88.791 Y75.816 E5.45511
G1 X90.944 Y77.047 E5.51850
G1 X92.598 Y78.895 E5.58189
G1 X93.582 Y81.172 E5.64528
G1 X93.816 Y83.200 E5.69745
G1 X93.634 Y93.693 E5.96566
G1 X93.194 Y96.134 E6.02905
G1 X92.005 Y98.311 E6.09244
G1 X90.188 Y99.999 E6.15583
G1 X87.724 Y101.080 E6.22459
G1 X86.429 Y101.369 E6.25849
G1 X85.732 Y101.449 E6.27642
G1 X84.154 Y101.531 E6.31682
G1 X83.486 Y101.492 E6.33390
G1 X81.789 Y101.281 E6.37761
G1 X81.266 Y101.155 E6.39136
G1 X79.505 Y100.610 E6.43849
G1 X79.132 Y100.446 E6.44890
G1 X77.362 Y99.530 E6.49982
G1 X75.873 Y98.459 E6.54670
G1 X75.375 Y98.008 E6.56387
G1 X74.071 Y96.630 E6.61235
G1 X73.104 Y95.274 E6.65492
G1 X72.644 Y94.451 E6.67902
G1 X71.896 Y92.780 E6.72580
G1 X71.460 Y91.294 E6.76537
G1 X71.324 Y90.663 E6.78189
G1 X71.258 Y90.195 E6.79396
G1 X71.121 Y88.846 E6.82862
G1 X71.124 Y87.944 E6.85165
G1 X71.258 Y86.292 E6.89401
G1 X71.370 Y85.718 E6.90896
G1 X71.640 Y84.581 E6.93884
G1 X71.906 Y83.767 E6.96074
G1 X71.994 Y83.551 E6.96669
G1 X72.657 Y82.066 E7.00823
G1 X72.965 Y81.540 E7.02381
G1 X73.736 Y80.363 E7.05978
G1 X74.272 Y79.707 E7.08144
G1 X75.120 Y78.791 E7.11333
G1 X75.365 Y78.953 F6000.000
G1 X75.605 Y78.725 E7.12179 F1800.000
G1 X76.047 Y78.354 E7.13653
G1 X77.182 Y77.492 E7.17296
G1 X77.849 Y77.089 E7.19288
G1 X79.234 Y76.379 E7.23266
G1 X79.832 Y76.151 E7.24901
G1 X81.149 Y75.728 E7.28435
G1 X81.947 Y75.561 E7.30519
G1 X83.481 Y75.353 E7.34475
G1 X84.132 Y75.337 E7.36139
G1 X85.856 Y75.411 E7.40549
G1 X86.323 Y75.485 E7.41759
G1 X87.990 Y75.843 E7.46116
G1 X88.689 Y76.088 E7.48008
G1 X90.798 Y77.301 E7.54227
G1 X92.403 Y79.130 E7.60445
G1 X93.334 Y81.378 E7.66663
G1 X93.526 Y83.195 E7.71332
G1 X93.344 Y93.688 E7.98154
G1 X92.905 Y96.081 E8.04372
G1 X91.718 Y98.205 E8.10591
G1 X89.910 Y99.834 E8.16809
G1 X87.655 Y100.798 E8.23077
G1 X86.383 Y101.083 E8.26408
G1 X85.712 Y101.160 E8.28134
G1 X84.158 Y101.241 E8.32112
G1 X83.516 Y101.204 E8.33757
G1 X81.847 Y100.997 E8.38053
G1 X81.344 Y100.875 E8.39376
G1 X79.614 Y100.341 E8.44002
G1 X79.255 Y100.183 E8.45005
G1 X77.521 Y99.287 E8.49995
G1 X76.058 Y98.237 E8.54596
G1 X75.580 Y97.802 E8.56250
G1 X74.299 Y96.451 E8.61006
G1 X73.348 Y95.117 E8.65192
G1 X72.905 Y94.325 E8.67513
G1 X72.170 Y92.685 E8.72105
G1 X71.741 Y91.222 E8.76002
G1 X71.610 Y90.613 E8.77593
G1 X71.546 Y90.163 E8.78755
G1 X71.410 Y88.830 E8.82180
G1 X71.413 Y87.962 E8.84398
G1 X71.545 Y86.337 E8.88564
G1 X71.652 Y85.784 E8.90004
G1 X71.920 Y84.656 E8.92967
G1 X72.261 Y83.664 E8.95649
G1 X72.912 Y82.203 E8.99736
G1 X73.209 Y81.696 E9.01236
G1 X73.970 Y80.534 E9.04787
G1 X74.487 Y79.903 E9.06872
G1 X75.325 Y78.997 E9.10025
G1 X75.570 Y79.159 F6000.000
G1 X76.225 Y78.583 E9.12254 F1800.000
G1 X77.344 Y77.732 E9.15848
G1 X77.986 Y77.345 E9.17763
G1 X79.349 Y76.645 E9.21679
G1 X79.924 Y76.426 E9.23251
G1 X81.223 Y76.008 E9.26740
G1 X81.991 Y75.848 E9.28743
G1 X83.501 Y75.642 E9.32637
G1 X84.126 Y75.627 E9.34237
G1 X85.819 Y75.699 E9.38568
G1 X86.269 Y75.770 E9.39731
G1 X87.906 Y76.121 E9.44011
G1 X88.587 Y76.359 E9.45855
G1 X90.651 Y77.556 E9.51950
G1 X92.206 Y79.364 E9.58045
G1 X93.082 Y81.582 E9.64140
G1 X93.236 Y83.190 E9.68268
G1 X93.054 Y93.683 E9.95090
G1 X92.616 Y96.027 E10.01185
G1 X91.432 Y98.098 E10.07280
G1 X89.634 Y99.665 E10.13375
G1 X87.587 Y100.516 E10.19042
G1 X86.337 Y100.797 E10.22315
G1 X85.692 Y100.871 E10.23974
G1 X84.162 Y100.951 E10.27890
G1 X83.545 Y100.915 E10.29470
G1 X81.905 Y100.712 E10.33692
G1 X81.421 Y100.596 E10.34964
G1 X79.724 Y100.073 E10.39502
G1 X79.379 Y99.921 E10.40466
G1 X77.679 Y99.044 E10.45355
G1 X76.244 Y98.014 E10.49870
G1 X75.784 Y97.596 E10.51460
G1 X74.527 Y96.272 E10.56123
G1 X73.592 Y94.960 E10.60240
G1 X73.166 Y94.198 E10.62471
G1 X72.444 Y92.590 E10.66976
G1 X72.021 Y91.149 E10.70814
G1 X71.896 Y90.564 E10.72344
G1 X71.834 Y90.131 E10.73461
G1 X71.700 Y88.814 E10.76844
G1 X71.703 Y87.979 E10.78978
G1 X71.831 Y86.382 E10.83074
G1 X71.935 Y85.850 E10.84458
G1 X72.200 Y84.731 E10.87398
G1 X72.528 Y83.777 E10.89977
G1 X73.168 Y82.340 E10.93997
G1 X73.453 Y81.853 E10.95439
G1 X74.204 Y80.706 E10.98944
G1 X74.701 Y80.098 E11.00949
G1 X75.529 Y79.203 E11.04065
G1 X75.774 Y79.365 F6000.000
G1 X76.403 Y78.812 E11.06205 F1800.000
G1 X77.507 Y77.972 E11.09750
G1 X78.123 Y77.601 E11.11588
G1 X79.464 Y76.912 E11.15441
G1 X80.015 Y76.702 E11.16950
G1 X81.298 Y76.288 E11.20394
G1 X82.034 Y76.135 E11.22316
G1 X83.521 Y75.932 E11.26149
G1 X84.121 Y75.917 E11.27684
G1 X85.783 Y75.987 E11.31936
G1 X86.215 Y76.055 E11.33052
G1 X87.823 Y76.399 E11.37256
G1 X88.486 Y76.631 E11.39050
G1 X90.502 Y77.810 E11.45020
G1 X92.007 Y79.596 E11.50990
G1 X92.827 Y81.784 E11.56959
G1 X92.946 Y83.185 E11.60553
G1 X92.764 Y93.678 E11.87374
G1 X92.327 Y95.972 E11.93344
G1 X91.146 Y97.988 E11.99314
G1 X89.359 Y99.491 E12.05283
G1 X87.518 Y100.234 E12.10356
G1 X86.291 Y100.510 E12.13569
G1 X85.672 Y100.581 E12.15161
G1 X84.167 Y100.661 E12.19015
G1 X83.574 Y100.626 E12.20532
G1 X81.963 Y100.428 E12.24679
G1 X81.499 Y100.316 E12.25900
G1 X79.834 Y99.805 E12.30351
G1 X79.503 Y99.659 E12.31276
G1 X77.838 Y98.801 E12.36064
G1 X76.430 Y97.791 E12.40492
G1 X75.988 Y97.390 E12.42018
G1 X74.756 Y96.093 E12.46589
G1 X73.837 Y94.804 E12.50636
G1 X73.428 Y94.072 E12.52778
G1 X72.718 Y92.496 E12.57196
G1 X72.302 Y91.077 E12.60975
G1 X72.182 Y90.515 E12.62443
G1 X71.990 Y88.799 E12.66857
G1 X71.992 Y87.997 E12.68906
G1 X72.118 Y86.427 E12.72931
G1 X72.217 Y85.916 E12.74260
G1 X72.480 Y84.806 E12.77176
G1 X72.795 Y83.890 E12.79653
G1 X73.424 Y82.477 E12.83606
G1 X73.698 Y82.009 E12.84990
G1 X74.439 Y80.877 E12.88448
G1 X74.915 Y80.294 E12.90373
G1 X75.733 Y79.409 E12.93453
G1 X75.979 Y79.571 F6000.000
G1 X76.581 Y79.041 E12.95503 F1800.000
G1 X77.669 Y78.212 E12.98999
G1 X78.259 Y77.857 E13.00760
G1 X79.578 Y77.178 E13.04550
G1 X80.107 Y76.977 E13.05996
G1 X81.373 Y76.569 E13.09396
G1 X82.078 Y76.421 E13.11237
G1 X83.540 Y76.221 E13.15009
G1 X84.116 Y76.207 E13.16479
G1 X85.747 Y76.274 E13.20652
G1 X86.160 Y76.340 E13.21721
G1 X87.739 Y76.677 E13.25848
G1 X88.384 Y76.903 E13.27594
G1 X90.353 Y78.064 E13.33435
G1 X91.806 Y79.828 E13.39276
G1 X92.568 Y81.983 E13.45118
G1 X92.656 Y83.179 E13.48184
G1 X92.474 Y93.673 E13.75006
G1 X92.038 Y95.916 E13.80847
G1 X90.861 Y97.876 E13.86689
G1 X89.084 Y99.314 E13.92530
G1 X87.449 Y99.952 E13.97015
G1 X86.225 Y100.227 E14.00222
G1 X85.653 Y100.292 E14.01695
G1 X84.171 Y100.371 E14.05487
G1 X83.603 Y100.338 E14.06939
G1 X82.022 Y100.144 E14.11013
G1 X81.577 Y100.037 E14.12182
G1 X79.944 Y99.536 E14.16546
G1 X79.627 Y99.396 E14.17432
G1 X77.996 Y98.558 E14.22118
G1 X76.609 Y97.563 E14.26481
G1 X76.192 Y97.184 E14.27922
G1 X74.984 Y95.914 E14.32401
G1 X74.081 Y94.647 E14.36378
G1 X73.689 Y93.946 E14.38430
G1 X72.992 Y92.401 E14.42762
G1 X72.583 Y91.004 E14.46481
G1 X72.467 Y90.466 E14.47888
G1 X72.279 Y88.783 E14.52216
G1 X72.282 Y88.014 E14.54180
G1 X72.404 Y86.472 E14.58136
G1 X72.499 Y85.983 E14.59409
G1 X72.761 Y84.881 E14.62301
G1 X73.062 Y84.003 E14.64675
G1 X73.680 Y82.613 E14.68561
G1 X73.942 Y82.165 E14.69888
G1 X74.673 Y81.048 E14.73300
G1 X75.129 Y80.489 E14.75144
G1 X75.938 Y79.615 E14.78188
G1 X76.183 Y79.776 F6000.000
G1 X76.759 Y79.270 E14.80148 F1800.000
G1 X77.832 Y78.453 E14.83595
G1 X78.396 Y78.112 E14.85279
G1 X79.693 Y77.445 E14.89007
G1 X80.198 Y77.252 E14.90389
G1 X81.448 Y76.849 E14.93744
G1 X82.122 Y76.708 E14.95504
G1 X83.560 Y76.511 E14.99215
G1 X84.110 Y76.497 E15.00620
G1 X85.711 Y76.562 E15.04715
G1 X86.106 Y76.625 E15.05737
G1 X87.656 Y76.954 E15.09787
G1 X88.282 Y77.174 E15.11484
G1 X90.202 Y78.317 E15.17194
G1 X91.602 Y80.058 E15.22904
G1 X92.366 Y83.174 E15.31104
G1 X92.184 Y93.668 E15.57925
G1 X91.749 Y95.859 E15.63635
G1 X90.575 Y97.761 E15.69345
G1 X88.811 Y99.132 E15.75056
G1 X87.381 Y99.670 E15.78961
G1 X86.180 Y99.941 E15.82107
G1 X85.633 Y100.002 E15.83515
G1 X84.175 Y100.081 E15.87245
G1 X83.633 Y100.049 E15.88634
G1 X82.080 Y99.860 E15.92633
G1 X81.654 Y99.758 E15.93751
G1 X80.054 Y99.268 E15.98027
G1 X79.751 Y99.134 E15.98875
G1 X78.155 Y98.316 E16.03459
G1 X76.795 Y97.340 E16.07736
G1 X76.396 Y96.978 E16.09113
G1 X75.212 Y95.735 E16.13499
G1 X74.325 Y94.490 E16.17406
G1 X73.950 Y93.820 E16.19370
G1 X73.266 Y92.306 E16.23614
G1 X72.864 Y90.932 E16.27275
G1 X72.753 Y90.417 E16.28620
G1 X72.569 Y88.767 E16.32862
G1 X72.571 Y88.032 E16.34742
G1 X72.691 Y86.516 E16.38627
G1 X72.782 Y86.049 E16.39844
G1 X73.041 Y84.956 E16.42713
G1 X73.330 Y84.116 E16.44985
G1 X73.936 Y82.750 E16.48803
G1 X74.186 Y82.321 E16.50072
G1 X74.907 Y81.219 E16.53438
G1 X75.343 Y80.685 E16.55202
G1 X76.142 Y79.820 E16.58209
G1 F4200.000 E13.58209
G92 E0
G1 X85.194 Y92.998 F6000.000
G1 E3.00000 F4200.000
G1 X85.092 Y93.023 E3.00270 F1800.000
G1 X84.280 Y93.079 E3.02348
G1 X83.470 Y92.997 E3.04430
G1 X82.687 Y92.779 E3.06508
G1 X81.949 Y92.431 E3.08592
G1 X81.284 Y91.966 E3.10667
G1 X80.704 Y91.392 E3.12751
G1 X80.230 Y90.728 E3.14836
G1 X79.876 Y89.995 E3.16916
G1 X79.651 Y89.213 E3.18996
G1 X79.562 Y88.406 E3.21072
G1 X79.611 Y87.588 E3.23165
G1 X79.795 Y86.800 E3.25235
G1 X80.115 Y86.045 E3.27329
G1 X80.552 Y85.362 E3.29403
G1 X81.102 Y84.760 E3.31485
G1 X81.745 Y84.260 E3.33567
G1 X82.463 Y83.876 E3.35647
G1 X83.235 Y83.619 E3.37727
G1 X84.040 Y83.497 E3.39808
G1 X84.853 Y83.512 E3.41886
G1 X85.358 Y83.608 E3.43199
G1 X85.195 Y92.938 E3.67047
G1 X85.480 Y93.227 F6000.000
G1 X85.136 Y93.311 E3.67953 F1800.000
G1 X84.276 Y93.370 E3.70157
G1 X83.416 Y93.283 E3.72364
G1 X82.585 Y93.052 E3.74569
G1 X81.803 Y92.683 E3.76779
G1 X81.097 Y92.189 E3.78981
G1 X80.483 Y91.581 E3.81191
G1 X79.980 Y90.877 E3.83402
G1 X79.604 Y90.099 E3.85609
G1 X79.366 Y89.270 E3.87815
G1 X79.271 Y88.413 E3.90017
G1 X79.323 Y87.546 E3.92237
G1 X79.519 Y86.710 E3.94432
G1 X79.857 Y85.909 E3.96654
G1 X80.321 Y85.184 E3.98853
G1 X80.904 Y84.546 E4.01062
G1 X81.586 Y84.016 E4.03271
G1 X82.348 Y83.609 E4.05477
G1 X83.167 Y83.336 E4.07683
G1 X84.020 Y83.206 E4.09889
G1 X84.883 Y83.222 E4.12094
G1 X85.652 Y83.369 E4.14095
G1 X85.481 Y93.167 E4.39139
G1 X85.767 Y93.456 F6000.000
G1 X85.181 Y93.598 E4.40680 F1800.000
G1 X84.271 Y93.661 E4.43010
G1 X83.363 Y93.569 E4.45344
G1 X82.484 Y93.325 E4.47675
G1 X81.657 Y92.935 E4.50011
G1 X80.911 Y92.413 E4.52339
G1 X80.261 Y91.769 E4.54675
G1 X79.730 Y91.025 E4.57013
G1 X79.332 Y90.203 E4.59346
G1 X79.080 Y89.326 E4.61678
G1 X78.980 Y88.420 E4.64007
G1 X79.035 Y87.504 E4.66353
G1 X79.242 Y86.619 E4.68675
G1 X79.599 Y85.773 E4.71022
G1 X80.091 Y85.007 E4.73348
G1 X80.707 Y84.332 E4.75684
G1 X81.428 Y83.772 E4.78018
G1 X82.233 Y83.341 E4.80351
G1 X83.099 Y83.053 E4.82683
G1 X84.001 Y82.916 E4.85016
G1 X84.913 Y82.933 E4.87347
G1 X85.809 Y83.104 E4.89679
G1 X85.946 Y83.155 E4.90051
G1 X85.768 Y93.396 E5.16228
G1 X85.394 Y93.311 F6000.000
G1 X83.164 Y92.714 F6000.000
M204 S750
G1 X79.924 Y89.475 E5.27936 F1800.000
G1 X79.813 Y88.943 E5.29323
G1 X83.698 Y92.829 E5.43366
G1 X84.165 Y92.876 E5.44566
G1 X79.760 Y88.471 E5.60485
G1 X79.773 Y88.064 E5.61526
G1 X84.577 Y92.868 E5.78888
G1 X84.968 Y92.839 E5.79890
G1 X79.797 Y87.668 E5.98579
G1 X79.869 Y87.321 E5.99486
G1 X85.013 Y92.465 E6.18080
G1 X85.020 Y92.052 E6.19134
G1 X79.948 Y86.980 E6.37466
G1 X80.057 Y86.669 E6.38308
G1 X85.028 Y91.640 E6.56273
G1 X85.035 Y91.227 E6.57328
G1 X80.182 Y86.374 E6.74868
G1 X80.314 Y86.087 E6.75677
G1 X85.042 Y90.815 E6.92766
G1 X85.049 Y90.402 E6.93821
G1 X80.478 Y85.831 E7.10343
G1 X80.642 Y85.575 E7.11120
G1 X85.056 Y89.990 E7.27076
G1 X85.063 Y89.577 E7.28130
G1 X80.828 Y85.342 E7.43438
G1 X81.033 Y85.127 E7.44197
G1 X85.071 Y89.165 E7.58790
G1 X85.078 Y88.752 E7.59845
G1 X81.243 Y84.917 E7.73705
G1 X81.464 Y84.719 E7.74465
G1 X85.085 Y88.339 E7.87550
G1 X85.092 Y87.927 E7.88605
G1 X81.701 Y84.535 E8.00863
G1 X81.951 Y84.366 E8.01635
G1 X85.099 Y87.514 E8.13015
G1 X85.107 Y87.102 E8.14070
G1 X82.224 Y84.219 E8.24487
G1 X82.498 Y84.073 E8.25280
G1 X85.114 Y86.689 E8.34735
G1 X85.121 Y86.277 E8.35789
G1 X82.807 Y83.962 E8.44154
G1 X83.122 Y83.858 E8.45002
G1 X85.128 Y85.864 E8.52254
G1 X85.135 Y85.451 E8.53308
G1 X83.461 Y83.777 E8.59359
G1 X83.825 Y83.722 E8.60301
G1 X85.142 Y85.039 E8.65061
G1 X85.150 Y84.626 E8.66115
G1 X84.214 Y83.690 E8.69498
G1 X84.641 Y83.698 E8.70591
G1 X85.157 Y84.214 E8.72454
G1 X85.164 Y83.801 E8.73509
G1 X85.119 Y83.756 E8.73671
M204 S2000
G1 X80.146 Y90.116 F6000.000
M204 S750
G1 X82.520 Y92.490 E8.82251 F1800.000
M204 S2000
G1 X81.483 Y91.873 F6000.000
M204 S750
G1 X80.779 Y91.169 E8.84794 F1800.000
M204 S2000
M106 S255
M140 S50 ; set bed temperature
G1 F4200.000 E5.84794
G92 E0
G1 Z0.400 F6000.000
G1 X85.794 Y92.571 F6000.000
G1 E3.00000 F4200.000
G1 X85.045 Y92.753 E3.02718 F2199.626
G1 X84.285 Y92.806 E3.05402
G1 X83.516 Y92.728 E3.08124
G1 X82.780 Y92.523 E3.10816
G1 X82.080 Y92.193 E3.13544
G1 X81.459 Y91.758 E3.16219
G1 X80.910 Y91.215 E3.18940
G1 X80.461 Y90.586 E3.21661
G1 X80.128 Y89.896 E3.24364
G1 X79.916 Y89.160 E3.27063
G1 X79.832 Y88.404 E3.29745
G1 X79.879 Y87.623 E3.32502
G1 X80.051 Y86.889 E3.35157
G1 X80.356 Y86.167 E3.37921
G1 X80.765 Y85.529 E3.40591
G1 X81.284 Y84.961 E3.43305
G1 X81.892 Y84.488 E3.46017
G1 X82.568 Y84.127 E3.48719
G1 X83.295 Y83.885 E3.51420
G1 X84.055 Y83.769 E3.54130
G1 X84.819 Y83.784 E3.56823
G1 X85.580 Y83.929 E3.59553
G1 X86.258 Y84.182 E3.62105
M204 S750
M106 S255
G1 X86.957 Y84.583 E3.66565 F3600.000
G1 X87.544 Y85.075 E3.70808
G1 X88.039 Y85.658 E3.75041
G1 X88.432 Y86.323 E3.79316
G1 X88.703 Y87.033 E3.83524
G1 X88.851 Y87.787 E3.87776
