; generated by Slic3r 1.1.7 on 2015-02-16 at 14:48:28

; perimeters extrusion width = 0.47mm
; infill extrusion width = 0.62mm
; solid infill extrusion width = 0.62mm
; top infill extrusion width = 0.62mm
; support material extrusion width = 0.47mm

G21 ; set units to millimeters
M190 S60 ; wait for bed temperature to be reached
M104 S230 ; set temperature
G28 ; home all axes Start of G Code Slic3r
 
 
M109 S230 ; wait for temperature to be reached
G90 ; use absolute coordinates
G92 E0
M82 ; use absolute distances for extrusion
G1 F4200.000 E-3.00000
G92 E0
G1 Z0.294 F6000.000
G1 X84.502 Y83.186 F6000.000
G1 E3.00000 F4200.000
G1 X90.234 Y77.364 E3.58741 F1500.000
G1 X156.828 Y13.183 E10.23710
G1 X158.507 Y11.825 E10.39235
G1 X160.379 Y10.749 E10.54764
G1 X162.398 Y9.981 E10.70294
G1 X164.512 Y9.541 E10.85821
G1 X166.669 Y9.440 E11.01344
G1 X168.814 Y9.680 E11.16858
G1 X170.892 Y10.254 E11.32361 F1500.000
G1 X171.544 Y10.519 E11.37420
G1 X172.852 Y11.147 E11.47858
G1 X174.646 Y12.337 E11.63333
G1 X175.847 Y13.381 E11.74774
G1 X185.250 Y22.732 E12.70116
G1 X185.577 Y23.112 E12.73725
G1 X186.574 Y24.403 E12.85453
G1 X187.618 Y26.260 E13.00767
G1 X188.358 Y28.254 E13.16061
G1 X188.777 Y30.337 E13.31336
G1 X188.866 Y32.457 E13.46593
G1 X188.834 Y32.889 E13.49705
G1 X188.623 Y34.563 E13.61835
G1 X188.527 Y34.972 E13.64859
G1 X188.055 Y36.603 E13.77061
G1 X187.178 Y38.528 E13.92271
G1 X186.014 Y40.291 E14.07467
G1 X185.255 Y41.191 E14.15930
G1 X146.445 Y85.173 E18.37661
G1 X75.594 Y158.178 E25.69102
G1 X73.436 Y160.351 E25.91123
G1 X64.993 Y168.735 E26.76668
G1 X62.628 Y171.004 E27.00235
G1 X56.743 Y176.010 E27.55782
G1 X53.386 Y178.513 E27.85890
G1 X51.268 Y179.596 E28.02994
G1 X49.399 Y179.920 E28.16630
G1 X48.327 Y179.961 E28.24343
G1 X45.208 Y179.372 E28.47166
G1 X44.345 Y178.996 E28.53934
G1 X42.838 Y178.104 E28.66521
G1 X41.474 Y176.994 E28.79164
G1 X23.857 Y159.819 E30.56061
G1 X23.215 Y159.003 E30.63528
G1 X22.334 Y157.560 E30.75684
G1 X21.832 Y156.463 E30.84354
G1 X21.217 Y154.165 E31.01458
G1 X21.392 Y151.793 E31.18562
G1 X21.941 Y150.306 E31.29957
G1 X22.658 Y148.875 E31.41467
G1 X23.275 Y147.862 E31.49995
G1 X26.835 Y143.003 E31.93306
G1 X29.952 Y139.175 E32.28793
G1 X41.366 Y127.005 E33.48757
G1 X84.453 Y83.237 E37.90337
G1 X84.903 Y83.581 F6000.000
G1 X90.624 Y77.769 E38.48972 F1500.000
G1 X157.199 Y13.605 E45.13758
G1 X158.807 Y12.300 E45.28644
G1 X160.601 Y11.265 E45.43533
G1 X162.535 Y10.526 E45.58424
G1 X164.562 Y10.101 E45.73313
G1 X166.630 Y10.001 E45.88197
G1 X168.686 Y10.227 E46.03073
G1 X170.680 Y10.775 E46.17938 F1500.000
G1 X171.332 Y11.040 E46.22997
G1 X172.561 Y11.628 E46.32797
G1 X174.283 Y12.766 E46.47636
G1 X175.451 Y13.781 E46.58759
G1 X184.824 Y23.099 E47.53783
G1 X185.151 Y23.479 E47.57391
G1 X186.096 Y24.699 E47.68484
G1 X187.100 Y26.477 E47.83164
G1 X187.812 Y28.388 E47.97825
G1 X188.217 Y30.383 E48.12467
G1 X188.305 Y32.416 E48.27092
G1 X188.273 Y32.847 E48.30204
G1 X188.075 Y34.434 E48.41703
G1 X187.979 Y34.844 E48.44727
G1 X187.535 Y36.391 E48.56298
G1 X186.697 Y38.237 E48.70878
G1 X185.583 Y39.930 E48.85445
G1 X184.834 Y40.819 E48.93810
G1 X146.041 Y84.781 E53.15349
G1 X75.195 Y157.782 E60.46743
G1 X73.040 Y159.952 E60.68736
G1 X64.602 Y168.331 E61.54227
G1 X62.262 Y170.577 E61.77544
G1 X56.407 Y175.559 E62.32824
G1 X53.050 Y178.062 E62.62931
G1 X51.010 Y179.087 E62.79342
G1 X49.377 Y179.358 E62.91242
G1 X48.305 Y179.399 E62.98955
G1 X45.432 Y178.857 E63.19977
G1 X44.569 Y178.480 E63.26745
G1 X43.182 Y177.659 E63.38339
G1 X41.866 Y176.590 E63.50527
G1 X24.299 Y159.471 E65.26886
G1 X23.657 Y158.655 E65.34353
G1 X22.845 Y157.326 E65.45549
G1 X22.343 Y156.229 E65.54219
G1 X21.768 Y154.020 E65.70630
G1 X21.985 Y151.748 E65.87041
G1 X22.443 Y150.558 E65.96212
G1 X23.161 Y149.127 E66.07722
G1 X23.729 Y148.194 E66.15578
G1 X27.273 Y143.356 E66.58693
G1 X30.362 Y139.559 E66.93884
G1 X41.767 Y127.399 E68.13748
G1 X84.853 Y83.631 E72.55328
G1 F4200.000 E69.55328
G92 E0
G1 X69.192 Y138.844 F6000.000
G1 E3.00000 F4200.000
G1 X56.677 Y127.657 E4.20685 F441.000
G1 X56.857 Y127.101 E4.24886
G1 X76.818 Y106.262 E6.32361
G1 X161.736 Y18.745 E15.09110
G1 X162.486 Y18.085 E15.16295
G1 X163.322 Y17.558 E15.23398
G1 X164.230 Y17.169 E15.30502
G1 X165.188 Y16.928 E15.37605
G1 X166.172 Y16.841 E15.44706
G1 X167.157 Y16.910 E15.51804
G1 X168.118 Y17.134 E15.58897
G1 X169.031 Y17.505 E15.65985
G1 X169.873 Y18.015 E15.73065
G1 X170.633 Y18.658 E15.80222
G1 X179.637 Y27.582 E16.71369
G1 X180.277 Y28.324 E16.78410
G1 X180.785 Y29.146 E16.85360
G1 X181.158 Y30.037 E16.92300
G1 X181.386 Y30.973 E16.99232
G1 X181.466 Y31.933 E17.06156
G1 X181.395 Y32.892 E17.13071
G1 X181.176 Y33.828 E17.19978
G1 X180.814 Y34.717 E17.26879
G1 X180.319 Y35.538 E17.33774
G1 X179.695 Y36.281 E17.40748
G1 X138.085 Y78.635 E21.67636
G1 X84.636 Y132.434 E27.12884
G1 X69.257 Y138.817 E28.32603
G1 X69.113 Y138.381 F6000.000
G1 X69.303 Y138.189 F6000.000
G1 X57.296 Y127.456 E29.48394 F630.000
G1 X77.223 Y106.652 E31.55516
G1 X162.124 Y19.153 E40.32092
G1 X162.824 Y18.537 E40.38796
G1 X163.584 Y18.057 E40.45258
G1 X164.410 Y17.703 E40.51720
G1 X165.282 Y17.484 E40.58182
G1 X166.177 Y17.405 E40.64642
G1 X167.073 Y17.468 E40.71099
G1 X167.947 Y17.671 E40.77552
G1 X168.778 Y18.009 E40.84000
G1 X169.544 Y18.473 E40.90441
G1 X170.253 Y19.073 E40.97119
G1 X179.226 Y27.966 E41.87947
G1 X179.822 Y28.658 E41.94511
G1 X180.283 Y29.404 E42.00823
G1 X180.622 Y30.213 E42.07127
G1 X180.830 Y31.064 E42.13424
G1 X180.902 Y31.936 E42.19712
G1 X180.838 Y32.807 E42.25993
G1 X180.639 Y33.656 E42.32268
G1 X180.310 Y34.464 E42.38536
G1 X179.860 Y35.210 E42.44799
G1 X179.279 Y35.902 E42.51299
G1 X137.685 Y78.240 E46.78018
G1 X84.316 Y131.958 E52.22445
G1 X69.368 Y138.162 E53.38813
G1 X69.664 Y137.620 F6000.000
G1 X58.649 Y126.604 E54.50819 F1500.000
G1 X59.039 Y126.196 E54.54876
G1 X70.228 Y137.385 E55.68646
G1 X70.792 Y137.151 E55.73036
G1 X59.429 Y125.789 E56.88570
G1 X59.820 Y125.381 E56.92628
G1 X71.356 Y136.917 E58.09926
G1 X71.920 Y136.683 E58.14316
G1 X60.210 Y124.974 E59.33378
G1 X60.600 Y124.566 E59.37436
G1 X72.484 Y136.449 E60.58263
G1 X73.048 Y136.215 E60.62653
G1 X60.991 Y124.159 E61.85244
G1 X61.381 Y123.751 E61.89302
G1 X73.611 Y135.981 E63.13657
G1 X74.175 Y135.747 E63.18047
G1 X61.772 Y123.343 E64.44167
G1 X62.162 Y122.936 E64.48224
G1 X74.739 Y135.513 E65.76108
G1 X75.303 Y135.279 E65.80498
G1 X62.552 Y122.528 E67.10146
G1 X62.943 Y122.121 E67.14204
G1 X75.867 Y135.045 E68.45616
G1 X76.431 Y134.811 E68.50006
G1 X63.333 Y121.713 E69.83183
G1 X63.724 Y121.306 E69.87241
G1 X76.995 Y134.577 E71.22182
G1 X77.559 Y134.343 E71.26571
G1 X64.114 Y120.898 E72.63277
G1 X64.504 Y120.490 E72.67334
G1 X78.123 Y134.109 E74.05804
G1 X78.686 Y133.875 E74.10194
G1 X64.895 Y120.083 E75.50427
G1 X65.285 Y119.675 E75.54485
G1 X79.250 Y133.641 E76.96483
G1 X79.814 Y133.407 E77.00873
G1 X65.675 Y119.268 E78.44635
G1 X66.066 Y118.860 E78.48693
G1 X80.378 Y133.173 E79.94220
G1 X80.942 Y132.938 E79.98609
G1 X66.456 Y118.453 E81.45900
G1 X66.847 Y118.045 E81.49958
G1 X81.506 Y132.704 E82.99013
G1 X82.070 Y132.470 E83.03403
G1 X67.237 Y117.637 E84.54222
G1 X67.627 Y117.230 E84.58280
G1 X82.634 Y132.236 E86.10864
G1 X83.198 Y132.002 E86.15253
G1 X68.018 Y116.822 E87.69601
G1 X68.408 Y116.415 E87.73659
G1 X83.762 Y131.768 E89.29771
G1 X84.244 Y131.453 E89.33916
G1 X68.799 Y116.007 E90.90967
G1 X69.189 Y115.600 E90.95025
G1 X84.643 Y131.054 E92.52163
G1 X85.042 Y130.655 E92.56219
G1 X69.579 Y115.192 E94.13445
G1 X69.970 Y114.785 E94.17502
G1 X85.441 Y130.256 E95.74815
G1 X85.840 Y129.857 E95.78872
G1 X70.360 Y114.377 E97.36272
G1 X70.750 Y113.969 E97.40330
G1 X86.239 Y129.458 E98.97817
G1 X86.638 Y129.059 E99.01874
G1 X71.141 Y113.562 E100.59449
G1 X71.531 Y113.154 E100.63506
G1 X87.037 Y128.660 E102.21168
G1 X87.436 Y128.261 E102.25225
G1 X71.922 Y112.747 E103.82975
G1 X72.312 Y112.339 E103.87032
G1 X87.835 Y127.862 E105.44869
G1 X88.234 Y127.463 E105.48926
G1 X72.702 Y111.932 E107.06850
G1 X73.093 Y111.524 E107.10908
G1 X88.632 Y127.063 E108.68912
G1 X89.030 Y126.663 E108.72969
G1 X73.483 Y111.116 E110.31048
G1 X73.874 Y110.709 E110.35105
G1 X89.428 Y126.263 E111.93258
G1 X89.825 Y125.863 E111.97315
G1 X74.264 Y110.301 E113.55542
G1 X74.654 Y109.894 E113.59599
G1 X90.223 Y125.462 E115.17900
G1 X90.621 Y125.062 E115.21957
G1 X75.045 Y109.486 E116.80332
G1 X75.435 Y109.079 E116.84390
G1 X91.018 Y124.662 E118.42839
G1 X91.416 Y124.262 E118.46896
G1 X75.825 Y108.671 E120.05419
G1 X76.216 Y108.263 E120.09477
G1 X91.814 Y123.861 E121.68074
G1 X92.211 Y123.461 E121.72131
G1 X76.606 Y107.856 E123.30802
G1 X76.997 Y107.448 E123.34860
G1 X92.609 Y123.061 E124.93606
G1 X93.007 Y122.660 E124.97662
G1 X77.387 Y107.041 E126.56482
G1 X77.779 Y106.635 E126.60540
G1 X93.404 Y122.260 E128.19415
G1 X93.802 Y121.860 E128.23472
G1 X78.172 Y106.230 E129.82395
G1 X78.565 Y105.825 E129.86452
G1 X94.200 Y121.460 E131.45423
G1 X94.597 Y121.059 E131.49480
G1 X78.958 Y105.420 E133.08499
G1 X79.351 Y105.015 E133.12556
G1 X94.995 Y120.659 E134.71623
G1 X95.393 Y120.259 E134.75680
G1 X79.744 Y104.610 E136.34795
G1 X80.137 Y104.205 E136.38852
G1 X95.790 Y119.858 E137.98015
G1 X96.188 Y119.458 E138.02072
G1 X80.530 Y103.800 E139.61282
G1 X80.923 Y103.395 E139.65339
G1 X96.586 Y119.058 E141.24598
G1 X96.983 Y118.658 E141.28655
G1 X81.316 Y102.990 E142.87961
G1 X81.709 Y102.585 E142.92018
G1 X97.381 Y118.257 E144.51373
G1 X97.779 Y117.857 E144.55430
G1 X82.102 Y102.180 E146.14832
G1 X82.495 Y101.775 E146.18889
G1 X98.176 Y117.457 E147.78339
G1 X98.574 Y117.057 E147.82396
G1 X82.888 Y101.370 E149.41894
G1 X83.281 Y100.965 E149.45951
G1 X98.972 Y116.656 E151.05497
G1 X99.370 Y116.256 E151.09554
G1 X83.674 Y100.560 E152.69148
G1 X84.067 Y100.155 E152.73205
G1 X99.767 Y115.856 E154.32847
G1 X100.165 Y115.455 E154.36903
G1 X84.460 Y99.750 E155.96593
G1 X84.853 Y99.345 E156.00650
G1 X100.563 Y115.055 E157.60388
G1 X100.960 Y114.655 E157.64444
G1 X85.246 Y98.940 E159.24230
G1 X85.639 Y98.535 E159.28287
G1 X101.358 Y114.255 E160.88120
G1 X101.756 Y113.854 E160.92177
G1 X86.031 Y98.130 E162.52058
G1 X86.424 Y97.725 E162.56116
G1 X102.153 Y113.454 E164.16045
G1 X102.551 Y113.054 E164.20102
G1 X86.817 Y97.320 E165.80079
G1 X87.210 Y96.915 E165.84136
G1 X102.949 Y112.654 E167.44161
G1 X103.346 Y112.253 E167.48217
G1 X87.603 Y96.510 E169.08290
G1 X87.996 Y96.105 E169.12347
G1 X103.744 Y111.853 E170.72468
G1 X104.142 Y111.453 E170.76525
G1 X88.389 Y95.700 E172.36694
G1 X88.782 Y95.295 E172.40751
G1 X104.539 Y111.052 E174.00967
G1 X104.937 Y110.652 E174.05024
G1 X89.175 Y94.890 E175.65288
G1 X89.568 Y94.485 E175.69346
G1 X105.335 Y110.252 E177.29658
G1 X105.732 Y109.852 E177.33715
G1 X89.961 Y94.080 E178.94075
G1 X90.354 Y93.675 E178.98132
G1 X106.130 Y109.451 E180.58540
G1 X106.528 Y109.051 E180.62597
G1 X90.747 Y93.270 E182.23053
G1 X91.140 Y92.865 E182.27110
G1 X106.925 Y108.651 E183.87614
G1 X107.323 Y108.250 E183.91671
G1 X91.533 Y92.460 E185.52223
G1 X91.926 Y92.055 E185.56280
G1 X107.721 Y107.850 E187.16880
G1 X108.118 Y107.450 E187.20936
G1 X92.319 Y91.650 E188.81584
G1 X92.712 Y91.245 E188.85641
G1 X108.516 Y107.050 E190.46337
G1 X108.914 Y106.649 E190.50393
G1 X93.105 Y90.840 E192.11137
G1 X93.498 Y90.435 E192.15194
G1 X109.311 Y106.249 E193.75985
G1 X109.709 Y105.849 E193.80042
G1 X93.891 Y90.031 E195.40881
G1 X94.284 Y89.626 E195.44938
G1 X110.107 Y105.449 E197.05826
G1 X110.504 Y105.048 E197.09882
G1 X94.677 Y89.221 E198.70817
G1 X95.070 Y88.816 E198.74874
G1 X110.902 Y104.648 E200.35857
G1 X111.300 Y104.248 E200.39914
G1 X95.463 Y88.411 E202.00945
G1 X95.856 Y88.006 E202.05002
G1 X111.697 Y103.847 E203.66081
G1 X112.095 Y103.447 E203.70138
G1 X96.249 Y87.601 E205.31264
G1 X96.641 Y87.196 E205.35321
G1 X112.493 Y103.047 E206.96496
G1 X112.890 Y102.647 E207.00553
G1 X97.034 Y86.791 E208.61775
G1 X97.427 Y86.386 E208.65832
G1 X113.288 Y102.246 E210.27102
G1 X113.686 Y101.846 E210.31159
G1 X97.820 Y85.981 E211.92477
G1 X98.213 Y85.576 E211.96535
G1 X114.083 Y101.446 E213.57901
G1 X114.481 Y101.045 E213.61957
G1 X98.606 Y85.171 E215.23371
G1 X98.999 Y84.766 E215.27429
G1 X114.879 Y100.645 E216.88890
G1 X115.276 Y100.245 E216.92947
G1 X99.392 Y84.361 E218.54457
G1 X99.785 Y83.956 E218.58514
G1 X115.674 Y99.845 E220.20072
G1 X116.072 Y99.444 E220.24129
G1 X100.178 Y83.551 E221.85734
G1 X100.571 Y83.146 E221.89791
G1 X116.470 Y99.044 E223.51445
G1 X116.867 Y98.644 E223.55502
G1 X100.964 Y82.741 E225.17203
G1 X101.357 Y82.336 E225.21260
G1 X117.265 Y98.244 E226.83009
G1 X117.663 Y97.843 E226.87066
G1 X101.750 Y81.931 E228.48863
G1 X102.143 Y81.526 E228.52921
G1 X118.060 Y97.443 E230.14766
G1 X118.458 Y97.043 E230.18822
G1 X102.536 Y81.121 E231.80715
G1 X102.929 Y80.716 E231.84772
G1 X118.856 Y96.642 E233.46713
G1 X119.253 Y96.242 E233.50770
G1 X103.322 Y80.311 E235.12759
G1 X103.715 Y79.906 E235.16816
G1 X119.651 Y95.842 E236.78853
G1 X120.049 Y95.442 E236.82909
G1 X104.108 Y79.501 E238.44994
G1 X104.501 Y79.096 E238.49051
G1 X120.446 Y95.041 E240.11184
G1 X120.844 Y94.641 E240.15240
G1 X104.894 Y78.691 E241.77421
G1 X105.287 Y78.286 E241.81478
G1 X121.242 Y94.241 E243.43706
G1 X121.639 Y93.840 E243.47763
G1 X105.680 Y77.881 E245.10039
G1 X106.073 Y77.476 E245.14096
G1 X122.037 Y93.440 E246.76420
G1 X122.435 Y93.040 E246.80477
G1 X106.466 Y77.071 E248.42849
G1 X106.859 Y76.666 E248.46906
G1 X122.832 Y92.640 E250.09326
G1 X123.230 Y92.239 E250.13383
G1 X107.252 Y76.261 E251.75851
G1 X107.644 Y75.856 E251.79908
G1 X123.628 Y91.839 E253.42423
G1 X124.025 Y91.439 E253.46480
G1 X108.037 Y75.451 E255.09044
G1 X108.430 Y75.046 E255.13101
G1 X124.423 Y91.039 E256.75712
G1 X124.821 Y90.638 E256.79769
G1 X108.823 Y74.641 E258.42428
G1 X109.216 Y74.236 E258.46486
G1 X125.218 Y90.238 E260.09193
G1 X125.616 Y89.838 E260.13250
G1 X109.609 Y73.831 E261.76005
G1 X110.002 Y73.426 E261.80062
G1 X126.014 Y89.437 E263.42865
G1 X126.411 Y89.037 E263.46922
G1 X110.395 Y73.021 E265.09773
G1 X110.788 Y72.616 E265.13830
G1 X126.809 Y88.637 E266.76729
G1 X127.207 Y88.237 E266.80785
G1 X111.181 Y72.211 E268.43732
G1 X111.574 Y71.806 E268.47789
G1 X127.604 Y87.836 E270.10784
G1 X128.002 Y87.436 E270.14841
G1 X111.967 Y71.401 E271.77883
G1 X112.360 Y70.996 E271.81940
G1 X128.400 Y87.036 E273.45031
G1 X128.797 Y86.635 E273.49088
G1 X112.753 Y70.591 E275.12226
G1 X113.146 Y70.186 E275.16283
G1 X129.195 Y86.235 E276.79469
G1 X129.593 Y85.835 E276.83526
G1 X113.539 Y69.781 E278.46760
G1 X113.932 Y69.376 E278.50817
G1 X129.990 Y85.435 E280.14099
G1 X130.388 Y85.034 E280.18156
G1 X114.325 Y68.971 E281.81486
G1 X114.718 Y68.566 E281.85543
G1 X130.786 Y84.634 E283.48921
G1 X131.183 Y84.234 E283.52978
G1 X115.111 Y68.161 E285.16403
G1 X115.504 Y67.756 E285.20461
G1 X131.581 Y83.834 E286.83934
G1 X131.979 Y83.433 E286.87991
G1 X115.897 Y67.351 E288.51513
G1 X116.290 Y66.946 E288.55570
G1 X132.376 Y83.033 E290.19139
G1 X132.774 Y82.633 E290.23196
G1 X116.683 Y66.541 E291.86813
G1 X117.076 Y66.136 E291.90870
G1 X133.172 Y82.232 E293.54536
G1 X133.570 Y81.832 E293.58592
G1 X117.469 Y65.731 E295.22305
G1 X117.862 Y65.326 E295.26363
G1 X133.967 Y81.432 E296.90124
G1 X134.365 Y81.032 E296.94180
G1 X118.254 Y64.921 E298.57989
G1 X118.647 Y64.516 E298.62046
G1 X134.763 Y80.631 E300.25903
G1 X135.160 Y80.231 E300.29960
G1 X119.040 Y64.111 E301.93865
G1 X119.433 Y63.706 E301.97922
G1 X135.558 Y79.831 E303.61874
G1 X135.956 Y79.431 E303.65931
G1 X119.826 Y63.301 E305.29932
G1 X120.219 Y62.896 E305.33989
G1 X136.353 Y79.030 E306.98037
G1 X136.751 Y78.630 E307.02094
G1 X120.612 Y62.491 E308.66190
G1 X121.005 Y62.086 E308.70247
G1 X137.149 Y78.230 E310.34392
G1 X137.545 Y77.829 E310.38448
G1 X121.398 Y61.681 E312.02633
G1 X121.791 Y61.276 E312.06690
G1 X137.941 Y77.426 E313.70899
G1 X138.336 Y77.024 E313.74956
G1 X122.184 Y60.871 E315.39191
G1 X122.577 Y60.466 E315.43248
G1 X138.732 Y76.621 E317.07508
G1 X139.127 Y76.219 E317.11565
G1 X122.970 Y60.061 E318.75850
G1 X123.363 Y59.656 E318.79907
G1 X139.523 Y75.816 E320.44217
