; generated by Slic3r 1.1.7 on 2015-02-12 at 14:51:01

; perimeters extrusion width = 0.40mm
; infill extrusion width = 0.44mm
; solid infill extrusion width = 0.44mm
; top infill extrusion width = 0.44mm
; support material extrusion width = 0.40mm

G21 ; set units to millimeters
M190 S60 ; wait for bed temperature to be reached
M104 S222 ; set temperature
G28 ; home all axes Start of G Code Slic3r
 
 
M109 S222 ; wait for temperature to be reached
G90 ; use absolute coordinates
G92 E0
M82 ; use absolute distances for extrusion
G1 F4200.000 E-3.00000
G92 E0
G1 Z0.294 F7800.000
G1 X87.988 Y28.867 F7800.000
G1 E3.00000 F4200.000
G1 X88.401 Y28.077 E3.06236 F1800.000
G1 X90.705 Y25.534 E3.30253
G1 X91.075 Y25.287 E3.33366
G1 X93.721 Y24.207 E3.53366
G1 X94.768 Y24.012 E3.60814
G1 X96.448 Y23.902 E3.72595
G1 X98.777 Y24.026 E3.88915
G1 X102.939 Y24.315 E4.18115 F1800.000
G1 X103.840 Y24.493 E4.24539
G1 X105.200 Y24.915 E4.34504
G1 X105.572 Y25.074 E4.37335
G1 X107.567 Y26.360 E4.53947
G1 X108.427 Y27.302 E4.62867
G1 X108.655 Y27.602 E4.65510
G1 X109.980 Y30.586 E4.88352
G1 X118.747 Y79.881 E8.38714
G1 X118.821 Y83.364 E8.63095
G1 X119.986 Y172.097 E14.84076
G1 X119.234 Y175.369 E15.07567
G1 X118.744 Y176.347 E15.15221
G1 X117.340 Y178.261 E15.31833
G1 X115.384 Y179.605 E15.48445
G1 X112.525 Y180.261 E15.68968
G1 X90.860 Y180.638 E17.20599
G1 X89.583 Y180.650 E17.29535
G1 X88.703 Y180.619 E17.35692
G1 X86.379 Y180.139 E17.52304
G1 X84.342 Y178.919 E17.68916
G1 X82.822 Y177.096 E17.85528
G1 X81.989 Y174.873 E18.02140
G1 X81.862 Y173.684 E18.10504
G1 X79.763 Y77.889 E24.81012
G1 X79.854 Y76.590 E24.90123
G1 X87.309 Y30.936 E28.13825
G1 X87.970 Y28.924 E28.28643
G1 X88.480 Y29.102 F7800.000
G1 X88.883 Y28.336 E28.34700 F1800.000
G1 X91.010 Y25.989 E28.56865
G1 X91.380 Y25.741 E28.59977
G1 X93.822 Y24.745 E28.78435
G1 X94.868 Y24.550 E28.85884
G1 X96.418 Y24.448 E28.96756
G1 X98.747 Y24.572 E29.13075
G1 X102.836 Y24.852 E29.41751 F1800.000
G1 X103.731 Y25.030 E29.48138
G1 X104.986 Y25.419 E29.57335
G1 X105.357 Y25.577 E29.60153
G1 X107.991 Y27.633 E29.83538
G1 X108.220 Y27.934 E29.86180
G1 X109.442 Y30.687 E30.07261
G1 X118.200 Y79.892 E33.56996
G1 X118.274 Y83.371 E33.81345
G1 X119.439 Y172.104 E40.02326
G1 X118.745 Y175.124 E40.24006
G1 X118.255 Y176.101 E40.31659
G1 X116.894 Y177.931 E40.47613
G1 X114.989 Y179.182 E40.63567
G1 X112.516 Y179.714 E40.81268
G1 X90.850 Y180.091 E42.32899
G1 X89.602 Y180.103 E42.41633
G1 X88.723 Y180.072 E42.47790
G1 X86.493 Y179.596 E42.63743
G1 X84.562 Y178.384 E42.79697
G1 X83.164 Y176.584 E42.95651
G1 X82.409 Y173.672 E43.16696
G1 X80.310 Y77.877 E49.87204
G1 X80.394 Y76.678 E49.95612
G1 X87.850 Y31.025 E53.19314
G1 X88.462 Y29.159 E53.33052
G1 F4200.000 E50.33052
G92 E0
G1 X92.118 Y30.960 F7800.000
G1 E3.00000 F4200.000
G1 X92.629 Y29.993 E3.07653 F1800.000
G1 X93.047 Y29.537 E3.11978
G1 X93.845 Y29.004 E3.18695
G1 X94.324 Y28.806 E3.22322
G1 X95.756 Y28.539 E3.32518
G1 X96.052 Y28.519 E3.34596
G1 X98.530 Y28.651 E3.51955
G1 X101.811 Y28.827 E3.74950 F1800.000
G1 X102.502 Y28.948 E3.79862
G1 X103.032 Y29.055 E3.83645
G1 X103.274 Y29.130 E3.85418
G1 X104.042 Y29.458 E3.91260
G1 X104.546 Y29.851 E3.95732
G1 X105.142 Y30.634 E4.02619
G1 X105.375 Y31.159 E4.06637
G1 X105.570 Y32.199 E4.14043
G1 X105.591 Y32.403 E4.15476
G1 X105.605 Y33.126 E4.20537
G1 X105.064 Y34.211 E4.29020
G1 X104.320 Y34.747 E4.35433
G1 X103.677 Y35.086 E4.40524
G1 X103.087 Y35.218 E4.44754
G1 X102.654 Y35.207 E4.47785
G1 X102.075 Y35.141 E4.51864
G1 X101.051 Y34.970 E4.59129
G1 X100.244 Y34.917 E4.64786
G1 X99.417 Y34.928 E4.70572
G1 X99.120 Y34.953 E4.72656
G1 X98.347 Y35.072 E4.78129
G1 X97.523 Y35.286 E4.84088
G1 X96.788 Y35.543 E4.89536
G1 X96.251 Y35.706 E4.93465
G1 X95.677 Y35.832 E4.97573
G1 X95.091 Y35.878 E5.01690
G1 X94.560 Y35.866 E5.05409
G1 X94.093 Y35.759 E5.08761
G1 X93.862 Y35.678 E5.10473
G1 X93.395 Y35.470 E5.14054
G1 X92.863 Y35.085 E5.18647
G1 X92.530 Y34.725 E5.22079
G1 X92.208 Y34.165 E5.26598
G1 X91.949 Y33.526 E5.31425
G1 X91.865 Y33.188 E5.33856
G1 X91.805 Y32.606 E5.37956
G1 X91.805 Y32.344 E5.39787
G1 X91.888 Y31.589 E5.45100
G1 X92.016 Y31.160 E5.48238
G1 X92.091 Y31.013 E5.49387
G1 X92.605 Y31.209 F7800.000
G1 X93.079 Y30.312 E5.56483 F1800.000
G1 X93.404 Y29.958 E5.59847
G1 X94.107 Y29.488 E5.65764
G1 X94.479 Y29.334 E5.68584
G1 X95.826 Y29.083 E5.78170
G1 X96.056 Y29.067 E5.79786
G1 X101.763 Y29.372 E6.19778 F1800.000
G1 X102.898 Y29.587 E6.27862
G1 X103.087 Y29.645 E6.29241
G1 X103.762 Y29.933 E6.34377
G1 X104.153 Y30.239 E6.37854
G1 X104.667 Y30.915 E6.43798
G1 X104.849 Y31.323 E6.46923
G1 X105.044 Y32.436 E6.54835
G1 X105.055 Y33.002 E6.58794
G1 X104.634 Y33.846 E6.65392
G1 X104.018 Y34.290 E6.70708
G1 X103.492 Y34.567 E6.74866
G1 X103.033 Y34.669 E6.78156
G1 X102.465 Y34.644 E6.82140
G1 X101.141 Y34.429 E6.91525
G1 X100.920 Y34.413 E6.93077
G1 X100.179 Y34.370 E6.98269
G1 X99.720 Y34.369 E7.01484
G1 X99.077 Y34.407 E7.05987
G1 X98.237 Y34.536 E7.11933
G1 X97.364 Y34.762 E7.18243
G1 X96.611 Y35.025 E7.23830
G1 X96.105 Y35.179 E7.27525
G1 X95.587 Y35.292 E7.31235
G1 X95.072 Y35.331 E7.34855
G1 X94.630 Y35.321 E7.37944
G1 X94.267 Y35.238 E7.40551
G1 X93.669 Y34.993 E7.45071
G1 X93.228 Y34.674 E7.48884
G1 X92.969 Y34.393 E7.51554
G1 X92.707 Y33.939 E7.55226
G1 X92.471 Y33.356 E7.59628
G1 X92.405 Y33.094 E7.61519
G1 X92.352 Y32.578 E7.65146
G1 X92.352 Y32.375 E7.66570
G1 X92.426 Y31.698 E7.71330
G1 X92.526 Y31.364 E7.73771
G1 X92.578 Y31.262 E7.74572
G1 X93.093 Y31.458 F7800.000
G1 X93.529 Y30.631 E7.81111 F1800.000
G1 X93.761 Y30.378 E7.83514
G1 X94.368 Y29.971 E7.88629
G1 X94.635 Y29.862 E7.90644
G1 X95.895 Y29.627 E7.99619
G1 X96.060 Y29.615 E8.00774
G1 X98.471 Y29.744 E8.17671
G1 X101.808 Y29.929 E8.41058 F1800.000
G1 X102.764 Y30.118 E8.47877
G1 X102.899 Y30.159 E8.48862
G1 X103.481 Y30.408 E8.53291
G1 X103.761 Y30.626 E8.55775
G1 X104.193 Y31.195 E8.60775
G1 X104.323 Y31.487 E8.63008
G1 X104.486 Y32.357 E8.69203
G1 X104.506 Y32.878 E8.72854
G1 X104.205 Y33.481 E8.77567
G1 X103.716 Y33.833 E8.81786
G1 X103.308 Y34.047 E8.85011
G1 X102.980 Y34.120 E8.87361
G1 X102.664 Y34.112 E8.89572
G1 X102.240 Y34.059 E8.92565
G1 X101.177 Y33.881 E9.00102
G1 X100.283 Y33.823 E9.06370
G1 X99.350 Y33.836 E9.12904
G1 X98.995 Y33.866 E9.15397
G1 X98.127 Y33.999 E9.21541
G1 X97.206 Y34.238 E9.28203
G1 X96.433 Y34.508 E9.33929
G1 X95.960 Y34.651 E9.37390
G1 X95.497 Y34.752 E9.40701
G1 X95.052 Y34.784 E9.43824
G1 X94.701 Y34.776 E9.46283
G1 X94.442 Y34.716 E9.48145
G1 X93.944 Y34.517 E9.51895
G1 X93.593 Y34.262 E9.54929
G1 X93.408 Y34.062 E9.56836
G1 X93.206 Y33.713 E9.59663
G1 X92.992 Y33.186 E9.63640
G1 X92.946 Y32.999 E9.64991
G1 X92.899 Y32.551 E9.68144
G1 X92.965 Y31.807 E9.73364
G1 X93.066 Y31.511 E9.75554
G1 F4200.000 E6.75554
G92 E0
G1 X103.956 Y32.754 F7800.000
G1 E3.00000 F4200.000
G1 X103.776 Y33.116 E3.02828 F1800.000
G1 X103.357 Y33.411 E3.06412
G1 X103.123 Y33.528 E3.08241
G1 X102.926 Y33.572 E3.09651
G1 X102.600 Y33.558 E3.11937
G1 X101.241 Y33.337 E3.21575
G1 X100.319 Y33.277 E3.28036
G1 X99.703 Y33.275 E3.32349
G1 X98.952 Y33.319 E3.37614
G1 X98.017 Y33.462 E3.44233
G1 X97.047 Y33.714 E3.51247
G1 X96.233 Y33.998 E3.57280
G1 X95.688 Y34.154 E3.61247
G1 X95.349 Y34.219 E3.63660
G1 X94.996 Y34.238 E3.66134
G1 X94.771 Y34.231 E3.67706
G1 X94.375 Y34.110 E3.70608
G1 X94.219 Y34.040 E3.71802
G1 X93.958 Y33.851 E3.74056
G1 X93.847 Y33.731 E3.75200
G1 X93.705 Y33.487 E3.77181
G1 X93.514 Y33.016 E3.80733
G1 X93.486 Y32.904 E3.81543
G1 X93.446 Y32.523 E3.84223
G1 X93.503 Y31.916 E3.88486
G1 X93.546 Y31.773 E3.89532
G1 X93.979 Y30.950 E3.96038
G1 X94.118 Y30.798 E3.97480
G1 X94.630 Y30.455 E4.01794
G1 X94.790 Y30.389 E4.03003
G1 X96.064 Y30.164 E4.12056
G1 X101.667 Y30.463 E4.51323
G1 X102.711 Y30.674 E4.58775
G1 X103.200 Y30.883 E4.62497
G1 X103.368 Y31.014 E4.63987
G1 X103.719 Y31.475 E4.68044
G1 X103.797 Y31.650 E4.69384
G1 X103.944 Y32.435 E4.74974
G1 X103.955 Y32.694 E4.76786
G1 X103.346 Y32.751 F7800.000
G1 X103.093 Y32.931 E4.78964 F1800.000
G1 X102.873 Y33.023 E4.80629
G1 X102.405 Y32.977 E4.83923
G1 X101.304 Y32.793 E4.91732
G1 X100.339 Y32.729 E4.98499
G1 X99.695 Y32.728 E5.03008
G1 X98.889 Y32.775 E5.08654
G1 X97.907 Y32.925 E5.15610
G1 X96.888 Y33.190 E5.22975
G1 X96.070 Y33.475 E5.29035
G1 X95.566 Y33.621 E5.32704
G1 X95.298 Y33.674 E5.34620
G1 X94.842 Y33.686 E5.37811
G1 X94.494 Y33.564 E5.40392
G1 X94.323 Y33.440 E5.41868
G1 X94.203 Y33.260 E5.43378
G1 X94.026 Y32.809 E5.46772
G1 X93.994 Y32.466 E5.49180
G1 X94.056 Y31.978 E5.52628
G1 X94.429 Y31.269 E5.58229
G1 X94.475 Y31.219 E5.58709
G1 X94.892 Y30.939 E5.62223
G1 X96.035 Y30.714 E5.70371
G1 X101.619 Y31.008 E6.09505
G1 X102.496 Y31.180 E6.15760
G1 X102.919 Y31.358 E6.18970
G1 X102.975 Y31.402 E6.19467
G1 X103.245 Y31.756 E6.22581
G1 X103.271 Y31.814 E6.23027
G1 X103.402 Y32.514 E6.28012
G1 X103.406 Y32.630 E6.28824
G1 X103.373 Y32.697 E6.29347
G1 F4200.000 E3.29347
G92 E0
G1 X100.539 Y66.208 F7800.000
G1 E3.00000 F4200.000
G1 X101.205 Y66.264 E3.04674 F1800.000
G1 X102.236 Y66.927 E3.13252 F1800.000
G1 X102.383 Y67.190 E3.15357
G1 X102.501 Y67.303 E3.16505
G1 X103.216 Y67.661 E3.22101
G1 X103.252 Y67.770 E3.22900
G1 X103.570 Y67.978 E3.25558
G1 X103.963 Y67.944 E3.28320
G1 X104.822 Y68.167 E3.34527
G1 X105.044 Y68.133 E3.36098
G1 X106.085 Y67.486 E3.44678
G1 X107.732 Y67.639 E3.56247
G1 X108.195 Y68.045 E3.60558
G1 X109.836 Y68.811 E3.73230
G1 X110.504 Y69.551 E3.80208
G1 X110.913 Y70.728 E3.88923
G1 X110.848 Y71.723 E3.95902
G1 X110.650 Y72.117 E3.98986
G1 X110.635 Y72.334 E4.00509
G1 X110.954 Y73.296 E4.07602
G1 X110.930 Y73.344 E4.07977
G1 X110.915 Y73.561 E4.09500
G1 X111.234 Y74.523 E4.16593
G1 X110.730 Y75.530 E4.24475
G1 X110.895 Y75.975 E4.27801
G1 X112.879 Y76.806 E4.42854
G1 X113.588 Y77.544 E4.50016
G1 X113.869 Y78.302 E4.55675
G1 X113.907 Y78.345 E4.56077
G1 X114.575 Y80.355 E4.70898
G1 X113.988 Y81.527 E4.80073
G1 X113.972 Y81.744 E4.81596
G1 X114.648 Y83.780 E4.96606
G1 X114.198 Y84.679 E5.03644
G1 X114.182 Y84.896 E5.05168
G1 X114.502 Y85.858 E5.12260
G1 X114.195 Y86.471 E5.17054
G1 X114.165 Y86.599 E5.17978
G1 X114.211 Y89.503 E5.38296
G1 X114.180 Y89.797 E5.40368
G1 X114.073 Y90.226 E5.43463
G1 X114.070 Y90.410 E5.44749
G1 X114.403 Y91.411 E5.52131
G1 X114.280 Y91.656 E5.54051
G1 X114.251 Y91.785 E5.54979
G1 X114.301 Y94.675 E5.75203
G1 X114.272 Y94.958 E5.77196
G1 X114.308 Y95.080 E5.78086
G1 X114.361 Y98.126 E5.99404
G1 X114.332 Y98.410 E6.01397
G1 X114.368 Y98.532 E6.02287
G1 X114.421 Y101.578 E6.23605
G1 X114.392 Y101.861 E6.25598
G1 X114.428 Y101.983 E6.26488
G1 X114.481 Y105.029 E6.47806
G1 X114.452 Y105.312 E6.49799
G1 X114.488 Y105.434 E6.50689
G1 X114.541 Y108.480 E6.72007
G1 X114.512 Y108.763 E6.74000
G1 X114.548 Y108.885 E6.74891
G1 X114.601 Y111.931 E6.96208
G1 X114.572 Y112.214 E6.98201
G1 X114.608 Y112.336 E6.99092
G1 X114.661 Y115.382 E7.20409
G1 X114.632 Y115.665 E7.22402
G1 X114.668 Y115.787 E7.23293
G1 X114.721 Y118.833 E7.44610
G1 X114.692 Y119.117 E7.46603
G1 X114.728 Y119.239 E7.47494
G1 X114.781 Y122.284 E7.68811
G1 X114.752 Y122.568 E7.70804
G1 X114.788 Y122.690 E7.71695
G1 X114.841 Y125.736 E7.93012
G1 X114.812 Y126.019 E7.95005
G1 X114.848 Y126.141 E7.95896
G1 X114.901 Y129.187 E8.17213
G1 X114.872 Y129.470 E8.19206
G1 X114.908 Y129.592 E8.20097
G1 X114.961 Y132.638 E8.41414
G1 X114.932 Y132.921 E8.43407
G1 X114.968 Y133.043 E8.44298
G1 X115.021 Y136.089 E8.65615
G1 X114.992 Y136.372 E8.67608
G1 X115.028 Y136.494 E8.68499
G1 X115.081 Y139.540 E8.89816
G1 X115.052 Y139.823 E8.91809
G1 X115.088 Y139.945 E8.92700
G1 X115.141 Y142.991 E9.14017
G1 X115.112 Y143.275 E9.16010
G1 X115.148 Y143.397 E9.16901
G1 X115.201 Y146.443 E9.38218
G1 X115.172 Y146.726 E9.40211
G1 X115.208 Y146.848 E9.41102
G1 X115.261 Y149.894 E9.62419
G1 X115.231 Y150.177 E9.64412
G1 X115.268 Y150.299 E9.65303
G1 X115.321 Y153.345 E9.86621
G1 X115.291 Y153.628 E9.88613
G1 X115.328 Y153.750 E9.89504
G1 X115.381 Y156.796 E10.10822
G1 X115.351 Y157.079 E10.12814
G1 X115.388 Y157.201 E10.13705
G1 X115.441 Y160.247 E10.35023
G1 X115.411 Y160.530 E10.37015
G1 X115.448 Y160.652 E10.37906
G1 X115.501 Y163.698 E10.59224
G1 X115.471 Y163.982 E10.61216
G1 X115.508 Y164.104 E10.62107
G1 X115.561 Y167.149 E10.83425
G1 X115.531 Y167.433 E10.85417
G1 X115.568 Y167.555 E10.86308
G1 X115.621 Y170.601 E11.07626
G1 X115.590 Y170.896 E11.09704
G1 X115.482 Y171.328 E11.12822
G1 X115.480 Y171.512 E11.14107
G1 X115.813 Y172.513 E11.21489
G1 X114.678 Y174.778 E11.39214
G1 X114.225 Y175.277 E11.43934
G1 X113.515 Y175.724 E11.49801
G1 X112.869 Y175.916 E11.54521
G1 X101.793 Y176.109 E12.32039
G1 X101.640 Y176.146 E12.33137
G1 X101.519 Y176.085 E12.34083
G1 X101.311 Y176.067 E12.35545
G1 X101.134 Y176.120 E12.36843
G1 X97.279 Y176.187 E12.63819
G1 X97.127 Y176.224 E12.64917
G1 X97.006 Y176.164 E12.65864
G1 X96.798 Y176.146 E12.67326
G1 X96.620 Y176.199 E12.68624
G1 X94.571 Y176.234 E12.82964
G1 X94.418 Y176.272 E12.84062
G1 X94.298 Y176.211 E12.85009
G1 X94.090 Y176.193 E12.86470
G1 X93.912 Y176.246 E12.87768
G1 X90.289 Y176.309 E13.13120
G1 X90.176 Y176.330 E13.13928
G1 X88.068 Y176.255 E13.28685
G1 X86.987 Y175.614 E13.37485
G1 X86.182 Y174.256 E13.48530
G1 X86.137 Y173.000 E13.57329
G1 X86.186 Y172.831 E13.58555
G1 X86.136 Y169.942 E13.78780
G1 X86.165 Y169.658 E13.80772
G1 X86.129 Y169.536 E13.81663
G1 X86.076 Y166.490 E14.02981
G1 X86.105 Y166.207 E14.04973
G1 X86.069 Y166.085 E14.05864
G1 X86.016 Y163.039 E14.27182
G1 X86.045 Y162.756 E14.29174
G1 X86.009 Y162.634 E14.30065
G1 X85.956 Y159.588 E14.51383
G1 X85.985 Y159.305 E14.53375
G1 X85.949 Y159.183 E14.54266
G1 X85.896 Y156.137 E14.75584
G1 X85.925 Y155.854 E14.77576
G1 X85.889 Y155.732 E14.78467
G1 X85.836 Y152.686 E14.99785
G1 X85.865 Y152.403 E15.01777
G1 X85.829 Y152.281 E15.02668
G1 X85.776 Y149.235 E15.23986
G1 X85.805 Y148.951 E15.25978
G1 X85.769 Y148.829 E15.26869
G1 X85.716 Y145.784 E15.48187
G1 X85.746 Y145.488 E15.50265
G1 X85.854 Y145.056 E15.53383
G1 X85.856 Y144.872 E15.54668
G1 X85.524 Y143.871 E15.62050
G1 X85.647 Y143.626 E15.63970
G1 X85.676 Y143.497 E15.64897
G1 X85.626 Y140.607 E15.85122
G1 X85.655 Y140.324 E15.87114
G1 X85.619 Y140.202 E15.88005
G1 X85.566 Y137.156 E16.09323
G1 X85.595 Y136.872 E16.11316
G1 X85.559 Y136.750 E16.12206
G1 X85.506 Y133.704 E16.33524
G1 X85.535 Y133.421 E16.35517
G1 X85.499 Y133.299 E16.36407
G1 X85.446 Y130.253 E16.57725
G1 X85.475 Y129.970 E16.59718
G1 X85.439 Y129.848 E16.60608
G1 X85.386 Y126.802 E16.81926
G1 X85.415 Y126.519 E16.83919
G1 X85.379 Y126.397 E16.84809
G1 X85.326 Y123.351 E17.06127
G1 X85.357 Y123.056 E17.08206
G1 X85.464 Y122.623 E17.11323
G1 X85.467 Y122.440 E17.12608
G1 X85.134 Y121.439 E17.19991
G1 X85.257 Y121.193 E17.21911
G1 X85.286 Y121.064 E17.22838
G1 X85.236 Y118.174 E17.43063
G1 X85.265 Y117.891 E17.45055
G1 X85.229 Y117.769 E17.45946
G1 X85.176 Y114.723 E17.67264
G1 X85.205 Y114.440 E17.69256
G1 X85.169 Y114.318 E17.70147
G1 X85.116 Y111.272 E17.91465
G1 X85.145 Y110.989 E17.93457
G1 X85.109 Y110.867 E17.94348
G1 X85.056 Y107.821 E18.15666
G1 X85.085 Y107.538 E18.17658
G1 X85.049 Y107.416 E18.18549
G1 X84.996 Y104.370 E18.39867
G1 X85.025 Y104.086 E18.41859
G1 X84.989 Y103.964 E18.42750
G1 X84.936 Y100.918 E18.64068
G1 X84.965 Y100.635 E18.66060
G1 X84.929 Y100.513 E18.66951
G1 X84.876 Y97.467 E18.88269
G1 X84.905 Y97.184 E18.90261
G1 X84.869 Y97.062 E18.91152
G1 X84.816 Y94.016 E19.12470
G1 X84.845 Y93.733 E19.14462
G1 X84.809 Y93.611 E19.15353
G1 X84.756 Y90.565 E19.36671
G1 X84.798 Y90.171 E19.39443
G1 X84.626 Y87.402 E19.58857
G1 X84.582 Y87.298 E19.59644
G1 X84.302 Y84.518 E19.79200
G1 X84.316 Y84.170 E19.81638
G1 X84.394 Y83.745 E19.84661
G1 X84.505 Y83.415 E19.87100
G1 X84.562 Y83.301 E19.87991
G1 X84.584 Y83.107 E19.89352
G1 X84.198 Y81.527 E20.00735
G1 X84.171 Y81.094 E20.03774
G1 X84.232 Y80.558 E20.07544
G1 X84.313 Y80.285 E20.09538
G1 X84.310 Y80.117 E20.10714
G1 X83.976 Y79.113 E20.18121
G1 X84.239 Y78.589 E20.22217
G1 X84.254 Y78.372 E20.23740
G1 X83.935 Y77.410 E20.30833
