; generated by Slic3r 1.1.7 on 2015-02-12 at 14:52:54

; perimeters extrusion width = 0.40mm
; infill extrusion width = 0.44mm
; solid infill extrusion width = 0.44mm
; top infill extrusion width = 0.44mm
; support material extrusion width = 0.40mm

G21 ; set units to millimeters
M190 S60 ; wait for bed temperature to be reached
M104 S222 ; set temperature
G28 ; home all axes Start of G Code Slic3r
 
 
M109 S222 ; wait for temperature to be reached
G90 ; use absolute coordinates
G92 E0
M82 ; use absolute distances for extrusion
G1 F4200.000 E-3.00000
G92 E0
G1 Z0.294 F7800.000
G1 X98.578 Y28.952 F7800.000
G1 E3.00000 F4200.000
G1 X99.976 Y24.191 E3.34730 F1800.000
G1 X100.441 Y23.011 E3.43601
G1 X101.205 Y21.486 E3.55536
G1 X102.609 Y19.572 E3.72148
G1 X104.565 Y18.228 E3.88760
G1 X107.710 Y17.573 E4.11237
G1 X110.368 Y17.634 E4.29841
G1 X128.944 Y18.071 E5.59869 F1800.000
G1 X131.275 Y18.524 E5.76481
G1 X133.325 Y19.721 E5.93093
G1 X134.865 Y21.527 E6.09705
G1 X135.435 Y22.723 E6.18976
G1 X135.813 Y23.755 E6.26663
G1 X136.177 Y25.210 E6.37159
G1 X137.419 Y34.712 E7.04220
G1 X137.379 Y36.633 E7.17661
G1 X135.126 Y114.486 E12.62685
G1 X134.894 Y118.761 E12.92640
G1 X134.668 Y121.152 E13.09449
G1 X134.321 Y123.912 E13.28917
G1 X133.756 Y127.006 E13.50923
G1 X132.904 Y130.709 E13.77517
G1 X131.609 Y135.078 E14.09402
G1 X131.149 Y136.241 E14.18152
G1 X123.660 Y151.183 E15.35106
G1 X123.006 Y152.244 E15.43833
G1 X119.973 Y156.285 E15.79186
G1 X117.609 Y159.031 E16.04539
G1 X115.442 Y161.330 E16.26650
G1 X113.492 Y163.208 E16.45599
G1 X111.704 Y164.796 E16.62329
G1 X109.806 Y166.362 E16.79546
G1 X107.549 Y167.926 E16.98764
G1 X97.485 Y173.299 E17.78598
G1 X96.214 Y173.906 E17.88452
G1 X93.642 Y175.084 E18.08249
G1 X92.307 Y175.634 E18.18355
G1 X90.019 Y176.501 E18.35472
G1 X88.508 Y177.039 E18.46700
G1 X85.183 Y178.025 E18.70969
G1 X84.071 Y178.325 E18.79029
G1 X74.820 Y180.713 E19.45885
G1 X72.455 Y180.914 E19.62497
G1 X70.686 Y180.534 E19.75153
G1 X69.926 Y180.266 E19.80796
G1 X68.782 Y179.744 E19.89591
G1 X67.298 Y178.829 E20.01798
G1 X66.650 Y178.336 E20.07494
G1 X65.026 Y176.604 E20.24106
G1 X64.066 Y174.433 E20.40718
G1 X63.854 Y172.982 E20.50979
G1 X62.963 Y151.548 E22.01096
G1 X63.245 Y149.254 E22.17266
G1 X98.561 Y29.010 E30.94241
G1 X99.103 Y29.107 F7800.000
G1 X100.501 Y24.345 E31.28971 F1800.000
G1 X100.930 Y23.256 E31.37158
G1 X101.694 Y21.731 E31.49093
G1 X103.055 Y19.902 E31.65047
G1 X104.960 Y18.651 E31.81001
G1 X107.697 Y18.120 E32.00511
G1 X110.355 Y18.181 E32.19112
G1 X128.931 Y18.618 E33.49138 F1800.000
G1 X131.166 Y19.069 E33.65092
G1 X133.111 Y20.259 E33.81046
G1 X134.922 Y22.911 E34.03521
G1 X135.299 Y23.943 E34.11208
G1 X135.636 Y25.286 E34.20895
G1 X136.872 Y34.701 E34.87345
G1 X136.832 Y36.617 E35.00755
G1 X134.580 Y114.457 E40.45686
G1 X134.349 Y118.710 E40.75489
G1 X134.125 Y121.086 E40.92190
G1 X133.783 Y123.815 E41.11438
G1 X133.223 Y126.885 E41.33276
G1 X132.379 Y130.554 E41.59618
G1 X131.084 Y134.923 E41.91503
G1 X130.660 Y135.996 E41.99579
G1 X123.171 Y150.937 E43.16533
G1 X122.567 Y151.917 E43.24586
G1 X119.558 Y155.929 E43.59679
G1 X117.210 Y158.656 E43.84862
G1 X115.062 Y160.937 E44.06786
G1 X113.128 Y162.800 E44.25577
G1 X111.353 Y164.376 E44.42186
G1 X109.483 Y165.920 E44.59157
G1 X107.291 Y167.444 E44.77837
G1 X97.249 Y172.805 E45.57499
G1 X95.985 Y173.409 E45.67296
G1 X93.432 Y174.578 E45.86949
G1 X92.113 Y175.123 E45.96936
G1 X89.832 Y175.987 E46.14008
G1 X88.352 Y176.515 E46.24999
G1 X85.040 Y177.497 E46.49173
G1 X83.934 Y177.795 E46.57190
G1 X74.683 Y180.183 E47.24045
G1 X72.410 Y180.360 E47.39999
G1 X70.868 Y180.018 E47.51052
G1 X70.108 Y179.750 E47.56694
G1 X69.053 Y179.268 E47.64811
G1 X67.629 Y178.393 E47.76509
G1 X66.981 Y177.900 E47.82205
G1 X65.433 Y176.226 E47.98159
G1 X64.554 Y174.123 E48.14112
G1 X64.400 Y172.959 E48.22323
G1 X63.510 Y151.525 E49.72440
G1 X63.770 Y149.409 E49.87364
G1 X99.086 Y29.164 E58.64339
G1 F4200.000 E55.64339
G92 E0
G1 X103.756 Y29.649 F7800.000
G1 E3.00000 F4200.000
G1 X104.113 Y28.937 E3.05573 F1800.000
G1 X104.129 Y28.719 E3.07097
G1 X103.809 Y27.758 E3.14189
G1 X104.166 Y27.046 E3.19762
G1 X104.182 Y26.829 E3.21286
G1 X103.862 Y25.867 E3.28378
G1 X105.278 Y23.041 E3.50494
G1 X105.754 Y22.528 E3.55391
G1 X106.499 Y22.079 E3.61480
G1 X107.176 Y21.900 E3.66376
G1 X108.915 Y21.940 E3.78551
G1 X118.136 Y22.158 E4.43093 F1800.000
G1 X118.217 Y22.205 E4.43748
G1 X118.433 Y22.234 E4.45273
G1 X118.673 Y22.171 E4.47013
G1 X120.607 Y22.215 E4.60553
G1 X120.743 Y22.187 E4.61520
G1 X120.908 Y22.270 E4.62816
G1 X121.107 Y22.291 E4.64217
G1 X121.328 Y22.232 E4.65812
G1 X123.255 Y22.278 E4.79304
G1 X123.397 Y22.248 E4.80317
G1 X123.669 Y22.384 E4.82448
G1 X123.886 Y22.400 E4.83971
G1 X124.281 Y22.268 E4.86885
G1 X124.447 Y22.351 E4.88182
G1 X124.646 Y22.372 E4.89581
G1 X124.868 Y22.313 E4.91188
G1 X126.797 Y22.360 E5.04690
G1 X126.934 Y22.331 E5.05673
G1 X127.101 Y22.414 E5.06974
G1 X127.300 Y22.435 E5.08374
G1 X127.521 Y22.377 E5.09973
G1 X129.634 Y22.427 E5.24766
G1 X130.727 Y23.063 E5.33618
G1 X131.545 Y24.425 E5.44730
G1 X131.579 Y25.034 E5.48999
G1 X132.073 Y26.518 E5.59945
G1 X131.736 Y27.189 E5.65201
G1 X131.721 Y27.407 E5.66724
G1 X132.040 Y28.368 E5.73816
G1 X131.704 Y29.040 E5.79072
G1 X131.688 Y29.257 E5.80595
G1 X132.008 Y30.219 E5.87688
G1 X131.671 Y30.890 E5.92943
G1 X131.655 Y31.107 E5.94466
G1 X132.004 Y32.156 E6.02199
G1 X132.000 Y32.205 E6.02539
G1 X132.141 Y32.628 E6.05659
G1 X132.283 Y32.792 E6.07182
G1 X132.603 Y32.953 E6.09687
G1 X133.247 Y34.888 E6.23961
G1 X132.904 Y35.572 E6.29310
G1 X132.889 Y35.789 E6.30834
G1 X133.208 Y36.751 E6.37926
G1 X131.959 Y39.242 E6.57429
G1 X131.944 Y39.459 E6.58952
G1 X132.263 Y40.421 E6.66045
G1 X131.927 Y41.093 E6.71300
G1 X131.911 Y41.310 E6.72823
G1 X132.231 Y42.272 E6.79916
G1 X131.894 Y42.943 E6.85171
G1 X131.879 Y43.160 E6.86695
G1 X132.198 Y44.122 E6.93787
G1 X131.862 Y44.793 E6.99042
G1 X131.846 Y45.011 E7.00566
G1 X132.166 Y45.972 E7.07658
G1 X131.829 Y46.644 E7.12914
G1 X131.813 Y46.861 E7.14437
G1 X132.133 Y47.823 E7.21530
G1 X131.797 Y48.494 E7.26785
G1 X131.781 Y48.711 E7.28308
G1 X132.100 Y49.673 E7.35401
G1 X131.764 Y50.345 E7.40656
G1 X131.748 Y50.562 E7.42179
G1 X132.068 Y51.524 E7.49272
G1 X131.731 Y52.195 E7.54527
G1 X131.716 Y52.412 E7.56050
G1 X132.035 Y53.374 E7.63143
G1 X131.699 Y54.045 E7.68398
G1 X131.683 Y54.262 E7.69922
G1 X132.003 Y55.224 E7.77014
G1 X131.666 Y55.896 E7.82269
G1 X131.651 Y56.113 E7.83793
G1 X131.970 Y57.075 E7.90885
G1 X131.634 Y57.746 E7.96141
G1 X131.618 Y57.963 E7.97664
G1 X131.938 Y58.925 E8.04757
G1 X131.601 Y59.596 E8.10012
G1 X131.586 Y59.814 E8.11535
G1 X131.905 Y60.775 E8.18628
G1 X131.569 Y61.447 E8.23883
G1 X131.553 Y61.664 E8.25406
G1 X131.873 Y62.626 E8.32499
G1 X131.536 Y63.297 E8.37754
G1 X131.520 Y63.514 E8.39277
G1 X131.840 Y64.476 E8.46370
G1 X131.504 Y65.148 E8.51625
G1 X131.488 Y65.365 E8.53149
G1 X131.808 Y66.327 E8.60241
G1 X131.471 Y66.998 E8.65496
G1 X131.455 Y67.215 E8.67020
G1 X131.775 Y68.177 E8.74112
G1 X131.438 Y68.848 E8.79368
G1 X131.423 Y69.065 E8.80891
G1 X131.742 Y70.027 E8.87984
G1 X131.406 Y70.699 E8.93239
G1 X131.390 Y70.916 E8.94762
G1 X131.710 Y71.878 E9.01855
G1 X131.373 Y72.549 E9.07110
G1 X131.358 Y72.766 E9.08633
G1 X131.677 Y73.728 E9.15726
G1 X131.341 Y74.399 E9.20981
G1 X131.325 Y74.617 E9.22504
G1 X131.645 Y75.578 E9.29597
G1 X131.308 Y76.250 E9.34852
G1 X131.293 Y76.467 E9.36376
G1 X131.612 Y77.429 E9.43468
G1 X131.276 Y78.100 E9.48724
G1 X131.260 Y78.317 E9.50247
G1 X131.580 Y79.279 E9.57339
G1 X131.243 Y79.951 E9.62595
G1 X131.227 Y80.168 E9.64118
G1 X131.547 Y81.129 E9.71211
G1 X131.211 Y81.801 E9.76466
G1 X131.195 Y82.018 E9.77989
G1 X131.515 Y82.980 E9.85082
G1 X131.178 Y83.651 E9.90337
G1 X131.162 Y83.868 E9.91860
G1 X131.482 Y84.830 E9.98953
G1 X131.145 Y85.502 E10.04208
G1 X131.130 Y85.719 E10.05731
G1 X131.449 Y86.681 E10.12824
G1 X131.113 Y87.352 E10.18079
G1 X131.097 Y87.569 E10.19603
G1 X131.417 Y88.531 E10.26695
G1 X131.080 Y89.202 E10.31951
G1 X131.065 Y89.419 E10.33474
G1 X131.384 Y90.381 E10.40566
G1 X131.048 Y91.053 E10.45822
G1 X131.032 Y91.270 E10.47345
G1 X131.352 Y92.232 E10.54438
G1 X131.015 Y92.903 E10.59693
G1 X131.000 Y93.120 E10.61216
G1 X131.319 Y94.082 E10.68309
G1 X130.983 Y94.753 E10.73564
G1 X130.967 Y94.971 E10.75087
G1 X131.287 Y95.932 E10.82180
G1 X130.948 Y96.608 E10.87467
G1 X130.932 Y96.825 E10.88991
G1 X131.252 Y97.787 E10.96083
G1 X130.913 Y98.464 E11.01384
G1 X130.897 Y98.681 E11.02907
G1 X131.217 Y99.643 E11.10000
G1 X130.877 Y100.320 E11.15301
G1 X130.861 Y100.538 E11.16824
G1 X131.181 Y101.499 E11.23917
G1 X130.842 Y102.177 E11.29218
G1 X130.826 Y102.394 E11.30741
G1 X131.146 Y103.356 E11.37834
G1 X130.806 Y104.033 E11.43135
G1 X130.791 Y104.250 E11.44658
G1 X131.110 Y105.212 E11.51751
G1 X130.771 Y105.889 E11.57052
G1 X130.755 Y106.106 E11.58575
G1 X131.075 Y107.068 E11.65667
G1 X130.735 Y107.745 E11.70968
G1 X130.720 Y107.962 E11.72492
G1 X131.039 Y108.924 E11.79584
G1 X130.700 Y109.601 E11.84885
G1 X130.684 Y109.819 E11.86409
G1 X131.004 Y110.780 E11.93501
G1 X130.664 Y111.458 E11.98802
G1 X130.649 Y111.675 E12.00325
G1 X130.968 Y112.637 E12.07418
G1 X130.659 Y113.254 E12.12251
G1 X130.643 Y113.471 E12.13774
G1 X130.963 Y114.433 E12.20867
G1 X130.553 Y115.251 E12.27270
G1 X130.537 Y115.468 E12.28794
G1 X130.857 Y116.430 E12.35886
G1 X130.447 Y117.248 E12.42290
G1 X130.431 Y117.465 E12.43813
G1 X130.751 Y118.427 E12.50905
G1 X130.243 Y119.440 E12.58834
G1 X130.227 Y119.657 E12.60357
G1 X130.547 Y120.619 E12.67450
G1 X129.956 Y121.797 E12.76672
G1 X129.941 Y122.014 E12.78195
G1 X130.260 Y122.976 E12.85287
G1 X129.453 Y124.586 E12.97891
G1 X129.438 Y124.803 E12.99414
G1 X129.757 Y125.765 E13.06507
G1 X128.719 Y127.838 E13.22728
G1 X128.703 Y128.055 E13.24252
G1 X129.022 Y129.017 E13.31344
G1 X127.424 Y132.206 E13.56312
G1 X127.408 Y132.424 E13.57835
G1 X127.728 Y133.385 E13.64928
G1 X119.325 Y150.151 E14.96156
G1 X118.363 Y150.470 E15.03249
G1 X118.199 Y150.613 E15.04772
G1 X116.594 Y153.814 E15.29827
G1 X115.632 Y154.133 E15.36920
G1 X115.468 Y154.276 E15.38443
G1 X114.440 Y156.326 E15.54489
G1 X113.478 Y156.645 E15.61582
G1 X113.314 Y156.788 E15.63105
G1 X112.517 Y158.378 E15.75550
G1 X111.555 Y158.697 E15.82642
G1 X111.391 Y158.840 E15.84166
G1 X110.780 Y160.058 E15.93699
G1 X109.818 Y160.377 E16.00792
G1 X109.654 Y160.520 E16.02315
G1 X109.164 Y161.498 E16.09970
G1 X108.202 Y161.817 E16.17062
G1 X108.037 Y161.960 E16.18585
G1 X107.839 Y162.277 E16.21205
G1 X107.605 Y162.554 E16.23741
G1 X107.391 Y162.754 E16.25788
G1 X104.957 Y164.534 E16.46892
G1 X103.747 Y164.492 E16.55369
G1 X103.569 Y164.547 E16.56667
G1 X102.919 Y165.027 E16.62322
G1 X102.767 Y165.080 E16.63454
G1 X102.435 Y165.362 E16.66499
G1 X100.336 Y166.701 E16.83923
G1 X100.236 Y166.811 E16.84959
G1 X100.154 Y166.975 E16.86240
G1 X99.032 Y167.347 E16.94513
G1 X98.920 Y167.418 E16.95441
G1 X98.710 Y167.636 E16.97560
G1 X98.412 Y167.863 E17.00179
G1 X95.842 Y169.276 E17.20706
G1 X93.482 Y170.404 E17.39008
G1 X93.432 Y170.411 E17.39365
G1 X91.149 Y171.461 E17.56948
G1 X91.055 Y171.469 E17.57610
G1 X88.806 Y172.325 E17.74445
G1 X86.535 Y173.156 E17.91365
G1 X86.360 Y173.152 E17.92593
G1 X84.363 Y173.753 E18.07185
G1 X82.129 Y174.356 E18.23382
G1 X81.986 Y174.350 E18.24385
G1 X80.146 Y174.770 E18.37591
G1 X77.936 Y175.201 E18.53345
G1 X77.802 Y175.187 E18.54291
G1 X75.419 Y175.544 E18.71153
G1 X75.198 Y175.702 E18.73048
G1 X75.054 Y175.991 E18.75307
G1 X73.118 Y176.634 E18.89582
G1 X72.684 Y176.417 E18.92975
G1 X71.475 Y176.285 E19.01487
G1 X69.715 Y175.285 E19.15651
G1 X69.143 Y174.568 E19.22069
G1 X69.050 Y174.494 E19.22899
G1 X68.664 Y174.300 E19.25921
G1 X68.021 Y172.364 E19.40195
G1 X71.224 Y165.974 E19.90220
G1 X71.240 Y165.756 E19.91743
G1 X70.920 Y164.795 E19.98836
G1 X71.845 Y162.949 E20.13281
G1 X71.861 Y162.732 E20.14804
G1 X71.541 Y161.770 E20.21897
G1 X71.708 Y161.438 E20.24495
G1 X71.733 Y161.263 E20.25731
G1 X71.368 Y159.256 E20.40007
G1 X70.827 Y158.062 E20.49179
G1 X70.700 Y157.929 E20.50472
G1 X70.514 Y157.833 E20.51937
G1 X69.884 Y157.092 E20.58739
G1 X67.849 Y153.170 E20.89662
G1 X67.769 Y152.852 E20.91953
G1 X67.131 Y150.931 E21.06122
G1 X68.812 Y147.576 E21.32380
G1 X69.188 Y147.130 E21.36465
G1 X69.773 Y146.700 E21.41540
G1 X70.311 Y146.474 E21.45625
G1 X72.506 Y146.115 E21.61188
G1 X72.715 Y146.156 E21.62682
G1 X75.821 Y145.657 E21.84696
G1 X75.958 Y145.603 E21.85728
G1 X78.243 Y145.022 E22.02225
G1 X79.902 Y144.476 E22.14446
G1 X81.744 Y143.829 E22.28111
G1 X82.029 Y143.648 E22.30475
G1 X84.058 Y142.740 E22.46029
G1 X84.204 Y142.637 E22.47277
G1 X86.502 Y141.350 E22.65711
G1 X88.781 Y139.793 E22.85022
G1 X88.873 Y139.688 E22.85999
G1 X89.027 Y139.380 E22.88412
G1 X89.989 Y139.060 E22.95504
G1 X90.154 Y138.918 E22.97028
G1 X91.683 Y135.867 E23.20909
G1 X92.645 Y135.547 E23.28001
G1 X92.809 Y135.405 E23.29525
G1 X93.693 Y133.642 E23.43324
G1 X94.655 Y133.322 E23.50416
G1 X94.819 Y133.180 E23.51940
G1 X96.614 Y129.599 E23.79967
G1 X97.576 Y129.280 E23.87059
G1 X97.740 Y129.137 E23.88583
G1 X98.788 Y127.047 E24.04946
G1 X98.804 Y126.829 E24.06469
G1 X98.484 Y125.868 E24.13562
G1 X100.256 Y122.332 E24.41235
G1 X100.272 Y122.115 E24.42758
G1 X99.952 Y121.153 E24.49851
G1 X100.816 Y119.430 E24.63341
G1 X100.832 Y119.213 E24.64864
G1 X100.512 Y118.251 E24.71957
G1 X101.084 Y117.110 E24.80888
G1 X101.100 Y116.893 E24.82411
G1 X100.780 Y115.931 E24.89504
G1 X101.229 Y115.036 E24.96509
G1 X101.244 Y114.819 E24.98032
G1 X100.925 Y113.857 E25.05125
G1 X101.282 Y113.145 E25.10698
G1 X101.297 Y112.928 E25.12222
G1 X100.978 Y111.966 E25.19314
G1 X101.334 Y111.254 E25.24887
G1 X101.350 Y111.037 E25.26411
G1 X101.031 Y110.075 E25.33503
G1 X101.387 Y109.363 E25.39077
G1 X101.403 Y109.146 E25.40600
G1 X101.083 Y108.184 E25.47692
G1 X101.440 Y107.472 E25.53266
G1 X101.456 Y107.255 E25.54789
G1 X101.136 Y106.293 E25.61882
G1 X101.493 Y105.581 E25.67455
G1 X101.509 Y105.364 E25.68978
G1 X101.189 Y104.402 E25.76071
G1 X101.546 Y103.690 E25.81644
G1 X101.562 Y103.473 E25.83167
G1 X101.242 Y102.511 E25.90260
G1 X101.599 Y101.799 E25.95833
G1 X101.615 Y101.582 E25.97356
G1 X101.295 Y100.620 E26.04449
G1 X101.652 Y99.908 E26.10022
G1 X101.668 Y99.691 E26.11546
G1 X101.348 Y98.729 E26.18638
G1 X101.705 Y98.017 E26.24211
G1 X101.720 Y97.800 E26.25735
G1 X101.401 Y96.838 E26.32827
G1 X101.758 Y96.126 E26.38401
G1 X101.773 Y95.909 E26.39924
G1 X101.454 Y94.947 E26.47016
G1 X101.811 Y94.235 E26.52590
G1 X101.826 Y94.018 E26.54113
G1 X101.507 Y93.056 E26.61206
G1 X101.864 Y92.344 E26.66779
G1 X101.879 Y92.127 E26.68302
G1 X101.560 Y91.165 E26.75395
G1 X101.917 Y90.453 E26.80968
G1 X101.932 Y90.236 E26.82491
G1 X101.613 Y89.274 E26.89584
G1 X101.969 Y88.562 E26.95157
G1 X101.985 Y88.345 E26.96680
G1 X101.665 Y87.383 E27.03773
G1 X102.022 Y86.671 E27.09346
G1 X102.038 Y86.454 E27.10870
G1 X101.718 Y85.492 E27.17962
G1 X102.075 Y84.780 E27.23535
G1 X102.091 Y84.563 E27.25059
G1 X101.771 Y83.601 E27.32151
G1 X102.128 Y82.889 E27.37725
G1 X102.144 Y82.672 E27.39248
G1 X101.824 Y81.710 E27.46340
G1 X102.181 Y80.998 E27.51914
G1 X102.197 Y80.781 E27.53437
G1 X101.877 Y79.819 E27.60530
G1 X102.234 Y79.107 E27.66103
G1 X102.250 Y78.890 E27.67626
G1 X101.930 Y77.928 E27.74719
G1 X102.287 Y77.216 E27.80292
G1 X102.303 Y76.999 E27.81815
G1 X101.983 Y76.037 E27.88908
G1 X102.340 Y75.325 E27.94481
G1 X102.355 Y75.108 E27.96004
G1 X102.036 Y74.146 E28.03097
G1 X102.393 Y73.434 E28.08670
G1 X102.408 Y73.217 E28.10194
G1 X102.089 Y72.255 E28.17286
G1 X102.446 Y71.543 E28.22860
G1 X102.461 Y71.326 E28.24383
G1 X102.142 Y70.364 E28.31475
G1 X102.499 Y69.652 E28.37049
G1 X102.514 Y69.435 E28.38572
G1 X102.195 Y68.473 E28.45665
G1 X102.551 Y67.761 E28.51238
G1 X102.567 Y67.544 E28.52761
G1 X102.248 Y66.582 E28.59854
G1 X102.604 Y65.870 E28.65427
G1 X102.620 Y65.653 E28.66950
G1 X102.300 Y64.691 E28.74043
G1 X102.657 Y63.979 E28.79616
G1 X102.673 Y63.762 E28.81139
G1 X102.353 Y62.800 E28.88232
