; generated by Slic3r 1.1.7 on 2015-02-12 at 14:50:06

; perimeters extrusion width = 0.40mm
; infill extrusion width = 0.44mm
; solid infill extrusion width = 0.44mm
; top infill extrusion width = 0.44mm
; support material extrusion width = 0.40mm

G21 ; set units to millimeters
M190 S60 ; wait for bed temperature to be reached
M104 S222 ; set temperature
G28 ; home all axes Start of G Code Slic3r
 
 
M109 S222 ; wait for temperature to be reached
G90 ; use absolute coordinates
G92 E0
M82 ; use absolute distances for extrusion
G1 F4200.000 E-3.00000
G92 E0
G1 Z0.294 F7800.000
G1 X67.624 Y22.743 F7800.000
G1 E3.00000 F4200.000
G1 X68.204 Y21.021 E3.12715 F1800.000
G1 X68.403 Y20.622 E3.15835
G1 X69.807 Y18.708 E3.32447
G1 X71.764 Y17.363 E3.49059
G1 X74.869 Y16.707 E3.71267
G1 X81.079 Y16.815 E4.14728
G1 X96.160 Y17.077 E5.20278 F1800.000
G1 X98.493 Y17.515 E5.36890
G1 X100.551 Y18.698 E5.53502
G1 X102.104 Y20.494 E5.70114
G1 X102.906 Y22.399 E5.84581
G1 X135.485 Y148.755 E14.97698
G1 X135.763 Y149.988 E15.06536
G1 X135.889 Y152.359 E15.23152
G1 X133.712 Y171.173 E16.55687
G1 X133.320 Y173.739 E16.73851
G1 X132.649 Y175.848 E16.89341
G1 X132.027 Y177.090 E16.99061
G1 X130.623 Y179.005 E17.15673
G1 X128.508 Y180.420 E17.33480
G1 X127.365 Y180.916 E17.42203
G1 X125.060 Y181.483 E17.58815
G1 X123.488 Y181.423 E17.69818
G1 X121.974 Y181.162 E17.80572
G1 X113.103 Y178.923 E18.44592
G1 X108.745 Y177.676 E18.76318
G1 X107.812 Y177.353 E18.83226
G1 X104.767 Y176.205 E19.05996
G1 X103.620 Y175.648 E19.14923
G1 X95.961 Y171.035 E19.77485
G1 X93.125 Y169.263 E20.00883
G1 X92.146 Y168.616 E20.09094
G1 X89.447 Y166.654 E20.32446
G1 X88.478 Y165.916 E20.40971
G1 X85.892 Y163.743 E20.64608
G1 X84.962 Y162.926 E20.73265
G1 X84.352 Y162.336 E20.79207
G1 X82.422 Y160.436 E20.98160
G1 X81.576 Y159.557 E21.06699
G1 X80.436 Y158.260 E21.18780
G1 X79.170 Y156.675 E21.32976
G1 X74.119 Y148.547 E21.99944
G1 X72.027 Y144.888 E22.29432
G1 X71.477 Y143.818 E22.37855
G1 X70.055 Y140.839 E22.60952
G1 X69.547 Y139.660 E22.69938
G1 X68.244 Y136.330 E22.94959
G1 X67.836 Y135.118 E23.03906
G1 X67.129 Y132.866 E23.20423
G1 X66.674 Y131.324 E23.31673
G1 X65.728 Y127.282 E23.60727
G1 X65.480 Y125.870 E23.70755
G1 X64.987 Y122.769 E23.92728
G1 X64.683 Y119.635 E24.14760
G1 X64.532 Y117.644 E24.28737
G1 X64.467 Y114.017 E24.54119
G1 X64.481 Y112.134 E24.67298
G1 X65.735 Y40.001 E29.72137
G1 X65.983 Y31.426 E30.32165
G1 X67.572 Y22.900 E30.92860
G1 X67.605 Y22.800 E30.93598
G1 X68.138 Y22.915 F7800.000
G1 X68.693 Y21.266 E31.05778 F1800.000
G1 X68.893 Y20.867 E31.08898
G1 X70.253 Y19.038 E31.24852
G1 X72.159 Y17.786 E31.40805
G1 X74.859 Y17.255 E31.60066
G1 X81.069 Y17.362 E32.03528
G1 X96.151 Y17.625 E33.09077 F1800.000
G1 X98.388 Y18.060 E33.25031
G1 X100.341 Y19.237 E33.40985
G1 X101.772 Y21.012 E33.56939
G1 X102.377 Y22.536 E33.68410
G1 X134.951 Y148.875 E42.81408
G1 X135.229 Y150.108 E42.90247
G1 X135.345 Y152.296 E43.05581
G1 X133.171 Y171.090 E44.37977
G1 X132.780 Y173.656 E44.56141
G1 X132.160 Y175.603 E44.70436
G1 X131.538 Y176.845 E44.80156
G1 X130.177 Y178.674 E44.96110
G1 X128.291 Y179.918 E45.11921
G1 X127.147 Y180.414 E45.20644
G1 X124.930 Y180.943 E45.36598
G1 X123.570 Y180.882 E45.46123
G1 X122.108 Y180.631 E45.56502
G1 X113.247 Y178.395 E46.20448
G1 X110.816 Y177.710 E46.38127
G1 X108.923 Y177.159 E46.51925
G1 X108.003 Y176.840 E46.58736
G1 X104.961 Y175.693 E46.81487
G1 X103.902 Y175.179 E46.89725
G1 X96.251 Y170.571 E47.52226
G1 X93.423 Y168.805 E47.75554
G1 X92.468 Y168.173 E47.83566
G1 X89.774 Y166.216 E48.06867
G1 X88.830 Y165.497 E48.15173
G1 X86.249 Y163.328 E48.38763
G1 X85.343 Y162.533 E48.47197
G1 X84.734 Y161.943 E48.53133
G1 X82.813 Y160.054 E48.71986
G1 X81.987 Y159.195 E48.80323
G1 X80.847 Y157.899 E48.92404
G1 X79.635 Y156.386 E49.05970
G1 X74.591 Y148.270 E49.72838
G1 X72.513 Y144.637 E50.02123
G1 X71.970 Y143.581 E50.10430
G1 X70.557 Y140.621 E50.33385
G1 X70.056 Y139.459 E50.42240
G1 X68.762 Y136.155 E50.67071
G1 X68.358 Y134.954 E50.75935
G1 X67.653 Y132.707 E50.92420
G1 X67.206 Y131.198 E51.03429
G1 X66.267 Y127.187 E51.32258
G1 X66.020 Y125.782 E51.42237
G1 X65.531 Y122.712 E51.63989
G1 X65.228 Y119.590 E51.85945
G1 X65.079 Y117.634 E51.99672
G1 X65.014 Y114.021 E52.24956
G1 X65.028 Y112.143 E52.38096
G1 X66.282 Y40.010 E57.42936
G1 X66.520 Y31.527 E58.02327
G1 X68.119 Y22.972 E58.63223
G1 F4200.000 E55.63223
G92 E0
G1 X71.660 Y29.821 F7800.000
G1 E3.00000 F4200.000
G1 X71.529 Y29.425 E3.02918 F1800.000
G1 X71.865 Y28.754 E3.08167
G1 X71.880 Y28.537 E3.09691
G1 X71.561 Y27.575 E3.16783
G1 X71.897 Y26.905 E3.22032
G1 X71.912 Y26.688 E3.23555
G1 X71.593 Y25.726 E3.30648
G1 X71.929 Y25.055 E3.35897
G1 X71.945 Y24.838 E3.37420
G1 X71.625 Y23.876 E3.44513
G1 X72.476 Y22.179 E3.57799
G1 X72.948 Y21.667 E3.62671
G1 X73.689 Y21.219 E3.68729
G1 X74.361 Y21.038 E3.73601
G1 X79.986 Y21.135 E4.12972
G1 X80.699 Y21.087 E4.17973
G1 X80.850 Y21.101 E4.19032
G1 X81.044 Y21.198 E4.20547
G1 X81.244 Y21.219 E4.21956
G1 X81.458 Y21.161 E4.23506
G1 X88.729 Y21.287 E4.74399
G1 X88.869 Y21.258 E4.75395
G1 X89.028 Y21.337 E4.76640
G1 X89.228 Y21.357 E4.78049
G1 X89.442 Y21.300 E4.79600
G1 X91.391 Y21.334 E4.93239
G1 X91.530 Y21.304 E4.94236
G1 X91.689 Y21.383 E4.95480
G1 X91.889 Y21.404 E4.96890
G1 X92.103 Y21.346 E4.98440
G1 X94.052 Y21.380 E5.12080
G1 X94.191 Y21.350 E5.13076
G1 X94.350 Y21.430 E5.14320
G1 X94.551 Y21.450 E5.15730
G1 X94.765 Y21.392 E5.17280
G1 X96.881 Y21.429 E5.32094
G1 X97.982 Y22.062 E5.40976
G1 X98.807 Y23.425 E5.52128
G1 X98.858 Y24.693 E5.61010
G1 X98.811 Y24.786 E5.61732
G1 X98.796 Y25.003 E5.63255
G1 X99.115 Y25.965 E5.70348
G1 X98.779 Y26.635 E5.75597
G1 X98.764 Y26.852 E5.77120
G1 X99.083 Y27.814 E5.84213
G1 X98.747 Y28.485 E5.89461
G1 X98.732 Y28.702 E5.90985
G1 X99.051 Y29.664 E5.98077
G1 X98.719 Y30.325 E6.03257
G1 X98.845 Y30.742 E6.06301
G1 X98.966 Y30.811 E6.07276
G1 X99.791 Y32.175 E6.18428
G1 X99.824 Y32.729 E6.22315
G1 X100.330 Y34.253 E6.33554
G1 X99.994 Y34.924 E6.38803
G1 X99.978 Y35.141 E6.40326
G1 X100.298 Y36.103 E6.47418
G1 X99.962 Y36.773 E6.52667
G1 X99.946 Y36.991 E6.54191
G1 X100.266 Y37.952 E6.61283
G1 X99.930 Y38.623 E6.66532
G1 X99.914 Y38.840 E6.68055
G1 X100.234 Y39.802 E6.75148
G1 X99.898 Y40.473 E6.80397
G1 X99.882 Y40.690 E6.81920
G1 X100.202 Y41.652 E6.89013
G1 X99.866 Y42.322 E6.94262
G1 X99.850 Y42.539 E6.95785
G1 X100.169 Y43.501 E7.02878
G1 X99.833 Y44.172 E7.08127
G1 X99.818 Y44.389 E7.09650
G1 X100.137 Y45.351 E7.16742
G1 X99.801 Y46.021 E7.21991
G1 X99.786 Y46.238 E7.23515
G1 X100.105 Y47.200 E7.30607
G1 X99.769 Y47.871 E7.35856
G1 X99.753 Y48.088 E7.37379
G1 X100.073 Y49.050 E7.44472
G1 X99.737 Y49.720 E7.49721
G1 X99.721 Y49.937 E7.51244
G1 X100.041 Y50.899 E7.58337
G1 X99.705 Y51.570 E7.63586
G1 X99.689 Y51.787 E7.65109
G1 X100.009 Y52.749 E7.72202
G1 X99.673 Y53.419 E7.77451
G1 X99.657 Y53.637 E7.78974
G1 X99.977 Y54.598 E7.86066
G1 X99.641 Y55.269 E7.91315
G1 X99.625 Y55.486 E7.92839
G1 X99.944 Y56.448 E7.99931
G1 X99.608 Y57.119 E8.05180
G1 X99.593 Y57.336 E8.06703
G1 X99.912 Y58.298 E8.13796
G1 X99.576 Y58.968 E8.19045
G1 X99.561 Y59.185 E8.20568
G1 X99.880 Y60.147 E8.27661
G1 X99.544 Y60.818 E8.32910
G1 X99.528 Y61.035 E8.34433
G1 X99.848 Y61.997 E8.41526
G1 X99.512 Y62.667 E8.46775
G1 X99.496 Y62.884 E8.48298
G1 X99.816 Y63.846 E8.55390
G1 X99.480 Y64.517 E8.60639
G1 X99.464 Y64.734 E8.62163
G1 X99.784 Y65.696 E8.69255
G1 X99.448 Y66.366 E8.74504
G1 X99.432 Y66.583 E8.76027
G1 X99.752 Y67.545 E8.83120
G1 X99.415 Y68.216 E8.88369
G1 X99.400 Y68.433 E8.89892
G1 X99.719 Y69.395 E8.96985
G1 X99.383 Y70.065 E9.02234
G1 X99.368 Y70.283 E9.03757
G1 X99.687 Y71.244 E9.10850
G1 X99.351 Y71.915 E9.16099
G1 X99.336 Y72.132 E9.17622
G1 X99.655 Y73.094 E9.24714
G1 X99.319 Y73.765 E9.29963
G1 X99.303 Y73.982 E9.31487
G1 X99.623 Y74.944 E9.38579
G1 X99.287 Y75.614 E9.43828
G1 X99.271 Y75.831 E9.45351
G1 X99.591 Y76.793 E9.52444
G1 X99.255 Y77.464 E9.57693
G1 X99.239 Y77.681 E9.59216
G1 X99.559 Y78.643 E9.66309
G1 X99.223 Y79.313 E9.71558
G1 X99.207 Y79.530 E9.73081
G1 X99.527 Y80.492 E9.80174
G1 X99.190 Y81.163 E9.85423
G1 X99.175 Y81.380 E9.86946
G1 X99.494 Y82.342 E9.94038
G1 X99.158 Y83.012 E9.99287
G1 X99.143 Y83.230 E10.00811
G1 X99.462 Y84.191 E10.07903
G1 X99.126 Y84.862 E10.13152
G1 X99.111 Y85.079 E10.14675
G1 X99.430 Y86.041 E10.21768
G1 X99.094 Y86.712 E10.27017
G1 X99.078 Y86.929 E10.28540
G1 X99.398 Y87.890 E10.35633
G1 X99.062 Y88.561 E10.40882
G1 X99.046 Y88.778 E10.42405
G1 X99.366 Y89.740 E10.49498
G1 X99.030 Y90.411 E10.54747
G1 X99.014 Y90.628 E10.56270
G1 X99.334 Y91.590 E10.63362
G1 X98.998 Y92.260 E10.68611
G1 X98.982 Y92.477 E10.70135
G1 X99.302 Y93.439 E10.77227
G1 X98.965 Y94.110 E10.82476
G1 X98.950 Y94.327 E10.83999
G1 X99.269 Y95.289 E10.91092
G1 X98.933 Y95.959 E10.96341
G1 X98.918 Y96.176 E10.97864
G1 X99.237 Y97.138 E11.04957
G1 X98.901 Y97.809 E11.10206
G1 X98.886 Y98.026 E11.11729
G1 X99.205 Y98.988 E11.18822
G1 X98.869 Y99.658 E11.24071
G1 X98.853 Y99.876 E11.25594
G1 X99.173 Y100.837 E11.32686
G1 X98.837 Y101.508 E11.37935
G1 X98.821 Y101.725 E11.39459
G1 X99.141 Y102.687 E11.46551
G1 X98.805 Y103.358 E11.51800
G1 X98.789 Y103.575 E11.53323
G1 X99.109 Y104.537 E11.60416
G1 X98.773 Y105.207 E11.65665
G1 X98.757 Y105.424 E11.67188
G1 X99.077 Y106.386 E11.74281
G1 X98.740 Y107.057 E11.79530
G1 X98.725 Y107.274 E11.81053
G1 X99.044 Y108.236 E11.88146
G1 X98.708 Y108.906 E11.93395
G1 X98.693 Y109.123 E11.94918
G1 X99.012 Y110.085 E12.02010
G1 X98.676 Y110.756 E12.07259
G1 X98.660 Y110.973 E12.08783
G1 X98.980 Y111.935 E12.15875
G1 X98.798 Y112.297 E12.18714
G1 X98.769 Y112.426 E12.19635
G1 X98.810 Y115.343 E12.40049
G1 X98.755 Y115.803 E12.43294
G1 X99.007 Y118.328 E12.61053
G1 X98.998 Y118.675 E12.63480
G1 X99.400 Y121.060 E12.80404
G1 X99.840 Y123.003 E12.94342
G1 X100.553 Y125.462 E13.12259
G1 X101.266 Y127.317 E13.26168
G1 X101.307 Y127.509 E13.27537
G1 X101.889 Y128.776 E13.37296
G1 X102.878 Y130.808 E13.53114
G1 X103.830 Y132.422 E13.66219
G1 X104.499 Y133.484 E13.75010
G1 X105.754 Y135.227 E13.90037
G1 X105.805 Y135.365 E13.91068
G1 X105.959 Y135.534 E13.92666
G1 X106.078 Y135.618 E13.93687
G1 X106.144 Y135.750 E13.94720
G1 X108.076 Y138.020 E14.15580
G1 X109.579 Y139.530 E14.30488
G1 X110.307 Y140.208 E14.37451
G1 X110.580 Y140.277 E14.39423
G1 X110.641 Y140.261 E14.39861
G1 X111.686 Y140.435 E14.47276
G1 X113.015 Y141.318 E14.58437
G1 X114.785 Y142.537 E14.73476
G1 X115.478 Y142.976 E14.79218
G1 X117.383 Y144.055 E14.94541
G1 X118.762 Y144.758 E15.05372
G1 X118.916 Y144.789 E15.06473
G1 X120.389 Y145.459 E15.17794
G1 X122.096 Y146.063 E15.30462
G1 X122.408 Y146.362 E15.33489
G1 X122.631 Y146.440 E15.35144
G1 X123.032 Y146.405 E15.37960
G1 X124.900 Y146.883 E15.51453
G1 X125.103 Y146.861 E15.52878
G1 X125.566 Y146.624 E15.56522
G1 X126.343 Y146.501 E15.62021
G1 X128.381 Y146.830 E15.76469
G1 X129.453 Y147.609 E15.85744
G1 X129.583 Y147.661 E15.86720
G1 X129.879 Y147.697 E15.88806
G1 X131.036 Y148.744 E15.99730
G1 X131.588 Y151.196 E16.17315
G1 X131.609 Y151.619 E16.20277
G1 X131.545 Y152.140 E16.23951
G1 X131.423 Y152.545 E16.26913
G1 X130.286 Y154.813 E16.44664
G1 X129.324 Y155.132 E16.51757
G1 X129.160 Y155.275 E16.53280
G1 X127.910 Y157.768 E16.72792
G1 X126.948 Y158.087 E16.79884
G1 X126.784 Y158.230 E16.81407
G1 X126.588 Y158.621 E16.84466
G1 X126.560 Y158.779 E16.85594
G1 X126.679 Y159.759 E16.92500
G1 X126.554 Y160.473 E16.97573
G1 X126.034 Y161.511 E17.05699
G1 X126.018 Y161.729 E17.07222
G1 X126.338 Y162.690 E17.14315
G1 X126.145 Y163.075 E17.17323
G1 X126.117 Y163.220 E17.18363
G1 X126.228 Y164.697 E17.28721
G1 X126.868 Y166.581 E17.42650
G1 X126.958 Y166.709 E17.43742
G1 X127.123 Y166.841 E17.45222
G1 X127.249 Y167.239 E17.48142
G1 X127.481 Y167.441 E17.50297
G1 X127.883 Y167.509 E17.53150
G1 X128.825 Y168.204 E17.61343
G1 X129.488 Y169.512 E17.71607
G1 X129.491 Y170.683 E17.79799
G1 X128.924 Y171.814 E17.88651
G1 X128.908 Y172.031 E17.90174
G1 X129.228 Y172.993 E17.97267
G1 X128.029 Y175.385 E18.15991
G1 X127.773 Y175.730 E18.19000
G1 X127.385 Y176.097 E18.22733
G1 X127.026 Y176.334 E18.25742
G1 X124.737 Y177.327 E18.43207
G1 X123.511 Y177.076 E18.51964
G1 X123.133 Y177.097 E18.54609
G1 X121.962 Y176.562 E18.63617
G1 X121.677 Y176.173 E18.66993
G1 X121.487 Y176.059 E18.68543
G1 X119.102 Y175.722 E18.85396
G1 X118.979 Y175.729 E18.86262
G1 X116.926 Y175.323 E19.00901
G1 X113.696 Y174.626 E19.24025
G1 X113.576 Y174.557 E19.24993
G1 X111.981 Y174.100 E19.36606
G1 X111.924 Y174.050 E19.37138
G1 X111.717 Y173.981 E19.38662
G1 X111.592 Y173.989 E19.39537
G1 X109.633 Y173.428 E19.53799
G1 X109.533 Y173.365 E19.54626
G1 X106.719 Y172.305 E19.75668
G1 X106.146 Y172.253 E19.79698
G1 X104.966 Y171.340 E19.90137
G1 X104.741 Y170.670 E19.95083
G1 X104.582 Y170.498 E19.96720
G1 X102.290 Y169.517 E20.14167
G1 X99.699 Y168.151 E20.34669
G1 X99.619 Y168.126 E20.35249
G1 X97.848 Y167.127 E20.49483
G1 X97.764 Y167.046 E20.50297
G1 X95.360 Y165.546 E20.70124
G1 X95.245 Y165.505 E20.70979
G1 X92.620 Y163.609 E20.93641
G1 X90.959 Y162.369 E21.08144
G1 X90.878 Y162.266 E21.09060
G1 X88.638 Y160.384 E21.29531
G1 X88.509 Y160.322 E21.30530
G1 X86.071 Y157.964 E21.54264
G1 X84.599 Y156.457 E21.69008
G1 X84.538 Y156.355 E21.69839
G1 X83.393 Y155.052 E21.81978
G1 X83.274 Y154.790 E21.83992
G1 X83.144 Y154.654 E21.85310
G1 X82.917 Y154.541 E21.87083
G1 X82.203 Y152.390 E22.02942
G1 X82.157 Y152.306 E22.03610
G1 X80.584 Y150.317 E22.21356
G1 X80.477 Y150.234 E22.22304
G1 X78.416 Y147.192 E22.48018
G1 X78.292 Y147.088 E22.49145
G1 X77.180 Y145.189 E22.64547
G1 X76.377 Y143.772 E22.75946
G1 X76.284 Y143.676 E22.76881
G1 X75.260 Y141.696 E22.92479
G1 X74.479 Y140.044 E23.05267
G1 X74.399 Y139.951 E23.06128
G1 X73.485 Y137.847 E23.22178
G1 X72.750 Y135.956 E23.36374
G1 X72.655 Y135.833 E23.37464
G1 X71.897 Y133.588 E23.54045
G1 X71.198 Y131.342 E23.70505
G1 X71.129 Y130.789 E23.74405
G1 X70.936 Y130.207 E23.78694
G1 X70.834 Y130.067 E23.79906
G1 X70.700 Y129.500 E23.83986
G1 X70.634 Y129.299 E23.85463
G1 X70.640 Y129.248 E23.85821
G1 X70.267 Y127.672 E23.97156
G1 X70.175 Y127.523 E23.98382
G1 X69.725 Y124.967 E24.16539
G1 X69.284 Y122.241 E24.35861
G1 X69.283 Y122.004 E24.37523
G1 X69.243 Y121.901 E24.38295
G1 X68.989 Y119.079 E24.58120
G1 X68.998 Y118.893 E24.59430
G1 X68.935 Y118.700 E24.60847
G1 X68.889 Y118.644 E24.61356
G1 X68.834 Y115.657 E24.82258
G1 X68.865 Y115.361 E24.84341
G1 X68.971 Y114.931 E24.87441
G1 X68.973 Y114.748 E24.88725
G1 X68.640 Y113.746 E24.96113
G1 X68.958 Y113.113 E25.01067
G1 X68.973 Y112.896 E25.02590
G1 X68.654 Y111.934 E25.09683
G1 X68.990 Y111.263 E25.14931
G1 X69.005 Y111.046 E25.16455
G1 X68.686 Y110.084 E25.23547
G1 X69.022 Y109.414 E25.28796
G1 X69.038 Y109.197 E25.30320
G1 X68.718 Y108.235 E25.37412
G1 X69.054 Y107.564 E25.42661
G1 X69.070 Y107.347 E25.44184
G1 X68.750 Y106.385 E25.51277
G1 X69.086 Y105.715 E25.56526
G1 X69.102 Y105.498 E25.58049
G1 X68.782 Y104.536 E25.65142
G1 X69.118 Y103.865 E25.70391
G1 X69.134 Y103.648 E25.71914
G1 X68.814 Y102.686 E25.79007
G1 X69.151 Y102.016 E25.84255
G1 X69.166 Y101.798 E25.85779
G1 X68.847 Y100.837 E25.92871
G1 X69.183 Y100.166 E25.98120
G1 X69.198 Y99.949 E25.99644
G1 X68.879 Y98.987 E26.06736
G1 X69.215 Y98.316 E26.11985
G1 X69.230 Y98.099 E26.13508
G1 X68.911 Y97.137 E26.20601
G1 X69.247 Y96.467 E26.25850
G1 X69.263 Y96.250 E26.27373
G1 X68.943 Y95.288 E26.34466
G1 X69.279 Y94.617 E26.39715
G1 X69.295 Y94.400 E26.41238
G1 X68.975 Y93.438 E26.48331
G1 X69.311 Y92.768 E26.53579
G1 X69.327 Y92.551 E26.55103
G1 X69.007 Y91.589 E26.62195
G1 X69.343 Y90.918 E26.67444
G1 X69.359 Y90.701 E26.68967
G1 X69.039 Y89.739 E26.76060
G1 X69.376 Y89.069 E26.81309
G1 X69.391 Y88.852 E26.82832
G1 X69.072 Y87.890 E26.89925
G1 X69.408 Y87.219 E26.95174
G1 X69.423 Y87.002 E26.96697
G1 X69.104 Y86.040 E27.03790
G1 X69.440 Y85.370 E27.09039
G1 X69.455 Y85.152 E27.10562
G1 X69.136 Y84.191 E27.17654
G1 X69.472 Y83.520 E27.22903
G1 X69.488 Y83.303 E27.24427
