; generated by Slic3r 1.1.7 on 2015-02-14 at 15:26:28

; perimeters extrusion width = 0.47mm
; infill extrusion width = 0.62mm
; solid infill extrusion width = 0.62mm
; top infill extrusion width = 0.62mm
; support material extrusion width = 0.47mm

G21 ; set units to millimeters
M190 S60 ; wait for bed temperature to be reached
M104 S220 ; set temperature
G28 ; home all axes Start of G Code Slic3r
 
 
M109 S220 ; wait for temperature to be reached
G90 ; use absolute coordinates
G92 E0
M82 ; use absolute distances for extrusion
G1 F4200.000 E-3.00000
G92 E0
G1 Z0.294 F6000.000
G1 X79.171 Y23.497 F6000.000
G1 E3.00000 F4200.000
G1 X79.533 Y22.316 E3.08878 F1500.000
G1 X79.727 Y21.834 E3.12613
G1 X80.269 Y20.726 E3.21480
G1 X81.245 Y19.271 E3.34081
G1 X81.582 Y18.868 E3.37855
G1 X82.437 Y17.985 E3.46695
G1 X82.834 Y17.638 E3.50488
G1 X83.816 Y16.900 E3.59316
G1 X84.265 Y16.619 E3.63129
G1 X85.348 Y16.045 E3.71942
G1 X85.838 Y15.836 E3.75772
G1 X86.997 Y15.439 E3.84574
G1 X87.516 Y15.309 E3.88423
G1 X88.720 Y15.099 E3.97212
G1 X89.916 Y15.016 E4.05832
G1 X107.328 Y14.863 E5.31026
G1 X109.526 Y14.865 E5.46827
G1 X110.128 Y14.908 E5.51169 F1500.000
G1 X111.279 Y15.076 E5.59530
G1 X111.869 Y15.213 E5.63883
G1 X112.978 Y15.560 E5.72237
G1 X113.540 Y15.788 E5.76599
G1 X114.580 Y16.304 E5.84946
G1 X116.046 Y17.291 E5.97652
G1 X116.511 Y17.682 E6.02026
G1 X117.339 Y18.495 E6.10366
G1 X118.427 Y19.887 E6.23072
G1 X118.748 Y20.404 E6.27445
G1 X119.284 Y21.433 E6.35786
G1 X119.519 Y21.993 E6.40154
G1 X119.886 Y23.094 E6.48497
G1 X120.221 Y24.829 E6.61199
G1 X120.300 Y26.034 E6.69880
G1 X120.675 Y111.792 E12.86474
G1 X120.927 Y174.297 E17.35874
G1 X120.712 Y176.004 E17.48242
G1 X120.232 Y177.655 E17.60606
G1 X119.499 Y179.210 E17.72966
G1 X118.533 Y180.630 E17.85318
G1 X117.356 Y181.881 E17.97665
G1 X115.999 Y182.932 E18.10007
G1 X114.495 Y183.758 E18.22341
G1 X112.881 Y184.337 E18.34670
G1 X111.197 Y184.658 E18.46995
G1 X110.043 Y184.731 E18.55312
G1 X90.435 Y184.785 E19.96288
G1 X88.619 Y184.542 E20.09460
G1 X87.106 Y184.096 E20.20802
G1 X85.563 Y183.372 E20.33055
G1 X84.153 Y182.415 E20.45308
G1 X82.909 Y181.251 E20.57558
G1 X81.862 Y179.907 E20.69808
G1 X81.037 Y178.416 E20.82060
G1 X80.425 Y176.694 E20.95201
G1 X80.129 Y175.142 E21.06563
G1 X80.052 Y173.996 E21.14820
G1 X78.845 Y25.739 E31.80795
G1 X78.881 Y25.225 E31.84499
G1 X79.054 Y24.001 E31.93388
G1 X79.155 Y23.565 E31.96599
G1 X79.719 Y23.623 F6000.000
G1 X80.054 Y22.527 E32.04845 F1500.000
G1 X80.249 Y22.045 E32.08579
G1 X80.751 Y21.016 E32.16813
G1 X81.676 Y19.632 E32.28781
G1 X82.013 Y19.229 E32.32555
G1 X82.806 Y18.409 E32.40760
G1 X83.204 Y18.062 E32.44553
G1 X84.114 Y17.377 E32.52747
G1 X84.564 Y17.095 E32.56560
G1 X85.568 Y16.562 E32.64738
G1 X86.058 Y16.353 E32.68568
G1 X87.133 Y15.985 E32.76736
G1 X87.652 Y15.855 E32.80585
G1 X88.769 Y15.659 E32.88739
G1 X89.921 Y15.579 E32.97041
G1 X107.333 Y15.425 E34.22235
G1 X109.487 Y15.426 E34.37717
G1 X110.089 Y15.468 E34.42059 F1500.000
G1 X111.152 Y15.624 E34.49785
G1 X111.742 Y15.761 E34.54137
G1 X112.767 Y16.081 E34.61856
G1 X113.329 Y16.309 E34.66218
G1 X114.290 Y16.785 E34.73929
G1 X115.684 Y17.721 E34.85999
G1 X116.149 Y18.112 E34.90373
G1 X116.914 Y18.863 E34.98076
G1 X117.950 Y20.184 E35.10146
G1 X118.271 Y20.701 E35.14519
G1 X118.765 Y21.651 E35.22224
G1 X119.001 Y22.211 E35.26592
G1 X119.340 Y23.228 E35.34299
G1 X119.661 Y24.875 E35.46365
G1 X119.737 Y26.036 E35.54728
G1 X120.367 Y174.255 E46.20404
G1 X120.165 Y175.874 E46.32137
G1 X119.712 Y177.442 E46.43866
G1 X119.019 Y178.918 E46.55591
G1 X118.104 Y180.266 E46.67308
G1 X116.990 Y181.455 E46.79021
G1 X115.704 Y182.454 E46.90729
G1 X114.278 Y183.239 E47.02430
G1 X112.748 Y183.791 E47.14125
G1 X111.151 Y184.098 E47.25817
G1 X110.041 Y184.169 E47.33818
G1 X90.477 Y184.224 E48.74477
G1 X88.872 Y184.024 E48.86107
G1 X87.319 Y183.576 E48.97730
G1 X85.855 Y182.891 E49.09350
G1 X84.515 Y181.986 E49.20971
G1 X83.334 Y180.883 E49.32589
G1 X82.339 Y179.610 E49.44207
G1 X81.555 Y178.197 E49.55827
G1 X80.970 Y176.559 E49.68335
G1 X80.689 Y175.093 E49.79065
G1 X80.614 Y173.991 E49.87006
G1 X79.406 Y25.778 E60.52664
G1 X79.442 Y25.264 E60.56368
G1 X79.602 Y24.127 E60.64624
G1 X79.703 Y23.692 E60.67836
G1 F4200.000 E57.67836
G92 E0
G1 X113.399 Y144.019 F6000.000
G1 E3.00000 F4200.000
G1 X113.529 Y173.757 E5.13814 F441.000
G1 X113.487 Y174.322 E5.17886
G1 X113.359 Y174.862 E5.21874
G1 X113.149 Y175.375 E5.25860
G1 X112.861 Y175.849 E5.29844
G1 X112.503 Y176.271 E5.33827
G1 X112.083 Y176.632 E5.37807
G1 X111.612 Y176.922 E5.41786
G1 X111.102 Y177.136 E5.45762
G1 X110.565 Y177.267 E5.49737
G1 X110.002 Y177.313 E5.53793
G1 X90.976 Y177.387 E6.90594
G1 X90.421 Y177.345 E6.94595
G1 X89.890 Y177.220 E6.98512
G1 X89.386 Y177.014 E7.02428
G1 X88.920 Y176.732 E7.06343
G1 X88.504 Y176.381 E7.10258
G1 X88.148 Y175.969 E7.14172
G1 X87.861 Y175.507 E7.18086
G1 X87.649 Y175.005 E7.22001
G1 X87.517 Y174.477 E7.25917
G1 X87.469 Y173.923 E7.29916
G1 X86.246 Y26.246 E17.91717
G1 X86.288 Y25.646 E17.96042
G1 X86.420 Y25.071 E18.00285
G1 X86.641 Y24.524 E18.04531
G1 X86.945 Y24.017 E18.08778
G1 X87.325 Y23.564 E18.13027
G1 X87.771 Y23.176 E18.17279
G1 X88.272 Y22.862 E18.21532
G1 X88.817 Y22.630 E18.25788
G1 X89.392 Y22.487 E18.30045
G1 X89.993 Y22.434 E18.34388
G1 X109.020 Y22.266 E19.71188
G1 X109.610 Y22.307 E19.75443
G1 X110.214 Y22.444 E19.79899 F441.000
G1 X110.771 Y22.670 E19.84216
G1 X111.285 Y22.980 E19.88535
G1 X111.745 Y23.366 E19.92853
G1 X112.138 Y23.821 E19.97172
G1 X112.455 Y24.331 E20.01490
G1 X112.688 Y24.885 E20.05809
G1 X112.831 Y25.468 E20.10126
G1 X112.882 Y26.078 E20.14526
G1 X113.398 Y143.949 E28.62005
G1 X110.036 Y22.505 F6000.000
G1 X112.836 Y144.022 F6000.000
G1 X112.967 Y173.738 E30.75660 F630.000
G1 X112.929 Y174.236 E30.79254
G1 X112.822 Y174.690 E30.82605
G1 X112.646 Y175.121 E30.85953
G1 X112.404 Y175.519 E30.89301
G1 X112.103 Y175.873 E30.92647
G1 X111.750 Y176.177 E30.95991
G1 X111.354 Y176.421 E30.99333
G1 X110.926 Y176.600 E31.02674
G1 X110.474 Y176.710 E31.06013
G1 X109.978 Y176.751 E31.09593
G1 X90.995 Y176.824 E32.46077
G1 X90.506 Y176.788 E32.49602
G1 X90.062 Y176.683 E32.52885
G1 X89.591 Y176.481 E32.56573
G1 X89.249 Y176.274 E32.59442
G1 X88.901 Y175.980 E32.62723
G1 X88.602 Y175.635 E32.66003
G1 X88.361 Y175.248 E32.69283
G1 X88.184 Y174.827 E32.72563
G1 X88.074 Y174.384 E32.75844
G1 X88.031 Y173.896 E32.79368
G1 X86.808 Y26.264 E43.40852
G1 X86.845 Y25.730 E43.44701
G1 X86.958 Y25.241 E43.48309
G1 X87.146 Y24.775 E43.51920
G1 X87.405 Y24.344 E43.55531
G1 X87.728 Y23.959 E43.59145
G1 X88.107 Y23.629 E43.62760
G1 X88.533 Y23.362 E43.66377
G1 X88.996 Y23.165 E43.69996
G1 X89.485 Y23.043 E43.73616
G1 X90.020 Y22.996 E43.77481
G1 X107.399 Y22.843 E45.02432
G1 X109.002 Y22.829 E45.13963 F630.000
G1 X109.546 Y22.867 E45.17882
G1 X110.045 Y22.982 E45.21560
G1 X110.519 Y23.174 E45.25239
G1 X110.957 Y23.438 E45.28919
G1 X111.349 Y23.768 E45.32599
G1 X111.684 Y24.155 E45.36280
G1 X111.954 Y24.590 E45.39960
G1 X112.152 Y25.062 E45.43640
G1 X112.274 Y25.559 E45.47320
G1 X112.320 Y26.102 E45.51242
G1 X112.836 Y143.951 E53.98561
G1 X88.442 Y174.147 F6000.000
G1 X90.709 Y176.414 E54.21612 F1500.000
G1 X91.525 Y176.435 E54.27483
G1 X88.414 Y173.323 E54.59118
G1 X88.408 Y172.521 E54.64888
G1 X92.318 Y176.432 E55.04652
G1 X93.111 Y176.429 E55.10353
G1 X88.401 Y171.718 E55.58246
G1 X88.394 Y170.916 E55.64016
G1 X93.904 Y176.426 E56.20038
G1 X94.697 Y176.422 E56.25738
G1 X88.388 Y170.113 E56.89889
G1 X88.381 Y169.311 E56.95660
G1 X95.490 Y176.419 E57.67940
G1 X96.282 Y176.416 E57.73640
G1 X88.374 Y168.508 E58.54049
G1 X88.368 Y167.706 E58.59820
G1 X97.075 Y176.413 E59.48358
G1 X97.868 Y176.410 E59.54058
G1 X88.361 Y166.903 E60.50725
G1 X88.354 Y166.101 E60.56495
G1 X98.661 Y176.407 E61.61291
G1 X99.454 Y176.404 E61.66992
G1 X88.348 Y165.298 E62.79917
G1 X88.341 Y164.496 E62.85687
G1 X100.247 Y176.401 E64.06741
G1 X101.039 Y176.398 E64.12442
G1 X88.334 Y163.693 E65.41625
G1 X88.328 Y162.890 E65.47395
G1 X101.832 Y176.395 E66.84707
G1 X102.625 Y176.392 E66.90407
G1 X88.321 Y162.088 E68.35848
G1 X88.314 Y161.285 E68.41619
G1 X103.418 Y176.389 E69.95189
G1 X104.211 Y176.386 E70.00889
G1 X88.308 Y160.483 E71.62588
G1 X88.301 Y159.680 E71.68358
G1 X105.003 Y176.383 E73.38186
G1 X105.796 Y176.380 E73.43887
G1 X88.294 Y158.878 E75.21844
G1 X88.288 Y158.075 E75.27614
G1 X106.589 Y176.377 E77.13700
G1 X107.382 Y176.373 E77.19400
G1 X88.281 Y157.273 E79.13615
G1 X88.275 Y156.470 E79.19386
G1 X108.175 Y176.370 E81.21730
G1 X108.968 Y176.367 E81.27430
G1 X88.268 Y155.668 E83.37903
G1 X88.261 Y154.865 E83.43673
G1 X109.760 Y176.364 E85.62275
G1 X110.498 Y176.306 E85.67592
G1 X88.255 Y154.063 E87.93757
G1 X88.248 Y153.260 E87.99528
G1 X111.097 Y176.109 E90.31850
G1 X111.588 Y175.805 E90.36008
G1 X88.241 Y152.457 E92.73399
G1 X88.235 Y151.655 E92.79169
G1 X111.989 Y175.409 E95.20698
G1 X112.305 Y174.930 E95.24828
G1 X88.228 Y150.852 E97.69644
G1 X88.221 Y150.050 E97.75414
G1 X112.508 Y174.336 E100.22356
G1 X112.578 Y173.611 E100.27594
G1 X88.215 Y149.247 E102.75323
G1 X88.208 Y148.445 E102.81093
G1 X112.575 Y172.812 E105.28855
G1 X112.571 Y172.012 E105.34602
G1 X88.201 Y147.642 E107.82395
G1 X88.195 Y146.840 E107.88165
G1 X112.568 Y171.213 E110.35991
G1 X112.564 Y170.414 E110.41738
G1 X88.188 Y146.037 E112.89595
G1 X88.181 Y145.235 E112.95365
G1 X112.561 Y169.614 E115.43254
G1 X112.557 Y168.815 E115.49002
G1 X88.175 Y144.432 E117.96923
G1 X88.168 Y143.630 E118.02693
G1 X112.554 Y168.015 E120.50646
G1 X112.550 Y167.216 E120.56394
G1 X88.161 Y142.827 E123.04379
G1 X88.155 Y142.024 E123.10149
G1 X112.547 Y166.417 E125.58166
G1 X112.543 Y165.617 E125.63914
G1 X88.148 Y141.222 E128.11963
G1 X88.142 Y140.419 E128.17733
G1 X112.540 Y164.818 E130.65814
G1 X112.536 Y164.018 E130.71562
G1 X88.135 Y139.617 E133.19675
G1 X88.128 Y138.814 E133.25445
G1 X112.533 Y163.219 E135.73590
G1 X112.529 Y162.420 E135.79338
G1 X88.122 Y138.012 E138.27514
G1 X88.115 Y137.209 E138.33285
G1 X112.526 Y161.620 E140.81494
G1 X112.522 Y160.821 E140.87241
G1 X88.108 Y136.407 E143.35482
G1 X88.102 Y135.604 E143.41253
G1 X112.519 Y160.021 E145.89525
G1 X112.515 Y159.222 E145.95273
G1 X88.095 Y134.802 E148.43578
G1 X88.088 Y133.999 E148.49348
G1 X112.512 Y158.423 E150.97685
G1 X112.508 Y157.623 E151.03433
G1 X88.082 Y133.197 E153.51802
G1 X88.075 Y132.394 E153.57572
G1 X112.505 Y156.824 E156.05973
G1 X112.501 Y156.024 E156.11720
G1 X88.068 Y131.591 E158.60153
G1 X88.062 Y130.789 E158.65924
G1 X112.498 Y155.225 E161.14389
G1 X112.494 Y154.426 E161.20136
G1 X88.055 Y129.986 E163.68633
G1 X88.048 Y129.184 E163.74403
G1 X112.491 Y153.626 E166.22932
G1 X112.487 Y152.827 E166.28680
G1 X88.042 Y128.381 E168.77241
G1 X88.035 Y127.579 E168.83011
G1 X112.484 Y152.027 E171.31604
G1 X112.480 Y151.228 E171.37351
G1 X88.028 Y126.776 E173.85976
G1 X88.022 Y125.974 E173.91746
G1 X112.477 Y150.429 E176.40403
G1 X112.473 Y149.629 E176.46151
G1 X88.015 Y125.171 E178.94840
G1 X88.009 Y124.369 E179.00610
G1 X112.470 Y148.830 E181.49331
G1 X112.466 Y148.031 E181.55078
G1 X88.002 Y123.566 E184.03831
G1 X87.995 Y122.764 E184.09602
G1 X112.463 Y147.231 E186.58386
G1 X112.459 Y146.432 E186.64134
G1 X87.989 Y121.961 E189.12951
G1 X87.982 Y121.158 E189.18721
G1 X112.456 Y145.632 E191.67570
G1 X112.452 Y144.833 E191.73317
G1 X87.975 Y120.356 E194.22198
G1 X87.969 Y119.553 E194.27968
G1 X112.449 Y144.034 E196.76881
G1 X112.445 Y143.234 E196.82629
G1 X87.962 Y118.751 E199.31574
G1 X87.955 Y117.948 E199.37344
G1 X112.442 Y142.435 E201.86321
G1 X112.438 Y141.635 E201.92068
G1 X87.949 Y117.146 E204.41077
G1 X87.942 Y116.343 E204.46847
G1 X112.435 Y140.836 E206.95888
G1 X112.431 Y140.037 E207.01636
G1 X87.935 Y115.541 E209.50708
G1 X87.929 Y114.738 E209.56479
G1 X112.428 Y139.237 E212.05583
G1 X112.424 Y138.438 E212.11331
G1 X87.922 Y113.936 E214.60468
G1 X87.915 Y113.133 E214.66238
G1 X112.421 Y137.638 E217.15407
G1 X112.417 Y136.839 E217.21154
G1 X87.909 Y112.331 E219.70355
G1 X87.902 Y111.528 E219.76125
G1 X112.414 Y136.040 E222.25358
G1 X112.410 Y135.240 E222.31105
G1 X87.895 Y110.725 E224.80370
G1 X87.889 Y109.923 E224.86140
G1 X112.407 Y134.441 E227.35437
G1 X112.403 Y133.641 E227.41185
G1 X87.882 Y109.120 E229.90513
G1 X87.876 Y108.318 E229.96284
G1 X112.400 Y132.842 E232.45644
G1 X112.396 Y132.043 E232.51392
G1 X87.869 Y107.515 E235.00785
G1 X87.862 Y106.713 E235.06555
G1 X112.393 Y131.243 E237.55980
G1 X112.389 Y130.444 E237.61727
G1 X87.856 Y105.910 E240.11184
G1 X87.849 Y105.108 E240.16954
G1 X112.386 Y129.644 E242.66443
G1 X112.382 Y128.845 E242.72190
G1 X87.842 Y104.305 E245.21711
G1 X87.836 Y103.503 E245.27481
G1 X112.379 Y128.046 E247.77034
G1 X112.375 Y127.246 E247.82781
G1 X87.829 Y102.700 E250.32366
G1 X87.822 Y101.898 E250.38136
G1 X112.372 Y126.447 E252.87753
G1 X112.368 Y125.648 E252.93500
G1 X87.816 Y101.095 E255.43149
G1 X87.809 Y100.292 E255.48919
G1 X112.365 Y124.848 E257.98600
G1 X112.361 Y124.049 E258.04347
G1 X87.802 Y99.490 E260.54060
G1 X87.796 Y98.687 E260.59830
G1 X112.358 Y123.249 E263.09575
G1 X112.354 Y122.450 E263.15322
G1 X87.789 Y97.885 E265.65099
G1 X87.782 Y97.082 E265.70869
G1 X112.351 Y121.651 E268.20678
G1 X112.347 Y120.851 E268.26425
G1 X87.776 Y96.280 E270.76266
G1 X87.769 Y95.477 E270.82036
G1 X112.344 Y120.052 E273.31909
G1 X112.340 Y119.252 E273.37656
G1 X87.762 Y94.675 E275.87561
G1 X87.756 Y93.872 E275.93331
G1 X112.337 Y118.453 E278.43268
G1 X112.333 Y117.654 E278.49015
G1 X87.749 Y93.070 E280.98984
G1 X87.743 Y92.267 E281.04754
G1 X112.330 Y116.854 E283.54755
G1 X112.326 Y116.055 E283.60502
G1 X87.736 Y91.464 E286.10535
G1 X87.729 Y90.662 E286.16305
G1 X112.323 Y115.255 E288.66369
G1 X112.319 Y114.456 E288.72117
G1 X87.723 Y89.859 E291.22214
G1 X87.716 Y89.057 E291.27984
G1 X112.316 Y113.657 E293.78112
G1 X112.312 Y112.857 E293.83860
G1 X87.709 Y88.254 E296.34020
G1 X87.703 Y87.452 E296.39791
G1 X112.309 Y112.058 E298.89983
G1 X112.305 Y111.258 E298.95731
G1 X87.696 Y86.649 E301.45955
G1 X87.689 Y85.847 E301.51725
G1 X112.302 Y110.459 E304.01982
G1 X112.298 Y109.660 E304.07729
G1 X87.683 Y85.044 E306.58018
G1 X87.676 Y84.242 E306.63788
G1 X112.295 Y108.860 E309.14109
G1 X112.291 Y108.061 E309.19856
G1 X87.669 Y83.439 E311.70208
G1 X87.663 Y82.637 E311.75979
G1 X112.288 Y107.262 E314.26363
G1 X112.284 Y106.462 E314.32111
G1 X87.656 Y81.834 E316.82527
G1 X87.649 Y81.031 E316.88297
G1 X112.281 Y105.663 E319.38746
G1 X112.277 Y104.863 E319.44493
G1 X87.643 Y80.229 E321.94974
G1 X87.636 Y79.426 E322.00744
G1 X112.274 Y104.064 E324.51256
G1 X112.270 Y103.265 E324.57004
G1 X87.629 Y78.624 E327.07548
G1 X87.623 Y77.821 E327.13319
G1 X112.267 Y102.465 E329.63895
G1 X112.263 Y101.666 E329.69643
G1 X87.616 Y77.019 E332.20251
G1 X87.610 Y76.216 E332.26021
G1 X112.260 Y100.866 E334.76662
G1 X112.256 Y100.067 E334.82409
G1 X87.603 Y75.414 E337.33082
G1 X87.596 Y74.611 E337.38852
G1 X112.253 Y99.268 E339.89556
G1 X112.249 Y98.468 E339.95304
G1 X87.590 Y73.809 E342.46040
G1 X87.583 Y73.006 E342.51810
G1 X112.246 Y97.669 E345.02579
G1 X112.242 Y96.869 E345.08326
G1 X87.576 Y72.204 E347.59126
G1 X87.570 Y71.401 E347.64897
G1 X112.239 Y96.070 E350.15729
G1 X112.235 Y95.271 E350.21477
G1 X87.563 Y70.598 E352.72341
G1 X87.556 Y69.796 E352.78111
G1 X112.232 Y94.471 E355.29008
G1 X112.228 Y93.672 E355.34755
G1 X87.550 Y68.993 E357.85683
G1 X87.543 Y68.191 E357.91454
G1 X112.225 Y92.872 E360.42414
G1 X112.221 Y92.073 E360.48161
G1 X87.536 Y67.388 E362.99154
G1 X87.530 Y66.586 E363.04924
G1 X112.218 Y91.274 E365.55948
G1 X112.214 Y90.474 E365.61696
G1 X87.523 Y65.783 E368.12752
G1 X87.516 Y64.981 E368.18522
G1 X112.211 Y89.675 E370.69611
G1 X112.207 Y88.875 E370.75358
G1 X87.510 Y64.178 E373.26478
G1 X87.503 Y63.376 E373.32249
G1 X112.204 Y88.076 E375.83401
G1 X112.200 Y87.277 E375.89148
G1 X87.496 Y62.573 E378.40333
G1 X87.490 Y61.771 E378.46103
G1 X112.197 Y86.477 E380.97319
G1 X112.193 Y85.678 E381.03067
G1 X87.483 Y60.968 E383.54315
G1 X87.477 Y60.165 E383.60085
G1 X112.190 Y84.879 E386.11365
