; generated by Slic3r 1.1.7 on 2015-02-12 at 14:53:39

; perimeters extrusion width = 0.40mm
; infill extrusion width = 0.44mm
; solid infill extrusion width = 0.44mm
; top infill extrusion width = 0.44mm
; support material extrusion width = 0.40mm

G21 ; set units to millimeters
M190 S60 ; wait for bed temperature to be reached
M104 S222 ; set temperature
G28 ; home all axes Start of G Code Slic3r
 
 
M109 S222 ; wait for temperature to be reached
G90 ; use absolute coordinates
G92 E0
M82 ; use absolute distances for extrusion
G1 F4200.000 E-3.00000
G92 E0
G1 Z0.294 F7800.000
G1 X78.084 Y22.409 F7800.000
G1 E3.00000 F4200.000
G1 X78.770 Y20.196 E3.16209 F1800.000
G1 X79.153 Y19.432 E3.22193
G1 X80.821 Y17.274 E3.41279
G1 X83.310 Y15.211 E3.63897
G1 X84.617 Y14.387 E3.74713
G1 X86.633 Y13.518 E3.90070
G1 X94.850 Y11.407 E4.49440
G1 X96.616 Y11.184 E4.61894
G1 X103.775 Y11.184 E5.11990
G1 X105.626 Y11.429 E5.25056 F1800.000
G1 X113.507 Y13.559 E5.82184
G1 X114.974 Y14.138 E5.93223
G1 X116.389 Y14.886 E6.04422
G1 X118.377 Y16.448 E6.22110
G1 X120.092 Y18.381 E6.40197
G1 X121.648 Y21.291 E6.63288
G1 X121.955 Y22.463 E6.71769
G1 X122.162 Y23.664 E6.80294
G1 X122.317 Y25.765 E6.95033
G1 X122.323 Y172.186 E17.19643
G1 X122.279 Y174.752 E17.37603
G1 X122.024 Y177.045 E17.53751
G1 X121.315 Y179.441 E17.71235
G1 X120.756 Y180.558 E17.79973
G1 X119.068 Y182.733 E17.99241
G1 X116.587 Y184.774 E18.21721
G1 X115.284 Y185.588 E18.32471
G1 X113.317 Y186.436 E18.47461
G1 X105.080 Y188.586 E19.07031
G1 X103.288 Y188.816 E19.19674
G1 X96.129 Y188.816 E19.69770
G1 X94.207 Y188.551 E19.83349
G1 X85.431 Y186.008 E20.47289
G1 X83.964 Y185.363 E20.58499
G1 X81.249 Y183.261 E20.82530
G1 X79.608 Y181.179 E21.01082
G1 X78.301 Y178.523 E21.21795
G1 X78.001 Y177.335 E21.30365
G1 X77.801 Y176.074 E21.39299
G1 X77.680 Y174.037 E21.53585
G1 X77.677 Y27.615 E31.78197
G1 X77.746 Y24.869 E31.97420
G1 X78.076 Y22.468 E32.14380
G1 X78.626 Y22.483 F7800.000
G1 X79.259 Y20.441 E32.29338 F1800.000
G1 X79.643 Y19.677 E32.35322
G1 X81.182 Y17.685 E32.52936
G1 X83.601 Y15.674 E32.74954
G1 X84.909 Y14.850 E32.85769
G1 X86.769 Y14.048 E32.99942
G1 X94.986 Y11.937 E33.59312
G1 X96.616 Y11.731 E33.70806
G1 X103.775 Y11.731 E34.20901
G1 X105.483 Y11.958 E34.32960 F1800.000
G1 X113.364 Y14.088 E34.90088
G1 X114.718 Y14.621 E35.00276
G1 X116.133 Y15.370 E35.11475
G1 X117.967 Y16.811 E35.27798
G1 X119.683 Y18.745 E35.45886
G1 X121.119 Y21.430 E35.67195
G1 X121.617 Y23.710 E35.83528
G1 X121.769 Y25.767 E35.97959
G1 X121.776 Y172.185 E46.22552
G1 X121.735 Y174.692 E46.40092
G1 X121.480 Y176.985 E46.56239
G1 X120.826 Y179.196 E46.72375
G1 X120.267 Y180.313 E46.81113
G1 X118.709 Y182.320 E46.98895
G1 X116.297 Y184.310 E47.20775
G1 X114.994 Y185.124 E47.31525
G1 X113.179 Y185.906 E47.45359
G1 X104.942 Y188.057 E48.04928
G1 X103.288 Y188.269 E48.16597
G1 X96.129 Y188.269 E48.66693
G1 X94.355 Y188.024 E48.79225
G1 X85.651 Y185.508 E49.42629
G1 X84.184 Y184.863 E49.53840
G1 X81.679 Y182.922 E49.76018
G1 X80.038 Y180.840 E49.94569
G1 X78.831 Y178.389 E50.13684
G1 X78.532 Y177.202 E50.22255
G1 X78.347 Y176.038 E50.30500
G1 X78.227 Y174.036 E50.44535
G1 X78.224 Y27.616 E60.69135
G1 X78.288 Y24.944 E60.87842
G1 X78.618 Y22.543 E61.04801
G1 F4200.000 E58.04801
G92 E0
G1 X82.192 Y23.052 F7800.000
G1 E3.00000 F4200.000
G1 X83.489 Y20.464 E3.20258 F1800.000
G1 X84.451 Y20.144 E3.27351
G1 X84.615 Y20.002 E3.28874
G1 X85.084 Y19.067 E3.36193
G1 X86.046 Y18.747 E3.43286
G1 X86.210 Y18.605 E3.44809
G1 X86.392 Y18.243 E3.47640
G1 X88.327 Y17.600 E3.61915
G1 X88.889 Y17.881 E3.66311
G1 X89.090 Y17.901 E3.67722
G1 X90.314 Y17.570 E3.76600
G1 X90.602 Y17.662 E3.78712
G1 X90.776 Y17.661 E3.79931
G1 X91.022 Y17.580 E3.81746
G1 X91.175 Y17.657 E3.82946
G1 X91.393 Y17.672 E3.84469
G1 X91.966 Y17.482 E3.88698
G1 X92.054 Y17.526 E3.89390
G1 X92.357 Y17.503 E3.91515
G1 X93.444 Y16.729 E4.00849
G1 X93.882 Y16.749 E4.03918
G1 X94.013 Y16.723 E4.04853
G1 X94.446 Y16.519 E4.08200
G1 X94.532 Y16.456 E4.08947
G1 X94.805 Y16.157 E4.11783
G1 X95.530 Y15.709 E4.17745
G1 X96.190 Y15.522 E4.22541
G1 X97.792 Y15.522 E4.33753
G1 X98.752 Y15.488 E4.40471
G1 X99.670 Y15.794 E4.47249
G1 X99.912 Y15.766 E4.48951 F1800.000
G1 X100.005 Y15.709 E4.49714
G1 X100.664 Y15.522 E4.54510
G1 X104.579 Y15.522 E4.81904
G1 X105.697 Y16.146 E4.90866
G1 X106.043 Y16.705 E4.95468
G1 X106.234 Y16.836 E4.97091
G1 X106.835 Y16.947 E5.01364
G1 X107.548 Y17.447 E5.07456
G1 X107.786 Y17.489 E5.09153
G1 X108.335 Y17.343 E5.13125
G1 X108.683 Y17.456 E5.15686
G1 X108.780 Y17.469 E5.16374
G1 X109.372 Y17.442 E5.20522
G1 X110.479 Y17.795 E5.28649
G1 X110.552 Y17.794 E5.29162
G1 X110.647 Y17.842 E5.29905
G1 X110.864 Y17.857 E5.31428
G1 X111.585 Y17.618 E5.36739
G1 X113.994 Y18.826 E5.55596
G1 X114.054 Y18.896 E5.56246
G1 X115.348 Y19.544 E5.66369
G1 X115.442 Y19.828 E5.68461
G1 X115.488 Y19.913 E5.69140
G1 X115.833 Y20.343 E5.72996
G1 X116.039 Y20.450 E5.74620
G1 X117.205 Y21.451 E5.85378
G1 X117.829 Y23.830 E6.02590
G1 X117.863 Y24.274 E6.05704
G1 X117.849 Y24.405 E6.06624
G1 X117.909 Y24.611 E6.08129
G1 X117.974 Y24.693 E6.08861
G1 X117.985 Y27.732 E6.30124
G1 X117.946 Y28.077 E6.32557
G1 X117.985 Y28.213 E6.33546
G1 X117.985 Y31.311 E6.55223
G1 X117.945 Y31.647 E6.57589
G1 X117.985 Y31.785 E6.58593
G1 X117.985 Y34.882 E6.80265
G1 X117.945 Y35.218 E6.82630
G1 X117.985 Y35.356 E6.83634
G1 X117.985 Y38.453 E7.05307
G1 X117.945 Y38.788 E7.07672
G1 X117.985 Y38.926 E7.08676
G1 X117.985 Y42.024 E7.30349
G1 X117.945 Y42.359 E7.32714
G1 X117.985 Y42.497 E7.33718
G1 X117.985 Y45.594 E7.55390
G1 X117.945 Y45.930 E7.57756
G1 X117.985 Y46.068 E7.58760
G1 X117.985 Y49.165 E7.80432
G1 X117.945 Y49.501 E7.82797
G1 X117.985 Y49.639 E7.83801
G1 X117.985 Y52.736 E8.05474
G1 X117.945 Y53.072 E8.07839
G1 X117.985 Y53.210 E8.08843
G1 X117.985 Y56.307 E8.30516
G1 X117.945 Y56.643 E8.32881
G1 X117.985 Y56.781 E8.33885
G1 X117.985 Y59.878 E8.55557
G1 X117.945 Y60.213 E8.57923
G1 X117.985 Y60.351 E8.58927
G1 X117.985 Y63.449 E8.80599
G1 X117.945 Y63.784 E8.82964
G1 X117.985 Y63.922 E8.83968
G1 X117.985 Y67.019 E9.05641
G1 X117.945 Y67.355 E9.08006
G1 X117.985 Y67.493 E9.09010
G1 X117.985 Y70.590 E9.30683
G1 X117.945 Y70.926 E9.33048
G1 X117.985 Y71.064 E9.34052
G1 X117.985 Y74.161 E9.55724
G1 X117.945 Y74.497 E9.58090
G1 X117.985 Y74.635 E9.59094
G1 X117.985 Y77.732 E9.80766
G1 X117.945 Y78.068 E9.83131
G1 X117.985 Y78.206 E9.84135
G1 X117.985 Y81.303 E10.05808
G1 X117.945 Y81.639 E10.08173
G1 X117.985 Y81.777 E10.09177
G1 X117.985 Y84.874 E10.30850
G1 X117.945 Y85.209 E10.33215
G1 X117.985 Y85.347 E10.34219
G1 X117.985 Y88.444 E10.55891
G1 X117.945 Y88.780 E10.58257
G1 X117.985 Y88.918 E10.59260
G1 X117.985 Y92.015 E10.80933
G1 X117.945 Y92.351 E10.83298
G1 X117.985 Y92.489 E10.84302
G1 X117.985 Y95.586 E11.05975
G1 X117.945 Y95.922 E11.08340
G1 X117.985 Y96.060 E11.09344
G1 X117.985 Y99.157 E11.31017
G1 X117.945 Y99.493 E11.33382
G1 X117.985 Y99.631 E11.34386
G1 X117.985 Y102.728 E11.56058
G1 X117.945 Y103.064 E11.58424
G1 X117.985 Y103.202 E11.59427
G1 X117.985 Y106.299 E11.81100
G1 X117.945 Y106.634 E11.83465
G1 X117.985 Y106.772 E11.84469
G1 X117.985 Y109.870 E12.06142
G1 X117.945 Y110.205 E12.08507
G1 X117.985 Y110.343 E12.09511
G1 X117.985 Y113.440 E12.31183
G1 X117.945 Y113.776 E12.33549
G1 X117.985 Y113.914 E12.34553
G1 X117.985 Y117.011 E12.56225
G1 X117.945 Y117.347 E12.58590
G1 X117.985 Y117.485 E12.59594
G1 X117.985 Y120.582 E12.81267
G1 X117.945 Y120.918 E12.83632
G1 X117.985 Y121.056 E12.84636
G1 X117.985 Y124.153 E13.06309
G1 X117.945 Y124.489 E13.08674
G1 X117.985 Y124.627 E13.09678
G1 X117.985 Y127.724 E13.31350
G1 X117.945 Y128.059 E13.33716
G1 X117.985 Y128.197 E13.34720
G1 X117.985 Y131.295 E13.56392
G1 X117.945 Y131.630 E13.58757
G1 X117.985 Y131.768 E13.59761
G1 X117.985 Y134.865 E13.81434
G1 X117.945 Y135.201 E13.83799
G1 X117.985 Y135.339 E13.84803
G1 X117.985 Y138.436 E14.06476
G1 X117.945 Y138.772 E14.08841
G1 X117.985 Y138.910 E14.09845
G1 X117.985 Y142.007 E14.31517
G1 X117.945 Y142.343 E14.33883
G1 X117.985 Y142.481 E14.34887
G1 X117.985 Y145.578 E14.56559
G1 X117.945 Y145.914 E14.58924
G1 X117.985 Y146.052 E14.59928
G1 X117.985 Y149.149 E14.81601
G1 X117.945 Y149.485 E14.83966
G1 X117.985 Y149.623 E14.84970
G1 X117.985 Y152.720 E15.06643
G1 X117.945 Y153.055 E15.09008
G1 X117.985 Y153.193 E15.10012
G1 X117.985 Y156.290 E15.31684
G1 X117.945 Y156.626 E15.34050
G1 X117.985 Y156.764 E15.35054
G1 X117.985 Y159.861 E15.56726
G1 X117.945 Y160.197 E15.59091
G1 X117.985 Y160.335 E15.60095
G1 X117.985 Y163.432 E15.81768
G1 X117.945 Y163.768 E15.84133
G1 X117.985 Y163.906 E15.85137
G1 X117.985 Y167.003 E16.06810
G1 X117.945 Y167.339 E16.09175
G1 X117.985 Y167.477 E16.10179
G1 X117.985 Y170.574 E16.31851
G1 X117.945 Y170.910 E16.34220
G1 X117.985 Y171.051 E16.35242
G1 X117.983 Y174.148 E16.56917
G1 X117.950 Y174.432 E16.58918
G1 X117.869 Y174.777 E16.61398
G1 X117.771 Y175.046 E16.63399
G1 X117.590 Y175.407 E16.66226
G1 X117.574 Y175.624 E16.67749
G1 X117.894 Y176.586 E16.74841
G1 X116.420 Y179.526 E16.97854
G1 X115.458 Y179.845 E17.04946
G1 X115.294 Y179.988 E17.06470
G1 X114.834 Y180.904 E17.13643
G1 X113.888 Y181.219 E17.20621
G1 X113.792 Y181.274 E17.21400
G1 X113.016 Y181.963 E17.28661
G1 X111.905 Y182.364 E17.36928
G1 X110.959 Y182.333 E17.43553
G1 X110.650 Y182.198 E17.45909
G1 X110.509 Y182.176 E17.46910
G1 X108.109 Y182.431 E17.63799
G1 X107.949 Y182.478 E17.64967
G1 X107.671 Y182.495 E17.66918
G1 X106.889 Y183.018 E17.73495
G1 X106.284 Y183.226 E17.77971
G1 X105.731 Y183.266 E17.81852
G1 X105.543 Y183.358 E17.83318
G1 X105.098 Y183.843 E17.87924
G1 X104.373 Y184.291 E17.93886
G1 X103.714 Y184.478 E17.98682
G1 X101.995 Y184.478 E18.10712
G1 X101.801 Y184.528 E18.12111
G1 X100.829 Y184.464 E18.18930
G1 X100.300 Y184.204 E18.23055
G1 X100.018 Y184.218 E18.25031
G1 X99.899 Y184.291 E18.26008
G1 X99.240 Y184.478 E18.30804
G1 X95.325 Y184.478 E18.58198
G1 X94.207 Y183.854 E18.67161
G1 X94.062 Y183.619 E18.69092
G1 X93.870 Y183.488 E18.70716
G1 X93.757 Y183.467 E18.71523
G1 X92.307 Y182.451 E18.83910
G1 X92.050 Y182.414 E18.85728
G1 X91.849 Y182.480 E18.87208
G1 X91.732 Y182.422 E18.88126
G1 X91.515 Y182.406 E18.89649
G1 X90.887 Y182.614 E18.94278
G1 X90.501 Y182.421 E18.97300
G1 X90.376 Y182.392 E18.98199
G1 X89.576 Y182.394 E19.03796
G1 X89.157 Y182.233 E19.06940
G1 X89.034 Y182.216 E19.07808
G1 X87.721 Y182.330 E19.17026
G1 X86.551 Y181.802 E19.26009
G1 X86.506 Y181.741 E19.26541
G1 X86.275 Y181.624 E19.28355
G1 X85.929 Y181.623 E19.30775
G1 X84.739 Y180.880 E19.40586
G1 X84.161 Y179.709 E19.49729
G1 X84.112 Y179.638 E19.50334
G1 X82.874 Y178.371 E19.62726
G1 X82.530 Y177.684 E19.68104
G1 X82.454 Y177.194 E19.71577
G1 X82.388 Y177.053 E19.72665
G1 X82.201 Y176.839 E19.74650
G1 X82.011 Y174.007 E19.94516
G1 X82.058 Y173.552 E19.97718
G1 X82.015 Y173.373 E19.99006
G1 X82.015 Y170.283 E20.20630
G1 X82.055 Y169.947 E20.22995
G1 X82.015 Y169.809 E20.23999
G1 X82.015 Y166.712 E20.45672
G1 X82.055 Y166.376 E20.48037
G1 X82.015 Y166.238 E20.49041
G1 X82.015 Y163.141 E20.70714
G1 X82.055 Y162.805 E20.73079
G1 X82.015 Y162.667 E20.74083
G1 X82.015 Y159.570 E20.95755
G1 X82.055 Y159.234 E20.98120
G1 X82.015 Y159.096 E20.99124
G1 X82.015 Y155.999 E21.20797
G1 X82.055 Y155.664 E21.23162
G1 X82.015 Y155.525 E21.24166
G1 X82.015 Y152.428 E21.45839
G1 X82.055 Y152.093 E21.48204
G1 X82.015 Y151.955 E21.49208
G1 X82.015 Y148.858 E21.70881
G1 X82.055 Y148.522 E21.73246
G1 X82.015 Y148.384 E21.74250
G1 X82.015 Y145.287 E21.95922
G1 X82.055 Y144.951 E21.98287
G1 X82.015 Y144.813 E21.99291
G1 X82.015 Y141.716 E22.20964
G1 X82.055 Y141.380 E22.23329
G1 X82.015 Y141.242 E22.24333
G1 X82.015 Y138.145 E22.46006
G1 X82.055 Y137.809 E22.48371
G1 X82.015 Y137.671 E22.49375
G1 X82.015 Y134.574 E22.71048
G1 X82.055 Y134.238 E22.73413
G1 X82.015 Y134.100 E22.74417
G1 X82.015 Y131.003 E22.96089
G1 X82.055 Y130.668 E22.98454
G1 X82.015 Y130.530 E22.99458
G1 X82.015 Y127.432 E23.21131
G1 X82.055 Y127.097 E23.23496
G1 X82.015 Y126.959 E23.24500
G1 X82.015 Y123.862 E23.46173
G1 X82.055 Y123.526 E23.48538
G1 X82.015 Y123.388 E23.49542
G1 X82.015 Y120.291 E23.71214
G1 X82.055 Y119.955 E23.73580
G1 X82.015 Y119.817 E23.74584
G1 X82.015 Y116.720 E23.96256
G1 X82.055 Y116.384 E23.98621
G1 X82.015 Y116.246 E23.99625
G1 X82.015 Y113.149 E24.21298
G1 X82.055 Y112.813 E24.23663
G1 X82.015 Y112.675 E24.24667
G1 X82.015 Y109.578 E24.46340
G1 X82.055 Y109.243 E24.48705
G1 X82.015 Y109.105 E24.49709
G1 X82.015 Y106.007 E24.71381
G1 X82.055 Y105.672 E24.73747
G1 X82.015 Y105.534 E24.74751
G1 X82.015 Y102.437 E24.96423
G1 X82.055 Y102.101 E24.98788
G1 X82.015 Y101.963 E24.99792
G1 X82.015 Y98.866 E25.21465
G1 X82.055 Y98.530 E25.23830
G1 X82.015 Y98.392 E25.24834
G1 X82.015 Y95.295 E25.46507
G1 X82.055 Y94.959 E25.48872
G1 X82.015 Y94.821 E25.49876
G1 X82.015 Y91.724 E25.71548
G1 X82.055 Y91.388 E25.73914
G1 X82.015 Y91.250 E25.74918
G1 X82.015 Y88.153 E25.96590
G1 X82.055 Y87.818 E25.98955
G1 X82.015 Y87.679 E25.99959
G1 X82.015 Y84.582 E26.21632
G1 X82.055 Y84.247 E26.23997
G1 X82.015 Y84.109 E26.25001
G1 X82.015 Y81.012 E26.46674
G1 X82.055 Y80.676 E26.49039
G1 X82.015 Y80.538 E26.50043
G1 X82.015 Y77.441 E26.71715
G1 X82.055 Y77.105 E26.74081
G1 X82.015 Y76.967 E26.75084
G1 X82.015 Y73.870 E26.96757
G1 X82.055 Y73.534 E26.99122
G1 X82.015 Y73.396 E27.00126
G1 X82.015 Y70.299 E27.21799
G1 X82.055 Y69.963 E27.24164
G1 X82.015 Y69.825 E27.25168
G1 X82.015 Y66.728 E27.46841
G1 X82.055 Y66.392 E27.49206
G1 X82.015 Y66.254 E27.50210
G1 X82.015 Y63.157 E27.71882
G1 X82.055 Y62.822 E27.74248
G1 X82.015 Y62.684 E27.75251
G1 X82.015 Y59.587 E27.96924
G1 X82.055 Y59.251 E27.99289
G1 X82.015 Y59.113 E28.00293
G1 X82.015 Y56.016 E28.21966
G1 X82.055 Y55.680 E28.24331
G1 X82.015 Y55.542 E28.25335
G1 X82.015 Y52.445 E28.47008
G1 X82.055 Y52.109 E28.49373
G1 X82.015 Y51.971 E28.50377
G1 X82.015 Y48.874 E28.72049
G1 X82.055 Y48.538 E28.74414
G1 X82.015 Y48.400 E28.75418
G1 X82.015 Y45.303 E28.97091
G1 X82.055 Y44.967 E28.99456
G1 X82.015 Y44.829 E29.00460
G1 X82.015 Y41.732 E29.22133
G1 X82.055 Y41.397 E29.24498
G1 X82.015 Y41.259 E29.25502
G1 X82.015 Y38.161 E29.47175
G1 X82.055 Y37.826 E29.49540
G1 X82.015 Y37.688 E29.50544
G1 X82.015 Y34.591 E29.72216
G1 X82.055 Y34.255 E29.74581
G1 X82.015 Y34.117 E29.75585
G1 X82.015 Y31.020 E29.97258
G1 X82.055 Y30.684 E29.99623
G1 X82.015 Y30.546 E30.00627
G1 X82.015 Y27.449 E30.22300
G1 X82.049 Y27.165 E30.24303
G1 X82.179 Y26.685 E30.27781
G1 X82.182 Y26.500 E30.29074
G1 X81.853 Y25.512 E30.36359
G1 X82.496 Y24.231 E30.46389
G1 X82.511 Y24.014 E30.47913
G1 X82.211 Y23.109 E30.54585
G1 X82.782 Y23.094 F7800.000
G1 X83.876 Y20.912 E30.71672 F1800.000
G1 X84.838 Y20.592 E30.78764
G1 X85.003 Y20.449 E30.80287
G1 X85.472 Y19.514 E30.87607
G1 X86.433 Y19.195 E30.94699
G1 X86.598 Y19.052 E30.96222
G1 X86.779 Y18.691 E30.99054
G1 X88.285 Y18.190 E31.10156
G1 X88.831 Y18.464 E31.14427
G1 X89.031 Y18.484 E31.15838
G1 X90.301 Y18.141 E31.25044
G1 X90.605 Y18.238 E31.27275
G1 X90.779 Y18.237 E31.28494
G1 X90.980 Y18.170 E31.29973
G1 X91.133 Y18.247 E31.31174
G1 X91.350 Y18.263 E31.32697
G1 X91.924 Y18.072 E31.36926
G1 X92.103 Y18.163 E31.38335
G1 X92.406 Y18.139 E31.40460
G1 X93.608 Y17.285 E31.50777
G1 X93.993 Y17.302 E31.53477
G1 X94.124 Y17.276 E31.54411
G1 X94.777 Y16.968 E31.59462
G1 X94.863 Y16.905 E31.60209
G1 X95.158 Y16.582 E31.63266
G1 X95.753 Y16.215 E31.68163
G1 X96.266 Y16.069 E31.71893
G1 X97.912 Y16.069 E31.83410
G1 X98.672 Y16.039 E31.88735
G1 X99.740 Y16.394 E31.96612 F1800.000
G1 X99.982 Y16.366 E31.98314
G1 X100.227 Y16.215 E32.00335
G1 X100.740 Y16.069 E32.04065
G1 X104.437 Y16.069 E32.29931
G1 X105.306 Y16.554 E32.36901
G1 X105.705 Y17.199 E32.42207
G1 X105.896 Y17.330 E32.43830
G1 X106.618 Y17.463 E32.48968
G1 X107.442 Y18.041 E32.56009
G1 X107.681 Y18.083 E32.57706
G1 X108.320 Y17.913 E32.62332
G1 X108.609 Y18.007 E32.64457
G1 X108.706 Y18.020 E32.65145
G1 X109.299 Y17.993 E32.69302
G1 X110.689 Y18.436 E32.79506
