; generated by Slic3r 1.1.7 on 2015-02-14 at 12:56:17

; perimeters extrusion width = 0.47mm
; infill extrusion width = 0.62mm
; solid infill extrusion width = 0.62mm
; top infill extrusion width = 0.62mm
; support material extrusion width = 0.47mm

G21 ; set units to millimeters
M190 S60 ; wait for bed temperature to be reached
M104 S220 ; set temperature
G28 ; home all axes Start of G Code Slic3r
 
 
M109 S220 ; wait for temperature to be reached
G90 ; use absolute coordinates
G92 E0
M82 ; use absolute distances for extrusion
G1 F4200.000 E-3.00000
G92 E0
G1 Z0.294 F6000.000
G1 X68.367 Y25.924 F6000.000
G1 E3.00000 F4200.000
G1 X68.416 Y25.819 E3.00835 F1500.000
G1 X70.556 Y23.169 E3.25322
G1 X70.636 Y23.108 E3.26048
G1 X73.520 Y21.799 E3.48819
G1 X73.625 Y21.777 E3.49590
G1 X75.668 Y21.659 E3.64302
G1 X76.501 Y21.754 E3.70333
G1 X81.882 Y22.679 E4.09586 F1500.000
G1 X86.190 Y23.734 E4.41473
G1 X90.414 Y25.082 E4.73355
G1 X94.535 Y26.717 E5.05231
G1 X98.533 Y28.631 E5.37101
G1 X102.389 Y30.815 E5.68964
G1 X106.086 Y33.259 E6.00822
G1 X109.605 Y35.950 E6.32674
G1 X112.930 Y38.876 E6.64520
G1 X116.046 Y42.023 E6.96360
G1 X118.938 Y45.376 E7.28195
G1 X121.592 Y48.919 E7.60024
G1 X123.996 Y52.635 E7.91848
G1 X126.140 Y56.507 E8.23667
G1 X128.012 Y60.516 E8.55481
G1 X129.604 Y64.644 E8.87290
G1 X130.910 Y68.871 E9.19095
G1 X131.922 Y73.176 E9.50895
G1 X132.636 Y77.541 E9.82692
G1 X133.049 Y81.943 E10.14485
G1 X133.165 Y86.021 E10.43814
G1 X133.839 Y168.091 E16.33901
G1 X133.803 Y174.455 E16.79660
G1 X133.048 Y177.608 E17.02968
G1 X132.328 Y179.043 E17.14514
G1 X130.922 Y180.962 E17.31618
G1 X128.963 Y182.311 E17.48723
G1 X125.929 Y182.976 E17.71054
G1 X105.994 Y182.890 E19.14385
G1 X103.650 Y182.483 E19.31490
G1 X101.571 Y181.327 E19.48594
G1 X99.706 Y179.057 E19.69713
G1 X99.170 Y178.028 E19.78053
G1 X98.569 Y176.432 E19.90317
G1 X67.515 Y49.628 E29.28954
G1 X67.420 Y49.044 E29.33210
G1 X67.365 Y48.030 E29.40506
G1 X67.720 Y28.350 E30.82026
G1 X67.727 Y28.271 E30.82599
G1 X68.349 Y25.992 E30.99581
G1 X68.876 Y26.162 F6000.000
G1 X68.925 Y26.057 E31.00416 F1500.000
G1 X70.896 Y23.616 E31.22971
G1 X70.976 Y23.555 E31.23696
G1 X73.633 Y22.349 E31.44671
G1 X73.738 Y22.328 E31.45442
G1 X75.619 Y22.219 E31.58992
G1 X76.408 Y22.308 E31.64699
G1 X81.750 Y23.226 E32.03671 F1500.000
G1 X86.021 Y24.270 E32.35280
G1 X90.209 Y25.605 E32.66884
G1 X94.294 Y27.225 E32.98482
G1 X98.258 Y29.121 E33.30073
G1 X102.081 Y31.285 E33.61659
G1 X105.746 Y33.707 E33.93239
G1 X109.235 Y36.373 E34.24813
G1 X112.532 Y39.273 E34.56382
G1 X115.621 Y42.392 E34.87944
G1 X118.489 Y45.715 E35.19502
G1 X121.121 Y49.226 E35.51053
G1 X123.505 Y52.909 E35.82600
G1 X125.631 Y56.747 E36.14141
G1 X127.488 Y60.721 E36.45677
G1 X129.068 Y64.812 E36.77209
G1 X130.363 Y69.001 E37.08736
G1 X131.367 Y73.269 E37.40260
G1 X132.076 Y77.595 E37.71779
G1 X132.487 Y81.959 E38.03295
G1 X132.603 Y86.026 E38.32541
G1 X133.276 Y168.088 E44.22573
G1 X133.241 Y174.452 E44.68331
G1 X132.545 Y177.356 E44.89800
G1 X131.826 Y178.792 E45.01346
G1 X130.464 Y180.623 E45.17756
G1 X128.557 Y181.877 E45.34167
G1 X125.931 Y182.413 E45.53434
G1 X105.996 Y182.328 E46.96766
G1 X103.750 Y181.921 E47.13177
G1 X101.779 Y180.770 E47.29587
G1 X100.204 Y178.797 E47.47735
G1 X99.669 Y177.769 E47.56074
G1 X99.115 Y176.298 E47.67371
G1 X68.067 Y49.519 E57.05823
G1 X67.979 Y48.977 E57.09776
G1 X67.927 Y48.040 E57.16521
G1 X68.279 Y28.403 E58.57727
G1 X68.287 Y28.324 E58.58300
G1 X68.858 Y26.230 E58.73902
G1 F4200.000 E55.73902
G92 E0
G1 X125.306 Y165.304 F6000.000
G1 E3.00000 F4200.000
G1 X106.941 Y165.226 E4.32043 F441.000
G1 X107.177 Y85.992 E10.01721
G1 X107.038 Y82.613 E10.26036
G1 X106.598 Y79.254 E10.50394
G1 X105.864 Y75.947 E10.74749
G1 X104.839 Y72.719 E10.99100
G1 X103.533 Y69.594 E11.23447
G1 X101.956 Y66.598 E11.47789
G1 X100.121 Y63.754 E11.72125
G1 X98.041 Y61.084 E11.96457
G1 X95.734 Y58.609 E12.20783
G1 X93.218 Y56.348 E12.45104
G1 X90.513 Y54.319 E12.69418
G1 X87.639 Y52.537 E12.93727
G1 X84.621 Y51.017 E13.18031
G1 X81.480 Y49.769 E13.42328
G1 X78.242 Y48.804 E13.66619
G1 X74.741 Y48.090 E13.92312
G1 X75.190 Y47.370 E13.98413
G1 X75.682 Y46.702 E14.04379
G1 X76.931 Y44.505 E14.22550
G1 X77.790 Y42.102 E14.40892
G1 X78.219 Y39.581 E14.59282
G1 X78.203 Y37.025 E14.77659
G1 X77.746 Y34.521 E14.95957
G1 X76.866 Y32.152 E15.14127
G1 X75.608 Y30.006 E15.32016
G1 X75.428 Y29.740 E15.34326
G1 X75.298 Y29.478 E15.36424
G1 X75.121 Y29.044 E15.39795
G1 X80.155 Y29.894 E15.76502
G1 X83.971 Y30.812 E16.04721
G1 X87.714 Y31.991 E16.32934
G1 X91.366 Y33.424 E16.61142
G1 X94.911 Y35.105 E16.89346
G1 X98.331 Y37.025 E17.17543
G1 X101.610 Y39.174 E17.45736
G1 X104.733 Y41.544 E17.73923
G1 X107.685 Y44.122 E18.02105
G1 X110.453 Y46.897 E18.30282
G1 X113.024 Y49.854 E18.58454
G1 X115.385 Y52.981 E18.86621
G1 X117.525 Y56.261 E19.14783
G1 X119.434 Y59.680 E19.42941
G1 X121.105 Y63.222 E19.71094
G1 X122.528 Y66.869 E19.99244
G1 X123.697 Y70.605 E20.27389
G1 X124.607 Y74.412 E20.55531
G1 X125.254 Y78.272 E20.83669
G1 X125.634 Y82.167 E21.11804
G1 X125.747 Y86.083 E21.39973
G1 X125.307 Y165.234 E27.09060
G1 X124.900 Y165.067 F6000.000
G1 X124.747 Y164.739 F6000.000
G1 X107.505 Y164.666 E28.33030 F630.000
G1 X107.740 Y85.981 E33.98760
G1 X107.598 Y82.565 E34.23344
G1 X107.153 Y79.156 E34.48061
G1 X106.407 Y75.800 E34.72774
G1 X105.367 Y72.525 E34.97484
G1 X104.042 Y69.354 E35.22189
G1 X102.442 Y66.314 E35.46889
G1 X100.579 Y63.429 E35.71584
G1 X98.469 Y60.719 E35.96274
G1 X96.129 Y58.208 E36.20958
G1 X93.576 Y55.914 E36.45637
G1 X90.830 Y53.854 E36.70309
G1 X87.915 Y52.047 E36.94976
G1 X84.851 Y50.504 E37.19637
G1 X81.664 Y49.238 E37.44292
G1 X78.379 Y48.258 E37.68941
G1 X75.645 Y47.700 E37.89000
G1 X76.155 Y47.008 E37.95181
G1 X77.444 Y44.740 E38.13939
G1 X78.336 Y42.245 E38.32988
G1 X78.782 Y39.626 E38.52086
G1 X78.765 Y36.972 E38.71170
G1 X78.290 Y34.372 E38.90177
G1 X77.376 Y31.910 E39.09053
G1 X76.129 Y29.784 E39.26778
G1 X80.042 Y30.445 E39.55312
G1 X83.821 Y31.354 E39.83252
G1 X87.527 Y32.522 E40.11187
G1 X91.143 Y33.941 E40.39117
G1 X94.652 Y35.604 E40.67042
G1 X98.038 Y37.505 E40.94962
G1 X101.285 Y39.634 E41.22876
G1 X104.378 Y41.980 E41.50785
G1 X107.301 Y44.533 E41.78689
G1 X110.042 Y47.280 E42.06588
G1 X112.587 Y50.208 E42.34482
G1 X114.924 Y53.304 E42.62371
G1 X117.043 Y56.552 E42.90256
G1 X118.934 Y59.938 E43.18136
G1 X120.588 Y63.444 E43.46012
G1 X121.997 Y67.056 E43.73883
G1 X123.155 Y70.755 E44.01751
G1 X124.056 Y74.524 E44.29615
G1 X124.696 Y78.346 E44.57476
G1 X125.073 Y82.202 E44.85333
G1 X125.185 Y86.089 E45.13294
G1 X124.748 Y164.669 E50.78275
G1 X107.894 Y164.240 F6000.000
G1 X107.934 Y164.280 E50.78682 F1500.000
G1 X108.733 Y164.283 E50.84426
G1 X107.896 Y163.447 E50.92933
G1 X107.899 Y162.654 E50.98636
G1 X109.532 Y164.287 E51.15243
G1 X110.331 Y164.290 E51.20987
G1 X107.901 Y161.860 E51.45694
G1 X107.903 Y161.067 E51.51397
G1 X111.130 Y164.294 E51.84203
G1 X111.929 Y164.297 E51.89947
G1 X107.906 Y160.274 E52.30854
G1 X107.908 Y159.481 E52.36556
G1 X112.728 Y164.300 E52.85562
G1 X113.527 Y164.304 E52.91307
G1 X107.910 Y158.688 E53.48413
G1 X107.913 Y157.894 E53.54116
G1 X114.326 Y164.307 E54.19321
G1 X115.125 Y164.311 E54.25066
G1 X107.915 Y157.101 E54.98371
G1 X107.918 Y156.308 E55.04074
G1 X115.924 Y164.314 E55.85480
G1 X116.723 Y164.318 E55.91224
G1 X107.920 Y155.515 E56.80729
G1 X107.922 Y154.722 E56.86432
G1 X117.522 Y164.321 E57.84037
G1 X118.321 Y164.324 E57.89782
G1 X107.925 Y153.929 E58.95486
G1 X107.927 Y153.135 E59.01189
G1 X119.119 Y164.328 E60.14994
G1 X119.918 Y164.331 E60.20739
G1 X107.929 Y152.342 E61.42643
G1 X107.932 Y151.549 E61.48346
G1 X120.717 Y164.335 E62.78350
G1 X121.516 Y164.338 E62.84095
G1 X107.934 Y150.756 E64.22199
G1 X107.936 Y149.963 E64.27902
G1 X122.315 Y164.342 E65.74106
G1 X123.114 Y164.345 E65.79850
G1 X107.939 Y149.169 E67.34154
G1 X107.941 Y148.376 E67.39857
G1 X123.913 Y164.348 E69.02261
G1 X124.364 Y164.003 E69.06341
G1 X107.944 Y147.583 E70.73300
G1 X107.946 Y146.790 E70.79003
G1 X124.368 Y163.212 E72.45983
G1 X124.373 Y162.421 E72.51671
G1 X107.948 Y145.997 E74.18672
G1 X107.951 Y145.203 E74.24375
G1 X124.377 Y161.630 E75.91397
G1 X124.381 Y160.839 E75.97085
G1 X107.953 Y144.410 E77.64127
G1 X107.955 Y143.617 E77.69830
G1 X124.386 Y160.047 E79.36893
G1 X124.390 Y159.256 E79.42582
G1 X107.958 Y142.824 E81.09665
G1 X107.960 Y142.031 E81.15368
G1 X124.395 Y158.465 E82.82473
G1 X124.399 Y157.674 E82.88161
G1 X107.962 Y141.237 E84.55286
G1 X107.965 Y140.444 E84.60989
G1 X124.403 Y156.883 E86.28135
G1 X124.408 Y156.092 E86.33823
G1 X107.967 Y139.651 E88.00990
G1 X107.970 Y138.858 E88.06692
G1 X124.412 Y155.301 E89.73880
G1 X124.417 Y154.509 E89.79568
G1 X107.972 Y138.065 E91.46776
G1 X107.974 Y137.272 E91.52479
G1 X124.421 Y153.718 E93.19708
G1 X124.425 Y152.927 E93.25396
G1 X107.977 Y136.478 E94.92645
G1 X107.979 Y135.685 E94.98348
G1 X124.430 Y152.136 E96.65618
G1 X124.434 Y151.345 E96.71307
G1 X107.981 Y134.892 E98.38597
G1 X107.984 Y134.099 E98.44300
G1 X124.439 Y150.554 E100.11612
G1 X124.443 Y149.762 E100.17300
G1 X107.986 Y133.306 E101.84632
G1 X107.988 Y132.512 E101.90335
G1 X124.447 Y148.971 E103.57688
G1 X124.452 Y148.180 E103.63376
G1 X107.991 Y131.719 E105.30750
G1 X107.993 Y130.926 E105.36453
G1 X124.456 Y147.389 E107.03847
G1 X124.461 Y146.598 E107.09535
G1 X107.996 Y130.133 E108.76951
G1 X107.998 Y129.340 E108.82653
G1 X124.465 Y145.807 E110.50089
G1 X124.469 Y145.016 E110.55777
G1 X108.000 Y128.546 E112.23234
G1 X108.003 Y127.753 E112.28937
G1 X124.474 Y144.224 E113.96414
G1 X124.478 Y143.433 E114.02102
G1 X108.005 Y126.960 E115.69600
G1 X108.007 Y126.167 E115.75303
G1 X124.483 Y142.642 E117.42822
G1 X124.487 Y141.851 E117.48510
G1 X108.010 Y125.374 E119.16049
G1 X108.012 Y124.580 E119.21752
G1 X124.491 Y141.060 E120.89312
G1 X124.496 Y140.269 E120.95000
G1 X108.014 Y123.787 E122.62581
G1 X108.017 Y122.994 E122.68284
G1 X124.500 Y139.477 E124.35885
G1 X124.505 Y138.686 E124.41574
G1 X108.019 Y122.201 E126.09196
G1 X108.022 Y121.408 E126.14899
G1 X124.509 Y137.895 E127.82542
G1 X124.513 Y137.104 E127.88230
G1 X108.024 Y120.615 E129.55894
G1 X108.026 Y119.821 E129.61596
G1 X124.518 Y136.313 E131.29281
G1 X124.522 Y135.522 E131.34969
G1 X108.029 Y119.028 E133.02674
G1 X108.031 Y118.235 E133.08377
G1 X124.527 Y134.731 E134.76102
G1 X124.531 Y133.939 E134.81791
G1 X108.033 Y117.442 E136.49537
G1 X108.036 Y116.649 E136.55240
G1 X124.535 Y133.148 E138.23007
G1 X124.540 Y132.357 E138.28696
G1 X108.038 Y115.855 E139.96483
G1 X108.041 Y115.062 E140.02186
G1 X124.544 Y131.566 E141.69995
G1 X124.549 Y130.775 E141.75683
G1 X108.043 Y114.269 E143.43512
G1 X108.045 Y113.476 E143.49215
G1 X124.553 Y129.984 E145.17065
G1 X124.557 Y129.192 E145.22753
G1 X108.048 Y112.683 E146.90624
G1 X108.050 Y111.889 E146.96327
G1 X124.562 Y128.401 E148.64218
G1 X124.566 Y127.610 E148.69907
G1 X108.052 Y111.096 E150.37819
G1 X108.055 Y110.303 E150.43521
G1 X124.571 Y126.819 E152.11454
G1 X124.575 Y126.028 E152.17143
G1 X108.057 Y109.510 E153.85096
G1 X108.059 Y108.717 E153.90799
G1 X124.579 Y125.237 E155.58773
G1 X124.584 Y124.446 E155.64461
G1 X108.062 Y107.923 E157.32456
G1 X108.064 Y107.130 E157.38159
G1 X124.588 Y123.654 E159.06175
G1 X124.593 Y122.863 E159.11863
G1 X108.067 Y106.337 E160.79899
G1 X108.069 Y105.544 E160.85602
G1 X124.597 Y122.072 E162.53659
G1 X124.601 Y121.281 E162.59348
G1 X108.071 Y104.751 E164.27425
G1 X108.074 Y103.958 E164.33128
G1 X124.606 Y120.490 E166.01227
G1 X124.610 Y119.699 E166.06915
G1 X108.076 Y103.164 E167.75034
G1 X108.078 Y102.371 E167.80737
G1 X124.615 Y118.907 E169.48877
G1 X124.619 Y118.116 E169.54565
G1 X108.081 Y101.578 E171.22726
G1 X108.083 Y100.785 E171.28428
G1 X124.623 Y117.325 E172.96610
G1 X124.628 Y116.534 E173.02298
G1 X108.085 Y99.992 E174.70500
G1 X108.088 Y99.198 E174.76203
G1 X124.632 Y115.743 E176.44426
G1 X124.637 Y114.952 E176.50114
G1 X108.090 Y98.405 E178.18357
G1 X108.093 Y97.612 E178.24060
G1 X124.641 Y114.161 E179.92324
G1 X124.645 Y113.369 E179.98013
G1 X108.095 Y96.819 E181.66297
G1 X108.097 Y96.026 E181.72000
G1 X124.650 Y112.578 E183.40306
G1 X124.654 Y111.787 E183.45994
G1 X108.100 Y95.232 E185.14320
G1 X108.102 Y94.439 E185.20023
G1 X124.659 Y110.996 E186.88370
G1 X124.663 Y110.205 E186.94058
G1 X108.104 Y93.646 E188.62426
G1 X108.107 Y92.853 E188.68129
G1 X124.667 Y109.414 E190.36517
G1 X124.672 Y108.622 E190.42206
G1 X108.109 Y92.060 E192.10615
G1 X108.111 Y91.267 E192.16318
G1 X124.676 Y107.831 E193.84747
G1 X124.681 Y107.040 E193.90436
G1 X108.114 Y90.473 E195.58886
G1 X108.116 Y89.680 E195.64589
G1 X124.685 Y106.249 E197.33060
G1 X124.689 Y105.458 E197.38748
G1 X108.119 Y88.887 E199.07240
G1 X108.121 Y88.094 E199.12943
G1 X124.694 Y104.667 E200.81456
G1 X124.698 Y103.876 E200.87144
G1 X108.123 Y87.301 E202.55677
G1 X108.126 Y86.507 E202.61380
G1 X124.703 Y103.084 E204.29934
G1 X124.707 Y102.293 E204.35623
G1 X108.116 Y85.702 E206.04319
G1 X108.082 Y84.872 E206.10291
G1 X124.712 Y101.502 E207.79382
G1 X124.716 Y100.711 E207.85070
G1 X108.047 Y84.042 E209.54555
G1 X108.013 Y83.213 E209.60527
G1 X124.720 Y99.920 E211.30405
G1 X124.725 Y99.129 E211.36094
G1 X107.963 Y82.367 E213.06522
G1 X107.844 Y81.452 E213.13158
G1 X124.729 Y98.337 E214.84848
G1 X124.734 Y97.546 E214.90536
G1 X107.724 Y80.537 E216.63487
G1 X107.604 Y79.622 E216.70123
G1 X124.738 Y96.755 E218.44336
G1 X124.742 Y95.964 E218.50024
G1 X107.440 Y78.661 E220.25956
G1 X107.212 Y77.639 E220.33489
G1 X124.747 Y95.173 E222.11776
G1 X124.751 Y94.382 E222.17465
G1 X106.985 Y76.616 E223.98108
G1 X106.743 Y75.578 E224.05769
G1 X124.756 Y93.591 E225.88920
G1 X124.760 Y92.799 E225.94608
G1 X106.373 Y74.413 E227.81563
G1 X106.003 Y73.247 E227.90354
G1 X124.764 Y92.008 E229.81115
G1 X124.769 Y91.217 E229.86804
G1 X105.580 Y72.028 E231.81914
G1 X105.009 Y70.661 F6000.000
G1 X124.773 Y90.426 E233.82879 F1500.000
G1 X124.778 Y89.635 E233.88567
G1 X104.437 Y69.294 E235.95386
G1 X103.577 Y67.639 F6000.000
G1 X124.782 Y88.844 E238.10995 F1500.000
G1 X124.786 Y88.053 E238.16683
G1 X102.639 Y65.906 E240.41872
G1 X101.192 Y63.662 F6000.000
G1 X124.791 Y87.261 E242.81827 F1500.000
G1 X124.795 Y86.470 E242.87515
G1 X98.384 Y60.059 E245.56065
G1 X94.974 Y56.649 F6000.000
G1 X78.997 Y40.672 E247.18523 F1500.000
G1 X79.113 Y39.992 E247.23481
G1 X124.785 Y85.664 E251.87874
G1 X124.761 Y84.845 E251.93766
G1 X79.167 Y39.251 E256.57367
G1 X79.162 Y38.450 E256.63122
G1 X124.738 Y84.026 E261.26533
G1 X124.714 Y83.207 E261.32424
G1 X79.157 Y37.650 E265.95646
G1 X79.134 Y36.831 E266.01537
G1 X124.691 Y82.388 E270.64759
G1 X124.617 Y81.519 E270.71032
G1 X78.956 Y35.857 E275.35312
G1 X78.778 Y34.884 E275.42428
G1 X124.531 Y80.637 E280.07643
G1 X124.445 Y79.755 E280.14012
G1 X78.492 Y33.803 E284.81254
G1 X78.022 Y32.537 F6000.000
G1 X124.358 Y78.874 E289.52397 F1500.000
G1 X124.238 Y77.958 E289.59037
G1 X77.307 Y31.027 E294.36227
G1 X77.481 Y30.405 E294.40868
G1 X124.078 Y77.002 E299.14663
G1 X123.918 Y76.046 E299.21630
G1 X78.439 Y30.567 E303.84063
G1 X79.396 Y30.729 E303.91043
G1 X123.758 Y75.091 E308.42113
G1 X123.554 Y74.091 E308.49447
G1 X80.390 Y30.927 E312.88336
G1 X81.438 Y31.179 E312.96085
G1 X123.304 Y73.046 E317.21777
G1 X123.054 Y72.000 E317.29506
G1 X82.486 Y31.432 E321.42003
G1 X83.533 Y31.684 E321.49752
G1 X122.804 Y70.955 E325.49053
G1 X122.452 Y69.807 E325.57683
G1 X84.675 Y32.030 E329.41799
G1 X85.836 Y32.396 E329.50553
G1 X122.090 Y68.649 E333.19176
G1 X121.727 Y67.491 E333.27900
G1 X86.997 Y32.761 E336.81030
G1 X88.256 Y33.224 F6000.000
G1 X121.257 Y66.225 E340.16585 F1500.000
G1 X120.748 Y64.921 F6000.000
G1 X89.565 Y33.738 E343.33652 F1500.000
G1 X90.874 Y34.251 F6000.000
G1 X120.239 Y63.616 E346.32231 F1500.000
G1 X119.532 Y62.114 F6000.000
G1 X92.369 Y34.951 E349.08419 F1500.000
G1 X93.882 Y35.668 F6000.000
G1 X118.822 Y60.608 E351.62005 F1500.000
G1 X117.912 Y58.903 F6000.000
G1 X95.578 Y36.568 E353.89100 F1500.000
G1 X97.392 Y37.587 F6000.000
G1 X116.906 Y57.101 E355.87521 F1500.000
G1 X115.507 Y54.906 F6000.000
