; generated by Slic3r 1.1.7 on 2015-02-15 at 15:35:57

; perimeters extrusion width = 0.47mm
; infill extrusion width = 0.62mm
; solid infill extrusion width = 0.62mm
; top infill extrusion width = 0.62mm
; support material extrusion width = 0.47mm

G21 ; set units to millimeters
M190 S60 ; wait for bed temperature to be reached
M104 S230 ; set temperature
G28 ; home all axes Start of G Code Slic3r
 
 
M109 S230 ; wait for temperature to be reached
G90 ; use absolute coordinates
G92 E0
M82 ; use absolute distances for extrusion
G1 F4200.000 E-3.00000
G92 E0
G1 Z0.294 F6000.000
G1 X81.825 Y24.432 F6000.000
G1 E3.00000 F4200.000
G1 X82.128 Y23.827 E3.04863 F1500.000
G1 X83.534 Y21.908 E3.21967
G1 X85.493 Y20.559 E3.39071
G1 X88.389 Y19.896 E3.60433
G1 X109.579 Y19.577 E5.12798
G1 X111.930 Y19.938 E5.29902
G1 X114.031 Y21.054 E5.47006 F1500.000
G1 X115.648 Y22.799 E5.64111
G1 X116.600 Y24.980 E5.81215
G1 X116.807 Y26.466 E5.92007
G1 X119.763 Y116.537 E12.39947
G1 X119.973 Y127.252 E13.17001
G1 X120.073 Y133.827 E13.64277
G1 X119.586 Y143.190 E14.31684
G1 X118.840 Y146.012 E14.52672
G1 X117.916 Y147.856 E14.67505
G1 X116.510 Y149.775 E14.84609
G1 X114.741 Y151.032 E15.00207
G1 X113.337 Y151.737 E15.11506
G1 X110.239 Y152.492 E15.34434
G1 X91.779 Y152.727 E16.67164
G1 X90.754 Y152.675 E16.74544
G1 X88.118 Y152.021 E16.94068
G1 X86.413 Y151.229 E17.07591
G1 X83.736 Y149.070 E17.32314
G1 X83.103 Y148.235 E17.39848
G1 X82.003 Y146.126 E17.56952
G1 X81.674 Y144.423 E17.69418
G1 X81.022 Y134.874 E18.38234
G1 X80.839 Y126.717 E18.96901
G1 X80.794 Y117.070 E19.66262
G1 X81.070 Y27.602 E26.09519
G1 X81.808 Y24.500 E26.32444
G1 X82.327 Y24.684 F6000.000
G1 X82.630 Y24.079 E26.37307 F1500.000
G1 X83.992 Y22.247 E26.53717
G1 X85.899 Y20.993 E26.70128
G1 X88.398 Y20.458 E26.88500
G1 X109.587 Y20.139 E28.40864
G1 X111.841 Y20.502 E28.57275
G1 X113.833 Y21.615 E28.73686 F1500.000
G1 X115.324 Y23.343 E28.90096
G1 X116.245 Y26.485 E29.13635
G1 X119.201 Y116.548 E35.61522
G1 X119.411 Y127.262 E36.38569
G1 X119.511 Y133.798 E36.85562
G1 X119.024 Y143.160 E37.52970
G1 X118.338 Y145.760 E37.72302
G1 X117.413 Y147.604 E37.87134
G1 X116.051 Y149.436 E38.03545
G1 X114.489 Y150.529 E38.17254
G1 X113.085 Y151.234 E38.28553
G1 X110.231 Y151.930 E38.49671
G1 X91.808 Y152.166 E39.82139
G1 X90.783 Y152.113 E39.89519
G1 X88.355 Y151.511 E40.07502
G1 X86.650 Y150.719 E40.21025
G1 X84.184 Y148.731 E40.43797
G1 X83.551 Y147.895 E40.51331
G1 X82.510 Y145.864 E40.67742
G1 X82.235 Y144.385 E40.78563
G1 X81.584 Y134.862 E41.47191
G1 X81.401 Y126.714 E42.05786
G1 X81.357 Y117.071 E42.75115
G1 X81.632 Y27.604 E49.18373
G1 X82.311 Y24.752 E49.39449
G1 F4200.000 E46.39449
G92 E0
G1 X108.900 Y116.038 F6000.000
G1 E3.00000 F4200.000
G1 X91.677 Y116.298 E4.23848 F441.000
G1 X91.167 Y115.054 E4.33516
G1 X90.774 Y112.319 E4.53377
G1 X89.513 Y28.583 E10.55494
G1 X108.421 Y28.298 E11.91460
G1 X109.683 Y112.034 E17.93577
G1 X109.372 Y114.779 E18.13438
G1 X108.925 Y115.972 E18.22599
G1 X108.521 Y115.760 F6000.000
G1 X108.508 Y115.482 F6000.000
G1 X92.051 Y115.730 E19.40935 F630.000
G1 X91.713 Y114.905 E19.47346
G1 X91.336 Y112.275 E19.66449
G1 X90.083 Y29.137 E25.64265
G1 X107.868 Y28.869 E26.92147
G1 X109.120 Y112.007 E32.89963
G1 X108.822 Y114.647 E33.09066
G1 X108.533 Y115.416 E33.14970
G1 X92.287 Y115.282 F6000.000
G1 X92.343 Y115.338 E33.15543 F1500.000
G1 X93.128 Y115.326 E33.21187
G1 X92.004 Y114.202 E33.32613
G1 X91.870 Y113.272 E33.39371
G1 X93.913 Y115.314 E33.60137
G1 X94.698 Y115.302 E33.65781
G1 X91.737 Y112.342 E33.95887
G1 X91.712 Y111.520 E34.01796
G1 X95.482 Y115.291 E34.40136
G1 X96.267 Y115.279 E34.45779
G1 X91.700 Y110.711 E34.92223
G1 X91.687 Y109.902 E34.98039
G1 X97.052 Y115.267 E35.52587
G1 X97.837 Y115.255 E35.58230
G1 X91.675 Y109.093 E36.20882
G1 X91.663 Y108.285 E36.26699
G1 X98.622 Y115.243 E36.97455
G1 X99.407 Y115.232 E37.03099
G1 X91.651 Y107.476 E37.81959
G1 X91.639 Y106.667 E37.87776
G1 X100.192 Y115.220 E38.74741
G1 X100.976 Y115.208 E38.80384
G1 X91.626 Y105.858 E39.75454
G1 X91.614 Y105.049 E39.81270
G1 X101.761 Y115.196 E40.84444
G1 X102.546 Y115.184 E40.90087
G1 X91.602 Y104.240 E42.01365
G1 X91.590 Y103.431 E42.07181
G1 X103.331 Y115.172 E43.26564
G1 X104.116 Y115.161 E43.32207
G1 X91.578 Y102.622 E44.59694
G1 X91.566 Y101.814 E44.65510
G1 X104.901 Y115.149 E46.01101
G1 X105.686 Y115.137 E46.06744
G1 X91.553 Y101.005 E47.50439
G1 X91.541 Y100.196 E47.56256
G1 X106.470 Y115.125 E49.08055
G1 X107.255 Y115.113 E49.13699
G1 X91.529 Y99.387 E50.73602
G1 X91.517 Y98.578 E50.79419
G1 X108.040 Y115.101 E52.47427
G1 X108.401 Y114.665 E52.51495
G1 X91.505 Y97.769 E54.23294
G1 X91.492 Y96.960 E54.29110
G1 X108.507 Y113.975 E56.02117
G1 X108.588 Y113.260 E56.07296
G1 X91.480 Y96.152 E57.81250
G1 X91.468 Y95.343 E57.87067
G1 X108.669 Y112.544 E59.61967
G1 X108.729 Y111.807 E59.67280
G1 X91.456 Y94.534 E61.42916
G1 X91.444 Y93.725 E61.48732
G1 X108.717 Y110.998 E63.24367
G1 X108.705 Y110.190 E63.30184
G1 X91.432 Y92.916 E65.05819
G1 X91.419 Y92.107 E65.11635
G1 X108.693 Y109.381 E66.87271
G1 X108.681 Y108.572 E66.93087
G1 X91.407 Y91.298 E68.68722
G1 X91.395 Y90.489 E68.74539
G1 X108.668 Y107.763 E70.50174
G1 X108.656 Y106.954 E70.55990
G1 X91.383 Y89.681 E72.31626
G1 X91.371 Y88.872 E72.37442
G1 X108.644 Y106.145 E74.13077
G1 X108.632 Y105.336 E74.18894
G1 X91.358 Y88.063 E75.94529
G1 X91.346 Y87.254 E76.00345
G1 X108.620 Y104.527 E77.75981
G1 X108.608 Y103.719 E77.81797
G1 X91.334 Y86.445 E79.57432
G1 X91.322 Y85.636 E79.63249
G1 X108.595 Y102.910 E81.38884
G1 X108.583 Y102.101 E81.44700
G1 X91.310 Y84.827 E83.20336
G1 X91.298 Y84.019 E83.26152
G1 X108.571 Y101.292 E85.01787
G1 X108.559 Y100.483 E85.07604
G1 X91.285 Y83.210 E86.83239
G1 X91.273 Y82.401 E86.89055
G1 X108.547 Y99.674 E88.64691
G1 X108.534 Y98.865 E88.70507
G1 X91.261 Y81.592 E90.46142
G1 X91.249 Y80.783 E90.51959
G1 X108.522 Y98.057 E92.27594
G1 X108.510 Y97.248 E92.33410
G1 X91.237 Y79.974 E94.09046
G1 X91.224 Y79.165 E94.14862
G1 X108.498 Y96.439 E95.90497
G1 X108.486 Y95.630 E95.96314
G1 X91.212 Y78.356 E97.71949
G1 X91.200 Y77.548 E97.77765
G1 X108.474 Y94.821 E99.53401
G1 X108.461 Y94.012 E99.59217
G1 X91.188 Y76.739 E101.34852
G1 X91.176 Y75.930 E101.40668
G1 X108.449 Y93.203 E103.16304
G1 X108.437 Y92.394 E103.22120
G1 X91.163 Y75.121 E104.97755
G1 X91.151 Y74.312 E105.03572
G1 X108.425 Y91.586 E106.79207
G1 X108.413 Y90.777 E106.85023
G1 X91.139 Y73.503 E108.60659
G1 X91.127 Y72.694 E108.66475
G1 X108.400 Y89.968 E110.42110
G1 X108.388 Y89.159 E110.47927
G1 X91.115 Y71.885 E112.23562
G1 X91.103 Y71.077 E112.29378
G1 X108.376 Y88.350 E114.05014
G1 X108.364 Y87.541 E114.10830
G1 X91.090 Y70.268 E115.86465
G1 X91.078 Y69.459 E115.92282
G1 X108.352 Y86.732 E117.67917
G1 X108.339 Y85.923 E117.73733
G1 X91.066 Y68.650 E119.49369
G1 X91.054 Y67.841 E119.55185
G1 X108.327 Y85.115 E121.30820
G1 X108.315 Y84.306 E121.36636
G1 X91.042 Y67.032 E123.12272
G1 X91.029 Y66.223 E123.18088
G1 X108.303 Y83.497 E124.93723
G1 X108.291 Y82.688 E124.99540
G1 X91.017 Y65.415 E126.75175
G1 X91.005 Y64.606 E126.80991
G1 X108.279 Y81.879 E128.56627
G1 X108.266 Y81.070 E128.62443
G1 X90.993 Y63.797 E130.38078
G1 X90.981 Y62.988 E130.43895
G1 X108.254 Y80.261 E132.19530
G1 X108.242 Y79.453 E132.25346
G1 X90.969 Y62.179 E134.00982
G1 X90.956 Y61.370 E134.06798
G1 X108.230 Y78.644 E135.82433
G1 X108.218 Y77.835 E135.88249
G1 X90.944 Y60.561 E137.63885
G1 X90.932 Y59.752 E137.69701
G1 X108.205 Y77.026 E139.45336
G1 X108.193 Y76.217 E139.51153
G1 X90.920 Y58.944 E141.26788
G1 X90.908 Y58.135 E141.32604
G1 X108.181 Y75.408 E143.08240
G1 X108.169 Y74.599 E143.14056
G1 X90.895 Y57.326 E144.89691
G1 X90.883 Y56.517 E144.95508
G1 X108.157 Y73.790 E146.71143
G1 X108.145 Y72.982 E146.76959
G1 X90.871 Y55.708 E148.52595
G1 X90.859 Y54.899 E148.58411
G1 X108.132 Y72.173 E150.34046
G1 X108.120 Y71.364 E150.39862
G1 X90.847 Y54.090 E152.15498
G1 X90.834 Y53.281 E152.21314
G1 X108.108 Y70.555 E153.96949
G1 X108.096 Y69.746 E154.02766
G1 X90.822 Y52.473 E155.78401
G1 X90.810 Y51.664 E155.84217
G1 X108.084 Y68.937 E157.59853
G1 X108.071 Y68.128 E157.65669
G1 X90.798 Y50.855 E159.41304
G1 X90.786 Y50.046 E159.47121
G1 X108.059 Y67.319 E161.22756
G1 X108.047 Y66.511 E161.28572
G1 X90.774 Y49.237 E163.04208
G1 X90.761 Y48.428 E163.10024
G1 X108.035 Y65.702 E164.85659
G1 X108.023 Y64.893 E164.91475
G1 X90.749 Y47.619 E166.67111
G1 X90.737 Y46.811 E166.72927
G1 X108.011 Y64.084 E168.48562
G1 X107.998 Y63.275 E168.54379
G1 X90.725 Y46.002 E170.30014
G1 X90.713 Y45.193 E170.35830
G1 X107.986 Y62.466 E172.11466
G1 X107.974 Y61.657 E172.17282
G1 X90.700 Y44.384 E173.92917
G1 X90.688 Y43.575 E173.98734
G1 X107.962 Y60.849 E175.74369
G1 X107.950 Y60.040 E175.80185
G1 X90.676 Y42.766 E177.55821
G1 X90.664 Y41.957 E177.61637
G1 X107.937 Y59.231 E179.37272
G1 X107.925 Y58.422 E179.43088
G1 X90.652 Y41.148 E181.18724
G1 X90.640 Y40.340 E181.24540
G1 X107.913 Y57.613 E183.00175
G1 X107.901 Y56.804 E183.05992
G1 X90.627 Y39.531 E184.81627
G1 X90.615 Y38.722 E184.87443
G1 X107.889 Y55.995 E186.63079
G1 X107.876 Y55.186 E186.68895
G1 X90.603 Y37.913 E188.44530
G1 X90.591 Y37.104 E188.50347
G1 X107.864 Y54.378 E190.25982
G1 X107.852 Y53.569 E190.31798
G1 X90.579 Y36.295 E192.07434
G1 X90.566 Y35.486 E192.13250
G1 X107.840 Y52.760 E193.88885
G1 X107.828 Y51.951 E193.94702
G1 X90.554 Y34.677 E195.70337
G1 X90.542 Y33.869 E195.76153
G1 X107.816 Y51.142 E197.51789
G1 X107.803 Y50.333 E197.57605
G1 X90.530 Y33.060 E199.33240
G1 X90.518 Y32.251 E199.39057
G1 X107.791 Y49.524 E201.14692
G1 X107.779 Y48.716 E201.20508
G1 X90.506 Y31.442 E202.96144
G1 X90.493 Y30.633 E203.01960
G1 X107.767 Y47.907 E204.77595
G1 X107.755 Y47.098 E204.83411
G1 X90.481 Y29.824 E206.59047
G1 X90.964 Y29.511 E206.63188
G1 X107.742 Y46.289 E208.33785
G1 X107.730 Y45.480 E208.39602
G1 X91.749 Y29.499 E210.02095
G1 X92.534 Y29.487 E210.07738
G1 X107.718 Y44.671 E211.62127
G1 X107.706 Y43.862 E211.67943
G1 X93.319 Y29.475 E213.14227
G1 X94.104 Y29.464 E213.19871
G1 X107.694 Y43.053 E214.58051
G1 X107.682 Y42.245 E214.63867
G1 X94.889 Y29.452 E215.93943
G1 X95.674 Y29.440 E215.99586
G1 X107.669 Y41.436 E217.21558
G1 X107.657 Y40.627 E217.27374
G1 X96.459 Y29.428 E218.41241
G1 X97.243 Y29.416 E218.46885
G1 X107.645 Y39.818 E219.52647
G1 X107.633 Y39.009 E219.58464
G1 X98.028 Y29.405 E220.56122
G1 X98.813 Y29.393 E220.61766
G1 X107.621 Y38.200 E221.51320
G1 X107.608 Y37.391 E221.57136
G1 X99.598 Y29.381 E222.38586
G1 X100.383 Y29.369 E222.44230
G1 X107.596 Y36.582 E223.17575
G1 X107.584 Y35.774 E223.23392
G1 X101.168 Y29.357 E223.88633
G1 X101.953 Y29.345 E223.94276
G1 X107.572 Y34.965 E224.51413
G1 X107.560 Y34.156 E224.57230
G1 X102.737 Y29.334 E225.06262
G1 X103.522 Y29.322 E225.11906
G1 X107.547 Y33.347 E225.52834
G1 X107.535 Y32.538 E225.58651
G1 X104.307 Y29.310 E225.91475
G1 X105.092 Y29.298 E225.97118
G1 X107.523 Y31.729 E226.21838
G1 X107.511 Y30.920 E226.27654
G1 X105.877 Y29.286 E226.44270
G1 X106.662 Y29.274 E226.49913
G1 X107.499 Y30.112 E226.58425
G1 X107.487 Y29.303 E226.64241
G1 X107.447 Y29.263 E226.64648
G1 F4200.000 E223.64648
G92 E0
G1 X87.945 Y117.038 F6000.000
G1 E3.00000 F4200.000
G1 X87.919 Y117.091 E3.00450 F750.000
G1 X88.082 Y118.087 E3.08094
G1 X88.682 Y116.891 E3.18233
G1 X89.100 Y117.379 E3.23100
G1 X88.246 Y119.083 E3.37542
G1 X88.070 Y120.755 F6000.000
G1 X89.296 Y118.309 E3.58262 F750.000
G1 X89.509 Y119.206 E3.65244
G1 X88.298 Y121.622 E3.85711
G1 X88.526 Y122.488 E3.92500
G1 X89.722 Y120.103 E4.12713
G1 X89.985 Y120.900 E4.19071
G1 X88.797 Y123.270 E4.39155
G1 X89.085 Y124.017 E4.45220
G1 X90.362 Y121.470 E4.66800
G1 X90.789 Y121.940 E4.71608
G1 X89.398 Y124.715 E4.95123
G1 X89.775 Y125.286 E5.00301
G1 X91.320 Y122.202 E5.26430
G1 X91.936 Y122.295 E5.31148
G1 X90.185 Y125.788 E5.60746
G1 X90.699 Y126.085 E5.65240
G1 X92.604 Y122.285 E5.97438
G1 X93.271 Y122.275 E6.02496
G1 X91.263 Y126.282 E6.36452
G1 X91.887 Y126.358 E6.41218
G1 X93.939 Y122.265 E6.75899
G1 X94.606 Y122.255 E6.80956
G1 X92.555 Y126.348 E7.15637
G1 X93.222 Y126.338 E7.20694
G1 X95.274 Y122.245 E7.55375
G1 X95.942 Y122.235 E7.60432
G1 X93.890 Y126.328 E7.95113
G1 X94.558 Y126.318 E8.00170
G1 X96.609 Y122.224 E8.34851
G1 X97.277 Y122.214 E8.39908
G1 X95.225 Y126.308 E8.74589
G1 X95.893 Y126.298 E8.79646
G1 X97.944 Y122.204 E9.14327
G1 X98.612 Y122.194 E9.19385
G1 X96.560 Y126.288 E9.54065
G1 X97.228 Y126.277 E9.59123
G1 X99.279 Y122.184 E9.93803
G1 X99.947 Y122.174 E9.98861
G1 X97.895 Y126.267 E10.33542
G1 X98.563 Y126.257 E10.38599
G1 X100.614 Y122.164 E10.73280
G1 X101.282 Y122.154 E10.78337
G1 X99.231 Y126.247 E11.13018
G1 X99.898 Y126.237 E11.18075
G1 X101.950 Y122.144 E11.52756
G1 X102.617 Y122.134 E11.57813
G1 X100.566 Y126.227 E11.92494
G1 X101.233 Y126.217 E11.97551
G1 X103.285 Y122.124 E12.32232
G1 X103.952 Y122.114 E12.37289
G1 X101.901 Y126.207 E12.71970
G1 X102.568 Y126.197 E12.77027
G1 X104.620 Y122.104 E13.11708
G1 X105.287 Y122.094 E13.16765
G1 X103.236 Y126.187 E13.51446
G1 X103.903 Y126.177 E13.56503
G1 X105.955 Y122.084 E13.91184
G1 X106.623 Y122.074 E13.96241
G1 X104.571 Y126.167 E14.30922
G1 X105.239 Y126.157 E14.35979
G1 X107.290 Y122.064 E14.70660
G1 X107.958 Y122.054 E14.75717
G1 X105.906 Y126.147 E15.10398
G1 X106.574 Y126.137 E15.15455
G1 X108.625 Y122.043 E15.50136
G1 X109.313 Y121.993 E15.55358
G1 X107.241 Y126.127 E15.90378
G1 X107.909 Y126.117 E15.95435
G1 X112.640 Y116.677 E16.75418
G1 X112.035 Y116.562 E16.80082
G1 X111.350 Y117.928 E16.91659
G1 X112.462 Y118.354 E17.00676
G1 X108.576 Y126.107 E17.66365
G1 X109.244 Y126.096 E17.71422
G1 X112.467 Y119.667 E18.25901
G1 X112.528 Y120.866 E18.35001
G1 X110.032 Y125.845 E18.77187
G1 X111.412 Y124.415 F6000.000
G1 X111.584 Y124.072 E18.80095 F750.000
G1 X112.687 Y123.508 F6000.000
G1 X101.680 Y145.469 E20.27746 F1500.000
G1 X102.740 Y145.453 E20.34115
G1 X112.793 Y125.394 E21.68980
G1 X112.850 Y127.379 E21.80917
G1 X103.799 Y145.437 E23.02327
G1 X104.859 Y145.421 E23.08695
G1 X112.803 Y129.570 E24.15269
G1 X112.807 Y131.660 E24.27835
G1 X105.918 Y145.405 E25.20246
G1 X106.977 Y145.389 E25.26614
G1 X112.958 Y133.457 E26.06839
G1 F4200.000 E23.06839
G92 E0
G1 X112.475 Y136.519 F6000.000
G1 E3.00000 F4200.000
G1 X108.037 Y145.373 E3.59528 F1500.000
G1 X109.096 Y145.357 E3.65897
G1 X112.535 Y138.496 E4.12029
G1 F4200.000 E1.12029
G92 E0
G1 X112.486 Y140.692 F6000.000
G1 E3.00000 F4200.000
G1 X110.142 Y145.369 E3.31440 F1500.000
G1 X111.547 Y144.664 E3.40886
G1 X112.471 Y142.820 E3.53285
G1 F4200.000 E0.53285
G92 E0
G1 X110.230 Y126.312 F6000.000
G1 E3.00000 F4200.000
G1 X100.621 Y145.485 E4.28902 F1500.000
G1 X99.561 Y145.501 E4.35271
G1 X109.031 Y126.606 E5.62303
G1 X107.972 Y126.622 E5.68672
G1 X98.502 Y145.517 E6.95704
G1 X97.442 Y145.533 E7.02073
G1 X106.912 Y126.638 E8.29105
G1 X105.853 Y126.654 E8.35474
G1 X96.383 Y145.549 E9.62506
G1 X95.323 Y145.565 E9.68874
G1 X104.793 Y126.670 E10.95907
G1 X103.734 Y126.686 E11.02275
G1 X94.264 Y145.581 E12.29308
G1 X93.205 Y145.597 E12.35676
G1 X102.674 Y126.702 E13.62709
G1 X101.615 Y126.718 E13.69077
G1 X92.145 Y145.612 E14.96110
G1 X91.120 Y145.560 E15.02279
G1 X100.555 Y126.734 E16.28849
G1 X99.496 Y126.750 E16.35218
G1 X90.267 Y145.164 E17.59018
G1 X89.414 Y144.767 E17.64670
G1 X98.437 Y126.766 E18.85699
G1 X97.377 Y126.782 E18.92067
G1 X88.781 Y143.932 E20.07373
G1 F4200.000 E17.07373
G92 E0
G1 X88.803 Y141.791 F6000.000
G1 E3.00000 F4200.000
G1 X96.318 Y126.798 E4.00800 F1500.000
G1 X95.258 Y126.814 E4.07169
G1 X88.703 Y139.892 E4.95097
G1 X88.641 Y137.918 E5.06966
G1 X94.199 Y126.830 E5.81518
G1 X93.139 Y126.846 E5.87886
G1 X88.497 Y136.108 E6.50157
G1 X88.144 Y134.714 E6.58800
G1 X92.080 Y126.862 E7.11592
G1 X91.081 Y126.756 E7.17626
G1 X88.190 Y132.525 E7.56413
G1 X88.168 Y130.470 E7.68764
G1 X90.187 Y126.443 E7.95842
G1 X89.479 Y125.758 E8.01764
G1 X88.113 Y128.482 E8.20082
G1 X87.963 Y126.683 F6000.000
G1 X88.881 Y124.852 E8.32393 F1500.000
G1 X88.029 Y124.456 E8.38046
G1 X88.414 Y123.686 E8.43220
G1 F4200.000 E5.43220
