; generated by Slic3r 1.1.7 on 2015-02-14 at 13:21:39

; perimeters extrusion width = 0.47mm
; infill extrusion width = 0.62mm
; solid infill extrusion width = 0.62mm
; top infill extrusion width = 0.62mm
; support material extrusion width = 0.47mm

G21 ; set units to millimeters
M190 S60 ; wait for bed temperature to be reached
M104 S220 ; set temperature
G28 ; home all axes Start of G Code Slic3r
 
 
M109 S220 ; wait for temperature to be reached
G90 ; use absolute coordinates
G92 E0
M82 ; use absolute distances for extrusion
G1 F4200.000 E-3.00000
G92 E0
G1 Z0.294 F6000.000
G1 X77.205 Y50.524 F6000.000
G1 E3.00000 F4200.000
G1 X78.581 Y48.452 E3.17887 F1500.000
G1 X81.273 Y44.926 E3.49780
G1 X84.201 Y41.594 E3.81673
G1 X87.350 Y38.471 E4.13565
G1 X90.708 Y35.571 E4.45459
G1 X94.256 Y32.910 E4.77351
G1 X97.979 Y30.498 E5.09244
G1 X101.859 Y28.348 E5.41137
G1 X105.878 Y26.470 E5.73030
G1 X110.016 Y24.873 E6.04923
G1 X114.254 Y23.563 E6.36815
G1 X118.573 Y22.549 E6.68708
G1 X122.471 Y21.896 E6.97128
G1 X124.045 Y21.657 E7.08571
G1 X124.301 Y21.635 E7.10417
G1 X126.353 Y21.757 E7.25202
G1 X127.059 Y21.931 E7.30424 F1500.000
G1 X129.642 Y23.333 E7.51560
G1 X130.254 Y23.905 E7.57580
G1 X131.665 Y26.055 E7.76070
G1 X131.956 Y26.840 E7.82093
G1 X132.249 Y28.398 E7.93487
G1 X132.273 Y28.864 E7.96840
G1 X132.629 Y48.046 E9.34781
G1 X132.629 Y48.176 E9.35714
G1 X132.429 Y49.863 E9.47928
G1 X101.760 Y176.611 E18.85524
G1 X101.204 Y178.128 E18.97136
G1 X100.786 Y178.962 E19.03846
G1 X99.380 Y180.881 E19.20951
G1 X97.421 Y182.230 E19.38055
G1 X94.454 Y182.894 E19.59909
G1 X73.370 Y183.005 E21.11506
G1 X71.022 Y182.620 E21.28610
G1 X68.932 Y181.484 E21.45715
G1 X67.333 Y179.723 E21.62819
G1 X66.240 Y176.561 E21.86870
G1 X66.039 Y174.157 E22.04213
G1 X66.006 Y167.834 E22.49673
G1 X66.664 Y85.897 E28.38804
G1 X66.810 Y81.464 E28.70696
G1 X67.261 Y77.051 E29.02589
G1 X68.014 Y72.679 E29.34482
G1 X69.065 Y68.370 E29.66375
G1 X70.410 Y64.143 E29.98268
G1 X72.043 Y60.018 E30.30161
G1 X73.955 Y56.016 E30.62054
G1 X76.138 Y52.154 E30.93946
G1 X77.166 Y50.583 E31.07446
G1 X77.675 Y50.832 F6000.000
G1 X79.029 Y48.791 E31.25055 F1500.000
G1 X81.697 Y45.296 E31.56670
G1 X84.598 Y41.992 E31.88284
G1 X87.720 Y38.895 E32.19899
G1 X91.047 Y36.020 E32.51515
G1 X94.564 Y33.380 E32.83129
G1 X98.254 Y30.989 E33.14744
G1 X102.099 Y28.857 E33.46359
G1 X104.106 Y27.910 E33.62311
G1 X106.082 Y26.994 E33.77974
G1 X110.184 Y25.409 E34.09590
G1 X114.385 Y24.110 E34.41204
G1 X118.665 Y23.103 E34.72819
G1 X122.563 Y22.451 E35.01235
G1 X124.093 Y22.217 E35.12357
G1 X124.349 Y22.195 E35.14204
G1 X126.239 Y22.308 E35.27822
G1 X126.898 Y22.470 E35.32700 F1500.000
G1 X129.278 Y23.761 E35.52168
G1 X129.847 Y24.293 E35.57770
G1 X131.147 Y26.273 E35.74801
G1 X131.419 Y27.005 E35.80412
G1 X131.689 Y28.440 E35.90906
G1 X131.711 Y28.874 E35.94034
G1 X132.067 Y48.047 E37.31906
G1 X132.067 Y48.177 E37.32839
G1 X131.883 Y49.730 E37.44089
G1 X101.213 Y176.479 E46.81684
G1 X100.702 Y177.876 E46.92381
G1 X100.283 Y178.710 E46.99091
G1 X98.921 Y180.542 E47.15501
G1 X97.014 Y181.796 E47.31912
G1 X94.451 Y182.332 E47.50739
G1 X73.367 Y182.443 E49.02335
G1 X71.117 Y182.058 E49.18746
G1 X69.135 Y180.925 E49.35157
G1 X67.661 Y179.182 E49.51567
G1 X66.800 Y176.507 E49.71774
G1 X66.601 Y174.154 E49.88752
G1 X66.569 Y167.839 E50.34158
G1 X67.226 Y85.914 E56.23204
G1 X67.370 Y81.519 E56.54819
G1 X67.815 Y77.144 E56.86434
G1 X68.560 Y72.811 E57.18049
G1 X69.601 Y68.538 E57.49664
G1 X70.934 Y64.348 E57.81279
G1 X72.551 Y60.259 E58.12894
G1 X74.445 Y56.291 E58.44509
G1 X76.608 Y52.462 E58.76124
G1 X77.636 Y50.891 E58.89623
G1 F4200.000 E55.89623
G92 E0
G1 X93.406 Y165.230 F6000.000
G1 E3.00000 F4200.000
G1 X74.495 Y165.329 E4.35966 F441.000
G1 X74.079 Y86.108 E10.05557
G1 X74.194 Y82.179 E10.33819
G1 X74.578 Y78.272 E10.62046
G1 X75.229 Y74.401 E10.90272
G1 X76.145 Y70.583 E11.18498
G1 X77.322 Y66.838 E11.46725
G1 X78.753 Y63.182 E11.74951
G1 X80.432 Y59.633 E12.03178
G1 X82.350 Y56.208 E12.31404
G1 X83.560 Y54.360 E12.47283
G1 X84.500 Y52.923 E12.59630
G1 X86.871 Y49.794 E12.87857
G1 X89.451 Y46.834 E13.16083
G1 X92.228 Y44.060 E13.44309
G1 X95.189 Y41.482 E13.72536
G1 X98.321 Y39.115 E14.00762
G1 X101.608 Y36.968 E14.28988
G1 X105.035 Y35.052 E14.57215
G1 X108.585 Y33.377 E14.85441
G1 X112.242 Y31.949 E15.13667
G1 X115.989 Y30.776 E15.41894
G1 X119.807 Y29.863 E15.70120
G1 X123.672 Y29.217 E15.98296
G1 X124.164 Y29.192 E16.01834
G1 X124.870 Y29.001 E16.07094
G1 X124.537 Y29.715 E16.12755
G1 X124.359 Y29.982 E16.15064
G1 X123.103 Y32.130 E16.32953
G1 X122.228 Y34.500 E16.51119
G1 X121.774 Y37.003 E16.69411
G1 X121.763 Y39.558 E16.87778
G1 X122.195 Y42.077 E17.06157
G1 X123.054 Y44.478 E17.24490
G1 X124.305 Y46.673 E17.42656
G1 X124.796 Y47.340 E17.48608
G1 X125.266 Y48.081 E17.54917
G1 X121.748 Y48.812 E17.80751
G1 X118.517 Y49.788 E18.05020
G1 X115.385 Y51.046 E18.29289
G1 X112.376 Y52.575 E18.53558
G1 X109.513 Y54.365 E18.77827
G1 X106.820 Y56.400 E19.02097
G1 X104.318 Y58.665 E19.26366
G1 X102.025 Y61.142 E19.50635
G1 X99.960 Y63.813 E19.74904
G1 X98.140 Y66.655 E19.99173
G1 X96.577 Y69.647 E20.23442
G1 X95.285 Y72.765 E20.47711
G1 X94.273 Y75.986 E20.71980
G1 X93.550 Y79.283 E20.96249
G1 X93.121 Y82.631 E21.20518
G1 X92.990 Y85.997 E21.44741
G1 X93.406 Y165.159 E27.13908
G1 X92.998 Y164.997 F6000.000
G1 X92.841 Y164.671 F6000.000
G1 X75.055 Y164.764 E28.41789 F630.000
G1 X74.642 Y86.115 E34.07269
G1 X74.755 Y82.215 E34.35323
G1 X75.135 Y78.346 E34.63271
G1 X75.780 Y74.513 E34.91219
G1 X76.687 Y70.733 E35.19167
G1 X77.852 Y67.024 E35.47115
G1 X79.269 Y63.405 E35.75064
G1 X80.932 Y59.891 E36.03012
G1 X82.831 Y56.500 E36.30960
G1 X84.030 Y54.668 E36.46700
G1 X84.960 Y53.247 E36.58908
G1 X87.307 Y50.148 E36.86856
G1 X89.862 Y47.219 E37.14804
G1 X92.612 Y44.471 E37.42753
G1 X95.544 Y41.919 E37.70701
G1 X98.645 Y39.575 E37.98649
G1 X100.478 Y38.378 E38.14389
G1 X101.899 Y37.449 E38.26597
G1 X105.292 Y35.552 E38.54545
G1 X108.807 Y33.893 E38.82493
G1 X110.847 Y33.097 E38.98233
G1 X112.429 Y32.480 E39.10441
G1 X116.138 Y31.318 E39.38390
G1 X119.919 Y30.415 E39.66338
G1 X123.838 Y29.759 E39.94911
G1 X122.593 Y31.889 E40.12653
G1 X121.683 Y34.351 E40.31526
G1 X121.212 Y36.951 E40.50525
G1 X121.200 Y39.604 E40.69600
G1 X121.649 Y42.220 E40.88683
G1 X122.541 Y44.714 E41.07725
G1 X123.833 Y46.980 E41.26481
G1 X124.359 Y47.695 E41.32861
G1 X121.610 Y48.267 E41.53053
G1 X118.331 Y49.257 E41.77680
G1 X115.152 Y50.533 E42.02307
G1 X112.099 Y52.085 E42.26934
G1 X109.194 Y53.901 E42.51560
G1 X106.462 Y55.966 E42.76187
G1 X103.922 Y58.265 E43.00814
G1 X101.596 Y60.779 E43.25441
G1 X100.435 Y62.280 E43.39087
G1 X99.500 Y63.489 E43.50068
G1 X97.653 Y66.373 E43.74695
G1 X96.067 Y69.409 E43.99322
G1 X94.756 Y72.573 E44.23949
G1 X93.729 Y75.841 E44.48576
G1 X92.996 Y79.187 E44.73202
G1 X92.560 Y82.584 E44.97829
G1 X92.428 Y85.988 E45.22320
G1 X92.840 Y164.600 E50.87534
G1 X75.480 Y164.374 F6000.000
G1 X75.440 Y164.334 E50.87941 F1500.000
G1 X75.436 Y163.533 E50.93699
G1 X76.272 Y164.370 E51.02206
G1 X77.065 Y164.366 E51.07904
G1 X75.431 Y162.733 E51.24512
G1 X75.427 Y161.932 E51.30270
G1 X77.857 Y164.362 E51.54979
G1 X78.650 Y164.358 E51.60677
G1 X75.423 Y161.131 E51.93486
G1 X75.419 Y160.330 E51.99244
G1 X79.442 Y164.353 E52.40154
G1 X80.235 Y164.349 E52.45851
G1 X75.415 Y159.529 E52.94862
G1 X75.410 Y158.728 E53.00620
G1 X81.027 Y164.345 E53.57731
G1 X81.820 Y164.341 E53.63429
G1 X75.406 Y157.927 E54.28640
G1 X75.402 Y157.127 E54.34398
G1 X82.612 Y164.337 E55.07711
G1 X83.405 Y164.333 E55.13408
G1 X75.398 Y156.326 E55.94821
G1 X75.394 Y155.525 E56.00579
G1 X84.197 Y164.328 E56.90093
G1 X84.990 Y164.324 E56.95791
G1 X75.389 Y154.724 E57.93405
G1 X75.385 Y153.923 E57.99163
G1 X85.782 Y164.320 E59.04878
G1 X86.575 Y164.316 E59.10575
G1 X75.381 Y153.122 E60.24391
G1 X75.377 Y152.322 E60.30149
G1 X87.367 Y164.312 E61.52065
G1 X88.160 Y164.308 E61.57763
G1 X75.373 Y151.521 E62.87779
G1 X75.368 Y150.720 E62.93537
G1 X88.952 Y164.303 E64.31654
G1 X89.744 Y164.299 E64.37352
G1 X75.364 Y149.919 E65.83570
G1 X75.360 Y149.118 E65.89328
G1 X90.537 Y164.295 E67.43646
G1 X91.329 Y164.291 E67.49344
G1 X75.356 Y148.317 E69.11763
G1 X75.352 Y147.516 E69.17521
G1 X92.122 Y164.287 E70.88041
G1 X92.449 Y163.817 E70.92156
G1 X75.347 Y146.716 E72.66041
G1 X75.343 Y145.915 E72.71799
G1 X92.445 Y163.016 E74.45685
G1 X92.440 Y162.215 E74.51443
G1 X75.339 Y145.114 E76.25329
G1 X75.335 Y144.313 E76.31087
G1 X92.436 Y161.415 E78.04972
G1 X92.432 Y160.614 E78.10730
G1 X75.331 Y143.512 E79.84616
G1 X75.326 Y142.711 E79.90374
G1 X92.428 Y159.813 E81.64260
G1 X92.424 Y159.012 E81.70018
G1 X75.322 Y141.911 E83.43904
G1 X75.318 Y141.110 E83.49662
G1 X92.419 Y158.211 E85.23547
G1 X92.415 Y157.410 E85.29305
G1 X75.314 Y140.309 E87.03191
G1 X75.309 Y139.508 E87.08949
G1 X92.411 Y156.609 E88.82835
G1 X92.407 Y155.809 E88.88593
G1 X75.305 Y138.707 E90.62478
G1 X75.301 Y137.906 E90.68236
G1 X92.402 Y155.008 E92.42122
G1 X92.398 Y154.207 E92.47880
G1 X75.297 Y137.105 E94.21766
G1 X75.293 Y136.305 E94.27524
G1 X92.394 Y153.406 E96.01409
G1 X92.390 Y152.605 E96.07167
G1 X75.288 Y135.504 E97.81053
G1 X75.284 Y134.703 E97.86811
G1 X92.386 Y151.804 E99.60697
G1 X92.381 Y151.004 E99.66455
G1 X75.280 Y133.902 E101.40340
G1 X75.276 Y133.101 E101.46098
G1 X92.377 Y150.203 E103.19984
G1 X92.373 Y149.402 E103.25742
G1 X75.272 Y132.300 E104.99628
G1 X75.267 Y131.500 E105.05386
G1 X92.369 Y148.601 E106.79271
G1 X92.365 Y147.800 E106.85029
G1 X75.263 Y130.699 E108.58915
G1 X75.259 Y129.898 E108.64673
G1 X92.360 Y146.999 E110.38559
G1 X92.356 Y146.198 E110.44317
G1 X75.255 Y129.097 E112.18203
G1 X75.251 Y128.296 E112.23961
G1 X92.352 Y145.398 E113.97846
G1 X92.348 Y144.597 E114.03604
G1 X75.246 Y127.495 E115.77490
G1 X75.242 Y126.695 E115.83248
G1 X92.344 Y143.796 E117.57134
G1 X92.339 Y142.995 E117.62892
G1 X75.238 Y125.894 E119.36777
G1 X75.234 Y125.093 E119.42535
G1 X92.335 Y142.194 E121.16421
G1 X92.331 Y141.393 E121.22179
G1 X75.230 Y124.292 E122.96065
G1 X75.225 Y123.491 E123.01823
G1 X92.327 Y140.593 E124.75709
G1 X92.323 Y139.792 E124.81467
G1 X75.221 Y122.690 E126.55352
G1 X75.217 Y121.889 E126.61110
G1 X92.318 Y138.991 E128.34996
G1 X92.314 Y138.190 E128.40754
G1 X75.213 Y121.089 E130.14640
G1 X75.209 Y120.288 E130.20398
G1 X92.310 Y137.389 E131.94283
G1 X92.306 Y136.588 E132.00041
G1 X75.204 Y119.487 E133.73927
G1 X75.200 Y118.686 E133.79685
G1 X92.302 Y135.787 E135.53571
G1 X92.297 Y134.987 E135.59329
G1 X75.196 Y117.885 E137.33214
G1 X75.192 Y117.084 E137.38973
G1 X92.293 Y134.186 E139.12858
G1 X92.289 Y133.385 E139.18616
G1 X75.188 Y116.284 E140.92502
G1 X75.183 Y115.483 E140.98260
G1 X92.285 Y132.584 E142.72146
G1 X92.281 Y131.783 E142.77904
G1 X75.179 Y114.682 E144.51789
G1 X75.175 Y113.881 E144.57547
G1 X92.276 Y130.982 E146.31433
G1 X92.272 Y130.182 E146.37191
G1 X75.171 Y113.080 E148.11077
G1 X75.166 Y112.279 E148.16835
G1 X92.268 Y129.381 E149.90721
G1 X92.264 Y128.580 E149.96479
G1 X75.162 Y111.478 E151.70364
G1 X75.158 Y110.678 E151.76122
G1 X92.259 Y127.779 E153.50008
G1 X92.255 Y126.978 E153.55766
G1 X75.154 Y109.877 E155.29652
G1 X75.150 Y109.076 E155.35410
G1 X92.251 Y126.177 E157.09295
G1 X92.247 Y125.376 E157.15054
G1 X75.145 Y108.275 E158.88939
G1 X75.141 Y107.474 E158.94697
G1 X92.243 Y124.576 E160.68583
G1 X92.238 Y123.775 E160.74341
G1 X75.137 Y106.673 E162.48227
G1 X75.133 Y105.873 E162.53985
G1 X92.234 Y122.974 E164.27870
G1 X92.230 Y122.173 E164.33628
G1 X75.129 Y105.072 E166.07514
G1 X75.124 Y104.271 E166.13272
G1 X92.226 Y121.372 E167.87158
G1 X92.222 Y120.571 E167.92916
G1 X75.120 Y103.470 E169.66802
G1 X75.116 Y102.669 E169.72560
G1 X92.217 Y119.771 E171.46445
G1 X92.213 Y118.970 E171.52203
G1 X75.112 Y101.868 E173.26089
G1 X75.108 Y101.067 E173.31847
G1 X92.209 Y118.169 E175.05733
G1 X92.205 Y117.368 E175.11491
G1 X75.103 Y100.267 E176.85377
G1 X75.099 Y99.466 E176.91135
G1 X92.201 Y116.567 E178.65020
G1 X92.196 Y115.766 E178.70778
G1 X75.095 Y98.665 E180.44664
G1 X75.091 Y97.864 E180.50422
G1 X92.192 Y114.965 E182.24308
G1 X92.188 Y114.165 E182.30066
G1 X75.087 Y97.063 E184.03952
G1 X75.082 Y96.262 E184.09710
G1 X92.184 Y113.364 E185.83595
G1 X92.180 Y112.563 E185.89353
G1 X75.078 Y95.462 E187.63239
G1 X75.074 Y94.661 E187.68997
G1 X92.175 Y111.762 E189.42883
G1 X92.171 Y110.961 E189.48641
G1 X75.070 Y93.860 E191.22527
G1 X75.066 Y93.059 E191.28285
G1 X92.167 Y110.160 E193.02170
G1 X92.163 Y109.360 E193.07928
G1 X75.061 Y92.258 E194.81814
G1 X75.057 Y91.457 E194.87572
G1 X92.159 Y108.559 E196.61458
G1 X92.154 Y107.758 E196.67216
G1 X75.053 Y90.656 E198.41102
G1 X75.049 Y89.856 E198.46860
G1 X92.150 Y106.957 E200.20745
G1 X92.146 Y106.156 E200.26503
G1 X75.045 Y89.055 E202.00389
G1 X75.040 Y88.254 E202.06147
G1 X92.142 Y105.355 E203.80033
G1 X92.138 Y104.554 E203.85791
G1 X75.036 Y87.453 E205.59677
G1 X75.032 Y86.652 E205.65435
G1 X92.133 Y103.754 E207.39320
G1 X92.129 Y102.953 E207.45078
G1 X75.037 Y85.860 E209.18873
G1 X75.059 Y85.086 E209.24441
G1 X92.125 Y102.152 E210.97963
G1 X92.121 Y101.351 E211.03721
G1 X75.082 Y84.312 E212.76971
G1 X75.104 Y83.538 E212.82539
G1 X92.117 Y100.550 E214.55517
G1 X92.112 Y99.749 E214.61275
G1 X75.127 Y82.764 E216.33981
G1 X75.165 Y82.006 E216.39440
G1 X92.108 Y98.949 E218.11714
G1 X92.104 Y98.148 E218.17472
G1 X75.236 Y81.280 E219.88979
G1 X75.308 Y80.555 E219.94219
G1 X92.100 Y97.347 E221.64958
G1 X92.095 Y96.546 E221.70716
G1 X75.379 Y79.830 E223.40688
G1 X75.450 Y79.104 E223.45928
G1 X92.091 Y95.745 E225.15133
G1 X92.087 Y94.944 E225.20891
G1 X75.523 Y78.380 E226.89316
G1 X75.637 Y77.698 E226.94288
G1 X92.083 Y94.143 E228.61504
G1 X92.079 Y93.343 E228.67262
G1 X75.752 Y77.016 E230.33268
G1 X75.867 Y76.334 E230.38240
G1 X92.074 Y92.542 E232.03036
G1 X92.070 Y91.741 E232.08794
G1 X75.982 Y75.652 E233.72382
G1 X76.096 Y74.970 E233.77353
G1 X92.066 Y90.940 E235.39731
G1 X92.062 Y90.139 E235.45489
G1 X76.229 Y74.306 E237.06480
G1 X76.383 Y73.664 E237.11230
G1 X92.058 Y89.338 E238.70610
G1 X92.053 Y88.538 E238.76368
G1 X76.537 Y73.021 E240.34138
G1 X76.691 Y72.379 E240.38889
G1 X92.049 Y87.737 E241.95048
G1 X92.045 Y86.936 E242.00806
G1 X76.845 Y71.736 E243.55355
G1 X77.000 Y71.094 E243.60106
G1 X92.041 Y86.135 E245.13045
G1 X92.064 Y85.362 E245.18607
G1 X77.175 Y70.473 E246.69995
G1 X77.366 Y69.867 E246.74563
G1 X92.094 Y84.595 E248.24319
G1 X92.124 Y83.828 E248.29836
G1 X77.556 Y69.261 E249.77960
G1 X77.747 Y68.654 E249.82529
G1 X92.154 Y83.062 E251.29021
G1 X92.204 Y82.315 E251.34399
G1 X77.937 Y68.048 E252.79466
G1 X78.127 Y67.442 E252.84035
G1 X92.295 Y81.609 E254.28085
G1 X92.385 Y80.903 E254.33204
G1 X78.335 Y66.853 E255.76059
G1 X78.560 Y66.281 E255.80480
G1 X92.476 Y80.197 E257.21976
G1 X92.566 Y79.490 E257.27095
G1 X78.784 Y65.708 E258.67232
G1 X79.008 Y65.136 E258.71653
G1 X92.682 Y78.809 E260.10688
G1 X92.825 Y78.156 E260.15497
G1 X79.232 Y64.563 E261.53710
G1 X79.456 Y63.991 E261.58130
G1 X92.968 Y77.503 E262.95521
G1 X93.112 Y76.849 E263.00330
G1 X79.688 Y63.426 E264.36821
G1 X79.944 Y62.885 E264.41122
G1 X93.255 Y76.196 E265.76468
G1 X93.412 Y75.557 E265.81200
G1 X80.200 Y62.344 E267.15547
G1 X80.455 Y61.803 E267.19849
G1 X93.603 Y74.951 E268.53531
G1 X93.793 Y74.345 E268.58099
G1 X80.711 Y61.263 E269.91116
G1 X80.967 Y60.722 E269.95417
G1 X93.984 Y73.738 E271.27769
G1 X94.174 Y73.132 E271.32337
G1 X81.223 Y60.181 E272.64024
G1 X81.503 Y59.664 E272.68249
G1 X94.365 Y72.526 E273.99027
G1 X94.592 Y71.957 E274.03435
G1 X81.789 Y59.154 E275.33616
G1 X82.075 Y58.643 E275.37823
G1 X94.825 Y71.393 E276.67469
G1 X95.059 Y70.830 E276.71852
G1 X82.361 Y58.132 E278.00962
G1 X82.647 Y57.622 E278.05170
G1 X95.292 Y70.267 E279.33744
G1 X95.525 Y69.704 E279.38128
G1 X82.933 Y57.111 E280.66167
G1 X83.225 Y56.606 E280.70359
G1 X95.766 Y69.148 E281.97880
G1 X96.040 Y68.625 E282.02125
G1 X83.540 Y56.125 E283.29220
G1 X83.855 Y55.643 E283.33357
G1 X96.313 Y68.101 E284.60028
G1 X96.586 Y67.578 E284.64273
G1 X84.170 Y55.162 E285.90518
G1 X84.485 Y54.680 E285.94655
