; generated by Slic3r 1.1.7 on 2014-12-17 at 17:22:34

; perimeters extrusion width = 0.42mm
; infill extrusion width = 0.74mm
; solid infill extrusion width = 0.71mm
; top infill extrusion width = 0.71mm
; support material extrusion width = 0.42mm

G21 ; set units to millimeters
M190 S60 ; wait for bed temperature to be reached
M104 S186 ; set temperature
G28 ; home all axes Start of G Code Slic3r
 
M109 S186 ; wait for temperature to be reached
G90 ; use absolute coordinates
G92 E0
M82 ; use absolute distances for extrusion
G1 F1860.000 E-3.00000
G92 E0
G1 Z0.200 F6000.000
G1 X71.150 Y66.755 F6000.000
G1 E3.10000 F1860.000
G1 X72.907 Y65.250 E3.14280 F1200.000
G1 X75.069 Y64.427 E3.18561
G1 X76.350 Y64.304 E3.20942
G1 X81.350 Y64.304 E3.30192
G1 X82.709 Y64.443 E3.32719
G1 X120.630 Y72.247 E4.04345 F1200.000
G1 X123.419 Y73.535 E4.10028
G1 X124.032 Y74.024 E4.11478
G1 X125.281 Y75.112 E4.14542
G1 X126.475 Y76.259 E4.17606
G1 X127.611 Y77.465 E4.20669
G1 X128.459 Y78.448 E4.23073
G1 X128.965 Y79.081 E4.24571
G1 X130.054 Y81.122 E4.28851
G1 X130.392 Y83.229 E4.32798
G1 X130.392 Y116.771 E4.94853
G1 X129.995 Y119.051 E4.99134
G1 X128.965 Y120.919 E5.03081
G1 X128.476 Y121.532 E5.04530
G1 X127.388 Y122.781 E5.07594
G1 X126.241 Y123.975 E5.10658
G1 X125.036 Y125.110 E5.13721
G1 X123.776 Y126.186 E5.16785
G1 X123.419 Y126.465 E5.17623
G1 X120.630 Y127.753 E5.23307
G1 X82.709 Y135.557 E5.94933
G1 X81.350 Y135.696 E5.97460
G1 X76.350 Y135.696 E6.06710
G1 X74.071 Y135.299 E6.10990
G1 X72.060 Y134.155 E6.15271
G1 X70.554 Y132.398 E6.19551
G1 X69.731 Y130.235 E6.23832
G1 X69.608 Y128.954 E6.26212
G1 X69.608 Y71.046 E7.33344
G1 X70.005 Y68.766 E7.37625
G1 X71.119 Y66.810 E7.41789
G1 X71.373 Y66.885 F6000.000
G1 X71.395 Y66.848 E7.41869 F1200.000
G1 X73.143 Y65.399 E7.46070
G1 X76.350 Y64.551 E7.52207
G1 X81.350 Y64.551 E7.61457
G1 X82.659 Y64.685 E7.63891
G1 X120.581 Y72.489 E8.35517 F1200.000
G1 X123.267 Y73.730 E8.40992
G1 X123.871 Y74.211 E8.42419
G1 X125.110 Y75.291 E8.45461
G1 X126.295 Y76.430 E8.48502
G1 X127.423 Y77.626 E8.51544
G1 X128.272 Y78.610 E8.53947
G1 X128.770 Y79.233 E8.55422
G1 X129.832 Y81.239 E8.59623
G1 X130.144 Y83.229 E8.63348
G1 X130.144 Y116.771 E9.25403
G1 X129.748 Y119.007 E9.29604
G1 X128.770 Y120.767 E9.33329
G1 X128.289 Y121.370 E9.34755
G1 X127.209 Y122.610 E9.37797
G1 X126.070 Y123.795 E9.40839
G1 X124.874 Y124.923 E9.43880
G1 X123.624 Y125.991 E9.46921
G1 X123.267 Y126.270 E9.47759
G1 X120.581 Y127.511 E9.53234
G1 X82.659 Y135.315 E10.24860
G1 X81.350 Y135.449 E10.27294
G1 X76.350 Y135.449 E10.36545
G1 X74.114 Y135.052 E10.40745
G1 X72.152 Y133.909 E10.44946
G1 X70.703 Y132.162 E10.49146
G1 X69.856 Y128.954 E10.55284
G1 X69.856 Y71.046 E11.62416
G1 X70.252 Y68.810 E11.66616
G1 X71.341 Y66.940 E11.70620
G1 X71.595 Y67.018 F6000.000
G1 X71.640 Y66.942 E11.70782 F1200.000
G1 X73.378 Y65.551 E11.74901
G1 X76.350 Y64.799 E11.80573
G1 X81.350 Y64.799 E11.89823
G1 X82.609 Y64.927 E11.92165
G1 X120.531 Y72.731 E12.63791 F1200.000
G1 X123.115 Y73.925 E12.69058
G1 X123.709 Y74.398 E12.70462
G1 X124.940 Y75.470 E12.73481
G1 X126.116 Y76.600 E12.76500
G1 X127.236 Y77.787 E12.79519
G1 X128.085 Y78.771 E12.81923
G1 X128.575 Y79.385 E12.83376
G1 X129.610 Y81.356 E12.87495
G1 X129.897 Y83.229 E12.90999
G1 X129.897 Y116.771 E13.53055
G1 X129.500 Y118.962 E13.57174
G1 X128.575 Y120.615 E13.60678
G1 X128.102 Y121.209 E13.62082
G1 X127.030 Y122.440 E13.65102
G1 X125.900 Y123.616 E13.68121
G1 X124.713 Y124.736 E13.71139
G1 X123.472 Y125.796 E13.74158
G1 X123.115 Y126.075 E13.74996
G1 X120.531 Y127.269 E13.80263
G1 X82.609 Y135.073 E14.51889
G1 X81.350 Y135.201 E14.54230
G1 X76.350 Y135.201 E14.63481
G1 X74.159 Y134.805 E14.67600
G1 X72.246 Y133.665 E14.71719
G1 X70.855 Y131.926 E14.75838
G1 X70.103 Y128.954 E14.81510
G1 X70.103 Y71.046 E15.88642
G1 X70.500 Y68.855 E15.92761
G1 X71.562 Y67.072 E15.96602
G1 F1860.000 E12.96602
G92 E0
G1 X88.329 Y116.829 F6000.000
G1 E3.10000 F1860.000
G1 X87.719 Y117.236 E3.11356 F1200.000
G1 X87.000 Y117.379 E3.12713
G1 X86.281 Y117.236 E3.14069
G1 X85.671 Y116.829 E3.15425
G1 X85.264 Y116.219 E3.16782
G1 X85.121 Y115.500 E3.18138
G1 X85.264 Y114.781 E3.19494
G1 X85.671 Y114.171 E3.20851
G1 X86.281 Y113.764 E3.22207
G1 X87.000 Y113.621 E3.23563
G1 X87.107 Y113.642 E3.23765
G1 X87.719 Y113.764 E3.24920 F1200.000
G1 X88.329 Y114.171 E3.26276
G1 X88.736 Y114.781 E3.27632
G1 X88.879 Y115.500 E3.28989
G1 X88.736 Y116.219 E3.30345
G1 X88.364 Y116.776 E3.31585
G1 X88.150 Y116.650 F6000.000
G1 X87.623 Y117.003 E3.32759 F1200.000
G1 X87.000 Y117.127 E3.33934
G1 X86.377 Y117.003 E3.35108
G1 X85.850 Y116.650 E3.36282
G1 X85.497 Y116.123 E3.37457
G1 X85.373 Y115.500 E3.38631
G1 X85.497 Y114.877 E3.39806
G1 X85.850 Y114.350 E3.40980
G1 X86.377 Y113.997 E3.42154
G1 X86.942 Y113.885 E3.43219
G1 X87.000 Y113.873 E3.43329 F1200.000
G1 X87.623 Y113.997 E3.44503
G1 X88.150 Y114.350 E3.45678
G1 X88.503 Y114.877 E3.46852
G1 X88.627 Y115.500 E3.48026
G1 X88.503 Y116.123 E3.49201
G1 X88.185 Y116.598 E3.50259
G1 F1860.000 E0.50259
G92 E0
G1 X86.922 Y113.828 F6000.000
G1 X87.000 Y86.379 F6000.000
G1 E3.10000 F1860.000
G1 X86.281 Y86.236 E3.11356 F1200.000
G1 X85.671 Y85.829 E3.12713
G1 X85.264 Y85.219 E3.14069
G1 X85.121 Y84.500 E3.15425
G1 X85.264 Y83.781 E3.16782
G1 X85.671 Y83.171 E3.18138
G1 X86.281 Y82.764 E3.19494
G1 X87.000 Y82.621 E3.20851
G1 X87.107 Y82.642 E3.21052
G1 X87.719 Y82.764 E3.22207 F1200.000
G1 X88.329 Y83.171 E3.23563
G1 X88.736 Y83.781 E3.24920
G1 X88.879 Y84.500 E3.26276
G1 X88.736 Y85.219 E3.27632
G1 X88.329 Y85.829 E3.28989
G1 X87.719 Y86.236 E3.30345
G1 X87.062 Y86.367 E3.31585
G1 X87.000 Y86.127 F6000.000
G1 X86.377 Y86.003 E3.32759 F1200.000
G1 X85.850 Y85.650 E3.33934
G1 X85.497 Y85.123 E3.35108
G1 X85.373 Y84.500 E3.36282
G1 X85.497 Y83.877 E3.37457
G1 X85.850 Y83.350 E3.38631
G1 X86.377 Y82.997 E3.39806
G1 X86.942 Y82.885 E3.40870
G1 X87.000 Y82.873 E3.40980 F1200.000
G1 X87.623 Y82.997 E3.42154
G1 X88.150 Y83.350 E3.43329
G1 X88.503 Y83.877 E3.44503
G1 X88.627 Y84.500 E3.45678
G1 X88.503 Y85.123 E3.46852
G1 X88.150 Y85.650 E3.48026
G1 X87.623 Y86.003 E3.49201
G1 X87.062 Y86.115 E3.50259
G1 F1860.000 E0.50259
G92 E0
G1 X86.930 Y82.826 F6000.000
G1 X116.121 Y84.500 F6000.000
G1 E3.10000 F1860.000
G1 X116.264 Y83.781 E3.11356 F1200.000
G1 X116.671 Y83.171 E3.12713
G1 X117.281 Y82.764 E3.14069
G1 X118.000 Y82.621 E3.15425
G1 X118.612 Y82.743 E3.16581
G1 X118.719 Y82.764 E3.16782 F1200.000
G1 X119.329 Y83.171 E3.18138
G1 X119.736 Y83.781 E3.19494
G1 X119.879 Y84.500 E3.20851
G1 X119.736 Y85.219 E3.22207
G1 X119.329 Y85.829 E3.23563
G1 X118.719 Y86.236 E3.24920
G1 X118.000 Y86.379 E3.26276
G1 X117.281 Y86.236 E3.27632
G1 X116.671 Y85.829 E3.28989
G1 X116.264 Y85.219 E3.30345
G1 X116.133 Y84.562 E3.31585
G1 X116.373 Y84.500 F6000.000
G1 X116.497 Y83.877 E3.32759 F1200.000
G1 X116.850 Y83.350 E3.33934
G1 X117.377 Y82.997 E3.35108
G1 X117.942 Y82.885 E3.36172
G1 X118.000 Y82.873 E3.36282 F1200.000
G1 X118.623 Y82.997 E3.37457
G1 X119.150 Y83.350 E3.38631
G1 X119.503 Y83.877 E3.39806
G1 X119.627 Y84.500 E3.40980
G1 X119.503 Y85.123 E3.42154
G1 X119.150 Y85.650 E3.43329
G1 X118.623 Y86.003 E3.44503
G1 X118.000 Y86.127 E3.45678
G1 X117.377 Y86.003 E3.46852
G1 X116.850 Y85.650 E3.48026
G1 X116.497 Y85.123 E3.49201
G1 X116.385 Y84.562 E3.50259
G1 F1860.000 E0.50259
G92 E0
G1 X117.945 Y82.825 F6000.000
G1 X110.575 Y91.565 F6000.000
G1 E3.10000 F1860.000
G1 X110.772 Y91.728 E3.10473 F1200.000
G1 X112.227 Y93.500 E3.14716
G1 X113.308 Y95.523 E3.18959
G1 X113.974 Y97.718 E3.23202
G1 X114.199 Y100.000 E3.27444
G1 X113.974 Y102.282 E3.31687
G1 X113.308 Y104.477 E3.35930
G1 X112.227 Y106.500 E3.40173
G1 X110.772 Y108.272 E3.44416
G1 X109.000 Y109.727 E3.48658
G1 X106.977 Y110.808 E3.52900
G1 X104.782 Y111.474 E3.57144
G1 X102.500 Y111.699 E3.61387
G1 X100.218 Y111.474 E3.65630
G1 X98.023 Y110.808 E3.69873
G1 X96.000 Y109.727 E3.74115
G1 X94.228 Y108.272 E3.78358
G1 X92.773 Y106.500 E3.82601
G1 X91.692 Y104.477 E3.86844
G1 X91.026 Y102.282 E3.91087
G1 X90.801 Y100.000 E3.95329
G1 X91.026 Y97.718 E3.99572
G1 X91.692 Y95.523 E4.03815
G1 X92.773 Y93.500 E4.08058
G1 X94.228 Y91.728 E4.12301
G1 X96.000 Y90.273 E4.16543
G1 X98.023 Y89.192 E4.20786
G1 X100.218 Y88.526 E4.25029
G1 X102.500 Y88.301 E4.29272
G1 X104.735 Y88.521 E4.33426
G1 X106.977 Y89.192 E4.37756 F1200.000
G1 X109.000 Y90.273 E4.41999
G1 X110.526 Y91.525 E4.45652
G1 X110.418 Y91.756 F6000.000
G1 X110.597 Y91.903 E4.46080 F1200.000
G1 X112.021 Y93.638 E4.50232
G1 X113.079 Y95.618 E4.54385
G1 X113.730 Y97.766 E4.58538
G1 X113.950 Y100.000 E4.62691
G1 X113.730 Y102.234 E4.66843
G1 X113.079 Y104.382 E4.70996
G1 X112.021 Y106.362 E4.75149
G1 X110.597 Y108.097 E4.79301
G1 X108.862 Y109.521 E4.83454
G1 X106.882 Y110.579 E4.87607
G1 X104.734 Y111.230 E4.91760
G1 X102.500 Y111.450 E4.95912
G1 X100.266 Y111.230 E5.00065
G1 X98.118 Y110.579 E5.04218
G1 X96.100 Y109.489 E5.08461
G1 X94.403 Y108.097 E5.12521
G1 X92.979 Y106.362 E5.16674
G1 X91.921 Y104.382 E5.20827
G1 X91.270 Y102.234 E5.24980
G1 X91.050 Y100.000 E5.29132
G1 X91.270 Y97.766 E5.33285
G1 X91.921 Y95.618 E5.37438
G1 X92.979 Y93.638 E5.41590
G1 X94.403 Y91.903 E5.45743
G1 X96.138 Y90.479 E5.49896
G1 X98.118 Y89.421 E5.54049
G1 X100.266 Y88.770 E5.58201
G1 X102.482 Y88.551 E5.62320
G1 X104.734 Y88.770 E5.66506 F1200.000
G1 X106.882 Y89.421 E5.70659
G1 X108.862 Y90.479 E5.74812
G1 X110.369 Y91.716 E5.78419
G1 F1860.000 E2.78419
G92 E0
G1 X102.333 Y88.158 F6000.000
G1 X117.281 Y113.764 F6000.000
G1 E3.10000 F1860.000
G1 X118.000 Y113.621 E3.11356 F1200.000
G1 X118.640 Y113.748 E3.12563
G1 X118.719 Y113.764 E3.12713 F1200.000
G1 X119.329 Y114.171 E3.14069
G1 X119.736 Y114.781 E3.15425
G1 X119.879 Y115.500 E3.16782
G1 X119.736 Y116.219 E3.18138
G1 X119.329 Y116.829 E3.19494
G1 X118.719 Y117.236 E3.20851
G1 X118.000 Y117.379 E3.22207
G1 X117.281 Y117.236 E3.23563
G1 X117.214 Y117.191 E3.23713
G1 X116.671 Y116.829 E3.24920
G1 X116.264 Y116.219 E3.26276
G1 X116.121 Y115.500 E3.27632
G1 X116.264 Y114.781 E3.28989
G1 X116.671 Y114.171 E3.30345
G1 X117.229 Y113.799 E3.31585
G1 X117.377 Y113.997 F6000.000
G1 X117.969 Y113.879 E3.32700 F1200.000
G1 X118.623 Y113.997 E3.33929 F1200.000
G1 X119.150 Y114.350 E3.35104
G1 X119.503 Y114.877 E3.36278
G1 X119.627 Y115.500 E3.37453
G1 X119.503 Y116.123 E3.38627
G1 X119.150 Y116.650 E3.39801
G1 X118.623 Y117.003 E3.40976
G1 X118.000 Y117.127 E3.42150
G1 X117.377 Y117.003 E3.43325
G1 X116.850 Y116.650 E3.44499
G1 X116.497 Y116.123 E3.45673
G1 X116.373 Y115.500 E3.46848
G1 X116.497 Y114.877 E3.48022
G1 X116.850 Y114.350 E3.49197
G1 X117.325 Y114.032 E3.50254
G1 X118.174 Y113.513 F6000.000
G1 F1860.000 E0.50254
G92 E0
G1 X81.003 Y120.803 F6000.000
G1 E3.10000 F1860.000
G1 X81.003 Y128.607 E3.24438 F1200.000
G1 X76.697 Y128.607 E3.32403
G1 X76.697 Y71.393 E4.38251
G1 X81.003 Y71.393 E4.46216
G1 X81.003 Y79.197 E4.60654
G1 X119.152 Y79.197 E5.31231
G1 X119.408 Y79.397 E5.31832
G1 X120.399 Y80.252 E5.34252
G1 X121.346 Y81.154 E5.36673
G1 X122.248 Y82.101 E5.39093
G1 X123.103 Y83.092 E5.41513
G1 X123.303 Y83.348 E5.42114
G1 X123.303 Y116.652 E6.03728
G1 X123.103 Y116.908 E6.04329
G1 X122.248 Y117.899 E6.06749
G1 X121.346 Y118.846 E6.09169
G1 X120.399 Y119.748 E6.11589
G1 X119.408 Y120.603 E6.14010
G1 X119.152 Y120.803 E6.14611
G1 X81.066 Y120.803 E6.85071
G1 X81.250 Y121.050 F6000.000
G1 X81.250 Y128.854 E6.99509 F1200.000
G1 X76.450 Y128.854 E7.08389
G1 X76.450 Y71.146 E8.15151
G1 X81.250 Y71.146 E8.24031
G1 X81.250 Y78.950 E8.38469
G1 X119.237 Y78.950 E9.08746
G1 X119.565 Y79.206 E9.09516
G1 X120.565 Y80.068 E9.11959
G1 X121.521 Y80.979 E9.14402
G1 X122.432 Y81.935 E9.16844
G1 X123.294 Y82.935 E9.19287
G1 X123.550 Y83.263 E9.20057
G1 X123.550 Y116.737 E9.81985
G1 X123.294 Y117.065 E9.82755
G1 X122.432 Y118.065 E9.85197
G1 X121.521 Y119.021 E9.87640
G1 X120.565 Y119.932 E9.90082
G1 X119.565 Y120.794 E9.92525
G1 X119.237 Y121.050 E9.93295
G1 X81.313 Y121.050 E10.63455
G1 X80.830 Y121.050 F6000.000
G1 F1860.000 E7.63455
G92 E0
G1 X85.221 Y116.441 F6000.000
G1 E3.10000 F1860.000
G1 X76.856 Y108.077 E3.31884 F1200.000
G1 X76.856 Y108.427 E3.32533
G1 X89.073 Y120.644 E3.64495
G1 X89.423 Y120.644 E3.65143
G1 X86.059 Y117.279 E3.73946
G1 X86.590 Y117.460 F6000.000
G1 X89.774 Y120.644 E3.82276 F1200.000
G1 X90.124 Y120.644 E3.82924
G1 X87.019 Y117.538 E3.91050
G1 X87.311 Y117.479 E3.91602
G1 X90.475 Y120.644 E3.99880
G1 X90.826 Y120.644 E4.00529
G1 X87.603 Y117.421 E4.08959
G1 X87.863 Y117.331 E4.09469
G1 X91.176 Y120.644 E4.18136
G1 X91.527 Y120.644 E4.18784
G1 X88.074 Y117.191 E4.27818
G1 X88.284 Y117.050 E4.28286
G1 X91.877 Y120.644 E4.37687
G1 X92.228 Y120.644 E4.38336
G1 X88.477 Y116.893 E4.48149
G1 X88.618 Y116.683 E4.48616
G1 X92.578 Y120.644 E4.58979
G1 X92.929 Y120.644 E4.59627
G1 X88.758 Y116.473 E4.70540
G1 X88.891 Y116.255 E4.71011
G1 X93.279 Y120.644 E4.82492
G1 X93.630 Y120.644 E4.83141
G1 X88.949 Y115.963 E4.95387
G1 X89.007 Y115.671 E4.95938
G1 X93.980 Y120.644 E5.08949
G1 X94.331 Y120.644 E5.09598
G1 X89.005 Y115.318 E5.23532
G1 X88.918 Y114.880 E5.24357
G1 X94.681 Y120.644 E5.39437
G1 F1860.000 E2.39437
G92 E0
G1 X88.722 Y120.644 F6000.000
G1 E3.10000 F1860.000
G1 X76.856 Y108.778 E3.41045 F1200.000
G1 X76.856 Y109.128 E3.41694
G1 X88.372 Y120.644 E3.71822
G1 X88.021 Y120.644 E3.72470
G1 X76.856 Y109.479 E4.01681
G1 X76.856 Y109.829 E4.02329
G1 X87.671 Y120.644 E4.30623
G1 X87.320 Y120.644 E4.31272
G1 X76.856 Y110.180 E4.58648
G1 X76.856 Y110.530 E4.59297
G1 X86.970 Y120.644 E4.85756
G1 X86.619 Y120.644 E4.86405
G1 X76.856 Y110.881 E5.11947
G1 X76.856 Y111.231 E5.12596
G1 X86.269 Y120.644 E5.37221
G1 X85.918 Y120.644 E5.37869
G1 X76.856 Y111.582 E5.61577
G1 X76.856 Y111.933 E5.62226
G1 X85.567 Y120.644 E5.85017
G1 X85.217 Y120.644 E5.85665
G1 X76.856 Y112.283 E6.07539
G1 X76.856 Y112.634 E6.08188
G1 X84.866 Y120.644 E6.29144
G1 X84.516 Y120.644 E6.29793
G1 X76.856 Y112.984 E6.49833
G1 X76.856 Y113.335 E6.50481
G1 X84.165 Y120.644 E6.69604
G1 X83.815 Y120.644 E6.70252
G1 X76.856 Y113.685 E6.88457
G1 X76.856 Y114.036 E6.89106
G1 X83.464 Y120.644 E7.06394
G1 X83.114 Y120.644 E7.07043
G1 X76.856 Y114.386 E7.23414
G1 X76.856 Y114.737 E7.24062
G1 X82.763 Y120.644 E7.39516
G1 X82.413 Y120.644 E7.40165
G1 X76.856 Y115.087 E7.54702
G1 X76.856 Y115.438 E7.55350
G1 X82.062 Y120.644 E7.68970
G1 X81.712 Y120.644 E7.69618
G1 X76.856 Y115.788 E7.82321
G1 X76.856 Y116.139 E7.82970
G1 X81.361 Y120.644 E7.94755
G1 X81.010 Y120.644 E7.95404
G1 X76.856 Y116.490 E8.06272
G1 X76.856 Y116.840 E8.06920
G1 X80.844 Y120.827 E8.17352
G1 X80.844 Y121.178 E8.18001
G1 X76.856 Y117.191 E8.28432
G1 X76.856 Y117.541 E8.29081
G1 X80.844 Y121.528 E8.39513
G1 X80.844 Y121.879 E8.40161
G1 X76.856 Y117.892 E8.50593
G1 X76.856 Y118.242 E8.51241
G1 X80.844 Y122.229 E8.61673
G1 X80.844 Y122.580 E8.62322
G1 X76.856 Y118.593 E8.72753
G1 X76.856 Y118.943 E8.73402
G1 X80.844 Y122.930 E8.83833
G1 X80.844 Y123.281 E8.84482
G1 X76.856 Y119.294 E8.94914
G1 X76.856 Y119.644 E8.95562
G1 X80.844 Y123.632 E9.05994
G1 X80.844 Y123.982 E9.06642
G1 X76.856 Y119.995 E9.17074
G1 X76.856 Y120.345 E9.17723
G1 X80.844 Y124.333 E9.28154
G1 X80.844 Y124.683 E9.28803
G1 X76.856 Y120.696 E9.39234
G1 X76.856 Y121.047 E9.39883
G1 X80.844 Y125.034 E9.50315
G1 X80.844 Y125.384 E9.50963
G1 X76.856 Y121.397 E9.61395
G1 X76.856 Y121.748 E9.62043
G1 X80.844 Y125.735 E9.72475
G1 X80.844 Y126.085 E9.73124
G1 X76.856 Y122.098 E9.83555
G1 X76.856 Y122.449 E9.84204
G1 X80.844 Y126.436 E9.94636
G1 X80.844 Y126.786 E9.95284
G1 X76.856 Y122.799 E10.05716
G1 X76.856 Y123.150 E10.06364
G1 X80.844 Y127.137 E10.16796
G1 X80.844 Y127.487 E10.17444
G1 X76.856 Y123.500 E10.27876
G1 X76.856 Y123.851 E10.28525
G1 X80.844 Y127.838 E10.38956
G1 X80.844 Y128.189 E10.39605
G1 X76.856 Y124.201 E10.50037
G1 X76.856 Y124.552 E10.50685
G1 X80.752 Y128.448 E10.60878
G1 X80.402 Y128.448 E10.61527
G1 X76.856 Y124.902 E10.70802
G1 X76.856 Y125.253 E10.71451
G1 X80.051 Y128.448 E10.79810
G1 X79.701 Y128.448 E10.80458
