; generated by Slic3r 1.1.7 on 2014-12-05 at 09:12:41

; perimeters extrusion width = 0.42mm
; infill extrusion width = 0.74mm
; solid infill extrusion width = 0.71mm
; top infill extrusion width = 0.71mm

G21 ; set units to millimeters
M190 S60 ; wait for bed temperature to be reached
M104 S186 ; set temperature
G28 ; home all axes
M109 S186 ; wait for temperature to be reached
G90 ; use absolute coordinates
G92 E0
M82 ; use absolute distances for extrusion
M106 S127
G1 F1860.000 E-3.00000
G92 E0
G1 Z0.200 F6000.000
G1 X66.171 Y75.500 F6000.000
G1 E3.10000 F1860.000
G1 X68.223 Y73.743 E3.14998 F1200.000
G1 X83.652 Y65.342 E3.47498
G1 X86.758 Y64.551 E3.53427
G1 X91.758 Y64.551 E3.62677
G1 X93.067 Y64.685 E3.65112
G1 X130.988 Y72.489 E4.36738 F1200.000
G1 X133.675 Y73.730 E4.42213
G1 X134.278 Y74.211 E4.43640
G1 X135.518 Y75.291 E4.46681
G1 X136.703 Y76.430 E4.49723
G1 X137.831 Y77.626 E4.52764
G1 X138.680 Y78.610 E4.55167
G1 X139.179 Y79.235 E4.56648
G1 X140.241 Y81.242 E4.60848
G1 X140.552 Y83.229 E4.64569
G1 X140.552 Y116.772 E5.26624
G1 X140.155 Y119.007 E5.30824
G1 X139.178 Y120.767 E5.34549
G1 X138.697 Y121.370 E5.35976
G1 X137.617 Y122.610 E5.39018
G1 X136.478 Y123.795 E5.42059
G1 X135.282 Y124.923 E5.45100
G1 X134.032 Y125.991 E5.48142
G1 X133.675 Y126.270 E5.48980
G1 X130.988 Y127.511 E5.54455
G1 X93.067 Y135.315 E6.26081
G1 X91.758 Y135.449 E6.28515
G1 X86.758 Y135.449 E6.37765
G1 X84.633 Y135.091 E6.41752
G1 X63.817 Y127.884 E6.82503
G1 X61.835 Y126.777 E6.86704
G1 X60.354 Y125.056 E6.90905
G1 X59.557 Y122.930 E6.95105
G1 X59.448 Y121.747 E6.97303
G1 X59.448 Y96.755 E7.43540
G1 X59.741 Y94.825 E7.47151
G1 X65.128 Y77.517 E7.80686
G1 X66.142 Y75.556 E7.84770
G1 X66.394 Y75.616 F6000.000
G1 X68.341 Y73.960 E7.89499 F1200.000
G1 X83.770 Y65.559 E8.21999
G1 X86.758 Y64.799 E8.27703
G1 X91.758 Y64.799 E8.36953
G1 X93.017 Y64.927 E8.39295
G1 X130.938 Y72.731 E9.10921 F1200.000
G1 X133.523 Y73.925 E9.16187
G1 X134.117 Y74.398 E9.17592
G1 X135.347 Y75.470 E9.20611
G1 X136.524 Y76.600 E9.23630
G1 X137.644 Y77.787 E9.26649
G1 X138.492 Y78.771 E9.29052
G1 X138.984 Y79.387 E9.30510
G1 X140.018 Y81.358 E9.34629
G1 X140.305 Y83.229 E9.38129
G1 X140.305 Y116.772 E10.00184
G1 X139.908 Y118.962 E10.04303
G1 X138.983 Y120.615 E10.07807
G1 X138.510 Y121.209 E10.09212
G1 X137.438 Y122.440 E10.12231
G1 X136.307 Y123.616 E10.15250
G1 X135.121 Y124.736 E10.18268
G1 X133.880 Y125.796 E10.21288
G1 X133.523 Y126.075 E10.22126
G1 X130.938 Y127.269 E10.27392
G1 X93.017 Y135.073 E10.99018
G1 X91.758 Y135.201 E11.01360
G1 X86.758 Y135.201 E11.10610
G1 X84.714 Y134.858 E11.14445
G1 X63.898 Y127.650 E11.55197
G1 X61.958 Y126.559 E11.59316
G1 X60.523 Y124.856 E11.63435
G1 X59.695 Y121.747 E11.69387
G1 X59.695 Y96.755 E12.15623
G1 X59.977 Y94.898 E12.19097
G1 X65.364 Y77.591 E12.52631
G1 X66.365 Y75.672 E12.56634
G1 F1860.000 E9.56634
G92 E0
G1 X98.736 Y116.829 F6000.000
G1 E3.10000 F1860.000
G1 X98.127 Y117.236 E3.11356 F1200.000
G1 X97.408 Y117.379 E3.12713
G1 X96.689 Y117.236 E3.14069
G1 X96.079 Y116.829 E3.15425
G1 X95.672 Y116.219 E3.16782
G1 X95.529 Y115.500 E3.18138
G1 X95.672 Y114.781 E3.19494
G1 X96.079 Y114.171 E3.20851
G1 X96.689 Y113.764 E3.22207
G1 X97.408 Y113.621 E3.23563
G1 X97.514 Y113.642 E3.23765
G1 X98.127 Y113.764 E3.24920 F1200.000
G1 X98.736 Y114.171 E3.26276
G1 X99.144 Y114.781 E3.27632
G1 X99.287 Y115.500 E3.28989
G1 X99.144 Y116.219 E3.30345
G1 X98.771 Y116.776 E3.31585
G1 X98.558 Y116.650 F6000.000
G1 X98.030 Y117.003 E3.32759 F1200.000
G1 X97.408 Y117.127 E3.33934
G1 X96.785 Y117.003 E3.35108
G1 X96.257 Y116.650 E3.36282
G1 X95.905 Y116.123 E3.37457
G1 X95.781 Y115.500 E3.38631
G1 X95.905 Y114.877 E3.39806
G1 X96.257 Y114.350 E3.40980
G1 X96.785 Y113.997 E3.42154
G1 X97.349 Y113.885 E3.43219
G1 X97.408 Y113.873 E3.43329 F1200.000
G1 X98.030 Y113.997 E3.44503
G1 X98.558 Y114.350 E3.45678
G1 X98.911 Y114.877 E3.46852
G1 X99.035 Y115.500 E3.48026
G1 X98.911 Y116.123 E3.49201
G1 X98.593 Y116.598 E3.50259
G1 F1860.000 E0.50259
G92 E0
G1 X97.330 Y113.828 F6000.000
G1 X97.408 Y86.379 F6000.000
G1 E3.10000 F1860.000
G1 X96.689 Y86.236 E3.11356 F1200.000
G1 X96.079 Y85.829 E3.12713
G1 X95.672 Y85.219 E3.14069
G1 X95.529 Y84.500 E3.15425
G1 X95.672 Y83.781 E3.16782
G1 X96.079 Y83.171 E3.18138
G1 X96.689 Y82.764 E3.19494
G1 X97.408 Y82.621 E3.20851
G1 X97.514 Y82.642 E3.21052
G1 X98.127 Y82.764 E3.22207 F1200.000
G1 X98.736 Y83.171 E3.23563
G1 X99.144 Y83.781 E3.24920
G1 X99.287 Y84.500 E3.26276
G1 X99.144 Y85.219 E3.27632
G1 X98.736 Y85.829 E3.28989
G1 X98.127 Y86.236 E3.30345
G1 X97.469 Y86.367 E3.31585
G1 X97.408 Y86.127 F6000.000
G1 X96.785 Y86.003 E3.32759 F1200.000
G1 X96.257 Y85.650 E3.33934
G1 X95.905 Y85.123 E3.35108
G1 X95.781 Y84.500 E3.36282
G1 X95.905 Y83.877 E3.37457
G1 X96.257 Y83.350 E3.38631
G1 X96.785 Y82.997 E3.39806
G1 X97.349 Y82.885 E3.40870
G1 X97.408 Y82.873 E3.40980 F1200.000
G1 X98.030 Y82.997 E3.42154
G1 X98.558 Y83.350 E3.43329
G1 X98.911 Y83.877 E3.44503
G1 X99.035 Y84.500 E3.45678
G1 X98.911 Y85.123 E3.46852
G1 X98.558 Y85.650 E3.48026
G1 X98.030 Y86.003 E3.49201
G1 X97.469 Y86.115 E3.50259
G1 F1860.000 E0.50259
G92 E0
G1 X97.337 Y82.826 F6000.000
G1 X126.529 Y84.500 F6000.000
G1 E3.10000 F1860.000
G1 X126.672 Y83.781 E3.11356 F1200.000
G1 X127.079 Y83.171 E3.12713
G1 X127.689 Y82.764 E3.14069
G1 X128.408 Y82.621 E3.15425
G1 X129.020 Y82.743 E3.16581
G1 X129.127 Y82.764 E3.16782 F1200.000
G1 X129.736 Y83.171 E3.18138
G1 X130.144 Y83.781 E3.19494
G1 X130.287 Y84.500 E3.20851
G1 X130.144 Y85.219 E3.22207
G1 X129.736 Y85.829 E3.23563
G1 X129.127 Y86.236 E3.24920
G1 X128.408 Y86.379 E3.26276
G1 X127.689 Y86.236 E3.27633
G1 X127.079 Y85.829 E3.28989
G1 X126.672 Y85.219 E3.30345
G1 X126.541 Y84.562 E3.31585
G1 X126.781 Y84.500 F6000.000
G1 X126.905 Y83.877 E3.32759 F1200.000
G1 X127.257 Y83.350 E3.33934
G1 X127.785 Y82.997 E3.35108
G1 X128.349 Y82.885 E3.36172
G1 X128.408 Y82.873 E3.36282 F1200.000
G1 X129.030 Y82.997 E3.37457
G1 X129.558 Y83.350 E3.38631
G1 X129.911 Y83.877 E3.39806
G1 X130.035 Y84.500 E3.40980
G1 X129.911 Y85.123 E3.42154
G1 X129.558 Y85.650 E3.43329
G1 X129.030 Y86.003 E3.44503
G1 X128.408 Y86.127 E3.45678
G1 X127.785 Y86.003 E3.46852
G1 X127.257 Y85.650 E3.48026
G1 X126.905 Y85.123 E3.49201
G1 X126.793 Y84.562 E3.50259
G1 F1860.000 E0.50259
G92 E0
G1 X128.353 Y82.825 F6000.000
G1 X120.982 Y91.565 F6000.000
G1 E3.10000 F1860.000
G1 X121.180 Y91.728 E3.10473 F1200.000
G1 X122.635 Y93.500 E3.14716
G1 X123.716 Y95.523 E3.18959
G1 X124.382 Y97.718 E3.23202
G1 X124.607 Y100.000 E3.27444
G1 X124.382 Y102.282 E3.31687
G1 X123.716 Y104.477 E3.35930
G1 X122.635 Y106.500 E3.40173
G1 X121.180 Y108.272 E3.44416
G1 X119.407 Y109.727 E3.48658
G1 X117.385 Y110.808 E3.52900
G1 X115.190 Y111.474 E3.57144
G1 X112.908 Y111.699 E3.61387
G1 X110.625 Y111.474 E3.65630
G1 X108.431 Y110.808 E3.69873
G1 X106.408 Y109.727 E3.74115
G1 X104.635 Y108.272 E3.78358
G1 X103.180 Y106.500 E3.82601
G1 X102.099 Y104.477 E3.86844
G1 X101.434 Y102.282 E3.91087
G1 X101.209 Y100.000 E3.95329
G1 X101.434 Y97.718 E3.99572
G1 X102.099 Y95.523 E4.03815
G1 X103.180 Y93.500 E4.08058
G1 X104.635 Y91.728 E4.12301
G1 X106.408 Y90.273 E4.16543
G1 X108.431 Y89.192 E4.20786
G1 X110.625 Y88.526 E4.25029
G1 X112.908 Y88.301 E4.29272
G1 X115.142 Y88.521 E4.33426
G1 X117.385 Y89.192 E4.37756 F1200.000
G1 X119.407 Y90.273 E4.41999
G1 X120.934 Y91.525 E4.45652
G1 X120.825 Y91.756 F6000.000
G1 X121.004 Y91.903 E4.46080 F1200.000
G1 X122.428 Y93.638 E4.50232
G1 X123.486 Y95.618 E4.54385
G1 X124.138 Y97.766 E4.58538
G1 X124.358 Y100.000 E4.62691
G1 X124.138 Y102.234 E4.66843
G1 X123.486 Y104.382 E4.70996
G1 X122.428 Y106.362 E4.75149
G1 X121.004 Y108.097 E4.79301
G1 X119.269 Y109.521 E4.83454
G1 X117.290 Y110.579 E4.87606
G1 X115.142 Y111.230 E4.91760
G1 X112.908 Y111.450 E4.95912
G1 X110.674 Y111.230 E5.00065
G1 X108.526 Y110.579 E5.04218
G1 X106.508 Y109.489 E5.08461
G1 X104.811 Y108.097 E5.12521
G1 X103.387 Y106.362 E5.16674
G1 X102.329 Y104.382 E5.20827
G1 X101.677 Y102.234 E5.24980
G1 X101.457 Y100.000 E5.29132
G1 X101.677 Y97.766 E5.33285
G1 X102.329 Y95.618 E5.37438
G1 X103.387 Y93.638 E5.41590
G1 X104.811 Y91.903 E5.45743
G1 X106.546 Y90.479 E5.49896
G1 X108.526 Y89.421 E5.54049
G1 X110.674 Y88.770 E5.58201
G1 X112.889 Y88.551 E5.62320
G1 X115.142 Y88.770 E5.66506 F1200.000
G1 X117.290 Y89.421 E5.70659
G1 X119.269 Y90.479 E5.74812
G1 X120.777 Y91.716 E5.78419
G1 F1860.000 E2.78419
G92 E0
G1 X112.741 Y88.158 F6000.000
G1 X127.689 Y113.764 F6000.000
G1 E3.10000 F1860.000
G1 X128.408 Y113.621 E3.11356 F1200.000
G1 X129.047 Y113.748 E3.12563
G1 X129.127 Y113.764 E3.12713 F1200.000
G1 X129.736 Y114.171 E3.14069
G1 X130.144 Y114.781 E3.15425
G1 X130.287 Y115.500 E3.16782
G1 X130.144 Y116.219 E3.18138
G1 X129.736 Y116.829 E3.19494
G1 X129.127 Y117.236 E3.20851
G1 X128.408 Y117.379 E3.22207
G1 X127.689 Y117.236 E3.23563
G1 X127.621 Y117.191 E3.23713
G1 X127.079 Y116.829 E3.24920
G1 X126.672 Y116.219 E3.26276
G1 X126.529 Y115.500 E3.27632
G1 X126.672 Y114.781 E3.28989
G1 X127.079 Y114.171 E3.30345
G1 X127.636 Y113.799 E3.31585
G1 X127.785 Y113.997 F6000.000
G1 X128.376 Y113.879 E3.32700 F1200.000
G1 X129.030 Y113.997 E3.33929 F1200.000
G1 X129.558 Y114.350 E3.35104
G1 X129.911 Y114.877 E3.36278
G1 X130.035 Y115.500 E3.37453
G1 X129.911 Y116.123 E3.38627
G1 X129.558 Y116.650 E3.39801
G1 X129.030 Y117.003 E3.40976
G1 X128.408 Y117.127 E3.42150
G1 X127.785 Y117.003 E3.43325
G1 X127.257 Y116.650 E3.44499
G1 X126.905 Y116.123 E3.45673
G1 X126.781 Y115.500 E3.46848
G1 X126.905 Y114.877 E3.48022
G1 X127.257 Y114.350 E3.49197
G1 X127.733 Y114.032 E3.50254
G1 X128.581 Y113.513 F6000.000
G1 F1860.000 E0.50254
G92 E0
G1 X91.410 Y120.803 F6000.000
G1 E3.10000 F1860.000
G1 X91.410 Y128.607 E3.24438 F1200.000
G1 X87.105 Y128.607 E3.32403
G1 X87.105 Y71.393 E4.38251
G1 X91.410 Y71.393 E4.46216
G1 X91.410 Y79.197 E4.60654
G1 X129.560 Y79.197 E5.31231
G1 X129.816 Y79.397 E5.31832
G1 X130.806 Y80.252 E5.34252
G1 X131.754 Y81.154 E5.36673
G1 X132.656 Y82.101 E5.39093
G1 X133.510 Y83.092 E5.41513
G1 X133.710 Y83.348 E5.42114
G1 X133.710 Y116.652 E6.03728
G1 X133.510 Y116.908 E6.04329
G1 X132.656 Y117.899 E6.06749
G1 X131.754 Y118.846 E6.09169
G1 X130.806 Y119.748 E6.11589
G1 X129.816 Y120.603 E6.14010
G1 X129.560 Y120.803 E6.14611
G1 X91.473 Y120.803 E6.85071
G1 X91.658 Y121.050 F6000.000
G1 X91.658 Y128.854 E6.99509 F1200.000
G1 X86.858 Y128.854 E7.08389
G1 X86.858 Y71.146 E8.15151
G1 X91.658 Y71.146 E8.24031
G1 X91.658 Y78.950 E8.38469
G1 X129.645 Y78.950 E9.08746
G1 X129.973 Y79.206 E9.09516
G1 X130.973 Y80.068 E9.11959
G1 X131.929 Y80.979 E9.14402
G1 X132.839 Y81.935 E9.16844
G1 X133.702 Y82.935 E9.19287
G1 X133.958 Y83.263 E9.20057
G1 X133.958 Y116.737 E9.81985
G1 X133.702 Y117.065 E9.82755
G1 X132.839 Y118.065 E9.85197
G1 X131.929 Y119.021 E9.87640
G1 X130.973 Y119.932 E9.90082
G1 X129.973 Y120.794 E9.92525
G1 X129.645 Y121.050 E9.93295
G1 X91.721 Y121.050 E10.63455
G1 X91.238 Y121.050 F6000.000
G1 F1860.000 E7.63455
G92 E0
G1 X95.629 Y116.441 F6000.000
G1 E3.10000 F1860.000
G1 X87.264 Y108.077 E3.31884 F1200.000
G1 X87.264 Y108.427 E3.32533
G1 X99.481 Y120.644 E3.64495
G1 X99.831 Y120.644 E3.65143
G1 X96.467 Y117.279 E3.73946
G1 X96.998 Y117.460 F6000.000
G1 X100.182 Y120.644 E3.82276 F1200.000
G1 X100.532 Y120.644 E3.82924
G1 X97.426 Y117.538 E3.91050
G1 X97.719 Y117.479 E3.91602
G1 X100.883 Y120.644 E3.99880
G1 X101.233 Y120.644 E4.00529
G1 X98.011 Y117.421 E4.08959
G1 X98.271 Y117.331 E4.09469
G1 X101.584 Y120.644 E4.18135
G1 X101.934 Y120.644 E4.18784
G1 X98.481 Y117.191 E4.27818
G1 X98.691 Y117.050 E4.28286
G1 X102.285 Y120.644 E4.37687
G1 X102.635 Y120.644 E4.38336
G1 X98.885 Y116.893 E4.48149
G1 X99.025 Y116.683 E4.48616
G1 X102.986 Y120.644 E4.58979
G1 X103.336 Y120.644 E4.59627
G1 X99.166 Y116.473 E4.70540
G1 X99.299 Y116.255 E4.71011
G1 X103.687 Y120.644 E4.82492
G1 X104.038 Y120.644 E4.83141
G1 X99.357 Y115.963 E4.95387
G1 X99.415 Y115.671 E4.95938
G1 X104.388 Y120.644 E5.08949
G1 X104.739 Y120.644 E5.09598
G1 X99.413 Y115.318 E5.23532
G1 X99.326 Y114.880 E5.24357
G1 X105.089 Y120.644 E5.39436
G1 F1860.000 E2.39436
G92 E0
G1 X99.130 Y120.644 F6000.000
G1 E3.10000 F1860.000
G1 X87.264 Y108.778 E3.41045 F1200.000
G1 X87.264 Y109.128 E3.41694
G1 X98.779 Y120.644 E3.71822
G1 X98.429 Y120.644 E3.72470
G1 X87.264 Y109.479 E4.01681
G1 X87.264 Y109.829 E4.02329
G1 X98.078 Y120.644 E4.30623
G1 X97.728 Y120.644 E4.31272
G1 X87.264 Y110.180 E4.58648
G1 X87.264 Y110.530 E4.59297
G1 X97.377 Y120.644 E4.85756
G1 X97.027 Y120.644 E4.86405
G1 X87.264 Y110.881 E5.11947
G1 X87.264 Y111.231 E5.12596
G1 X96.676 Y120.644 E5.37221
G1 X96.326 Y120.644 E5.37869
G1 X87.264 Y111.582 E5.61577
G1 X87.264 Y111.933 E5.62226
G1 X95.975 Y120.644 E5.85017
G1 X95.625 Y120.644 E5.85665
G1 X87.264 Y112.283 E6.07539
G1 X87.264 Y112.634 E6.08188
G1 X95.274 Y120.644 E6.29145
G1 X94.924 Y120.644 E6.29793
G1 X87.264 Y112.984 E6.49833
G1 X87.264 Y113.335 E6.50481
G1 X94.573 Y120.644 E6.69604
G1 X94.222 Y120.644 E6.70252
G1 X87.264 Y113.685 E6.88458
G1 X87.264 Y114.036 E6.89106
G1 X93.872 Y120.644 E7.06394
G1 X93.521 Y120.644 E7.07043
G1 X87.264 Y114.386 E7.23414
G1 X87.264 Y114.737 E7.24062
G1 X93.171 Y120.644 E7.39516
G1 X92.820 Y120.644 E7.40165
G1 X87.264 Y115.087 E7.54702
G1 X87.264 Y115.438 E7.55350
G1 X92.470 Y120.644 E7.68970
G1 X92.119 Y120.644 E7.69619
G1 X87.264 Y115.788 E7.82321
G1 X87.264 Y116.139 E7.82970
G1 X91.769 Y120.644 E7.94755
G1 X91.418 Y120.644 E7.95404
G1 X87.264 Y116.490 E8.06272
G1 X87.264 Y116.840 E8.06921
G1 X91.251 Y120.827 E8.17352
G1 X91.251 Y121.178 E8.18001
G1 X87.264 Y117.191 E8.28433
G1 X87.264 Y117.541 E8.29081
G1 X91.251 Y121.528 E8.39513
G1 X91.251 Y121.879 E8.40161
G1 X87.264 Y117.892 E8.50593
G1 X87.264 Y118.242 E8.51242
G1 X91.251 Y122.229 E8.61673
G1 X91.251 Y122.580 E8.62322
G1 X87.264 Y118.593 E8.72753
G1 X87.264 Y118.943 E8.73402
G1 X91.251 Y122.930 E8.83834
G1 X91.251 Y123.281 E8.84482
G1 X87.264 Y119.294 E8.94914
G1 X87.264 Y119.644 E8.95562
G1 X91.251 Y123.632 E9.05994
G1 X91.251 Y123.982 E9.06643
G1 X87.264 Y119.995 E9.17074
G1 X87.264 Y120.345 E9.17723
G1 X91.251 Y124.333 E9.28154
G1 X91.251 Y124.683 E9.28803
G1 X87.264 Y120.696 E9.39235
G1 X87.264 Y121.047 E9.39883
G1 X91.251 Y125.034 E9.50315
G1 X91.251 Y125.384 E9.50963
G1 X87.264 Y121.397 E9.61395
G1 X87.264 Y121.748 E9.62044
G1 X91.251 Y125.735 E9.72475
G1 X91.251 Y126.085 E9.73124
G1 X87.264 Y122.098 E9.83555
G1 X87.264 Y122.449 E9.84204
G1 X91.251 Y126.436 E9.94636
G1 X91.251 Y126.786 E9.95284
G1 X87.264 Y122.799 E10.05716
G1 X87.264 Y123.150 E10.06364
G1 X91.251 Y127.137 E10.16796
G1 X91.251 Y127.487 E10.17445
G1 X87.264 Y123.500 E10.27876
G1 X87.264 Y123.851 E10.28525
G1 X91.251 Y127.838 E10.38957
G1 X91.251 Y128.189 E10.39605
G1 X87.264 Y124.201 E10.50037
G1 X87.264 Y124.552 E10.50685
G1 X91.160 Y128.448 E10.60878
G1 X90.809 Y128.448 E10.61527
G1 X87.264 Y124.902 E10.70803
G1 X87.264 Y125.253 E10.71451
G1 X90.459 Y128.448 E10.79810
G1 X90.108 Y128.448 E10.80458
G1 X87.264 Y125.604 E10.87900
G1 X87.264 Y125.954 E10.88549
G1 X89.758 Y128.448 E10.95073
G1 X89.407 Y128.448 E10.95722
G1 X87.264 Y126.305 E11.01329
G1 X87.264 Y126.655 E11.01977
G1 X89.057 Y128.448 E11.06668
G1 X88.706 Y128.448 E11.07316
G1 X87.264 Y127.006 E11.11089
G1 X87.264 Y127.356 E11.11738
G1 X88.356 Y128.448 E11.14594
G1 X88.005 Y128.448 E11.15242
G1 X87.264 Y127.707 E11.17181
G1 X87.264 Y128.057 E11.17830
G1 X87.655 Y128.448 E11.18852
G1 X87.304 Y128.448 E11.19500
G1 X87.264 Y128.408 E11.19605
G1 F1860.000 E8.19605
G92 E0
G1 X95.448 Y115.910 F6000.000
G1 E3.10000 F1860.000
G1 X87.264 Y107.726 E3.31411 F1200.000
G1 X87.264 Y107.376 E3.32060
G1 X95.370 Y115.481 E3.53268
G1 X95.428 Y115.189 E3.53819
G1 X87.264 Y107.025 E3.75179
G1 X87.264 Y106.674 E3.75828
G1 X95.486 Y114.897 E3.97340
G1 X95.577 Y114.637 E3.97849
G1 X87.264 Y106.324 E4.19598
G1 X87.264 Y105.973 E4.20246
G1 X95.717 Y114.426 E4.42362
G1 X95.858 Y114.216 E4.42830
G1 X87.264 Y105.623 E4.65313
G1 X87.264 Y105.272 E4.65962
