; generated by Slic3r 1.1.7 on 2015-01-31 at 18:10:43

; perimeters extrusion width = 0.40mm
; infill extrusion width = 0.42mm
; solid infill extrusion width = 0.42mm
; top infill extrusion width = 0.42mm

G21 ; set units to millimeters
M190 S60 ; wait for bed temperature to be reached
M104 S215 ; set temperature
G28 ; home all axes Start of G Code Slic3r
 
M109 S215 ; wait for temperature to be reached
G90 ; use absolute coordinates
G92 E0
M82 ; use absolute distances for extrusion
G1 F1860.000 E-3.00000
G92 E0
G1 Z0.300 F7800.000
G1 X51.822 Y76.881 F7800.000
G1 E3.10000 F1860.000
G1 X53.973 Y75.869 E3.24866 F1800.000
G1 X55.884 Y75.607 E3.36926
G1 X112.884 Y75.607 E6.93369
G1 X115.228 Y76.004 E7.08234
G1 X116.468 Y76.576 E7.16772 F1800.000
G1 X170.584 Y108.133 E11.08515
G1 X172.408 Y109.657 E11.23381
G1 X173.629 Y111.697 E11.38247
G1 X174.114 Y114.279 E11.54675
G1 X174.114 Y117.104 E11.72344
G1 X173.717 Y119.448 E11.87210
G1 X171.796 Y122.358 E12.09014
G1 X171.697 Y122.449 E12.09859
G1 X169.698 Y123.736 E12.24725
G1 X166.906 Y124.309 E12.42547
G1 X68.171 Y124.393 E18.59975
G1 X33.000 Y124.393 E20.79914
G1 X30.656 Y123.996 E20.94779
G1 X28.574 Y122.848 E21.09645
G1 X26.986 Y121.079 E21.24511
G1 X26.070 Y118.886 E21.39377
G1 X25.886 Y117.279 E21.49492
G1 X25.886 Y114.279 E21.68253
G1 X26.283 Y111.935 E21.83118
G1 X27.241 Y110.102 E21.96049
G1 X50.125 Y78.545 E24.39813
G1 X51.779 Y76.923 E24.54304
G1 X52.215 Y77.287 F7800.000
G1 X54.301 Y76.358 E24.68580 F1800.000
G1 X55.884 Y76.164 E24.78556
G1 X112.884 Y76.164 E28.34999
G1 X115.131 Y76.561 E28.49266
G1 X116.187 Y77.057 E28.56563 F1800.000
G1 X170.303 Y108.614 E32.48307
G1 X172.044 Y110.089 E32.62574
G1 X173.174 Y112.071 E32.76842
G1 X173.557 Y114.279 E32.90853
G1 X173.557 Y117.104 E33.08523
G1 X173.160 Y119.351 E33.22790
G1 X171.421 Y121.947 E33.42330
G1 X171.321 Y122.038 E33.43175
G1 X169.394 Y123.260 E33.57443
G1 X166.906 Y123.752 E33.73306
G1 X68.171 Y123.836 E39.90731
G1 X33.000 Y123.836 E42.10670
G1 X30.753 Y123.439 E42.24937
G1 X28.778 Y122.296 E42.39205
G1 X27.315 Y120.546 E42.53473
G1 X26.443 Y117.279 E42.74618
G1 X26.443 Y114.279 E42.93378
G1 X26.840 Y112.032 E43.07646
G1 X27.692 Y110.429 E43.18995
G1 X50.576 Y78.872 E45.62760
G1 X52.172 Y77.329 E45.76644
G1 F1860.000 E42.76644
G92 E0
G1 X112.584 Y114.579 F7800.000
G1 E3.10000 F1860.000
G1 X166.700 Y114.579 E6.48408 F441.000
G1 X166.700 Y116.804 E6.62325
G1 X166.600 Y116.804 E6.62949
G1 X166.600 Y116.895 E6.63519
G1 X70.438 Y116.895 E12.64855
G1 X68.166 Y116.979 E12.79077
G1 X33.300 Y116.979 E14.97106
G1 X33.300 Y114.579 E15.12114
G1 X65.184 Y114.579 E17.11497
G1 X65.184 Y84.421 E19.00082
G1 X57.584 Y84.421 E19.47608
G1 X57.584 Y85.421 E19.53861
G1 X56.184 Y85.421 E19.62616
G1 X56.184 Y83.021 E19.77624
G1 X71.434 Y83.021 E20.72988
G1 X71.434 Y110.521 E22.44956
G1 X106.334 Y110.521 E24.63199
G1 X106.334 Y83.021 E26.35167
G1 X112.584 Y83.021 E26.74251
G1 X112.584 Y114.519 E28.71215
G1 X112.584 Y114.979 F7800.000
G1 X112.027 Y115.136 F7800.000
G1 X166.143 Y115.136 E32.09623 F630.000
G1 X166.143 Y116.247 E32.16573
G1 X166.043 Y116.247 E32.17197
G1 X166.043 Y116.338 E32.17767
G1 X70.428 Y116.338 E38.15683
G1 X68.156 Y116.422 E38.29905
G1 X33.857 Y116.422 E40.44387
G1 X33.857 Y115.136 E40.52427
G1 X65.741 Y115.136 E42.51811
G1 X65.741 Y83.578 E44.49150
G1 X70.877 Y83.578 E44.81267
G1 X70.877 Y111.078 E46.53235
G1 X106.891 Y111.078 E48.78445
G1 X106.891 Y83.578 E50.50413
G1 X112.027 Y83.578 E50.82529
G1 X112.027 Y115.076 E52.79494
G1 X111.603 Y83.962 F7800.000
G1 X111.643 Y84.002 E52.79848 F1500.000
G1 X111.643 Y84.790 E52.84776
G1 X110.815 Y83.962 E52.92099
G1 X110.027 Y83.962 E52.97028
G1 X111.643 Y85.579 E53.11321
G1 X111.643 Y86.367 E53.16249
G1 X109.239 Y83.962 E53.37513
G1 X108.451 Y83.962 E53.42441
G1 X111.643 Y87.155 E53.70674
G1 X111.643 Y87.943 E53.75602
G1 X107.663 Y83.962 E54.10805
G1 X107.275 Y84.363 E54.14290
G1 X111.643 Y88.731 E54.52920
G1 X111.643 Y89.519 E54.57848
G1 X107.275 Y85.151 E54.96478
G1 X107.275 Y85.939 E55.01407
G1 X111.643 Y90.307 E55.40037
G1 X111.643 Y91.095 E55.44965
G1 X107.275 Y86.727 E55.83595
G1 X107.275 Y87.515 E55.88523
G1 X111.643 Y91.883 E56.27153
G1 X111.643 Y92.672 E56.32082
G1 X107.275 Y88.303 E56.70712
G1 X107.275 Y89.092 E56.75640
G1 X111.643 Y93.460 E57.14270
G1 X111.643 Y94.248 E57.19198
G1 X107.275 Y89.880 E57.57828
G1 X107.275 Y90.668 E57.62757
G1 X111.643 Y95.036 E58.01387
G1 X111.643 Y95.824 E58.06315
G1 X107.275 Y91.456 E58.44945
G1 X107.275 Y92.244 E58.49873
G1 X111.643 Y96.612 E58.88503
G1 X111.643 Y97.400 E58.93432
G1 X107.275 Y93.032 E59.32062
G1 X107.275 Y93.820 E59.36990
G1 X111.643 Y98.188 E59.75620
G1 X111.643 Y98.976 E59.80548
G1 X107.275 Y94.608 E60.19178
G1 X107.275 Y95.396 E60.24107
G1 X111.643 Y99.765 E60.62737
G1 X111.643 Y100.553 E60.67665
G1 X107.275 Y96.185 E61.06295
G1 X107.275 Y96.973 E61.11223
G1 X111.643 Y101.341 E61.49853
G1 X111.643 Y102.129 E61.54782
G1 X107.275 Y97.761 E61.93412
G1 X107.275 Y98.549 E61.98340
G1 X111.643 Y102.917 E62.36970
G1 X111.643 Y103.705 E62.41898
G1 X107.275 Y99.337 E62.80528
G1 X107.275 Y100.125 E62.85457
G1 X111.643 Y104.493 E63.24087
G1 X111.643 Y105.281 E63.29015
G1 X107.275 Y100.913 E63.67645
G1 X107.275 Y101.701 E63.72573
G1 X111.643 Y106.069 E64.11203
G1 X111.643 Y106.858 E64.16132
G1 X107.275 Y102.489 E64.54762
G1 X107.275 Y103.278 E64.59690
G1 X111.643 Y107.646 E64.98320
G1 X111.643 Y108.434 E65.03248
G1 X107.275 Y104.066 E65.41878
G1 X107.275 Y104.854 E65.46807
G1 X111.643 Y109.222 E65.85437
G1 X111.643 Y110.010 E65.90365
G1 X107.275 Y105.642 E66.28995
G1 X107.275 Y106.430 E66.33923
G1 X111.643 Y110.798 E66.72553
G1 X111.643 Y111.586 E66.77482
G1 X107.275 Y107.218 E67.16112
G1 X107.275 Y108.006 E67.21040
G1 X111.643 Y112.374 E67.59670
G1 X111.643 Y113.162 E67.64598
G1 X107.275 Y108.794 E68.03228
G1 X107.275 Y109.582 E68.08157
G1 X111.643 Y113.951 E68.46787
G1 X111.643 Y114.739 E68.51715
G1 X107.275 Y110.371 E68.90345
G1 X107.275 Y111.159 E68.95273
G1 X111.365 Y115.248 E69.31440
G1 X111.283 Y115.954 E69.35885
G1 X106.791 Y111.462 E69.75611
G1 X106.002 Y111.462 E69.80540
G1 X110.494 Y115.954 E70.20265
G1 X109.706 Y115.954 E70.25194
G1 X105.214 Y111.462 E70.64920
G1 X104.426 Y111.462 E70.69848
G1 X108.918 Y115.954 E71.09574
G1 X108.130 Y115.954 E71.14502
G1 X103.638 Y111.462 E71.54228
G1 X102.850 Y111.462 E71.59156
G1 X107.342 Y115.954 E71.98882
G1 X106.554 Y115.954 E72.03811
G1 X102.062 Y111.462 E72.43537
G1 X101.274 Y111.462 E72.48465
G1 X105.766 Y115.954 E72.88191
G1 X104.978 Y115.954 E72.93119
G1 X100.486 Y111.462 E73.32845
G1 X99.698 Y111.462 E73.37773
G1 X104.190 Y115.954 E73.77499
G1 X103.401 Y115.954 E73.82428
G1 X98.909 Y111.462 E74.22153
G1 X98.121 Y111.462 E74.27082
G1 X102.613 Y115.954 E74.66808
G1 X101.825 Y115.954 E74.71736
G1 X97.333 Y111.462 E75.11462
G1 X96.545 Y111.462 E75.16390
G1 X101.037 Y115.954 E75.56116
G1 X100.249 Y115.954 E75.61045
G1 X95.757 Y111.462 E76.00770
G1 X94.969 Y111.462 E76.05699
G1 X99.461 Y115.954 E76.45425
G1 X98.673 Y115.954 E76.50353
G1 X94.181 Y111.462 E76.90079
G1 X93.393 Y111.462 E76.95007
G1 X97.885 Y115.954 E77.34733
G1 X97.097 Y115.954 E77.39661
G1 X92.605 Y111.462 E77.79387
G1 X91.816 Y111.462 E77.84316
G1 X96.308 Y115.954 E78.24042
G1 X95.520 Y115.954 E78.28970
G1 X91.028 Y111.462 E78.68696
G1 X90.240 Y111.462 E78.73624
G1 X94.732 Y115.954 E79.13350
G1 X93.944 Y115.954 E79.18278
G1 X89.452 Y111.462 E79.58004
G1 X88.664 Y111.462 E79.62933
G1 X93.156 Y115.954 E80.02658
G1 X92.368 Y115.954 E80.07587
G1 X87.876 Y111.462 E80.47313
G1 X87.088 Y111.462 E80.52241
G1 X91.580 Y115.954 E80.91967
G1 X90.792 Y115.954 E80.96895
G1 X86.300 Y111.462 E81.36621
G1 X85.511 Y111.462 E81.41550
G1 X90.004 Y115.954 E81.81275
G1 X89.215 Y115.954 E81.86204
G1 X84.723 Y111.462 E82.25930
G1 X83.935 Y111.462 E82.30858
G1 X88.427 Y115.954 E82.70584
G1 X87.639 Y115.954 E82.75512
G1 X83.147 Y111.462 E83.15238
G1 X82.359 Y111.462 E83.20166
G1 X86.851 Y115.954 E83.59892
G1 X86.063 Y115.954 E83.64821
G1 X81.571 Y111.462 E84.04547
G1 X80.783 Y111.462 E84.09475
G1 X85.275 Y115.954 E84.49201
G1 X84.487 Y115.954 E84.54129
G1 X79.995 Y111.462 E84.93855
G1 X79.207 Y111.462 E84.98783
G1 X83.699 Y115.954 E85.38509
G1 X82.911 Y115.954 E85.43438
G1 X78.418 Y111.462 E85.83164
G1 X77.630 Y111.462 E85.88092
G1 X82.122 Y115.954 E86.27818
G1 X81.334 Y115.954 E86.32746
G1 X76.842 Y111.462 E86.72472
G1 X76.054 Y111.462 E86.77400
G1 X80.546 Y115.954 E87.17126
G1 X79.758 Y115.954 E87.22055
G1 X75.266 Y111.462 E87.61780
G1 X74.478 Y111.462 E87.66709
G1 X78.970 Y115.954 E88.06435
G1 X78.182 Y115.954 E88.11363
G1 X73.690 Y111.462 E88.51089
G1 X72.902 Y111.462 E88.56017
G1 X77.394 Y115.954 E88.95743
G1 X76.606 Y115.954 E89.00672
G1 X72.114 Y111.462 E89.40397
G1 X71.325 Y111.462 E89.45326
G1 X75.818 Y115.954 E89.85052
G1 X75.029 Y115.954 E89.89980
G1 X66.125 Y107.050 E90.68727
G1 X66.125 Y107.838 E90.73656
G1 X74.241 Y115.954 E91.45433
G1 X73.453 Y115.954 E91.50362
G1 X66.125 Y108.626 E92.15170
G1 X66.125 Y109.414 E92.20098
G1 X72.665 Y115.954 E92.77936
G1 X71.877 Y115.954 E92.82864
G1 X66.125 Y110.202 E93.33733
G1 X66.125 Y110.990 E93.38661
G1 X71.089 Y115.954 E93.82560
G1 X70.305 Y115.959 E93.87462
G1 X66.125 Y111.779 E94.24428
G1 X66.125 Y112.567 E94.29356
G1 X69.545 Y115.986 E94.59600
G1 X68.785 Y116.014 E94.64357
G1 X66.125 Y113.355 E94.87877
G1 X66.125 Y114.143 E94.92805
G1 X68.020 Y116.038 E95.09562
G1 X67.232 Y116.038 E95.14490
G1 X66.125 Y114.931 E95.24277
G1 X66.404 Y115.998 E95.31171
G1 X66.444 Y116.038 E95.31524
G1 X70.493 Y110.630 F7800.000
G1 X66.125 Y106.262 E95.70154 F1500.000
G1 X66.125 Y105.474 E95.75083
G1 X70.493 Y109.842 E96.13713
G1 X70.493 Y109.054 E96.18641
G1 X66.125 Y104.686 E96.57271
G1 X66.125 Y103.897 E96.62199
G1 X70.493 Y108.266 E97.00829
G1 X70.493 Y107.477 E97.05758
G1 X66.125 Y103.109 E97.44388
G1 X66.125 Y102.321 E97.49316
G1 X70.493 Y106.689 E97.87946
G1 X70.493 Y105.901 E97.92874
G1 X66.125 Y101.533 E98.31504
G1 X66.125 Y100.745 E98.36433
G1 X70.493 Y105.113 E98.75063
G1 X70.493 Y104.325 E98.79991
G1 X66.125 Y99.957 E99.18621
G1 X66.125 Y99.169 E99.23549
G1 X70.493 Y103.537 E99.62179
G1 X70.493 Y102.749 E99.67108
G1 X66.125 Y98.381 E100.05738
G1 X66.125 Y97.593 E100.10666
G1 X70.493 Y101.961 E100.49296
G1 X70.493 Y101.173 E100.54224
G1 X66.125 Y96.804 E100.92854
G1 X66.125 Y96.016 E100.97783
G1 X70.493 Y100.384 E101.36413
G1 X70.493 Y99.596 E101.41341
G1 X66.125 Y95.228 E101.79971
G1 X66.125 Y94.440 E101.84900
G1 X70.493 Y98.808 E102.23529
G1 X70.493 Y98.020 E102.28458
G1 X66.125 Y93.652 E102.67088
G1 X66.125 Y92.864 E102.72016
G1 X70.493 Y97.232 E103.10646
G1 X70.493 Y96.444 E103.15575
G1 X66.125 Y92.076 E103.54204
G1 X66.125 Y91.288 E103.59133
G1 X70.493 Y95.656 E103.97763
G1 X70.493 Y94.868 E104.02691
G1 X66.125 Y90.500 E104.41321
G1 X66.125 Y89.711 E104.46250
G1 X70.493 Y94.080 E104.84880
G1 X70.493 Y93.291 E104.89808
G1 X66.125 Y88.923 E105.28438
G1 X66.125 Y88.135 E105.33366
G1 X70.493 Y92.503 E105.71996
G1 X70.493 Y91.715 E105.76925
G1 X66.125 Y87.347 E106.15555
G1 X66.125 Y86.559 E106.20483
G1 X70.493 Y90.927 E106.59113
G1 X70.493 Y90.139 E106.64041
G1 X66.125 Y85.771 E107.02671
G1 X66.125 Y84.983 E107.07600
G1 X70.493 Y89.351 E107.46230
G1 X70.493 Y88.563 E107.51158
G1 X66.125 Y84.195 E107.89788
G1 X66.681 Y83.962 E107.93555
G1 X70.493 Y87.775 E108.27270
G1 X70.493 Y86.987 E108.32198
G1 X67.469 Y83.962 E108.58944
G1 X68.257 Y83.962 E108.63872
G1 X70.493 Y86.198 E108.83648
G1 X70.493 Y85.410 E108.88576
G1 X69.045 Y83.962 E109.01382
G1 X69.833 Y83.962 E109.06310
G1 X70.493 Y84.622 E109.12146
G1 X65.463 Y83.721 F7800.000
G1 X57.306 Y83.721 E109.88660 F600.000
G1 X56.956 Y83.794 E109.92005
G1 X56.884 Y84.143 E109.95349
G1 X56.884 Y85.143 E110.04729
G1 F1860.000 E107.04729
G92 E0
G1 X66.020 Y115.779 F7800.000
G1 E3.10000 F1860.000
G1 X34.136 Y115.779 E6.09075 F600.000
G1 X111.748 Y115.737 F7800.000
G1 X165.765 Y115.737 E11.15750 F600.000
M140 S50 ; set bed temperature
G1 F1860.000 E8.15750
G92 E0
G1 Z0.600 F7800.000
G1 X112.684 Y114.479 F7800.000
G1 E3.10000 F1860.000
G1 X166.800 Y114.479 E5.52987 F882.000
G1 X166.800 Y116.755 E5.63208
G1 X166.700 Y116.755 E5.63656
G1 X166.700 Y116.829 E5.63987
G1 X75.560 Y116.829 E9.73216
G1 X68.742 Y117.079 E10.03852
G1 X33.200 Y117.079 E11.63439
G1 X33.200 Y114.479 E11.75114
G1 X65.084 Y114.479 E13.18277
G1 X65.084 Y84.521 E14.52788
G1 X57.684 Y84.521 E14.86015
G1 X57.684 Y85.521 E14.90505
G1 X56.084 Y85.521 E14.97689
G1 X56.084 Y82.921 E15.09364
G1 X71.234 Y82.921 E15.77389
G1 X71.234 Y110.421 E17.00867
G1 X106.534 Y110.421 E18.59369
G1 X106.534 Y82.921 E19.82847
G1 X112.684 Y82.921 E20.10461
G1 X112.684 Y114.419 E21.51887
G1 X112.684 Y114.879 F7800.000
G1 X112.284 Y114.879 F7800.000
G1 X166.400 Y114.879 E23.94874 F1260.000
G1 X166.400 Y116.355 E24.01503
G1 X166.300 Y116.355 E24.01951
G1 X166.300 Y116.429 E24.02282
G1 X75.553 Y116.429 E28.09748
G1 X68.735 Y116.679 E28.40384
G1 X33.600 Y116.679 E29.98142
G1 X33.600 Y114.879 E30.06225
G1 X65.484 Y114.879 E31.49388
G1 X65.484 Y84.121 E32.87491
G1 X57.284 Y84.121 E33.24310
G1 X57.284 Y85.121 E33.28801
G1 X56.484 Y85.121 E33.32393
G1 X56.484 Y83.321 E33.40475
G1 X70.834 Y83.321 E34.04908
G1 X70.834 Y110.821 E35.28386
G1 X106.934 Y110.821 E36.90480
G1 X106.934 Y83.321 E38.13958
G1 X112.284 Y83.321 E38.37980
G1 X112.284 Y114.819 E39.79406
G1 X107.208 Y110.191 F7800.000
G1 X112.010 Y105.390 E40.11335 F3000.000
G1 X112.010 Y104.795 E40.14129
G1 X107.208 Y109.597 E40.46058
G1 X107.208 Y109.003 E40.48852
G1 X112.010 Y104.201 E40.80781
G1 X112.010 Y103.607 E40.83574
G1 X107.208 Y108.408 E41.15503
G1 X107.208 Y107.814 E41.18297
G1 X112.010 Y103.013 E41.50226
G1 X112.010 Y102.419 E41.53020
G1 X107.208 Y107.220 E41.84949
G1 X107.208 Y106.626 E41.87743
G1 X112.010 Y101.824 E42.19671
G1 X112.010 Y101.230 E42.22465
G1 X107.208 Y106.032 E42.54394
G1 X107.208 Y105.438 E42.57188
G1 X112.010 Y100.636 E42.89117
G1 X112.010 Y100.042 E42.91911
G1 X107.208 Y104.843 E43.23840
G1 X107.208 Y104.249 E43.26633
G1 X112.010 Y99.448 E43.58562
G1 X112.010 Y98.853 E43.61356
G1 X107.208 Y103.655 E43.93285
G1 X107.208 Y103.061 E43.96079
G1 X112.010 Y98.259 E44.28008
G1 X112.010 Y97.665 E44.30802
G1 X107.208 Y102.467 E44.62730
G1 X107.208 Y101.872 E44.65524
G1 X112.010 Y97.071 E44.97453
G1 X112.010 Y96.477 E45.00247
G1 X107.208 Y101.278 E45.32176
G1 X107.208 Y100.684 E45.34970
G1 X112.010 Y95.882 E45.66899
G1 X112.010 Y95.288 E45.69692
G1 X107.208 Y100.090 E46.01621
G1 X107.208 Y99.496 E46.04415
G1 X112.010 Y94.694 E46.36344
G1 X112.010 Y94.100 E46.39138
G1 X107.208 Y98.901 E46.71067
G1 X107.208 Y98.307 E46.73861
G1 X112.010 Y93.506 E47.05789
G1 X112.010 Y92.911 E47.08583
G1 X107.208 Y97.713 E47.40512
G1 X107.208 Y97.119 E47.43306
G1 X112.010 Y92.317 E47.75235
G1 X112.010 Y91.723 E47.78029
G1 X107.208 Y96.525 E48.09958
G1 X107.208 Y95.930 E48.12751
G1 X112.010 Y91.129 E48.44680
G1 X112.010 Y90.535 E48.47474
G1 X107.208 Y95.336 E48.79403
G1 X107.208 Y94.742 E48.82197
G1 X112.010 Y89.940 E49.14126
G1 X112.010 Y89.346 E49.16920
G1 X107.208 Y94.148 E49.48848
G1 X107.208 Y93.554 E49.51642
G1 X112.010 Y88.752 E49.83571
G1 X112.010 Y88.158 E49.86365
G1 X107.208 Y92.959 E50.18294
G1 X107.208 Y92.365 E50.21088
G1 X112.010 Y87.564 E50.53016
G1 X112.010 Y86.970 E50.55810
G1 X107.208 Y91.771 E50.87739
G1 X107.208 Y91.177 E50.90533
G1 X112.010 Y86.375 E51.22462
G1 X112.010 Y85.781 E51.25256
G1 X107.208 Y90.583 E51.57185
G1 X107.208 Y89.988 E51.59979
G1 X112.010 Y85.187 E51.91907
G1 X112.010 Y84.593 E51.94701
G1 X107.208 Y89.394 E52.26630
G1 X107.208 Y88.800 E52.29424
G1 X112.010 Y83.999 E52.61353
G1 X111.819 Y83.596 E52.63450
G1 X107.208 Y88.206 E52.94107
G1 X107.208 Y87.612 E52.96901
G1 X111.224 Y83.596 E53.23607
G1 X110.630 Y83.596 E53.26401
G1 X107.208 Y87.018 E53.49156
G1 X107.208 Y86.423 E53.51950
G1 X110.036 Y83.596 E53.70753
G1 X109.442 Y83.596 E53.73547
G1 X107.208 Y85.829 E53.88399
G1 X107.208 Y85.235 E53.91193
G1 X108.848 Y83.596 E54.02094
G1 X108.253 Y83.596 E54.04888
G1 X107.208 Y84.641 E54.11838
