; generated by Slic3r 1.1.7 on 2015-01-29 at 16:13:10

; perimeters extrusion width = 0.40mm
; infill extrusion width = 0.44mm
; solid infill extrusion width = 0.44mm
; top infill extrusion width = 0.44mm

G21 ; set units to millimeters
M190 S110 ; wait for bed temperature to be reached
M104 S220 ; set temperature
G28 ; home all axes Start of G Code Slic3r
 
M109 S220 ; wait for temperature to be reached
G90 ; use absolute coordinates
G92 E0
M82 ; use absolute distances for extrusion
M106 S127
G1 F1860.000 E-3.00000
G92 E0
G1 Z0.294 F7800.000
G1 X93.511 Y54.530 F7800.000
G1 E3.10000 F1860.000
G1 X108.150 Y29.426 E4.90899 F1800.000
G1 X109.672 Y27.605 E5.05676
G1 X111.710 Y26.387 E5.20453
G1 X114.279 Y25.906 E5.36720
G1 X117.279 Y25.906 E5.55395
G1 X119.619 Y26.303 E5.70172
G1 X121.697 Y27.450 E5.84950 F1800.000
G1 X123.281 Y29.218 E5.99727
G1 X124.193 Y31.410 E6.14505
G1 X124.373 Y33.000 E6.24464
G1 X124.373 Y167.000 E14.58601
G1 X123.976 Y169.340 E14.73378
G1 X122.829 Y171.419 E14.88156
G1 X121.060 Y173.002 E15.02933
G1 X118.868 Y173.914 E15.17711
G1 X117.279 Y174.094 E15.27670
G1 X114.279 Y174.094 E15.46344
G1 X111.938 Y173.697 E15.61122
G1 X110.114 Y172.743 E15.73937
G1 X78.557 Y149.859 E18.16592
G1 X76.895 Y148.164 E18.31369
G1 X75.886 Y146.015 E18.46146
G1 X75.627 Y144.116 E18.58077
G1 X75.627 Y87.116 E22.12896
G1 X76.024 Y84.776 E22.27674
G1 X76.593 Y83.542 E22.36128
G1 X93.481 Y54.582 E24.44815
G1 X93.984 Y54.806 F7800.000
G1 X108.623 Y29.702 E26.25714 F1800.000
G1 X110.097 Y27.962 E26.39906
G1 X112.078 Y26.834 E26.54098
G1 X114.279 Y26.453 E26.68003
G1 X117.279 Y26.453 E26.86677
G1 X119.524 Y26.850 E27.00869
G1 X121.496 Y27.992 E27.15061 F1800.000
G1 X122.958 Y29.742 E27.29253
G1 X123.826 Y33.000 E27.50239
G1 X123.826 Y167.000 E35.84376
G1 X123.429 Y169.245 E35.98568
G1 X122.286 Y171.218 E36.12760
G1 X120.536 Y172.679 E36.26952
G1 X117.279 Y173.547 E36.47938
G1 X114.279 Y173.547 E36.66613
G1 X112.034 Y173.150 E36.80805
G1 X110.435 Y172.300 E36.92074
G1 X78.878 Y149.416 E39.34729
G1 X77.293 Y147.777 E39.48921
G1 X76.367 Y145.694 E39.63113
G1 X76.174 Y144.116 E39.73007
G1 X76.174 Y87.116 E43.27827
G1 X76.571 Y84.871 E43.42019
G1 X77.066 Y83.818 E43.49261
G1 X93.953 Y54.858 E45.57948
G1 F1860.000 E42.57948
G92 E0
G1 X114.572 Y134.822 F7800.000
G1 E3.10000 F1860.000
G1 X84.428 Y134.822 E4.97648 F441.000
G1 X84.428 Y142.410 E5.44878
G1 X85.428 Y142.410 E5.51103
G1 X85.428 Y143.822 E5.59897
G1 X83.015 Y143.822 E5.74915
G1 X83.015 Y128.557 E6.69943
G1 X110.515 Y128.557 E8.41128
G1 X110.515 Y93.675 E10.58259
G1 X83.015 Y93.675 E12.29444
G1 X83.015 Y87.410 E12.68448
G1 X114.572 Y87.410 E14.64889
G1 X114.572 Y33.294 E18.01755
G1 X116.985 Y33.294 E18.16774
G1 X116.985 Y166.706 E26.47255
G1 X114.572 Y166.706 E26.62273
G1 X114.572 Y134.882 E28.60374
G1 X114.572 Y134.422 F7800.000
G1 X115.120 Y134.275 F7800.000
G1 X83.562 Y134.275 E30.56815 F630.000
G1 X83.562 Y129.104 E30.89007
G1 X111.062 Y129.104 E32.60192
G1 X111.062 Y93.128 E34.84135
G1 X83.562 Y93.128 E36.55320
G1 X83.562 Y87.957 E36.87512
G1 X115.120 Y87.957 E38.83953
G1 X115.120 Y33.841 E42.20819
G1 X116.438 Y33.841 E42.29025
G1 X116.438 Y166.159 E50.52694
G1 X115.120 Y166.159 E50.60900
G1 X115.120 Y134.335 E52.59001
G1 X83.939 Y133.858 F7800.000
G1 X83.979 Y133.898 E52.59354 F1500.000
G1 X84.760 Y133.898 E52.64216
G1 X83.939 Y133.077 E52.71445
G1 X83.939 Y132.296 E52.76308
G1 X85.541 Y133.898 E52.90413
G1 X86.322 Y133.898 E52.95276
G1 X83.939 Y131.515 E53.16258
G1 X83.939 Y130.734 E53.21120
G1 X87.104 Y133.898 E53.48979
G1 X87.885 Y133.898 E53.53842
G1 X83.939 Y129.953 E53.88577
G1 X84.248 Y129.480 E53.92090
G1 X88.666 Y133.898 E54.30983
G1 X89.447 Y133.898 E54.35846
G1 X85.029 Y129.480 E54.74739
G1 X85.810 Y129.480 E54.79602
G1 X90.228 Y133.898 E55.18495
G1 X91.009 Y133.898 E55.23358
G1 X86.591 Y129.480 E55.62251
G1 X87.372 Y129.480 E55.67113
G1 X91.790 Y133.898 E56.06007
G1 X92.572 Y133.898 E56.10869
G1 X88.154 Y129.480 E56.49762
G1 X88.935 Y129.480 E56.54625
G1 X93.353 Y133.898 E56.93518
G1 X94.134 Y133.898 E56.98381
G1 X89.716 Y129.480 E57.37274
G1 X90.497 Y129.480 E57.42137
G1 X94.915 Y133.898 E57.81030
G1 X95.696 Y133.898 E57.85892
G1 X91.278 Y129.480 E58.24786
G1 X92.059 Y129.480 E58.29648
G1 X96.477 Y133.898 E58.68541
G1 X97.258 Y133.898 E58.73404
G1 X92.840 Y129.480 E59.12297
G1 X93.622 Y129.480 E59.17160
G1 X98.040 Y133.898 E59.56053
G1 X98.821 Y133.898 E59.60916
G1 X94.403 Y129.480 E59.99809
G1 X95.184 Y129.480 E60.04671
G1 X99.602 Y133.898 E60.43565
G1 X100.383 Y133.898 E60.48427
G1 X95.965 Y129.480 E60.87320
G1 X96.746 Y129.480 E60.92183
G1 X101.164 Y133.898 E61.31076
G1 X101.945 Y133.898 E61.35939
G1 X97.527 Y129.480 E61.74832
G1 X98.308 Y129.480 E61.79694
G1 X102.726 Y133.898 E62.18588
G1 X103.508 Y133.898 E62.23450
G1 X99.090 Y129.480 E62.62344
G1 X99.871 Y129.480 E62.67206
G1 X104.289 Y133.898 E63.06099
G1 X105.070 Y133.898 E63.10962
G1 X100.652 Y129.480 E63.49855
G1 X101.433 Y129.480 E63.54718
G1 X105.851 Y133.898 E63.93611
G1 X106.632 Y133.898 E63.98473
G1 X102.214 Y129.480 E64.37367
G1 X102.995 Y129.480 E64.42229
G1 X107.413 Y133.898 E64.81122
G1 X108.194 Y133.898 E64.85985
G1 X103.776 Y129.480 E65.24878
G1 X104.558 Y129.480 E65.29741
G1 X108.976 Y133.898 E65.68634
G1 X109.757 Y133.898 E65.73497
G1 X105.339 Y129.480 E66.12390
G1 X106.120 Y129.480 E66.17252
G1 X110.538 Y133.898 E66.56146
G1 X111.319 Y133.898 E66.61008
G1 X106.901 Y129.480 E66.99901
G1 X107.682 Y129.480 E67.04764
G1 X112.100 Y133.898 E67.43657
G1 X112.881 Y133.898 E67.48520
G1 X108.463 Y129.480 E67.87413
G1 X109.244 Y129.480 E67.92276
G1 X113.662 Y133.898 E68.31169
G1 X114.444 Y133.898 E68.36031
G1 X110.026 Y129.480 E68.74925
G1 X110.807 Y129.480 E68.79787
G1 X114.961 Y133.635 E69.16362
G1 X115.732 Y133.625 E69.21161
G1 X111.439 Y129.331 E69.58957
G1 X111.439 Y128.550 E69.63820
G1 X116.061 Y133.172 E70.04510
G1 X116.061 Y132.391 E70.09373
G1 X111.439 Y127.769 E70.50063
G1 X111.439 Y126.988 E70.54925
G1 X116.061 Y131.610 E70.95615
G1 X116.061 Y130.829 E71.00478
G1 X111.439 Y126.207 E71.41168
G1 X111.439 Y125.426 E71.46030
G1 X116.061 Y130.048 E71.86720
G1 X116.061 Y129.267 E71.91583
G1 X111.439 Y124.645 E72.32273
G1 X111.439 Y123.863 E72.37136
G1 X116.061 Y128.486 E72.77826
G1 X116.061 Y127.704 E72.82688
G1 X111.439 Y123.082 E73.23378
G1 X111.439 Y122.301 E73.28241
G1 X116.061 Y126.923 E73.68931
G1 X116.061 Y126.142 E73.73793
G1 X111.439 Y121.520 E74.14483
G1 X111.439 Y120.739 E74.19346
G1 X116.061 Y125.361 E74.60036
G1 X116.061 Y124.580 E74.64899
G1 X111.439 Y119.958 E75.05589
G1 X111.439 Y119.177 E75.10451
G1 X116.061 Y123.799 E75.51141
G1 X116.061 Y123.018 E75.56004
G1 X111.439 Y118.395 E75.96694
G1 X111.439 Y117.614 E76.01556
G1 X116.061 Y122.236 E76.42247
G1 X116.061 Y121.455 E76.47109
G1 X111.439 Y116.833 E76.87799
G1 X111.439 Y116.052 E76.92662
G1 X116.061 Y120.674 E77.33352
G1 X116.061 Y119.893 E77.38214
G1 X111.439 Y115.271 E77.78904
G1 X111.439 Y114.490 E77.83767
G1 X116.061 Y119.112 E78.24457
G1 X116.061 Y118.331 E78.29320
G1 X111.439 Y113.709 E78.70010
G1 X111.439 Y112.927 E78.74872
G1 X116.061 Y117.549 E79.15562
G1 X116.061 Y116.768 E79.20425
G1 X111.439 Y112.146 E79.61115
G1 X111.439 Y111.365 E79.65977
G1 X116.061 Y115.987 E80.06667
G1 X116.061 Y115.206 E80.11530
G1 X111.439 Y110.584 E80.52220
G1 X111.439 Y109.803 E80.57083
G1 X116.061 Y114.425 E80.97773
G1 X116.061 Y113.644 E81.02635
G1 X111.439 Y109.022 E81.43325
G1 X111.439 Y108.241 E81.48188
G1 X116.061 Y112.863 E81.88878
G1 X116.061 Y112.081 E81.93740
G1 X111.439 Y107.459 E82.34430
G1 X111.439 Y106.678 E82.39293
G1 X116.061 Y111.300 E82.79983
G1 X116.061 Y110.519 E82.84846
G1 X111.439 Y105.897 E83.25536
G1 X111.439 Y105.116 E83.30398
G1 X116.061 Y109.738 E83.71088
G1 X116.061 Y108.957 E83.75951
G1 X111.439 Y104.335 E84.16641
G1 X111.439 Y103.554 E84.21503
G1 X116.061 Y108.176 E84.62194
G1 X116.061 Y107.395 E84.67056
G1 X111.439 Y102.772 E85.07746
G1 X111.439 Y101.991 E85.12609
G1 X116.061 Y106.613 E85.53299
G1 X116.061 Y105.832 E85.58161
G1 X111.439 Y101.210 E85.98851
G1 X111.439 Y100.429 E86.03714
G1 X116.061 Y105.051 E86.44404
G1 X116.061 Y104.270 E86.49267
G1 X111.439 Y99.648 E86.89957
G1 X111.439 Y98.867 E86.94819
G1 X116.061 Y103.489 E87.35509
G1 X116.061 Y102.708 E87.40372
G1 X111.439 Y98.086 E87.81062
G1 X111.439 Y97.304 E87.85924
G1 X116.061 Y101.927 E88.26614
G1 X116.061 Y101.145 E88.31477
G1 X111.439 Y96.523 E88.72167
G1 X111.439 Y95.742 E88.77030
G1 X116.061 Y100.364 E89.17720
G1 X116.061 Y99.583 E89.22582
G1 X111.439 Y94.961 E89.63272
G1 X111.439 Y94.180 E89.68135
G1 X116.061 Y98.802 E90.08825
G1 X116.061 Y98.021 E90.13687
G1 X111.439 Y93.399 E90.54377
G1 X116.021 Y88.607 F7800.000
G1 X116.061 Y88.647 E90.54730 F1500.000
G1 X116.061 Y89.428 E90.59592
G1 X115.240 Y88.607 E90.66821
G1 X114.185 Y88.334 E90.73604
G1 X116.061 Y90.209 E90.90118
G1 X116.061 Y90.991 E90.94980
G1 X113.404 Y88.334 E91.18371
G1 X112.623 Y88.334 E91.23234
G1 X116.061 Y91.772 E91.53501
G1 X116.061 Y92.553 E91.58363
G1 X111.842 Y88.334 E91.95508
G1 X111.061 Y88.334 E92.00370
G1 X116.061 Y93.334 E92.44391
G1 X116.061 Y94.115 E92.49253
G1 X110.279 Y88.334 E93.00151
G1 X109.498 Y88.334 E93.05013
G1 X116.061 Y94.896 E93.62788
G1 X116.061 Y95.677 E93.67650
G1 X108.717 Y88.334 E94.32301
G1 X107.936 Y88.334 E94.37163
G1 X116.061 Y96.459 E95.08691
G1 X116.061 Y97.240 E95.13554
G1 X107.155 Y88.334 E95.91958
G1 X106.374 Y88.334 E95.96820
G1 X110.792 Y92.752 E96.35714
G1 X110.011 Y92.752 E96.40576
G1 X105.593 Y88.334 E96.79469
G1 X104.811 Y88.334 E96.84332
G1 X109.229 Y92.752 E97.23225
G1 X108.448 Y92.752 E97.28088
G1 X104.030 Y88.334 E97.66981
G1 X103.249 Y88.334 E97.71844
G1 X107.667 Y92.752 E98.10737
G1 X106.886 Y92.752 E98.15600
G1 X102.468 Y88.334 E98.54493
G1 X101.687 Y88.334 E98.59355
G1 X106.105 Y92.752 E98.98249
G1 X105.324 Y92.752 E99.03111
G1 X100.906 Y88.334 E99.42005
G1 X100.125 Y88.334 E99.46867
G1 X104.543 Y92.752 E99.85760
G1 X103.761 Y92.752 E99.90623
G1 X99.343 Y88.334 E100.29516
G1 X98.562 Y88.334 E100.34379
G1 X102.980 Y92.752 E100.73272
G1 X102.199 Y92.752 E100.78135
G1 X97.781 Y88.334 E101.17028
G1 X97.000 Y88.334 E101.21890
G1 X101.418 Y92.752 E101.60784
G1 X100.637 Y92.752 E101.65646
G1 X96.219 Y88.334 E102.04540
G1 X95.438 Y88.334 E102.09402
G1 X99.856 Y92.752 E102.48295
G1 X99.075 Y92.752 E102.53158
G1 X94.657 Y88.334 E102.92051
G1 X93.875 Y88.334 E102.96914
G1 X98.293 Y92.752 E103.35807
G1 X97.512 Y92.752 E103.40670
G1 X93.094 Y88.334 E103.79563
G1 X92.313 Y88.334 E103.84426
G1 X96.731 Y92.752 E104.23319
G1 X95.950 Y92.752 E104.28181
G1 X91.532 Y88.334 E104.67075
G1 X90.751 Y88.334 E104.71937
G1 X95.169 Y92.752 E105.10831
G1 X94.388 Y92.752 E105.15693
G1 X89.970 Y88.334 E105.54586
G1 X89.189 Y88.334 E105.59449
G1 X93.607 Y92.752 E105.98342
G1 X92.825 Y92.752 E106.03205
G1 X88.407 Y88.334 E106.42098
G1 X87.626 Y88.334 E106.46961
G1 X92.044 Y92.752 E106.85854
G1 X91.263 Y92.752 E106.90717
G1 X86.845 Y88.334 E107.29610
G1 X86.064 Y88.334 E107.34472
G1 X90.482 Y92.752 E107.73366
G1 X89.701 Y92.752 E107.78228
G1 X85.283 Y88.334 E108.17122
G1 X84.502 Y88.334 E108.21984
G1 X88.920 Y92.752 E108.60877
G1 X88.139 Y92.752 E108.65740
G1 X83.939 Y88.552 E109.02710
G1 X83.939 Y89.333 E109.07573
G1 X87.357 Y92.752 E109.37667
G1 X86.576 Y92.752 E109.42529
G1 X83.939 Y90.114 E109.65746
G1 X83.939 Y90.895 E109.70609
G1 X85.795 Y92.752 E109.86949
G1 X85.014 Y92.752 E109.91812
G1 X83.939 Y91.677 E110.01275
G1 X83.939 Y92.458 E110.06138
G1 X84.233 Y92.752 E110.08725
G1 X115.779 Y88.230 F7800.000
G1 X115.779 Y34.114 E115.12360 F600.000
G1 F1860.000 E112.12360
G92 E0
G1 X83.721 Y134.549 F7800.000
G1 E3.10000 F1860.000
G1 X83.721 Y142.683 E3.85705 F600.000
G1 X83.796 Y143.042 E3.89112
G1 X84.154 Y143.116 E3.92519
G1 X85.154 Y143.116 E4.01826
G1 F1860.000 E1.01826
G92 E0
G1 X115.779 Y134.001 F7800.000
G1 E3.10000 F1860.000
G1 X115.779 Y165.886 E6.06732 F600.000
M104 S218 ; set temperature
M140 S109 ; set bed temperature
G1 F1860.000 E3.06732
G92 E0
G1 Z0.587 F7800.000
G1 X114.479 Y134.916 F7800.000
G1 E3.10000 F1860.000
G1 X84.521 Y134.916 E4.46321 F882.000
G1 X84.521 Y142.316 E4.79994
G1 X85.521 Y142.316 E4.84545
G1 X85.521 Y143.916 E4.91826
G1 X82.921 Y143.916 E5.03657
G1 X82.921 Y128.757 E5.72640
G1 X110.421 Y128.757 E6.97779
G1 X110.421 Y93.475 E8.58326
G1 X82.921 Y93.475 E9.83465
G1 X82.921 Y87.316 E10.11493
G1 X114.479 Y87.316 E11.55095
G1 X114.479 Y33.200 E14.01350
G1 X117.079 Y33.200 E14.13181
G1 X117.079 Y166.800 E20.21129
G1 X114.479 Y166.800 E20.32960
G1 X114.479 Y134.976 E21.77776
G1 X114.479 Y134.516 F7800.000
G1 X114.879 Y134.516 F7800.000
G1 X84.121 Y134.516 E23.17737 F1260.000
G1 X84.121 Y142.716 E23.55051
G1 X85.121 Y142.716 E23.59601
G1 X85.121 Y143.516 E23.63242
G1 X83.321 Y143.516 E23.71433
G1 X83.321 Y129.157 E24.36775
G1 X110.821 Y129.157 E25.61914
G1 X110.821 Y93.075 E27.26102
G1 X83.321 Y93.075 E28.51240
G1 X83.321 Y87.716 E28.75629
G1 X114.879 Y87.716 E30.19230
G1 X114.879 Y33.600 E32.65485
G1 X116.679 Y33.600 E32.73676
G1 X116.679 Y166.400 E38.77983
G1 X114.879 Y166.400 E38.86174
G1 X114.879 Y134.576 E40.30990
G1 X105.796 Y134.240 F7800.000
G1 X110.603 Y129.433 E40.64079 F3000.000
G1 X109.997 Y129.433 E40.67031
G1 X105.190 Y134.240 E41.00120
G1 X104.583 Y134.240 E41.03072
G1 X109.390 Y129.433 E41.36162
G1 X108.784 Y129.433 E41.39114
G1 X103.977 Y134.240 E41.72203
G1 X103.370 Y134.240 E41.75155
G1 X108.177 Y129.433 E42.08244
G1 X107.571 Y129.433 E42.11196
G1 X102.764 Y134.240 E42.44286
G1 X102.158 Y134.240 E42.47238
G1 X106.965 Y129.433 E42.80327
G1 X106.358 Y129.433 E42.83279
G1 X101.551 Y134.240 E43.16368
G1 X100.945 Y134.240 E43.19320
G1 X105.752 Y129.433 E43.52410
G1 X105.145 Y129.433 E43.55361
G1 X100.338 Y134.240 E43.88451
G1 X99.732 Y134.240 E43.91403
G1 X104.539 Y129.433 E44.24492
G1 X103.932 Y129.433 E44.27444
G1 X99.125 Y134.240 E44.60534
G1 X98.519 Y134.240 E44.63485
G1 X103.326 Y129.433 E44.96575
G1 X102.720 Y129.433 E44.99527
G1 X97.913 Y134.240 E45.32616
G1 X97.306 Y134.240 E45.35568
G1 X102.113 Y129.433 E45.68658
G1 X101.507 Y129.433 E45.71609
G1 X96.700 Y134.240 E46.04699
G1 X96.093 Y134.240 E46.07651
G1 X100.900 Y129.433 E46.40740
G1 X100.294 Y129.433 E46.43692
G1 X95.487 Y134.240 E46.76781
G1 X94.880 Y134.240 E46.79733
G1 X99.687 Y129.433 E47.12823
G1 X99.081 Y129.433 E47.15775
G1 X94.274 Y134.240 E47.48864
G1 X93.668 Y134.240 E47.51816
G1 X98.475 Y129.433 E47.84905
G1 X97.868 Y129.433 E47.87857
G1 X93.061 Y134.240 E48.20947
G1 X92.455 Y134.240 E48.23898
G1 X97.262 Y129.433 E48.56988
G1 X96.655 Y129.433 E48.59940
G1 X91.848 Y134.240 E48.93029
G1 X91.242 Y134.240 E48.95981
G1 X96.049 Y129.433 E49.29071
G1 X95.442 Y129.433 E49.32022
G1 X90.635 Y134.240 E49.65112
G1 X90.029 Y134.240 E49.68064
G1 X94.836 Y129.433 E50.01153
G1 X94.229 Y129.433 E50.04105
G1 X89.423 Y134.240 E50.37194
G1 X88.816 Y134.240 E50.40146
G1 X93.623 Y129.433 E50.73236
G1 X93.017 Y129.433 E50.76188
G1 X88.210 Y134.240 E51.09277
G1 X87.603 Y134.240 E51.12229
G1 X92.410 Y129.433 E51.45318
G1 X91.804 Y129.433 E51.48270
G1 X86.997 Y134.240 E51.81360
G1 X86.390 Y134.240 E51.84312
G1 X91.197 Y129.433 E52.17401
G1 X90.591 Y129.433 E52.20353
G1 X85.784 Y134.240 E52.53442
G1 X85.178 Y134.240 E52.56394
G1 X89.984 Y129.433 E52.89484
G1 X89.378 Y129.433 E52.92435
G1 X84.571 Y134.240 E53.25525
G1 X84.098 Y134.107 E53.27919
G1 X88.772 Y129.433 E53.60093
G1 X88.165 Y129.433 E53.63045
G1 X83.598 Y134.000 E53.94486
G1 X83.598 Y133.394 E53.97438
G1 X87.559 Y129.433 E54.24705
G1 X86.952 Y129.433 E54.27657
G1 X83.598 Y132.787 E54.50749
G1 X83.598 Y132.181 E54.53701
G1 X86.346 Y129.433 E54.72619
G1 X85.739 Y129.433 E54.75571
G1 X83.598 Y131.575 E54.90314
G1 X83.598 Y130.968 E54.93266
G1 X85.133 Y129.433 E55.03835
G1 X84.527 Y129.433 E55.06787
G1 X83.598 Y130.362 E55.13181
G1 X83.598 Y129.755 E55.16133
G1 X83.920 Y129.433 E55.18353
G1 F1860.000 E52.18353
G92 E0
G1 X83.598 Y88.518 F7800.000
G1 E3.10000 F1860.000
G1 X84.123 Y87.992 E3.13619 F3000.000
G1 X84.730 Y87.992 E3.16571
G1 X83.598 Y89.124 E3.24364
