; generated by Slic3r 1.1.7 on 2015-01-29 at 16:11:37

; perimeters extrusion width = 0.50mm
; infill extrusion width = 0.52mm
; solid infill extrusion width = 0.52mm
; top infill extrusion width = 0.52mm

G21 ; set units to millimeters
M107
M104 S200 ; set temperature
G28 ; home all axes
G1 Z5 F5000 ; lift nozzle

M109 S200 ; wait for temperature to be reached
G90 ; use absolute coordinates
G92 E0
M82 ; use absolute distances for extrusion
G1 F1800.000 E-1.00000
G92 E0
G1 Z0.350 F7800.000
G1 X108.019 Y30.735 F7800.000
G1 E1.00000 F1800.000
G1 X109.162 Y28.741 E1.07480 F1080.000
G1 X110.916 Y27.255 E1.14960
G1 X113.071 Y26.453 E1.22440
G1 X114.279 Y26.343 E1.26386
G1 X117.279 Y26.343 E1.36146
G1 X119.543 Y26.740 E1.43626
G1 X121.538 Y27.884 E1.51106 F1080.000
G1 X123.024 Y29.637 E1.58586
G1 X123.825 Y31.792 E1.66066
G1 X123.936 Y33.000 E1.70012
G1 X123.936 Y167.000 E6.05984
G1 X123.539 Y169.265 E6.13464
G1 X122.395 Y171.259 E6.20944
G1 X120.641 Y172.745 E6.28424
G1 X118.486 Y173.547 E6.35904
G1 X117.279 Y173.657 E6.39849
G1 X114.279 Y173.657 E6.49610
G1 X112.014 Y173.260 E6.57090
G1 X110.020 Y172.116 E6.64570
G1 X108.533 Y170.363 E6.72050
G1 X107.732 Y168.208 E6.79530
G1 X107.622 Y167.000 E6.83475
G1 X107.622 Y33.000 E11.19447
G1 X108.006 Y30.809 E11.26683
G1 F1800.000 E10.26683
G92 E0
G1 X116.272 Y34.007 F7800.000
G1 E1.00000 F1800.000
G1 X116.272 Y165.993 E5.29419 F540.000
G1 X115.286 Y165.993 E5.32626
G1 X115.286 Y34.007 E9.62045
G1 X116.197 Y34.007 E9.65008
G1 X116.929 Y33.350 F7800.000
G1 X116.929 Y166.650 E13.98703 F378.000
G1 X114.629 Y166.650 E14.06186
G1 X114.629 Y33.350 E18.39880
G1 X116.854 Y33.350 E18.47119
G1 X116.679 Y33.783 F7800.000
M106 S251
G1 F1800.000 E17.47119
G92 E0
G1 Z0.750 F7800.000
G1 X116.029 Y34.250 F7800.000
G1 E1.00000 F1800.000
G1 X116.029 Y165.750 E4.72069 F1800.000
G1 X115.529 Y165.750 E4.73484
G1 X115.529 Y34.250 E8.45553
G1 X115.954 Y34.250 E8.46755
G1 X116.529 Y33.750 F7800.000
G1 X116.529 Y166.250 E12.21653 F1800.000
G1 X115.029 Y166.250 E12.25898
G1 X115.029 Y33.750 E16.00796
G1 X116.454 Y33.750 E16.04828
G1 X117.029 Y33.250 F7800.000
G1 X117.029 Y166.750 E19.82556 F1260.000
G1 X114.529 Y166.750 E19.89629
G1 X114.529 Y33.250 E23.67357
G1 X116.954 Y33.250 E23.74218
G1 X116.779 Y33.683 F7800.000
G1 F1800.000 E22.74218
G92 E0
G1 Z1.150 F7800.000
G1 X116.029 Y34.250 F7800.000
G1 E1.00000 F1800.000
G1 X116.029 Y165.750 E4.72069 F1800.000
G1 X115.529 Y165.750 E4.73484
G1 X115.529 Y34.250 E8.45553
G1 X115.954 Y34.250 E8.46755
G1 X116.529 Y33.750 F7800.000
G1 X116.529 Y166.250 E12.21653 F1800.000
G1 X115.029 Y166.250 E12.25898
G1 X115.029 Y33.750 E16.00796
G1 X116.454 Y33.750 E16.04828
G1 X117.029 Y33.250 F7800.000
G1 X117.029 Y166.750 E19.82556 F1260.000
G1 X114.529 Y166.750 E19.89629
G1 X114.529 Y33.250 E23.67357
G1 X116.954 Y33.250 E23.74218
G1 X116.779 Y33.683 F7800.000
G1 F1800.000 E22.74218
G92 E0
G1 Z1.550 F7800.000
G1 X116.029 Y34.250 F7800.000
G1 E1.00000 F1800.000
G1 X116.029 Y165.750 E4.72069 F1800.000
G1 X115.529 Y165.750 E4.73484
G1 X115.529 Y34.250 E8.45553
G1 X115.954 Y34.250 E8.46755
G1 X116.529 Y33.750 F7800.000
G1 X116.529 Y166.250 E12.21653 F1800.000
G1 X115.029 Y166.250 E12.25898
G1 X115.029 Y33.750 E16.00796
G1 X116.454 Y33.750 E16.04828
G1 X117.029 Y33.250 F7800.000
G1 X117.029 Y166.750 E19.82556 F1260.000
G1 X114.529 Y166.750 E19.89629
G1 X114.529 Y33.250 E23.67357
G1 X116.954 Y33.250 E23.74218
G1 X116.779 Y33.683 F7800.000
G1 F1800.000 E22.74218
G92 E0
G1 Z1.950 F7800.000
G1 X116.029 Y34.250 F7800.000
G1 E1.00000 F1800.000
G1 X116.029 Y165.750 E4.72069 F1800.000
G1 X115.529 Y165.750 E4.73484
G1 X115.529 Y34.250 E8.45553
G1 X115.954 Y34.250 E8.46755
G1 X116.529 Y33.750 F7800.000
G1 X116.529 Y166.250 E12.21653 F1800.000
G1 X115.029 Y166.250 E12.25898
G1 X115.029 Y33.750 E16.00796
G1 X116.454 Y33.750 E16.04828
G1 X117.029 Y33.250 F7800.000
G1 X117.029 Y166.750 E19.82556 F1260.000
G1 X114.529 Y166.750 E19.89629
G1 X114.529 Y33.250 E23.67357
G1 X116.954 Y33.250 E23.74218
G1 X116.779 Y33.683 F7800.000
G1 F1800.000 E22.74218
G92 E0
G1 Z2.350 F7800.000
G1 X116.029 Y34.250 F7800.000
G1 E1.00000 F1800.000
G1 X116.029 Y165.750 E4.72069 F1800.000
G1 X115.529 Y165.750 E4.73484
G1 X115.529 Y34.250 E8.45553
G1 X115.954 Y34.250 E8.46755
G1 X116.529 Y33.750 F7800.000
G1 X116.529 Y166.250 E12.21653 F1800.000
G1 X115.029 Y166.250 E12.25898
G1 X115.029 Y33.750 E16.00796
G1 X116.454 Y33.750 E16.04828
G1 X117.029 Y33.250 F7800.000
G1 X117.029 Y166.750 E19.82556 F1260.000
G1 X114.529 Y166.750 E19.89629
G1 X114.529 Y33.250 E23.67357
G1 X116.954 Y33.250 E23.74218
G1 X116.779 Y33.683 F7800.000
G1 F1800.000 E22.74218
G92 E0
G1 Z2.750 F7800.000
G1 X116.029 Y34.250 F7800.000
G1 E1.00000 F1800.000
G1 X116.029 Y165.750 E4.72069 F1800.000
G1 X115.529 Y165.750 E4.73484
G1 X115.529 Y34.250 E8.45553
G1 X115.954 Y34.250 E8.46755
G1 X116.529 Y33.750 F7800.000
G1 X116.529 Y166.250 E12.21653 F1800.000
G1 X115.029 Y166.250 E12.25898
G1 X115.029 Y33.750 E16.00796
G1 X116.454 Y33.750 E16.04828
G1 X117.029 Y33.250 F7800.000
G1 X117.029 Y166.750 E19.82556 F1260.000
G1 X114.529 Y166.750 E19.89629
G1 X114.529 Y33.250 E23.67357
G1 X116.954 Y33.250 E23.74218
G1 X116.779 Y33.683 F7800.000
G1 F1800.000 E22.74218
G92 E0
G1 Z3.150 F7800.000
G1 X116.029 Y34.250 F7800.000
G1 E1.00000 F1800.000
G1 X116.029 Y165.750 E4.72069 F1800.000
G1 X115.529 Y165.750 E4.73484
G1 X115.529 Y34.250 E8.45553
G1 X115.954 Y34.250 E8.46755
G1 X116.529 Y33.750 F7800.000
G1 X116.529 Y166.250 E12.21653 F1800.000
G1 X115.029 Y166.250 E12.25898
G1 X115.029 Y33.750 E16.00796
G1 X116.454 Y33.750 E16.04828
G1 X117.029 Y33.250 F7800.000
G1 X117.029 Y166.750 E19.82556 F1260.000
G1 X114.529 Y166.750 E19.89629
G1 X114.529 Y33.250 E23.67357
G1 X116.954 Y33.250 E23.74218
G1 X116.779 Y33.683 F7800.000
G1 F1800.000 E22.74218
G92 E0
G1 Z3.550 F7800.000
G1 X116.029 Y34.250 F7800.000
G1 E1.00000 F1800.000
G1 X116.029 Y165.750 E4.72069 F1800.000
G1 X115.529 Y165.750 E4.73484
G1 X115.529 Y34.250 E8.45553
G1 X115.954 Y34.250 E8.46755
G1 X116.529 Y33.750 F7800.000
G1 X116.529 Y166.250 E12.21653 F1800.000
G1 X115.029 Y166.250 E12.25898
G1 X115.029 Y33.750 E16.00796
G1 X116.454 Y33.750 E16.04828
G1 X117.029 Y33.250 F7800.000
G1 X117.029 Y166.750 E19.82556 F1260.000
G1 X114.529 Y166.750 E19.89629
G1 X114.529 Y33.250 E23.67357
G1 X116.954 Y33.250 E23.74218
G1 X116.779 Y33.683 F7800.000
G1 F1800.000 E22.74218
G92 E0
G1 Z3.950 F7800.000
G1 X116.029 Y34.250 F7800.000
G1 E1.00000 F1800.000
G1 X116.029 Y165.750 E4.72069 F1800.000
G1 X115.529 Y165.750 E4.73484
G1 X115.529 Y34.250 E8.45553
G1 X115.954 Y34.250 E8.46755
G1 X116.529 Y33.750 F7800.000
G1 X116.529 Y166.250 E12.21653 F1800.000
G1 X115.029 Y166.250 E12.25898
G1 X115.029 Y33.750 E16.00796
G1 X116.454 Y33.750 E16.04828
G1 X117.029 Y33.250 F7800.000
G1 X117.029 Y166.750 E19.82556 F1260.000
G1 X114.529 Y166.750 E19.89629
G1 X114.529 Y33.250 E23.67357
G1 X116.954 Y33.250 E23.74218
G1 X116.779 Y33.683 F7800.000
G1 F1800.000 E22.74218
G92 E0
G1 Z4.350 F7800.000
G1 X116.029 Y34.250 F7800.000
G1 E1.00000 F1800.000
G1 X116.029 Y165.750 E4.72069 F1800.000
G1 X115.529 Y165.750 E4.73484
G1 X115.529 Y34.250 E8.45553
G1 X115.954 Y34.250 E8.46755
G1 X116.529 Y33.750 F7800.000
G1 X116.529 Y166.250 E12.21653 F1800.000
G1 X115.029 Y166.250 E12.25898
G1 X115.029 Y33.750 E16.00796
G1 X116.454 Y33.750 E16.04828
G1 X117.029 Y33.250 F7800.000
G1 X117.029 Y166.750 E19.82556 F1260.000
G1 X114.529 Y166.750 E19.89629
G1 X114.529 Y33.250 E23.67357
G1 X116.954 Y33.250 E23.74218
G1 X116.779 Y33.683 F7800.000
G1 F1800.000 E22.74218
G92 E0
G1 Z4.750 F7800.000
G1 X116.029 Y34.250 F7800.000
G1 E1.00000 F1800.000
G1 X116.029 Y165.750 E4.72069 F1800.000
G1 X115.529 Y165.750 E4.73484
G1 X115.529 Y34.250 E8.45553
G1 X115.954 Y34.250 E8.46755
G1 X116.529 Y33.750 F7800.000
G1 X116.529 Y166.250 E12.21653 F1800.000
G1 X115.029 Y166.250 E12.25898
G1 X115.029 Y33.750 E16.00796
G1 X116.454 Y33.750 E16.04828
G1 X117.029 Y33.250 F7800.000
G1 X117.029 Y166.750 E19.82556 F1260.000
G1 X114.529 Y166.750 E19.89629
G1 X114.529 Y33.250 E23.67357
G1 X116.954 Y33.250 E23.74218
G1 X116.779 Y33.683 F7800.000
G1 F1800.000 E22.74218
G92 E0
G1 Z5.150 F7800.000
G1 X116.029 Y34.250 F7800.000
G1 E1.00000 F1800.000
G1 X116.029 Y165.750 E4.72069 F1800.000
G1 X115.529 Y165.750 E4.73484
G1 X115.529 Y34.250 E8.45553
G1 X115.954 Y34.250 E8.46755
G1 X116.529 Y33.750 F7800.000
G1 X116.529 Y166.250 E12.21653 F1800.000
G1 X115.029 Y166.250 E12.25898
G1 X115.029 Y33.750 E16.00796
G1 X116.454 Y33.750 E16.04828
G1 X117.029 Y33.250 F7800.000
G1 X117.029 Y166.750 E19.82556 F1260.000
G1 X114.529 Y166.750 E19.89629
G1 X114.529 Y33.250 E23.67357
G1 X116.954 Y33.250 E23.74218
G1 X116.779 Y33.683 F7800.000
G1 F1800.000 E22.74218
G92 E0
G1 Z5.550 F7800.000
G1 X116.029 Y34.250 F7800.000
G1 E1.00000 F1800.000
G1 X116.029 Y165.750 E4.72069 F1800.000
G1 X115.529 Y165.750 E4.73484
G1 X115.529 Y34.250 E8.45553
G1 X115.954 Y34.250 E8.46755
G1 X116.529 Y33.750 F7800.000
G1 X116.529 Y166.250 E12.21653 F1800.000
G1 X115.029 Y166.250 E12.25898
G1 X115.029 Y33.750 E16.00796
G1 X116.454 Y33.750 E16.04828
G1 X117.029 Y33.250 F7800.000
G1 X117.029 Y166.750 E19.82556 F1260.000
G1 X114.529 Y166.750 E19.89629
G1 X114.529 Y33.250 E23.67357
G1 X116.954 Y33.250 E23.74218
G1 X116.779 Y33.683 F7800.000
G1 F1800.000 E22.74218
G92 E0
G1 Z5.950 F7800.000
G1 X116.029 Y34.250 F7800.000
G1 E1.00000 F1800.000
G1 X116.029 Y165.750 E4.72069 F1800.000
G1 X115.529 Y165.750 E4.73484
G1 X115.529 Y34.250 E8.45553
G1 X115.954 Y34.250 E8.46755
G1 X116.529 Y33.750 F7800.000
G1 X116.529 Y166.250 E12.21653 F1800.000
G1 X115.029 Y166.250 E12.25898
G1 X115.029 Y33.750 E16.00796
G1 X116.454 Y33.750 E16.04828
G1 X117.029 Y33.250 F7800.000
G1 X117.029 Y166.750 E19.82556 F1260.000
G1 X114.529 Y166.750 E19.89629
G1 X114.529 Y33.250 E23.67357
G1 X116.954 Y33.250 E23.74218
G1 X116.779 Y33.683 F7800.000
G1 F1800.000 E22.74218
G92 E0
G1 Z6.350 F7800.000
G1 X116.029 Y34.250 F7800.000
G1 E1.00000 F1800.000
G1 X116.029 Y165.750 E4.72069 F1800.000
G1 X115.529 Y165.750 E4.73484
G1 X115.529 Y34.250 E8.45553
G1 X115.954 Y34.250 E8.46755
G1 X116.529 Y33.750 F7800.000
G1 X116.529 Y166.250 E12.21653 F1800.000
G1 X115.029 Y166.250 E12.25898
G1 X115.029 Y33.750 E16.00796
G1 X116.454 Y33.750 E16.04828
G1 X117.029 Y33.250 F7800.000
G1 X117.029 Y166.750 E19.82556 F1260.000
G1 X114.529 Y166.750 E19.89629
G1 X114.529 Y33.250 E23.67357
G1 X116.954 Y33.250 E23.74218
G1 X116.779 Y33.683 F7800.000
G1 F1800.000 E22.74218
G92 E0
G1 Z6.750 F7800.000
G1 X116.029 Y34.250 F7800.000
G1 E1.00000 F1800.000
G1 X116.029 Y165.750 E4.72069 F1800.000
G1 X115.529 Y165.750 E4.73484
G1 X115.529 Y34.250 E8.45553
G1 X115.954 Y34.250 E8.46755
G1 X116.529 Y33.750 F7800.000
G1 X116.529 Y166.250 E12.21653 F1800.000
G1 X115.029 Y166.250 E12.25898
G1 X115.029 Y33.750 E16.00796
G1 X116.454 Y33.750 E16.04828
G1 X117.029 Y33.250 F7800.000
G1 X117.029 Y166.750 E19.82556 F1260.000
G1 X114.529 Y166.750 E19.89629
G1 X114.529 Y33.250 E23.67357
G1 X116.954 Y33.250 E23.74218
G1 X116.779 Y33.683 F7800.000
G1 F1800.000 E22.74218
G92 E0
G1 Z7.150 F7800.000
G1 X116.029 Y34.250 F7800.000
G1 E1.00000 F1800.000
G1 X116.029 Y165.750 E4.72069 F1800.000
G1 X115.529 Y165.750 E4.73484
G1 X115.529 Y34.250 E8.45553
G1 X115.954 Y34.250 E8.46755
G1 X116.529 Y33.750 F7800.000
G1 X116.529 Y166.250 E12.21653 F1800.000
G1 X115.029 Y166.250 E12.25898
G1 X115.029 Y33.750 E16.00796
G1 X116.454 Y33.750 E16.04828
G1 X117.029 Y33.250 F7800.000
G1 X117.029 Y166.750 E19.82556 F1260.000
G1 X114.529 Y166.750 E19.89629
G1 X114.529 Y33.250 E23.67357
G1 X116.954 Y33.250 E23.74218
G1 X116.779 Y33.683 F7800.000
G1 F1800.000 E22.74218
G92 E0
G1 Z7.550 F7800.000
G1 X116.029 Y34.250 F7800.000
G1 E1.00000 F1800.000
G1 X116.029 Y165.750 E4.72069 F1800.000
G1 X115.529 Y165.750 E4.73484
G1 X115.529 Y34.250 E8.45553
G1 X115.954 Y34.250 E8.46755
G1 X116.529 Y33.750 F7800.000
G1 X116.529 Y166.250 E12.21653 F1800.000
G1 X115.029 Y166.250 E12.25898
G1 X115.029 Y33.750 E16.00796
G1 X116.454 Y33.750 E16.04828
G1 X117.029 Y33.250 F7800.000
G1 X117.029 Y166.750 E19.82556 F1260.000
G1 X114.529 Y166.750 E19.89629
G1 X114.529 Y33.250 E23.67357
G1 X116.954 Y33.250 E23.74218
G1 X116.779 Y33.683 F7800.000
G1 F1800.000 E22.74218
G92 E0
G1 Z7.950 F7800.000
G1 X116.029 Y34.250 F7800.000
G1 E1.00000 F1800.000
G1 X116.029 Y165.750 E4.72069 F1800.000
G1 X115.529 Y165.750 E4.73484
G1 X115.529 Y34.250 E8.45553
G1 X115.954 Y34.250 E8.46755
G1 X116.529 Y33.750 F7800.000
G1 X116.529 Y166.250 E12.21653 F1800.000
G1 X115.029 Y166.250 E12.25898
G1 X115.029 Y33.750 E16.00796
G1 X116.454 Y33.750 E16.04828
G1 X117.029 Y33.250 F7800.000
G1 X117.029 Y166.750 E19.82556 F1260.000
G1 X114.529 Y166.750 E19.89629
G1 X114.529 Y33.250 E23.67357
G1 X116.954 Y33.250 E23.74218
G1 X116.779 Y33.683 F7800.000
G1 F1800.000 E22.74218
G92 E0
G1 Z8.350 F7800.000
G1 X116.029 Y34.250 F7800.000
G1 E1.00000 F1800.000
G1 X116.029 Y165.750 E4.72069 F1800.000
G1 X115.529 Y165.750 E4.73484
G1 X115.529 Y34.250 E8.45553
G1 X115.954 Y34.250 E8.46755
G1 X116.529 Y33.750 F7800.000
G1 X116.529 Y166.250 E12.21653 F1800.000
G1 X115.029 Y166.250 E12.25898
G1 X115.029 Y33.750 E16.00796
G1 X116.454 Y33.750 E16.04828
G1 X117.029 Y33.250 F7800.000
G1 X117.029 Y166.750 E19.82556 F1260.000
G1 X114.529 Y166.750 E19.89629
G1 X114.529 Y33.250 E23.67357
G1 X116.954 Y33.250 E23.74218
G1 X116.779 Y33.683 F7800.000
G1 F1800.000 E22.74218
G92 E0
G1 Z8.750 F7800.000
G1 X116.029 Y34.250 F7800.000
G1 E1.00000 F1800.000
G1 X116.029 Y165.750 E4.72069 F1800.000
G1 X115.529 Y165.750 E4.73484
G1 X115.529 Y34.250 E8.45553
G1 X115.954 Y34.250 E8.46755
G1 X116.529 Y33.750 F7800.000
G1 X116.529 Y166.250 E12.21653 F1800.000
G1 X115.029 Y166.250 E12.25898
G1 X115.029 Y33.750 E16.00796
G1 X116.454 Y33.750 E16.04828
G1 X117.029 Y33.250 F7800.000
G1 X117.029 Y166.750 E19.82556 F1260.000
G1 X114.529 Y166.750 E19.89629
G1 X114.529 Y33.250 E23.67357
G1 X116.954 Y33.250 E23.74218
G1 X116.779 Y33.683 F7800.000
G1 F1800.000 E22.74218
G92 E0
G1 Z9.150 F7800.000
G1 X116.029 Y34.250 F7800.000
G1 E1.00000 F1800.000
G1 X116.029 Y165.750 E4.72069 F1800.000
G1 X115.529 Y165.750 E4.73484
G1 X115.529 Y34.250 E8.45553
G1 X115.954 Y34.250 E8.46755
G1 X116.529 Y33.750 F7800.000
G1 X116.529 Y166.250 E12.21653 F1800.000
G1 X115.029 Y166.250 E12.25898
G1 X115.029 Y33.750 E16.00796
G1 X116.454 Y33.750 E16.04828
G1 X117.029 Y33.250 F7800.000
G1 X117.029 Y166.750 E19.82556 F1260.000
G1 X114.529 Y166.750 E19.89629
G1 X114.529 Y33.250 E23.67357
G1 X116.954 Y33.250 E23.74218
G1 X116.779 Y33.683 F7800.000
G1 F1800.000 E22.74218
G92 E0
G1 Z9.550 F7800.000
G1 X116.029 Y34.250 F7800.000
G1 E1.00000 F1800.000
G1 X116.029 Y165.750 E4.72069 F1800.000
G1 X115.529 Y165.750 E4.73484
G1 X115.529 Y34.250 E8.45553
G1 X115.954 Y34.250 E8.46755
G1 X116.529 Y33.750 F7800.000
G1 X116.529 Y166.250 E12.21653 F1800.000
G1 X115.029 Y166.250 E12.25898
G1 X115.029 Y33.750 E16.00796
G1 X116.454 Y33.750 E16.04828
G1 X117.029 Y33.250 F7800.000
G1 X117.029 Y166.750 E19.82556 F1260.000
G1 X114.529 Y166.750 E19.89629
G1 X114.529 Y33.250 E23.67357
G1 X116.954 Y33.250 E23.74218
G1 X116.779 Y33.683 F7800.000
G1 F1800.000 E22.74218
G92 E0
G1 Z9.950 F7800.000
G1 X116.029 Y34.250 F7800.000
G1 E1.00000 F1800.000
G1 X116.029 Y165.750 E4.72069 F1800.000
G1 X115.529 Y165.750 E4.73484
G1 X115.529 Y34.250 E8.45553
G1 X115.954 Y34.250 E8.46755
G1 X116.529 Y33.750 F7800.000
G1 X116.529 Y166.250 E12.21653 F1800.000
G1 X115.029 Y166.250 E12.25898
G1 X115.029 Y33.750 E16.00796
G1 X116.454 Y33.750 E16.04828
G1 X117.029 Y33.250 F7800.000
G1 X117.029 Y166.750 E19.82556 F1260.000
G1 X114.529 Y166.750 E19.89629
G1 X114.529 Y33.250 E23.67357
G1 X116.954 Y33.250 E23.74218
G1 X116.779 Y33.683 F7800.000
G1 F1800.000 E22.74218
G92 E0
G1 Z10.350 F7800.000
G1 X116.029 Y34.250 F7800.000
G1 E1.00000 F1800.000
G1 X116.029 Y165.750 E4.72069 F1800.000
G1 X115.529 Y165.750 E4.73484
G1 X115.529 Y34.250 E8.45553
G1 X115.954 Y34.250 E8.46755
G1 X116.529 Y33.750 F7800.000
