; generated by Slic3r 1.1.7 on 2015-03-17 at 10:50:02

; perimeters extrusion width = 0.40mm
; infill extrusion width = 0.56mm
; solid infill extrusion width = 0.56mm
; top infill extrusion width = 0.56mm
; support material extrusion width = 0.40mm

G21 ; set units to millimeters
M190 S60 ; wait for bed temperature to be reached
M104 S215 ; set temperature
M106 S255; Turn on Fan fully
G28 ; home all axes Start of G Code Slic3r
 
  
M109 S215 ; wait for temperature to be reached
G90 ; use absolute coordinates
G92 E0
M82 ; use absolute distances for extrusion
G1 F1980.000 E-4.00000
G92 E0
G1 Z0.240 F6000.000
G1 X41.873 Y67.890 F6000.000
G1 E4.00000 F1980.000
G1 X44.359 Y67.292 E4.06998 F1650.000
G1 X105.136 Y64.887 E5.73496
G1 X108.373 Y64.911 E5.82357
G1 X159.316 Y69.223 E7.22306 F1650.000
G1 X161.520 Y69.808 E7.28547
G1 X163.390 Y71.113 E7.34789
G1 X164.699 Y72.980 E7.41030
G1 X165.313 Y75.748 E7.48792
G1 X165.309 Y119.007 E8.67206
G1 X164.912 Y121.253 E8.73448
G1 X163.769 Y123.226 E8.79689
G1 X162.019 Y124.687 E8.85931
G1 X160.260 Y125.381 E8.91105
G1 X119.363 Y134.960 E10.06085
G1 X117.665 Y135.112 E10.10751
G1 X112.964 Y135.107 E10.23619
G1 X44.371 Y132.709 E12.11497
G1 X42.141 Y132.234 E12.17739
G1 X39.969 Y130.795 E12.24870
G1 X37.483 Y128.309 E12.34493
G1 X36.177 Y126.440 E12.40735
G1 X35.567 Y123.680 E12.48473
G1 X35.567 Y76.324 E13.78102
G1 X35.964 Y74.078 E13.84344
G1 X37.498 Y71.680 E13.92138
G1 X40.001 Y69.192 E14.01798
G1 X41.824 Y67.924 E14.07875
G1 F1980.000 E10.07875
G92 E0
G1 X42.031 Y68.120 F6000.000
G1 E4.00000 F1980.000
G1 X44.369 Y67.566 E4.06577 F1650.000
G1 X105.136 Y65.162 E5.73046
G1 X108.350 Y65.184 E5.81843
G1 X159.293 Y69.497 E7.21792 F1650.000
G1 X161.448 Y70.077 E7.27900
G1 X163.263 Y71.375 E7.34009
G1 X164.509 Y73.226 E7.40117
G1 X165.038 Y75.748 E7.47172
G1 X165.035 Y119.007 E8.65586
G1 X164.638 Y121.203 E8.71694
G1 X163.497 Y123.121 E8.77802
G1 X161.758 Y124.519 E8.83911
G1 X160.198 Y125.114 E8.88481
G1 X119.332 Y134.688 E10.03373
G1 X117.665 Y134.838 E10.07954
G1 X112.974 Y134.833 E10.20795
G1 X44.381 Y132.435 E12.08673
G1 X42.200 Y131.961 E12.14782
G1 X40.163 Y130.601 E12.21486
G1 X37.677 Y128.115 E12.31109
G1 X36.406 Y126.281 E12.37218
G1 X35.841 Y123.680 E12.44504
G1 X35.841 Y76.324 E13.74134
G1 X36.238 Y74.128 E13.80242
G1 X37.692 Y71.874 E13.87583
G1 X40.194 Y69.386 E13.97243
G1 X41.982 Y68.154 E14.03186
G1 F1980.000 E10.03186
G92 E0
G1 X150.931 Y108.747 F6000.000
G1 E4.00000 F1980.000
G1 X140.594 Y108.747 E4.28297 F900.000
G1 X140.594 Y93.834 E4.69120
G1 X150.931 Y93.835 E4.97417
G1 X150.931 Y108.687 E5.38073
G1 F1980.000 E1.38073
G92 E0
G1 X150.657 Y108.473 F6000.000
G1 E4.00000 F1980.000
G1 X140.868 Y108.473 E4.26795 F900.000
G1 X140.868 Y94.108 E4.66116
G1 X150.657 Y94.109 E4.92911
G1 X150.657 Y108.413 E5.32066
G1 F1980.000 E1.32066
G92 E0
G1 X150.382 Y108.198 F6000.000
G1 E4.00000 F1980.000
G1 X141.142 Y108.198 E4.25293 F720.000
G1 X141.142 Y94.382 E4.63112
G1 X150.382 Y94.383 E4.88405
G1 X150.382 Y108.138 E5.26058
G1 F1980.000 E1.26058
G92 E0
G1 X150.382 Y108.598 F6000.000
G1 X158.092 Y118.338 F6000.000
G1 E4.00000 F1980.000
G1 X133.439 Y118.334 E4.67483 F900.000
G1 X133.431 Y76.415 E5.82230
G1 X142.722 Y76.413 E6.07661
G1 X142.722 Y82.269 E6.23691
G1 X142.939 Y83.370 E6.26763
G1 X143.602 Y84.364 E6.30032
G1 X144.595 Y85.028 E6.33303
G1 X145.764 Y85.259 E6.36564
G1 X146.933 Y85.028 E6.39826
G1 X147.926 Y84.366 E6.43093
G1 X148.588 Y83.373 E6.46359
G1 X148.809 Y82.270 E6.49438
G1 X148.809 Y76.416 E6.65462
G1 X158.095 Y76.417 E6.90882
G1 X158.092 Y118.278 E8.05470
G1 F1980.000 E4.05470
G92 E0
G1 X133.880 Y76.141 F6000.000
G1 E4.00000 F1980.000
G1 X142.996 Y76.139 E4.24955 F900.000
G1 X142.996 Y82.242 E4.41662
G1 X143.198 Y83.264 E4.44513
G1 X143.800 Y84.166 E4.47481
G1 X144.702 Y84.769 E4.50452
G1 X145.764 Y84.980 E4.53415
G1 X146.826 Y84.769 E4.56378
G1 X147.729 Y84.168 E4.59347
G1 X148.330 Y83.266 E4.62314
G1 X148.535 Y82.243 E4.65170
G1 X148.535 Y76.142 E4.81870
G1 X158.370 Y76.143 E5.08792
G1 X158.366 Y118.612 E6.25046
G1 X133.165 Y118.609 E6.94031
G1 X133.157 Y76.141 E8.10280
G1 X133.820 Y76.141 E8.12094
G1 F1980.000 E4.12094
G92 E0
G1 X132.882 Y75.866 F6000.000
G1 E4.00000 F1980.000
G1 X143.270 Y75.865 E4.28435 F720.000
G1 X143.270 Y82.215 E4.45819
G1 X143.457 Y83.158 E4.48450
G1 X143.998 Y83.968 E4.51116
G1 X144.809 Y84.511 E4.53788
G1 X145.764 Y84.700 E4.56453
G1 X146.719 Y84.511 E4.59117
G1 X147.531 Y83.970 E4.61787
G1 X148.071 Y83.158 E4.64456
G1 X148.260 Y82.216 E4.67089
G1 X148.260 Y75.868 E4.84465
G1 X158.644 Y75.868 E5.12889
G1 X158.640 Y118.887 E6.30645
G1 X132.890 Y118.883 E7.01131
G1 X132.882 Y75.926 E8.18718
G1 F1980.000 E4.18718
G92 E0
G1 X133.229 Y76.066 F6000.000
G1 X135.299 Y76.594 F6000.000
G1 E4.00000 F1980.000
G1 X157.914 Y99.209 E4.87547 F900.000
G1 X157.914 Y99.598 E4.88613
G1 X134.910 Y76.594 E5.77666
G1 X134.521 Y76.594 E5.78732
G1 X157.914 Y99.987 E6.69291
G1 X157.914 Y100.376 E6.70357
G1 X134.132 Y76.594 E7.62423
G1 X133.743 Y76.594 E7.63488
G1 X150.805 Y93.656 E8.29538
G1 X150.415 Y93.656 E8.30603
G1 X133.610 Y76.851 E8.95659
G1 X133.610 Y77.240 E8.96725
G1 X150.026 Y93.656 E9.60273
G1 X149.637 Y93.656 E9.61339
G1 X133.610 Y77.629 E10.23380
G1 X133.610 Y78.018 E10.24446
G1 X149.248 Y93.656 E10.84980
G1 X148.858 Y93.656 E10.86045
G1 X133.610 Y78.408 E11.45073
G1 X133.611 Y78.797 E11.46138
G1 X148.469 Y93.655 E12.03658
G1 X148.080 Y93.655 E12.04724
G1 X133.611 Y79.186 E12.60736
G1 X133.611 Y79.576 E12.61802
G1 X147.691 Y93.655 E13.16307
G1 X147.301 Y93.655 E13.17373
G1 X133.611 Y79.965 E13.70371
G1 X133.611 Y80.354 E13.71437
G1 X146.912 Y93.655 E14.22928
G1 X146.523 Y93.655 E14.23994
G1 X133.611 Y80.743 E14.73978
G1 X133.611 Y81.133 E14.75044
G1 X146.133 Y93.655 E15.23520
G1 X145.744 Y93.655 E15.24586
G1 X133.611 Y81.522 E15.71556
G1 X133.611 Y81.911 E15.72621
G1 X145.355 Y93.655 E16.18084
G1 X144.966 Y93.655 E16.19150
G1 X133.611 Y82.301 E16.63105
G1 X133.611 Y82.690 E16.64171
G1 X144.576 Y93.655 E17.06619
G1 X144.187 Y93.655 E17.07685
G1 X133.611 Y83.079 E17.48626
G1 X133.611 Y83.469 E17.49691
G1 X143.798 Y93.655 E17.89125
G1 X143.409 Y93.655 E17.90191
G1 X133.611 Y83.858 E18.28118
G1 X133.612 Y84.247 E18.29183
G1 X143.019 Y93.655 E18.65603
G1 X142.630 Y93.655 E18.66668
G1 X133.612 Y84.636 E19.01581
G1 X133.612 Y85.026 E19.02647
G1 X142.241 Y93.655 E19.36052
G1 X141.852 Y93.655 E19.37117
G1 X133.612 Y85.415 E19.69016
G1 X133.612 Y85.804 E19.70081
G1 X141.462 Y93.655 E20.00472
G1 X141.073 Y93.655 E20.01538
G1 X133.612 Y86.194 E20.30422
G1 X133.612 Y86.583 E20.31487
G1 X140.684 Y93.655 E20.58864
G1 X140.415 Y93.775 E20.59671
G1 X133.612 Y86.972 E20.86006
G1 X133.612 Y87.361 E20.87071
G1 X140.415 Y94.164 E21.13406
G1 X140.415 Y94.553 E21.14472
G1 X133.612 Y87.751 E21.40806
G1 X133.612 Y88.140 E21.41872
G1 X140.415 Y94.943 E21.68206
G1 X140.415 Y95.332 E21.69271
G1 X133.612 Y88.529 E21.95605
G1 X133.612 Y88.919 E21.96670
G1 X140.415 Y95.721 E22.23003
G1 X140.415 Y96.110 E22.24069
G1 X133.612 Y89.308 E22.50402
G1 X133.613 Y89.697 E22.51467
G1 X140.415 Y96.499 E22.77800
G1 X140.415 Y96.889 E22.78865
G1 X133.613 Y90.086 E23.05197
G1 X133.613 Y90.476 E23.06263
G1 X140.415 Y97.278 E23.32595
G1 X140.415 Y97.667 E23.33660
G1 X133.613 Y90.865 E23.59992
G1 X133.613 Y91.254 E23.61058
G1 X140.415 Y98.056 E23.87389
G1 X140.415 Y98.445 E23.88454
G1 X133.613 Y91.644 E24.14785
G1 X133.613 Y92.033 E24.15851
G1 X140.415 Y98.835 E24.42182
G1 X140.415 Y99.224 E24.43247
G1 X133.613 Y92.422 E24.69578
G1 X133.613 Y92.811 E24.70644
G1 X140.415 Y99.613 E24.96974
G1 X140.415 Y100.002 E24.98039
G1 X133.613 Y93.201 E25.24369
G1 X133.613 Y93.590 E25.25435
G1 X140.415 Y100.392 E25.51765
G1 X140.415 Y100.781 E25.52830
G1 X133.613 Y93.979 E25.79160
G1 X133.613 Y94.369 E25.80225
G1 X140.415 Y101.170 E26.06554
G1 X140.415 Y101.559 E26.07620
G1 X133.613 Y94.758 E26.33949
G1 X133.613 Y95.147 E26.35014
G1 X140.415 Y101.948 E26.61343
G1 X140.415 Y102.338 E26.62408
G1 X133.614 Y95.537 E26.88737
G1 X133.614 Y95.926 E26.89802
G1 X140.415 Y102.727 E27.16130
G1 X140.415 Y103.116 E27.17196
G1 X133.614 Y96.315 E27.43524
G1 X133.614 Y96.704 E27.44589
G1 X140.415 Y103.505 E27.70917
G1 X140.415 Y103.895 E27.71982
G1 X133.614 Y97.094 E27.98310
G1 X133.614 Y97.483 E27.99375
G1 X140.415 Y104.284 E28.25702
G1 X140.415 Y104.673 E28.26768
G1 X133.614 Y97.872 E28.53094
G1 X133.614 Y98.262 E28.54160
G1 X140.415 Y105.062 E28.80487
G1 X140.415 Y105.451 E28.81552
G1 X133.614 Y98.651 E29.07878
G1 X133.614 Y99.040 E29.08944
G1 X140.415 Y105.841 E29.35270
G1 X140.415 Y106.230 E29.36335
G1 X133.614 Y99.429 E29.62661
G1 X133.614 Y99.819 E29.63726
G1 X140.415 Y106.619 E29.90052
G1 X140.415 Y107.008 E29.91117
G1 X133.614 Y100.208 E30.17442
G1 X133.614 Y100.597 E30.18508
G1 X140.415 Y107.398 E30.44833
G1 X140.415 Y107.787 E30.45898
G1 X133.615 Y100.987 E30.72223
G1 X133.615 Y101.376 E30.73288
G1 X140.415 Y108.176 E30.99613
G1 X140.415 Y108.565 E31.00678
G1 X133.615 Y101.765 E31.27002
G1 X133.615 Y102.154 E31.28068
G1 X149.618 Y118.158 E31.90020
G1 X150.007 Y118.158 E31.91085
G1 X140.776 Y108.926 E32.26824
G1 X141.165 Y108.926 E32.27889
G1 X150.397 Y118.158 E32.63628
G1 X150.786 Y118.158 E32.64694
G1 X141.554 Y108.926 E33.00433
G1 X141.943 Y108.926 E33.01498
G1 X151.175 Y118.158 E33.37237
G1 X151.565 Y118.158 E33.38303
G1 X142.332 Y108.926 E33.74042
G1 X142.722 Y108.926 E33.75108
G1 X151.954 Y118.158 E34.10847
G1 X152.343 Y118.158 E34.11913
G1 X143.111 Y108.926 E34.47653
G1 X143.500 Y108.926 E34.48718
G1 X152.732 Y118.158 E34.84459
G1 X153.122 Y118.158 E34.85524
G1 X143.889 Y108.926 E35.21265
G1 X144.278 Y108.926 E35.22330
G1 X153.511 Y118.158 E35.58071
G1 X153.900 Y118.159 E35.59136
G1 X144.668 Y108.926 E35.94877
G1 X145.057 Y108.926 E35.95942
G1 X154.290 Y118.159 E36.31684
G1 X154.679 Y118.159 E36.32749
G1 X145.446 Y108.926 E36.68490
G1 X145.835 Y108.926 E36.69556
G1 X155.068 Y118.159 E37.05297
G1 X155.457 Y118.159 E37.06363
G1 X146.225 Y108.926 E37.42105
G1 X146.614 Y108.926 E37.43170
G1 X155.847 Y118.159 E37.78912
G1 X156.236 Y118.159 E37.79978
G1 X147.003 Y108.926 E38.15720
G1 X147.392 Y108.926 E38.16785
G1 X156.625 Y118.159 E38.52528
G1 X157.015 Y118.159 E38.53594
G1 X147.781 Y108.926 E38.89336
G1 X148.171 Y108.926 E38.90402
G1 X157.404 Y118.159 E39.26145
G1 X157.793 Y118.159 E39.27210
G1 X148.560 Y108.926 E39.62953
G1 X148.949 Y108.926 E39.64019
G1 X157.913 Y117.890 E39.98719
G1 X157.913 Y117.500 E39.99784
G1 X149.338 Y108.926 E40.32977
G1 X149.728 Y108.926 E40.34043
G1 X157.913 Y117.111 E40.65729
G1 X157.913 Y116.722 E40.66795
G1 X150.117 Y108.926 E40.96974
G1 X150.506 Y108.926 E40.98040
G1 X157.913 Y116.333 E41.26713
G1 X157.913 Y115.944 E41.27779
G1 X150.895 Y108.926 E41.54945
G1 X151.110 Y108.751 E41.55703
G1 X157.913 Y115.555 E41.82039
G1 X157.913 Y115.165 E41.83104
G1 X151.110 Y108.362 E42.09441
G1 X151.110 Y107.973 E42.10506
G1 X157.913 Y114.776 E42.36843
G1 X157.913 Y114.387 E42.37908
G1 X151.110 Y107.584 E42.64245
G1 X151.110 Y107.194 E42.65311
G1 X157.913 Y113.998 E42.91647
G1 X157.913 Y113.609 E42.92713
G1 X151.110 Y106.805 E43.19050
G1 X151.110 Y106.416 E43.20115
G1 X157.913 Y113.219 E43.46452
G1 X157.913 Y112.830 E43.47518
G1 X151.110 Y106.027 E43.73855
G1 X151.110 Y105.638 E43.74920
G1 X157.913 Y112.441 E44.01258
G1 X157.913 Y112.052 E44.02323
G1 X151.110 Y105.248 E44.28660
G1 X151.110 Y104.859 E44.29726
G1 X157.913 Y111.663 E44.56063
G1 X157.913 Y111.273 E44.57129
G1 X151.110 Y104.470 E44.83466
G1 X151.110 Y104.081 E44.84532
G1 X157.913 Y110.884 E45.10870
G1 X157.913 Y110.495 E45.11935
G1 X151.110 Y103.692 E45.38273
G1 X151.110 Y103.302 E45.39338
G1 X157.913 Y110.106 E45.65676
G1 X157.914 Y109.717 E45.66742
G1 X151.110 Y102.913 E45.93080
G1 X151.110 Y102.524 E45.94145
G1 X157.914 Y109.328 E46.20483
G1 X157.914 Y108.938 E46.21549
G1 X151.110 Y102.135 E46.47887
G1 X151.110 Y101.745 E46.48953
G1 X157.914 Y108.549 E46.75291
G1 X157.914 Y108.160 E46.76356
G1 X151.110 Y101.356 E47.02695
G1 X151.110 Y100.967 E47.03760
G1 X157.914 Y107.771 E47.30099
G1 X157.914 Y107.382 E47.31164
G1 X151.110 Y100.578 E47.57503
G1 X151.110 Y100.189 E47.58569
G1 X157.914 Y106.992 E47.84908
G1 X157.914 Y106.603 E47.85973
G1 X151.110 Y99.799 E48.12312
G1 X151.110 Y99.410 E48.13377
G1 X157.914 Y106.214 E48.39717
G1 X157.914 Y105.825 E48.40782
G1 X151.110 Y99.021 E48.67121
G1 X151.110 Y98.632 E48.68187
G1 X157.914 Y105.436 E48.94526
G1 X157.914 Y105.047 E48.95591
G1 X151.110 Y98.243 E49.21931
G1 X151.110 Y97.853 E49.22996
G1 X157.914 Y104.657 E49.49336
G1 X157.914 Y104.268 E49.50401
G1 X151.110 Y97.464 E49.76741
G1 X151.110 Y97.075 E49.77807
G1 X157.914 Y103.879 E50.04146
G1 X157.914 Y103.490 E50.05212
G1 X151.110 Y96.686 E50.31552
G1 X151.110 Y96.296 E50.32617
G1 X157.914 Y103.101 E50.58957
G1 X157.914 Y102.711 E50.60023
G1 X151.110 Y95.907 E50.86363
G1 X151.110 Y95.518 E50.87428
G1 X157.914 Y102.322 E51.13768
G1 X157.914 Y101.933 E51.14834
G1 X151.110 Y95.129 E51.41174
G1 X151.110 Y94.740 E51.42240
G1 X157.914 Y101.544 E51.68580
G1 X157.914 Y101.155 E51.69646
G1 X151.110 Y94.350 E51.95986
G1 X151.110 Y93.961 E51.97052
G1 X157.914 Y100.765 E52.23392
G1 F1980.000 E48.23392
G92 E0
G1 X149.229 Y118.158 F6000.000
G1 E4.00000 F1980.000
G1 X133.615 Y102.544 E4.60445 F900.000
G1 X133.615 Y102.933 E4.61510
G1 X148.840 Y118.158 E5.20448
G1 X148.450 Y118.158 E5.21514
G1 X133.615 Y103.322 E5.78944
G1 X133.615 Y103.712 E5.80010
G1 X148.061 Y118.158 E6.35933
G1 X147.672 Y118.158 E6.36998
G1 X133.615 Y104.101 E6.91414
G1 X133.615 Y104.490 E6.92480
G1 X147.282 Y118.158 E7.45388
G1 X146.893 Y118.157 E7.46454
G1 X133.615 Y104.880 E7.97855
G1 X133.615 Y105.269 E7.98921
G1 X146.504 Y118.157 E8.48815
G1 X146.115 Y118.157 E8.49880
G1 X133.615 Y105.658 E8.98267
G1 X133.615 Y106.047 E8.99333
G1 X145.725 Y118.157 E9.46212
G1 X145.336 Y118.157 E9.47278
G1 X133.616 Y106.437 E9.92650
G1 X133.616 Y106.826 E9.93716
G1 X144.947 Y118.157 E10.37581
G1 X144.558 Y118.157 E10.38647
G1 X133.616 Y107.215 E10.81005
G1 X133.616 Y107.605 E10.82070
G1 X144.168 Y118.157 E11.22921
G1 X143.779 Y118.157 E11.23986
G1 X133.616 Y107.994 E11.63330
G1 X133.616 Y108.383 E11.64395
G1 X143.390 Y118.157 E12.02231
G1 X143.000 Y118.157 E12.03297
G1 X133.616 Y108.772 E12.39626
G1 X133.616 Y109.162 E12.40691
G1 X142.611 Y118.157 E12.75513
G1 X142.222 Y118.157 E12.76579
G1 X133.616 Y109.551 E13.09893
G1 X133.616 Y109.940 E13.10959
G1 X141.833 Y118.157 E13.42766
G1 X141.443 Y118.157 E13.43831
G1 X133.616 Y110.330 E13.74131
G1 X133.616 Y110.719 E13.75197
G1 X141.054 Y118.157 E14.03989
G1 X140.665 Y118.157 E14.05055
G1 X133.616 Y111.108 E14.32340
G1 X133.616 Y111.497 E14.33406
G1 X140.275 Y118.156 E14.59184
G1 X139.886 Y118.156 E14.60250
G1 X133.617 Y111.887 E14.84520
G1 X133.617 Y112.276 E14.85586
G1 X139.497 Y118.156 E15.08350
G1 X139.108 Y118.156 E15.09415
G1 X133.617 Y112.665 E15.30672
G1 X133.617 Y113.055 E15.31737
G1 X138.718 Y118.156 E15.51486
G1 X138.329 Y118.156 E15.52552
G1 X133.617 Y113.444 E15.70794
G1 X133.617 Y113.833 E15.71859
G1 X137.940 Y118.156 E15.88594
G1 X137.550 Y118.156 E15.89660
G1 X133.617 Y114.223 E16.04887
G1 X133.617 Y114.612 E16.05953
G1 X137.161 Y118.156 E16.19673
G1 X136.772 Y118.156 E16.20738
G1 X133.617 Y115.001 E16.32951
G1 X133.617 Y115.390 E16.34017
G1 X136.383 Y118.156 E16.44722
G1 X135.993 Y118.156 E16.45788
G1 X133.617 Y115.780 E16.54986
G1 X133.617 Y116.169 E16.56052
G1 X135.604 Y118.156 E16.63743
G1 X135.215 Y118.156 E16.64809
G1 X133.617 Y116.558 E16.70993
G1 X133.617 Y116.948 E16.72058
G1 X134.826 Y118.156 E16.76735
G1 X134.436 Y118.156 E16.77800
G1 X133.618 Y117.337 E16.80970
G1 X133.618 Y117.726 E16.82035
G1 X134.047 Y118.156 E16.83698
G1 X133.658 Y118.155 E16.84763
G1 X133.618 Y118.115 E16.84918
G1 F1980.000 E12.84918
G92 E0
G1 X143.818 Y84.723 F6000.000
G1 E4.00000 F1980.000
G1 X157.914 Y98.820 E4.54570 F900.000
G1 X157.915 Y98.430 E4.55635
G1 X144.718 Y85.234 E5.06719
G1 X145.204 Y85.331 E5.08074
G1 X157.915 Y98.041 E5.57279
G1 X157.915 Y97.652 E5.58345
G1 X145.689 Y85.427 E6.05671
