; generated by Slic3r 1.1.7 on 2014-12-12 at 17:54:04

; perimeters extrusion width = 0.42mm
; infill extrusion width = 0.74mm
; solid infill extrusion width = 0.71mm
; top infill extrusion width = 0.71mm
; support material extrusion width = 0.42mm

G21 ; set units to millimeters
M190 S57 ; wait for bed temperature to be reached
M104 S186 ; set temperature
G28 ; home all axes Start of G Code Slic3r
 
M109 S186 ; wait for temperature to be reached
G90 ; use absolute coordinates
G92 E0
M82 ; use absolute distances for extrusion
M106 S173
G1 F1860.000 E-3.00000
G92 E0
G1 Z0.200 F6000.000
G1 X77.092 Y89.501 F6000.000
G1 E3.10000 F1860.000
G1 X77.560 Y89.203 E3.11027 F1200.000
G1 X78.895 Y88.548 E3.13778
G1 X94.735 Y82.842 E3.44925
G1 X96.132 Y82.502 E3.47585
G1 X102.875 Y81.667 E3.60156
G1 X112.542 Y81.756 E3.78041
G1 X121.180 Y83.054 E3.94200 F1200.000
G1 X123.375 Y83.785 E3.98480
G1 X125.194 Y85.216 E4.02761
G1 X126.726 Y88.115 E4.08827
G1 X127.491 Y91.242 E4.14782
G1 X127.739 Y92.354 E4.16890
G1 X127.812 Y94.912 E4.21626
G1 X127.421 Y97.301 E4.26103
G1 X127.061 Y98.629 E4.28649
G1 X122.005 Y111.780 E4.54716
G1 X120.547 Y114.059 E4.59719
G1 X120.335 Y114.278 E4.60285
G1 X118.461 Y115.636 E4.64565
G1 X117.009 Y116.151 E4.67416
G1 X108.654 Y118.070 E4.83274
G1 X105.246 Y117.969 E4.89582
G1 X79.409 Y110.386 E5.39398
G1 X77.734 Y109.634 E5.42794
G1 X77.394 Y109.421 E5.43537
G1 X75.250 Y107.278 E5.49146
G1 X75.037 Y106.937 E5.49890
G1 X74.173 Y104.826 E5.54109
G1 X74.100 Y104.499 E5.54729
G1 X73.935 Y103.317 E5.56936
G1 X73.595 Y96.504 E5.69556
G1 X73.678 Y95.060 E5.72234
G1 X73.763 Y94.549 E5.73192
G1 X74.726 Y92.037 E5.78167
G1 X75.024 Y91.569 E5.79194
G1 X77.047 Y89.545 E5.84489
G1 X77.225 Y89.709 F6000.000
G1 X77.693 Y89.411 E5.85516 F1200.000
G1 X78.979 Y88.780 E5.88165
G1 X94.818 Y83.075 E6.19312
G1 X96.164 Y82.747 E6.21875
G1 X102.875 Y81.914 E6.34385
G1 X112.506 Y82.001 E6.52203
G1 X121.143 Y83.299 E6.68362 F1200.000
G1 X123.295 Y84.023 E6.72563
G1 X125.066 Y85.444 E6.76763
G1 X126.485 Y88.174 E6.82455
G1 X127.250 Y91.296 E6.88401
G1 X127.498 Y92.408 E6.90508
G1 X127.568 Y94.872 E6.95070
G1 X127.177 Y97.261 E6.99547
G1 X126.830 Y98.540 E7.02001
G1 X121.774 Y111.692 E7.28067
G1 X120.370 Y113.887 E7.32887
G1 X120.157 Y114.106 E7.33452
G1 X118.315 Y115.433 E7.37653
G1 X116.953 Y115.910 E7.40322
G1 X108.599 Y117.830 E7.56180
G1 X105.316 Y117.732 E7.62257
G1 X79.479 Y110.149 E8.12072
G1 X77.865 Y109.425 E8.15344
G1 X77.525 Y109.212 E8.16087
G1 X75.459 Y107.147 E8.21490
G1 X75.246 Y106.806 E8.22234
G1 X74.414 Y104.773 E8.26298
G1 X74.341 Y104.445 E8.26918
G1 X74.182 Y103.305 E8.29049
G1 X73.842 Y96.492 E8.41668
G1 X73.922 Y95.100 E8.44248
G1 X74.007 Y94.589 E8.45206
G1 X74.934 Y92.170 E8.49998
G1 X75.232 Y91.702 E8.51026
G1 X77.180 Y89.754 E8.56122
G1 X77.357 Y89.918 F6000.000
G1 X77.826 Y89.620 E8.57149 F1200.000
G1 X79.062 Y89.013 E8.59698
G1 X94.902 Y83.307 E8.90845
G1 X96.197 Y82.992 E8.93310
G1 X102.875 Y82.161 E9.05759
G1 X112.469 Y82.245 E9.23510
G1 X121.106 Y83.543 E9.39668 F1200.000
G1 X123.214 Y84.261 E9.43788
G1 X124.936 Y85.673 E9.47907
G1 X126.245 Y88.233 E9.53227
G1 X127.008 Y91.349 E9.59163
G1 X127.257 Y92.461 E9.61271
G1 X127.324 Y94.833 E9.65659
G1 X126.933 Y97.221 E9.70136
G1 X126.599 Y98.452 E9.72496
G1 X121.543 Y111.603 E9.98562
G1 X120.193 Y113.715 E10.03199
G1 X119.980 Y113.934 E10.03764
G1 X118.169 Y115.229 E10.07884
G1 X116.898 Y115.669 E10.10371
G1 X108.544 Y117.589 E10.26230
G1 X105.386 Y117.494 E10.32075
G1 X79.548 Y109.912 E10.81891
G1 X77.996 Y109.215 E10.85038
G1 X77.656 Y109.002 E10.85781
G1 X75.669 Y107.015 E10.90979
G1 X75.456 Y106.675 E10.91722
G1 X74.655 Y104.719 E10.95632
G1 X74.583 Y104.392 E10.96252
G1 X74.429 Y103.293 E10.98305
G1 X74.089 Y96.480 E11.10925
G1 X74.166 Y95.141 E11.13406
G1 X74.251 Y94.630 E11.14364
G1 X75.143 Y92.303 E11.18974
G1 X75.441 Y91.834 E11.20001
G1 X77.313 Y89.962 E11.24899
G1 F1860.000 E8.24899
G92 E0
G1 X82.162 Y103.452 F6000.000
G1 E3.10000 F1860.000
G1 X81.940 Y103.591 E3.10485 F1200.000
G1 X81.691 Y103.647 E3.10958
G1 X81.441 Y103.591 E3.11431
G1 X81.219 Y103.452 E3.11916
G1 X81.080 Y103.230 E3.12401
G1 X81.024 Y102.981 E3.12874
G1 X81.080 Y102.731 E3.13347
G1 X81.219 Y102.509 E3.13832
G1 X81.441 Y102.370 E3.14316
G1 X81.691 Y102.314 E3.14790
G1 X81.940 Y102.370 E3.15263
G1 X82.162 Y102.509 E3.15748
G1 X82.301 Y102.731 E3.16232
G1 X82.357 Y102.981 E3.16706
G1 X82.301 Y103.230 E3.17179
G1 X82.196 Y103.399 E3.17547
G1 X82.294 Y103.662 F6000.000
G1 X82.035 Y103.823 E3.18110 F1200.000
G1 X81.691 Y103.900 E3.18764
G1 X81.346 Y103.823 E3.19417
G1 X81.039 Y103.632 E3.20086
G1 X80.848 Y103.325 E3.20754
G1 X80.771 Y102.981 E3.21408
G1 X80.848 Y102.636 E3.22061
G1 X81.039 Y102.329 E3.22730
G1 X81.346 Y102.138 E3.23399
G1 X81.691 Y102.061 E3.24052
G1 X81.996 Y102.129 E3.24631
G1 X82.342 Y102.329 E3.25370 F1200.000
G1 X82.533 Y102.636 E3.26039
G1 X82.610 Y102.981 E3.26692
G1 X82.533 Y103.325 E3.27346
G1 X82.345 Y103.627 E3.28003
G1 X82.293 Y102.396 F6000.000
G1 X81.970 Y102.576 F6000.000
G1 X82.095 Y102.702 E3.28333 F1200.000
G1 X82.135 Y103.197 E3.29251
G1 X81.474 Y102.537 E3.30978
G1 X81.247 Y102.764 E3.31575
G1 X81.907 Y103.425 E3.33302
G1 X81.412 Y103.385 E3.34220
G1 X81.286 Y103.260 E3.34550
G1 F1860.000 E0.34550
G92 E0
G1 X80.500 Y96.168 F6000.000
G1 E3.10000 F1860.000
G1 X80.585 Y95.723 E3.10839 F1200.000
G1 X80.841 Y95.318 E3.11725
G1 X81.245 Y95.062 E3.12610
G1 X81.691 Y94.977 E3.13449
G1 X82.136 Y95.062 E3.14288
G1 X82.541 Y95.318 E3.15174
G1 X82.796 Y95.723 E3.16060
G1 X82.882 Y96.168 E3.16898
G1 X82.796 Y96.613 E3.17737
G1 X82.541 Y97.018 E3.18623
G1 X82.136 Y97.274 E3.19509
G1 X81.691 Y97.359 E3.20347
G1 X81.245 Y97.274 E3.21186
G1 X80.841 Y97.018 E3.22072
G1 X80.585 Y96.613 E3.22958
G1 X80.500 Y96.168 E3.23796
G1 F1860.000 E0.23796
G92 E0
G1 X96.842 Y94.488 F6000.000
G1 E3.10000 F1860.000
G1 X96.902 Y93.953 E3.10996 F1200.000
G1 X97.924 Y93.807 E3.12907
G1 X97.714 Y94.349 E3.13982
G1 X97.400 Y94.558 E3.14679
G1 X97.143 Y94.598 E3.15161
G1 X96.901 Y94.510 E3.15636
G1 X96.561 Y94.649 F6000.000
G1 X96.674 Y93.767 E3.17282 F1200.000
G1 X96.785 Y93.720 E3.17505
G1 X97.849 Y93.568 E3.19494
G1 X97.893 Y93.537 E3.19594
G1 X98.216 Y93.739 E3.20298
G1 X97.929 Y94.503 E3.21808
G1 X97.475 Y94.805 E3.22816
G1 X97.375 Y94.805 E3.23001
G1 X97.120 Y94.852 E3.23482
G1 X96.620 Y94.671 E3.24466
G1 X96.839 Y94.335 F6000.000
G1 X97.069 Y94.402 F6000.000
G1 X97.018 Y94.350 E3.24601 F1200.000
G1 X97.213 Y94.070 E3.25232
G1 X97.466 Y94.323 E3.25894
G1 X97.662 Y94.044 E3.26525
G1 X97.629 Y94.010 E3.26612
G1 X99.521 Y93.807 F6000.000
G1 X100.544 Y93.953 E3.28523 F1200.000
G1 X100.603 Y94.488 E3.29519
G1 X100.302 Y94.598 E3.30111
G1 X100.045 Y94.558 E3.30593
G1 X99.731 Y94.349 E3.31290
G1 X99.544 Y93.866 E3.32249
G1 X99.552 Y93.537 F6000.000
G1 X99.596 Y93.568 E3.32349 F1200.000
G1 X100.660 Y93.720 E3.34337
G1 X100.772 Y93.767 E3.34560
G1 X100.885 Y94.649 E3.36206
G1 X100.326 Y94.852 E3.37306
G1 X100.070 Y94.805 E3.37787
G1 X99.970 Y94.805 E3.37972
G1 X99.517 Y94.503 E3.38980
G1 X99.229 Y93.739 E3.40490
G1 X99.498 Y93.571 E3.41078
G1 X99.568 Y93.589 F6000.000
G1 X99.843 Y94.196 F6000.000
G1 X99.950 Y94.303 E3.41358 F1200.000
G1 X100.403 Y94.134 E3.42254
G1 X100.357 Y94.088 E3.42375
G1 F1860.000 E0.42375
G92 E0
G1 X99.524 Y91.676 F6000.000
G1 E3.10000 F1860.000
G1 X99.239 Y91.499 E3.10621 F1200.000
G1 X98.723 Y91.384 E3.11600
G1 X98.206 Y91.499 E3.12579
G1 X97.921 Y91.676 E3.13199
G1 X97.189 Y91.161 E3.14855
G1 X96.966 Y90.705 E3.15795
G1 X96.954 Y90.518 E3.16143
G1 X97.013 Y89.576 E3.17888
G1 X97.101 Y89.532 E3.18071
G1 X97.278 Y89.532 E3.18398
G1 X97.398 Y89.592 E3.18645
G1 X97.460 Y89.872 E3.19176
G1 X97.747 Y90.331 E3.20178
G1 X98.206 Y90.618 E3.21179
G1 X98.723 Y90.733 E3.22159
G1 X99.239 Y90.618 E3.23138
G1 X99.698 Y90.331 E3.24139
G1 X99.985 Y89.872 E3.25141
G1 X100.048 Y89.592 E3.25672
G1 X100.167 Y89.532 E3.25919
G1 X100.344 Y89.532 E3.26246
G1 X100.432 Y89.576 E3.26429
G1 X100.491 Y90.518 E3.28174
G1 X100.479 Y90.705 E3.28522
G1 X100.256 Y91.161 E3.29462
G1 X99.575 Y91.640 E3.31001
G1 X97.913 Y91.973 F6000.000
G1 X96.990 Y91.323 E3.33090 F1200.000
G1 X96.722 Y90.771 E3.34225
G1 X96.706 Y90.518 E3.34695
G1 X96.775 Y89.419 E3.36732
G1 X97.043 Y89.285 E3.37286
G1 X97.336 Y89.285 E3.37829
G1 X97.613 Y89.423 E3.38402
G1 X97.692 Y89.777 E3.39072
G1 X97.926 Y90.151 E3.39890
G1 X98.301 Y90.386 E3.40707
G1 X98.723 Y90.479 E3.41506
G1 X99.144 Y90.386 E3.42305
G1 X99.519 Y90.151 E3.43123
G1 X99.753 Y89.777 E3.43941
G1 X99.832 Y89.423 E3.44611
G1 X100.109 Y89.285 E3.45183
G1 X100.402 Y89.285 E3.45726
G1 X100.670 Y89.419 E3.46281
G1 X100.739 Y90.518 E3.48318
G1 X100.723 Y90.771 E3.48787
G1 X100.455 Y91.323 E3.49922
G1 X99.532 Y91.973 E3.52012
G1 X99.144 Y91.731 E3.52857
G1 X98.723 Y91.637 E3.53656
G1 X98.301 Y91.731 E3.54455
G1 X97.967 Y91.940 E3.55184
G1 X97.789 Y91.572 F6000.000
G1 X98.048 Y91.409 F6000.000
G1 X97.116 Y90.477 E3.57623 F1200.000
G1 X97.157 Y89.819 E3.58843
G1 X97.376 Y90.038 E3.59415
G1 X97.137 Y90.148 E3.59903
G1 X98.302 Y91.314 E3.62953
G1 X98.040 Y90.702 F6000.000
G1 X98.589 Y91.250 E3.64389 F1200.000
G1 X98.962 Y91.274 E3.65080
G1 X98.544 Y90.856 E3.66174
G1 X98.895 Y90.857 E3.66823
G1 X99.521 Y91.484 E3.68462
G1 X99.726 Y91.339 E3.68926
G1 X99.181 Y90.794 E3.70353
G1 X99.426 Y90.689 E3.70845
G1 X99.932 Y91.195 E3.72169
G1 X100.121 Y91.035 E3.72628
G1 X99.641 Y90.554 E3.73884
G1 X99.840 Y90.404 E3.74346
G1 X100.249 Y90.813 E3.75416
G1 X100.330 Y90.544 E3.75936
G1 X99.975 Y90.189 E3.76865
G1 X100.310 Y90.175 E3.77486
G1 X100.109 Y89.974 E3.78011
G1 X100.287 Y89.802 E3.78469
G1 X100.244 Y89.758 E3.78582
G1 F1860.000 E0.78582
G92 E0
G1 X97.413 Y91.124 F6000.000
G1 E3.10000 F1860.000
G1 X97.286 Y90.997 E3.10330 F1200.000
G1 F1860.000 E0.10330
G92 E0
G1 X106.053 Y94.428 F6000.000
G1 E3.10000 F1860.000
G1 X106.133 Y94.019 E3.10771 F1200.000
G1 X106.389 Y93.615 E3.11657
G1 X106.793 Y93.359 E3.12542
G1 X107.239 Y93.274 E3.13381
G1 X107.684 Y93.359 E3.14220
G1 X108.089 Y93.615 E3.15106
G1 X108.344 Y94.019 E3.15991
G1 X108.430 Y94.465 E3.16830
G1 X108.344 Y94.910 E3.17669
G1 X108.089 Y95.315 E3.18555
G1 X107.684 Y95.570 E3.19441
G1 X107.239 Y95.656 E3.20279
G1 X106.793 Y95.570 E3.21118
G1 X106.389 Y95.315 E3.22004
G1 X106.133 Y94.910 E3.22890
G1 X106.053 Y94.428 E3.23793
G1 F1860.000 E0.23793
G92 E0
G1 X107.340 Y98.379 F6000.000
G1 E3.10000 F1860.000
G1 X108.429 Y96.207 E3.22831 F1200.000
G1 X107.464 Y96.557 E3.28252
G1 X106.497 Y98.486 E3.39646
G1 X105.594 Y98.713 E3.44565
G1 X106.700 Y96.505 E3.57610
G1 X106.057 Y96.213 E3.61340
G1 X104.569 Y99.183 E3.78889
G1 X103.691 Y99.359 E3.83615
G1 X105.525 Y95.700 E4.05230
G1 X105.170 Y94.833 E4.10178
G1 X103.064 Y99.034 E4.34997
G1 X102.572 Y98.443 E4.39064
G1 X106.452 Y90.701 E4.84800
G1 X107.081 Y91.020 E4.88527
G1 X106.312 Y92.554 E4.97591
G1 X107.209 Y92.340 E5.02463
G1 X108.322 Y90.120 E5.15575
G1 X109.786 Y88.774 F6000.000
G1 X107.942 Y92.452 E5.37304 F1200.000
G1 X108.556 Y92.803 E5.41037
G1 X110.663 Y88.598 E5.65878
G1 X111.541 Y88.423 E5.70603
G1 X109.053 Y93.387 E5.99930
G1 X109.352 Y94.365 E6.05331
G1 X112.156 Y88.771 E6.38381
G1 X112.716 Y89.229 E6.42202
G1 X108.069 Y98.500 E6.96977
G1 X108.771 Y98.673 E7.00800
G1 X113.154 Y89.930 E7.52455
G1 X113.484 Y90.847 E7.57601
G1 X109.401 Y98.991 E8.05718
G1 X110.078 Y99.217 E8.09483
G1 X113.053 Y93.281 E8.44550
G1 F1860.000 E5.44550
G92 E0
G1 X112.744 Y95.472 F6000.000
G1 E3.10000 F1860.000
G1 X110.795 Y99.361 E3.32972 F1200.000
G1 X112.255 Y98.024 F6000.000
G1 X112.307 Y97.920 E3.33584 F1200.000
G1 F1860.000 E0.33584
G92 E0
G1 X102.422 Y97.165 F6000.000
G1 E3.10000 F1860.000
G1 X106.021 Y89.985 E3.52418 F1200.000
G1 X105.495 Y89.460 E3.56346
G1 X101.981 Y96.471 E3.97766
G1 X101.788 Y95.282 E4.04129
G1 X104.822 Y89.227 E4.39897
G1 X104.299 Y88.695 E4.43836
G1 X101.552 Y94.176 E4.76212
G1 X101.505 Y92.695 E4.84037
G1 X103.582 Y88.552 E5.08514
G1 X102.864 Y88.408 E5.12378
G1 X101.111 Y91.906 E5.33039
G1 F1860.000 E2.33039
G92 E0
G1 X101.402 Y89.751 F6000.000
G1 E3.10000 F1860.000
G1 X101.595 Y89.365 E3.12283 F1200.000
G1 F1860.000 E0.12283
G92 E0
G1 X106.767 Y94.936 F6000.000
G1 E3.10000 F1860.000
G1 X106.628 Y94.714 E3.10485 F1200.000
G1 X106.572 Y94.465 E3.10958
G1 X106.628 Y94.215 E3.11431
G1 X106.767 Y93.993 E3.11916
G1 X106.989 Y93.854 E3.12401
G1 X107.239 Y93.798 E3.12874
G1 X107.488 Y93.854 E3.13347
G1 X107.711 Y93.993 E3.13832
G1 X107.849 Y94.215 E3.14316
G1 X107.905 Y94.465 E3.14790
G1 X107.849 Y94.714 E3.15263
G1 X107.710 Y94.936 E3.15748
G1 X107.488 Y95.075 E3.16232
G1 X107.239 Y95.131 E3.16706
G1 X106.989 Y95.075 E3.17179
G1 X106.820 Y94.970 E3.17547
G1 X106.636 Y95.146 F6000.000
G1 X106.587 Y95.116 E3.17653 F1200.000
G1 X106.396 Y94.809 E3.18321
G1 X106.319 Y94.465 E3.18975
G1 X106.396 Y94.120 E3.19628
G1 X106.587 Y93.813 E3.20297
G1 X106.894 Y93.622 E3.20966
G1 X107.239 Y93.545 E3.21619
G1 X107.544 Y93.613 E3.22197
G1 X107.890 Y93.813 E3.22937 F1200.000
G1 X108.081 Y94.120 E3.23606
G1 X108.158 Y94.465 E3.24259
G1 X108.081 Y94.809 E3.24913
G1 X107.890 Y95.116 E3.25581
G1 X107.583 Y95.307 E3.26250
G1 X107.239 Y95.384 E3.26904
G1 X106.894 Y95.307 E3.27557
G1 X106.689 Y95.180 E3.28004
G1 X107.761 Y93.948 F6000.000
G1 X107.518 Y94.060 F6000.000
G1 X107.643 Y94.186 E3.28333 F1200.000
G1 X107.683 Y94.681 E3.29251
G1 X107.022 Y94.021 E3.30978
G1 X106.795 Y94.248 E3.31575
G1 X107.455 Y94.909 E3.33302
G1 X106.960 Y94.869 E3.34221
G1 X106.834 Y94.744 E3.34550
G1 X106.274 Y96.239 F6000.000
G1 X108.203 Y96.239 E3.38118 F1200.000
G1 X108.203 Y96.693 E3.38959
G1 X106.274 Y96.693 E3.42528
G1 X106.274 Y96.302 E3.43252
G1 X106.638 Y96.449 F6000.000
G1 X106.398 Y96.466 F6000.000
G1 X108.079 Y96.466 E3.47352 F1200.000
G1 F1860.000 E0.47352
G92 E0
G1 X107.239 Y103.147 F6000.000
G1 E3.10000 F1860.000
G1 X107.472 Y103.365 E3.10590 F1200.000
G1 X107.472 Y103.989 E3.11745
G1 X107.314 Y104.558 E3.12839
G1 X107.163 Y104.558 E3.13117
G1 X107.005 Y103.989 E3.14210
G1 X107.005 Y103.365 E3.15365
G1 X107.193 Y103.190 E3.15839
G1 X107.325 Y103.454 F6000.000
G1 X107.277 Y103.352 F6000.000
G1 X107.239 Y103.466 E3.16133 F1200.000
G1 X107.239 Y104.093 E3.17662
G1 F1860.000 E0.17662
G92 E0
G1 X108.830 Y102.701 F6000.000
G1 E3.10000 F1860.000
G1 X108.801 Y102.759 E3.10353 F1200.000
G1 X108.394 Y101.942 E3.15335
G1 X108.830 Y101.073 E3.20636
G1 X107.913 Y101.274 E3.25756
G1 X108.830 Y99.446 E3.36918
G1 X108.125 Y99.223 E3.40950
G1 X107.251 Y100.968 E3.51604
G1 X105.648 Y100.911 F6000.000
G1 X106.494 Y99.223 E3.61908 F1200.000
G1 X105.678 Y99.223 E3.66361
G1 X105.648 Y99.283 E3.66726
G1 X107.309 Y99.223 F6000.000
G1 X105.648 Y102.538 E3.86968 F1200.000
G1 F1860.000 E0.86968
G92 E0
G1 X106.134 Y106.019 F6000.000
G1 E3.10000 F1860.000
G1 X105.382 Y107.519 E3.15275 F1200.000
G1 X105.382 Y109.394 E3.21168
G1 X106.576 Y107.011 E3.29546
G1 F1860.000 E0.29546
G92 E0
G1 X109.060 Y105.804 F6000.000
G1 E3.10000 F1860.000
G1 X106.368 Y111.176 E3.28888 F1200.000
G1 X105.720 Y110.594 E3.31626
G1 X107.363 Y107.316 E3.43150
G1 X109.096 Y107.608 E3.48674
G1 X107.145 Y111.500 E3.62358
G1 X108.306 Y111.058 E3.66262
G1 X109.096 Y109.483 E3.71802
G1 F1860.000 E0.71802
G92 E0
G1 X107.958 Y104.175 F6000.000
G1 E3.10000 F1860.000
G1 X106.656 Y104.175 E3.12409 F1200.000
G1 X106.546 Y104.041 E3.12728
G1 X106.998 Y105.763 F6000.000
G1 X107.382 Y105.763 E3.13439 F1200.000
G1 X107.479 Y106.083 E3.14058
G1 X107.479 Y106.223 E3.14315
G1 X106.998 Y106.223 E3.15206
G1 X106.998 Y105.826 E3.15939
G1 X107.331 Y105.955 F6000.000
G1 X107.281 Y105.979 F6000.000
G1 X107.233 Y105.931 E3.16063 F1200.000
G1 X106.998 Y106.074 F6000.000
G1 X107.479 Y106.074 E3.16954 F1200.000
G1 X107.479 Y106.855 E3.18399
G1 X106.998 Y106.855 E3.19290
G1 X106.998 Y106.137 E3.20618
G1 X107.362 Y106.284 F6000.000
G1 X107.280 Y106.233 F6000.000
G1 X107.320 Y106.273 E3.20723 F1200.000
G1 X107.157 Y106.656 E3.21493
G1 X107.197 Y106.696 E3.21597
G1 F1860.000 E0.21597
G92 E0
G1 X106.998 Y110.545 F6000.000
G1 E3.10000 F1860.000
