; generated by Slic3r 1.1.7 on 2014-12-12 at 17:11:01

; perimeters extrusion width = 0.42mm
; infill extrusion width = 0.74mm
; solid infill extrusion width = 0.71mm
; top infill extrusion width = 0.71mm
; support material extrusion width = 0.42mm

G21 ; set units to millimeters
M190 S57 ; wait for bed temperature to be reached
M104 S186 ; set temperature
G28 ; home all axes Start of G Code Slic3r
 
M109 S186 ; wait for temperature to be reached
G90 ; use absolute coordinates
G92 E0
M82 ; use absolute distances for extrusion
M106 S171
G1 F1860.000 E-3.00000
G92 E0
G1 Z0.200 F6000.000
G1 X93.822 Y77.100 F6000.000
G1 E3.10000 F1860.000
G1 X95.769 Y75.774 E3.14359 F1200.000
G1 X98.674 Y75.141 E3.19860
G1 X101.493 Y75.141 E3.25074
G1 X103.815 Y75.538 E3.29433
G1 X105.083 Y76.134 E3.32024 F1200.000
G1 X105.806 Y76.566 E3.33583
G1 X107.594 Y78.100 E3.37942
G1 X108.546 Y79.601 E3.41229
G1 X110.360 Y83.479 E3.49151
G1 X110.975 Y85.655 E3.53333
G1 X112.226 Y97.392 E3.75169
G1 X111.982 Y103.904 E3.87226
G1 X110.853 Y114.960 E4.07787
G1 X110.437 Y116.722 E4.11136
G1 X109.268 Y119.708 E4.17068
G1 X108.460 Y121.320 E4.20403
G1 X107.065 Y123.218 E4.24762
G1 X105.118 Y124.545 E4.29120
G1 X102.212 Y125.177 E4.34621
G1 X97.514 Y125.177 E4.43313
G1 X95.192 Y124.780 E4.47671
G1 X93.134 Y123.634 E4.52030
G1 X91.685 Y122.043 E4.56011
G1 X91.150 Y121.235 E4.57803
G1 X90.568 Y120.160 E4.60065
G1 X89.688 Y118.130 E4.64158
G1 X89.145 Y116.033 E4.68166
G1 X88.046 Y104.772 E4.89097
G1 X87.602 Y96.285 E5.04820
G1 X87.712 Y94.631 E5.07887
G1 X89.399 Y85.641 E5.24809
G1 X90.020 Y83.798 E5.28406
G1 X92.426 Y78.998 E5.38339
G1 X93.784 Y77.151 E5.42581
G1 X94.023 Y77.249 F6000.000
G1 X95.947 Y75.964 E5.46862 F1200.000
G1 X98.674 Y75.388 E5.52018
G1 X101.493 Y75.388 E5.57232
G1 X103.772 Y75.785 E5.61513
G1 X104.956 Y76.346 E5.63936 F1200.000
G1 X105.679 Y76.779 E5.65494
G1 X107.431 Y78.290 E5.69775
G1 X108.322 Y79.706 E5.72870
G1 X110.137 Y83.584 E5.80791
G1 X110.729 Y85.683 E5.84826
G1 X111.979 Y97.383 E6.06594
G1 X111.736 Y103.879 E6.18621
G1 X110.607 Y114.935 E6.39181
G1 X110.206 Y116.635 E6.42412
G1 X109.047 Y119.598 E6.48297
G1 X108.239 Y121.209 E6.51632
G1 X106.863 Y123.069 E6.55912
G1 X104.939 Y124.354 E6.60193
G1 X102.212 Y124.930 E6.65349
G1 X97.514 Y124.930 E6.74040
G1 X95.235 Y124.533 E6.78320
G1 X93.224 Y123.388 E6.82601
G1 X91.891 Y121.907 E6.86288
G1 X91.357 Y121.098 E6.88081
G1 X90.795 Y120.061 E6.90263
G1 X89.915 Y118.032 E6.94356
G1 X89.391 Y116.009 E6.98221
G1 X88.293 Y104.760 E7.19132
G1 X87.849 Y96.272 E7.34855
G1 X87.955 Y94.676 E7.37814
G1 X89.642 Y85.687 E7.54736
G1 X90.241 Y83.909 E7.58205
G1 X92.647 Y79.109 E7.68138
G1 X93.986 Y77.300 E7.72302
G1 X94.225 Y77.399 F6000.000
G1 X96.125 Y76.157 E7.76503 F1200.000
G1 X98.674 Y75.636 E7.81316
G1 X101.493 Y75.636 E7.86531
G1 X103.729 Y76.032 E7.90732
G1 X104.829 Y76.558 E7.92988 F1200.000
G1 X105.552 Y76.991 E7.94546
G1 X107.266 Y78.480 E7.98747
G1 X108.098 Y79.810 E8.01650
G1 X109.913 Y83.689 E8.09572
G1 X110.483 Y85.711 E8.13459
G1 X111.732 Y97.374 E8.35160
G1 X111.490 Y103.854 E8.47156
G1 X110.361 Y114.910 E8.67716
G1 X109.975 Y116.547 E8.70829
G1 X108.826 Y119.487 E8.76667
G1 X108.018 Y121.098 E8.80001
G1 X106.662 Y122.919 E8.84202
G1 X104.761 Y124.161 E8.88403
G1 X102.212 Y124.683 E8.93216
G1 X97.514 Y124.683 E9.01907
G1 X95.279 Y124.286 E9.06108
G1 X93.316 Y123.143 E9.10309
G1 X92.097 Y121.770 E9.13706
G1 X91.021 Y119.963 E9.17597
G1 X90.141 Y117.933 E9.21690
G1 X89.637 Y115.985 E9.25414
G1 X88.540 Y104.747 E9.46303
G1 X88.096 Y96.259 E9.62027
G1 X88.198 Y94.722 E9.64876
G1 X89.885 Y85.732 E9.81798
G1 X90.462 Y84.020 E9.85141
G1 X92.868 Y79.220 E9.95074
G1 X94.187 Y77.450 E9.99158
G1 X94.426 Y77.550 F6000.000
G1 X96.302 Y76.351 E10.03277 F1200.000
G1 X98.674 Y75.883 E10.07751
G1 X101.493 Y75.883 E10.12966
G1 X103.684 Y76.280 E10.17085
G1 X104.702 Y76.770 E10.19176 F1200.000
G1 X105.425 Y77.203 E10.20734
G1 X107.101 Y78.669 E10.24853
G1 X107.874 Y79.915 E10.27567
G1 X109.689 Y83.794 E10.35489
G1 X110.238 Y85.738 E10.39228
G1 X111.485 Y97.366 E10.60861
G1 X111.244 Y103.829 E10.72827
G1 X110.115 Y114.885 E10.93388
G1 X109.743 Y116.460 E10.96381
G1 X108.605 Y119.376 E11.02172
G1 X107.797 Y120.987 E11.05507
G1 X106.461 Y122.768 E11.09626
G1 X104.585 Y123.967 E11.13746
G1 X102.212 Y124.435 E11.18219
G1 X97.514 Y124.435 E11.26911
G1 X95.323 Y124.039 E11.31030
G1 X93.411 Y122.899 E11.35149
G1 X92.303 Y121.634 E11.38259
G1 X91.248 Y119.865 E11.42070
G1 X90.368 Y117.835 E11.46163
G1 X89.883 Y115.961 E11.49745
G1 X88.787 Y104.734 E11.70614
G1 X88.343 Y96.246 E11.86337
G1 X88.441 Y94.768 E11.89079
G1 X90.128 Y85.778 E12.06000
G1 X90.683 Y84.131 E12.09216
G1 X93.089 Y79.331 E12.19149
G1 X94.388 Y77.600 E12.23152
G1 F1860.000 E9.23152
G92 E0
G1 X98.853 Y115.090 F6000.000
G1 E3.10000 F1860.000
G1 X96.447 Y115.013 E3.14453 F1200.000
G1 X96.447 Y111.979 E3.20065
G1 X97.864 Y111.905 E3.22689
G1 X98.092 Y112.133 E3.23287
G1 X98.506 Y112.438 E3.24238
G1 X98.853 Y112.647 E3.24987
G1 X98.853 Y115.027 E3.29391
G1 X99.100 Y115.346 F6000.000
G1 X96.200 Y115.252 E3.34759 F1200.000
G1 X96.200 Y111.745 E3.41248
G1 X97.961 Y111.652 E3.44510
G1 X98.246 Y111.937 E3.45255
G1 X98.644 Y112.233 E3.46174
G1 X99.100 Y112.507 E3.47157
G1 X99.100 Y115.283 E3.52293
G1 X98.741 Y115.128 F6000.000
G1 F1860.000 E0.52293
G92 E0
G1 X96.606 Y114.819 F6000.000
G1 E3.10000 F1860.000
G1 X96.647 Y114.860 E3.10106 F1200.000
G1 X97.036 Y114.873 E3.10826
G1 X96.606 Y114.443 E3.11950
G1 X96.606 Y114.067 E3.12646
G1 X97.425 Y114.885 E3.14786
G1 X97.813 Y114.898 E3.15506
G1 X96.606 Y113.691 E3.18664
G1 X96.606 Y113.314 E3.19360
G1 X98.202 Y114.910 E3.23535
G1 X98.591 Y114.923 E3.24255
G1 X96.606 Y112.938 E3.29447
G1 X96.606 Y112.562 E3.30143
G1 X98.694 Y114.649 E3.35604
G1 X98.694 Y114.273 E3.36300
G1 X96.606 Y112.186 E3.41761
G1 X96.911 Y112.114 E3.42340
G1 X98.694 Y113.897 E3.47004
G1 X98.694 Y113.520 E3.47700
G1 X97.269 Y112.096 E3.51428
G1 X97.626 Y112.077 E3.52090
G1 X98.694 Y113.144 E3.54883
G1 X98.694 Y112.768 E3.55579
G1 X98.615 Y112.690 E3.55784
G1 F1860.000 E0.55784
G92 E0
G1 X101.147 Y113.903 F6000.000
G1 E3.10000 F1860.000
G1 X101.147 Y112.642 E3.12332 F1200.000
G1 X101.829 Y112.216 E3.13819
G1 X102.504 Y111.429 E3.15737
G1 X102.750 Y110.697 E3.17166
G1 X103.553 Y110.697 E3.18651
G1 X103.553 Y113.903 E3.24582
G1 X101.210 Y113.903 E3.28916
G1 X100.900 Y114.150 F6000.000
G1 X100.900 Y112.505 E3.31958 F1200.000
G1 X101.666 Y112.027 E3.33630
G1 X102.287 Y111.302 E3.35396
G1 X102.572 Y110.450 E3.37057
G1 X103.800 Y110.450 E3.39329
G1 X103.800 Y114.150 E3.46175
G1 X100.963 Y114.150 E3.51423
G1 X101.110 Y113.786 F6000.000
G1 X101.346 Y113.744 F6000.000
G1 X101.306 Y113.704 E3.51528 F1200.000
G1 X101.306 Y113.354 E3.52175
G1 X101.696 Y113.744 E3.53194
G1 X102.046 Y113.744 E3.53841
G1 X101.306 Y113.004 E3.55775
G1 X101.353 Y112.701 E3.56342
G1 X102.395 Y113.744 E3.59069
G1 X102.745 Y113.744 E3.59715
G1 X101.568 Y112.567 E3.62794
G1 X101.783 Y112.433 E3.63263
G1 X103.094 Y113.744 E3.66693
G1 X103.394 Y113.693 E3.67255
G1 X101.982 Y112.282 E3.70947
G1 X102.144 Y112.094 E3.71406
G1 X103.394 Y113.344 E3.74676
G1 X103.394 Y112.994 E3.75323
G1 X102.305 Y111.905 E3.78171
G1 X102.466 Y111.717 E3.78630
G1 X103.394 Y112.644 E3.81055
G1 X103.394 Y112.295 E3.81702
G1 X102.628 Y111.529 E3.83706
G1 X102.723 Y111.275 E3.84208
G1 X103.394 Y111.945 E3.85961
G1 X103.394 Y111.596 E3.86608
G1 X102.812 Y111.014 E3.88131
G1 X103.004 Y110.856 E3.88590
G1 X103.394 Y111.246 E3.89610
G1 X103.394 Y110.896 E3.90256
G1 X103.354 Y110.856 E3.90361
G1 F1860.000 E0.90361
G92 E0
G1 X96.447 Y91.658 F6000.000
G1 E3.10000 F1860.000
G1 X96.447 Y88.797 E3.15293 F1200.000
G1 X98.853 Y88.797 E3.19744
G1 X98.853 Y91.438 E3.24629
G1 X98.412 Y91.658 E3.25541
G1 X96.510 Y91.658 E3.29060
G1 X96.200 Y91.903 F6000.000
G1 X96.200 Y88.550 E3.35262 F1200.000
G1 X99.100 Y88.550 E3.40627
G1 X99.100 Y91.591 E3.46253
G1 X98.548 Y91.867 E3.47395
G1 X98.506 Y91.906 E3.47501
G1 X96.263 Y91.904 E3.51650
G1 X96.410 Y91.539 F6000.000
G1 X96.606 Y91.459 F6000.000
G1 X96.646 Y91.499 E3.51755 F1200.000
G1 X96.996 Y91.499 E3.52402
G1 X96.606 Y91.109 E3.53423
G1 X96.606 Y90.759 E3.54070
G1 X97.346 Y91.499 E3.56006
G1 X97.696 Y91.499 E3.56654
G1 X96.606 Y90.409 E3.59506
G1 X96.606 Y90.059 E3.60153
G1 X98.046 Y91.499 E3.63921
G1 X98.389 Y91.492 E3.64555
G1 X96.606 Y89.709 E3.69219
G1 X96.606 Y89.359 E3.69867
G1 X98.622 Y91.375 E3.75141
G1 X98.694 Y91.096 E3.75674
G1 X96.606 Y89.009 E3.81135
G1 X96.904 Y88.956 E3.81693
G1 X98.694 Y90.746 E3.86376
G1 X98.694 Y90.396 E3.87024
G1 X97.254 Y88.956 E3.90792
G1 X97.604 Y88.956 E3.91439
G1 X98.694 Y90.046 E3.94291
G1 X98.694 Y89.696 E3.94939
G1 X97.954 Y88.956 E3.96875
G1 X98.304 Y88.956 E3.97522
G1 X98.694 Y89.346 E3.98543
G1 X98.694 Y88.996 E3.99190
G1 X98.654 Y88.956 E3.99295
G1 F1860.000 E0.99295
G92 E0
G1 X101.147 Y91.210 F6000.000
G1 E3.10000 F1860.000
G1 X103.553 Y91.287 E3.14453 F1200.000
G1 X103.553 Y94.645 E3.20665
G1 X102.847 Y94.649 E3.21971
G1 X102.847 Y94.016 E3.23143
G1 X102.625 Y92.905 E3.25239
G1 X101.942 Y91.994 E3.27345
G1 X101.147 Y91.464 E3.29112
G1 X101.147 Y91.273 E3.29467
G1 X100.900 Y90.955 F6000.000
G1 X103.800 Y91.048 E3.34835 F1200.000
G1 X103.800 Y94.893 E3.41947
G1 X102.600 Y94.897 E3.44167
G1 X102.600 Y94.040 E3.45752
G1 X102.394 Y93.008 E3.47699
G1 X101.770 Y92.176 E3.49623
G1 X100.900 Y91.597 E3.51556
G1 X100.900 Y91.018 E3.52628
G1 X101.259 Y91.172 F6000.000
G1 X101.468 Y91.420 F6000.000
G1 X101.668 Y91.620 E3.53152 F1200.000
G1 X102.438 Y92.390 F6000.000
G1 X103.394 Y93.346 E3.55652 F1200.000
G1 X103.394 Y92.973 E3.56342
G1 X101.811 Y91.391 E3.60482
G1 X102.197 Y91.403 E3.61195
G1 X103.394 Y92.600 E3.64326
G1 X103.394 Y92.227 E3.65016
G1 X102.582 Y91.415 E3.67139
G1 X102.968 Y91.428 E3.67853
G1 X103.394 Y91.854 E3.68967
G1 X103.394 Y91.481 E3.69657
G1 X103.353 Y91.440 E3.69764
G1 X102.839 Y93.164 F6000.000
G1 X103.394 Y93.719 E3.71214 F1200.000
G1 X103.394 Y94.092 E3.71904
G1 X102.932 Y93.630 E3.73111
G1 X103.006 Y94.077 E3.73949
G1 X103.386 Y94.457 E3.74943
G1 X103.046 Y94.490 E3.75575
G1 X103.006 Y94.450 E3.75680
G1 F1860.000 E0.75680
G92 E0
G1 X99.280 Y95.919 F6000.000
G1 E3.10000 F1860.000
G1 X100.989 Y92.509 E3.21987 F1200.000
G1 X101.609 Y93.146 E3.24782
G1 X95.723 Y104.890 E3.66071
G1 X96.663 Y104.890 E3.69025
G1 X101.890 Y94.461 E4.05692
G1 X102.068 Y95.980 E4.10500
G1 X97.612 Y104.870 E4.41754
G1 X98.570 Y104.834 E4.44766
G1 X102.928 Y96.139 E4.75338
G1 X103.461 Y96.951 E4.78390
G1 X99.482 Y104.890 E5.06302
G1 X100.421 Y104.890 E5.09255
G1 X105.021 Y95.713 E5.41518
G1 X105.242 Y97.146 E5.46076
G1 X101.361 Y104.890 E5.73301
G1 X102.300 Y104.890 E5.76254
G1 X105.067 Y99.370 E5.95660
G1 X105.067 Y101.245 E6.01553
G1 X103.240 Y104.890 E6.14368
G1 X104.180 Y104.890 E6.17321
G1 X105.030 Y103.194 E6.23284
G1 F1860.000 E3.23284
G92 E0
G1 X103.064 Y108.990 F6000.000
G1 E3.10000 F1860.000
G1 X102.688 Y109.740 E3.12637 F1200.000
G1 X102.125 Y108.990 E3.15586
G1 X100.729 Y111.775 E3.25379
G1 X99.667 Y112.019 E3.28802
G1 X101.185 Y108.990 E3.39451
G1 X100.245 Y108.990 E3.42404
G1 X99.280 Y110.916 E3.49177
G1 X100.190 Y112.850 E3.55894
G1 X99.810 Y113.608 E3.58558
G1 X99.810 Y115.483 F6000.000
G1 X100.157 Y114.790 E3.60994 F1200.000
G1 X101.062 Y114.860 E3.63845
G1 X99.394 Y118.188 E3.75546
G1 X100.333 Y118.188 E3.78499
G1 X102.001 Y114.860 E3.90200
G1 X102.941 Y114.860 E3.93153
G1 X101.273 Y118.188 E4.04854
G1 X102.212 Y118.188 E4.07808
G1 X103.020 Y116.577 E4.13473
G1 X99.514 Y116.074 F6000.000
G1 X98.454 Y118.188 E4.20907 F1200.000
G1 X97.514 Y118.188 E4.23860
G1 X98.591 Y116.040 E4.31414
G1 X97.667 Y116.010 E4.34322
G1 X96.980 Y117.380 E4.39138
G1 F1860.000 E1.39138
G92 E0
G1 X98.857 Y96.763 F6000.000
G1 E3.10000 F1860.000
G1 X95.025 Y104.407 E3.36876 F1200.000
G1 X94.947 Y102.688 E3.42284
G1 X97.899 Y96.798 E3.62992
G1 X96.942 Y96.834 E3.66003
G1 X94.865 Y100.978 E3.80573
G1 X94.838 Y99.157 E3.86297
G1 X96.100 Y96.639 E3.95149
G1 X95.596 Y95.770 E3.98307
G1 X94.793 Y97.373 E4.03942
G1 X94.581 Y95.920 E4.08557
G1 X94.656 Y95.770 E4.09084
G1 X96.171 Y94.622 F6000.000
G1 X96.784 Y93.400 E4.13382 F1200.000
G1 X97.726 Y93.396 E4.16342
G1 X97.111 Y94.622 E4.20656
G1 X98.050 Y94.622 E4.23609
G1 X99.183 Y92.363 E4.31552
G1 X100.285 Y92.040 E4.35161
G1 X98.990 Y94.622 E4.44242
G1 X99.810 Y91.112 F6000.000
G1 X100.344 Y90.046 E4.47989 F1200.000
G1 F1860.000 E1.47989
G92 E0
G1 X102.218 Y86.307 F6000.000
G1 E3.10000 F1860.000
G1 X103.020 Y84.707 E3.15625 F1200.000
G1 X103.510 Y85.604 E3.18837
G1 X102.846 Y86.930 E3.23498
G1 X103.785 Y86.930 E3.26451
G1 X104.030 Y86.441 E3.28170
G1 X101.508 Y85.850 F6000.000
G1 X102.618 Y83.635 E3.35957 F1200.000
G1 X102.216 Y82.563 E3.39557
G1 X100.568 Y85.850 E3.51114
G1 X99.628 Y85.850 E3.54068
G1 X101.493 Y82.130 E3.67146
G1 X100.553 Y82.130 E3.70099
G1 X98.689 Y85.850 E3.83178
G1 X97.208 Y86.930 F6000.000
G1 X99.614 Y82.130 E4.00054 F1200.000
G1 X98.674 Y82.130 E4.03007
G1 X96.268 Y86.930 E4.19882
M106 S255
M140 S50 ; set bed temperature
G1 F1860.000 E1.19882
G92 E0
G1 Z0.310 F6000.000
G1 X97.634 Y84.160 F6000.000
G1 E3.10000 F1860.000
G1 X102.366 Y84.160 E3.18181 F1177.284
G1 X103.104 Y84.990 F6000.000
G1 X102.040 Y82.150 E3.23423 F1177.284
G1 X97.960 Y82.150 E3.30475
G1 X96.896 Y84.990 E3.35718
G1 X95.702 Y86.910 E3.39626
G1 X97.358 Y86.910 E3.42490
G1 X97.909 Y86.079 E3.44213
G1 X97.970 Y85.830 E3.44656
G1 X102.030 Y85.830 E3.51676
G1 X102.091 Y86.079 E3.52120
G1 X102.642 Y86.910 E3.53843
G1 X104.298 Y86.910 E3.56706
G1 X103.104 Y84.990 E3.60615
G1 F1860.000 E0.60615
G92 E0
G1 X100.700 Y90.215 F6000.000
G1 E3.10000 F1860.000
G1 X100.700 Y89.833 E3.10662 F1177.284
G1 X99.982 Y90.311 E3.12154
G1 X99.830 Y90.210 E3.12470
G1 X99.830 Y92.010 E3.15580
G1 X99.278 Y92.338 E3.16690
G1 X99.006 Y92.474 E3.17217
G1 X98.345 Y93.080 E3.18766
G1 X98.172 Y93.080 E3.19066
G1 X97.981 Y93.414 E3.19731
G1 X96.734 Y93.420 E3.21887
G1 X96.058 Y94.602 E3.24242
G1 X99.300 Y94.602 E3.29846
G1 X99.300 Y96.767 E3.33588
G1 X96.508 Y96.870 E3.38418
G1 X96.080 Y96.870 E3.39157
G1 X96.080 Y96.594 E3.39635
G1 X95.680 Y96.082 E3.40757
G1 X95.680 Y95.881 E3.41105
G1 X95.607 Y95.790 E3.41307
G1 X94.583 Y95.790 E3.43077
G1 X94.888 Y97.890 E3.46746
G1 X94.673 Y97.890 E3.47118
G1 X94.887 Y99.357 E3.49681
G1 X94.844 Y99.357 E3.49755
G1 X94.949 Y100.697 E3.52079
G1 X94.863 Y100.700 E3.52226
G1 X94.949 Y101.797 E3.54128
G1 X94.927 Y101.798 E3.54165
G1 X95.066 Y104.870 E3.59482
G1 X97.068 Y104.870 E3.62941
G1 X99.300 Y104.787 E3.66803
G1 X99.300 Y104.870 E3.66945
G1 X104.934 Y104.870 E3.76684
G1 X105.078 Y101.681 E3.82203
G1 X105.029 Y101.683 E3.82287
G1 X105.073 Y100.581 E3.84193
G1 X105.029 Y100.583 E3.84268
G1 X105.076 Y99.390 E3.86331
G1 X105.043 Y99.390 E3.86388
G1 X105.130 Y97.990 E3.88813
G1 X105.105 Y97.990 E3.88855
G1 X105.419 Y95.719 E3.92819
G1 X104.530 Y95.751 E3.94356
G1 X104.530 Y96.286 E3.95280
G1 X103.990 Y96.740 E3.96500
G1 X103.771 Y96.959 E3.97036
G1 X103.160 Y96.982 E3.98092
G1 X103.160 Y96.170 E3.99496
G1 X102.769 Y96.150 E4.00173
G1 X102.080 Y96.150 E4.01364
G1 X102.080 Y96.000 E4.01623
G1 X101.870 Y96.000 E4.01986
G1 X101.870 Y94.112 E4.05249
G1 X101.710 Y93.314 E4.06657
G1 X101.261 Y92.714 E4.07952
G1 X100.170 Y91.987 E4.10219
G1 X100.170 Y90.194 E4.13319
G1 X100.700 Y90.215 E4.14236
G1 F1860.000 E1.14236
G92 E0
G1 X99.111 Y92.920 F6000.000
G1 E3.10000 F1860.000
G1 X100.848 Y92.920 E3.13002 F1177.284
G1 X101.470 Y95.840 E3.18163
G1 X99.700 Y95.840 E3.21223
G1 F1860.000 E0.21223
G92 E0
G1 X95.204 Y98.760 F6000.000
G1 E3.10000 F1860.000
G1 X104.682 Y98.760 E3.26383 F1177.284
G1 X104.629 Y101.680 E3.31432
G1 X95.341 Y101.680 E3.47489
G1 F1860.000 E0.47489
G92 E0
G1 X99.720 Y110.440 F6000.000
G1 E3.10000 F1860.000
G1 X101.384 Y110.440 E3.12877 F1177.284
G1 F1860.000 E0.12877
G92 E0
G1 X103.479 Y109.720 F6000.000
G1 E3.10000 F1860.000
G1 X103.745 Y109.010 E3.11311 F1177.284
G1 X99.300 Y109.010 E3.18995
G1 X99.300 Y111.775 E3.23775
G1 X99.830 Y112.089 E3.24840
G1 X99.830 Y113.834 E3.27858
