; generated by Slic3r 1.1.7 on 2015-01-07 at 16:43:53

; perimeters extrusion width = 0.40mm
; infill extrusion width = 0.44mm
; solid infill extrusion width = 0.44mm
; top infill extrusion width = 0.44mm

G21 ; set units to millimeters
M190 S60 ; wait for bed temperature to be reached
M104 S186 ; set temperature
G28 ; home all axes Start of G Code Slic3r
 
M109 S186 ; wait for temperature to be reached
G90 ; use absolute coordinates
G92 E0
M82 ; use absolute distances for extrusion
G1 F1860.000 E-3.00000
G92 E0
G1 Z0.294 F7800.000
G1 X56.739 Y58.250 F7800.000
G1 E3.10000 F1860.000
G1 X57.600 Y57.411 E3.17229 F1800.000
G1 X60.649 Y55.156 E3.40030
G1 X62.399 Y53.991 E3.52675
G1 X64.354 Y52.746 E3.66612
G1 X65.665 Y52.090 E3.75427
G1 X66.074 Y51.938 E3.78048
G1 X67.669 Y51.417 E3.88140
G1 X68.626 Y51.191 E3.94053
G1 X70.921 Y50.744 E4.08115
G1 X72.629 Y50.502 E4.18486
G1 X74.047 Y50.325 E4.27078
G1 X75.994 Y50.159 E4.38829
G1 X79.879 Y49.914 E4.62239
G1 X120.143 Y49.732 E7.04362
G1 X121.755 Y49.746 E7.14054 F1800.000
G1 X124.023 Y49.893 E7.27721
G1 X125.947 Y50.127 E7.39374
G1 X127.993 Y50.443 E7.51825
G1 X129.310 Y50.678 E7.59872
G1 X131.433 Y51.104 E7.72890
G1 X132.338 Y51.314 E7.78479
G1 X133.818 Y51.718 E7.87702
G1 X134.242 Y51.869 E7.90408
G1 X135.671 Y52.568 E7.99975
G1 X138.732 Y54.518 E8.21802
G1 X140.206 Y55.502 E8.32459
G1 X140.759 Y55.892 E8.36527
G1 X142.563 Y57.288 E8.50244
G1 X143.633 Y58.311 E8.59149
G1 X145.591 Y60.693 E8.77684
G1 X146.574 Y62.167 E8.88341
G1 X147.167 Y63.182 E8.95409
G1 X147.434 Y63.762 E8.99249
G1 X147.975 Y65.107 E9.07969
G1 X148.449 Y66.697 E9.17943
G1 X148.946 Y69.451 E9.34775
G1 X149.027 Y70.504 E9.41123
G1 X149.081 Y71.273 E9.45761
G1 X150.468 Y101.833 E11.29713
G1 X150.505 Y103.668 E11.40753
G1 X150.488 Y105.274 E11.50410
G1 X150.352 Y106.581 E11.58313
G1 X149.899 Y108.817 E11.72033
G1 X149.610 Y109.927 E11.78928
G1 X149.327 Y110.830 E11.84619
G1 X148.817 Y112.047 E11.92553
G1 X148.315 Y112.916 E11.98591
G1 X146.644 Y115.303 E12.16108
G1 X123.514 Y141.368 E14.25657
G1 X121.258 Y143.327 E14.43624
G1 X120.263 Y144.045 E14.51008
G1 X118.236 Y145.471 E14.65907
G1 X116.613 Y146.554 E14.77640
G1 X115.395 Y147.205 E14.85944
G1 X111.145 Y148.906 E15.13477
G1 X109.411 Y149.360 E15.24252
G1 X107.290 Y149.779 E15.37252
G1 X106.258 Y149.939 E15.43532
G1 X104.420 Y150.123 E15.54641
G1 X102.412 Y150.249 E15.66739
G1 X100.461 Y150.264 E15.78474
G1 X98.572 Y150.185 E15.89841
G1 X96.667 Y150.030 E16.01337
G1 X95.805 Y149.923 E16.06556
G1 X94.539 Y149.730 E16.14259
G1 X92.142 Y149.253 E16.28956
G1 X90.839 Y148.859 E16.37142
G1 X87.261 Y147.390 E16.60398
G1 X85.106 Y146.329 E16.74843
G1 X83.152 Y145.038 E16.88928
G1 X80.704 Y143.311 E17.06943
G1 X78.692 Y141.469 E17.23342
G1 X53.496 Y115.465 E19.41074
G1 X52.690 Y114.466 E19.48793
G1 X51.182 Y112.117 E19.65581
G1 X51.082 Y111.920 E19.66910
G1 X50.617 Y110.758 E19.74438
G1 X50.155 Y109.124 E19.84649
G1 X49.646 Y106.581 E20.00240
G1 X49.509 Y105.264 E20.08205
G1 X49.502 Y104.533 E20.12602
G1 X49.499 Y103.326 E20.19860
G1 X49.563 Y101.677 E20.29783
G1 X50.954 Y70.949 E22.14749
G1 X51.031 Y70.105 E22.19843
G1 X51.209 Y68.610 E22.28898
G1 X51.834 Y65.789 E22.46271
G1 X52.027 Y65.224 E22.49861
G1 X52.658 Y63.866 E22.58869
G1 X53.404 Y62.639 E22.67504
G1 X54.611 Y60.836 E22.80549
G1 X56.254 Y58.723 E22.96641
G1 X56.696 Y58.292 E23.00357
G1 X57.118 Y58.639 F7800.000
G1 X57.927 Y57.851 E23.07150 F1800.000
G1 X60.952 Y55.611 E23.29784
G1 X62.693 Y54.452 E23.42358
G1 X64.648 Y53.207 E23.56295
G1 X65.858 Y52.602 E23.64430
G1 X66.254 Y52.455 E23.66972
G1 X67.798 Y51.949 E23.76744
G1 X68.733 Y51.727 E23.82519
G1 X70.999 Y51.286 E23.96401
G1 X72.698 Y51.045 E24.06722
G1 X74.100 Y50.869 E24.15216
G1 X76.031 Y50.705 E24.26875
G1 X79.882 Y50.461 E24.50074
G1 X120.139 Y50.279 E26.92158
G1 X121.737 Y50.293 E27.01766 F1800.000
G1 X123.958 Y50.436 E27.15149
G1 X125.863 Y50.667 E27.26691
G1 X127.898 Y50.982 E27.39069
G1 X129.203 Y51.214 E27.47044
G1 X131.310 Y51.637 E27.59963
G1 X132.205 Y51.845 E27.65492
G1 X133.634 Y52.234 E27.74395
G1 X134.058 Y52.385 E27.77102
G1 X135.377 Y53.029 E27.85931
G1 X138.429 Y54.973 E28.07687
G1 X139.903 Y55.957 E28.18343
G1 X140.424 Y56.325 E28.22181
G1 X142.228 Y57.721 E28.35898
G1 X143.216 Y58.665 E28.44116
G1 X145.136 Y60.996 E28.62275
G1 X146.119 Y62.470 E28.72931
G1 X146.674 Y63.419 E28.79537
G1 X146.929 Y63.972 E28.83199
G1 X147.457 Y65.282 E28.91694
G1 X147.913 Y66.804 E29.01246
G1 X148.400 Y69.493 E29.17684
G1 X148.481 Y70.544 E29.24019
G1 X148.534 Y71.298 E29.28566
G1 X149.921 Y101.845 E31.12444
G1 X149.958 Y103.663 E31.23375
G1 X149.941 Y105.268 E31.33030
G1 X149.816 Y106.474 E31.40323
G1 X149.368 Y108.686 E31.53889
G1 X149.088 Y109.763 E31.60586
G1 X148.805 Y110.666 E31.66276
G1 X148.334 Y111.790 E31.73599
G1 X147.860 Y112.613 E31.79312
G1 X146.234 Y114.940 E31.96384
G1 X123.151 Y140.959 E34.05542
G1 X120.938 Y142.883 E34.23174
G1 X119.947 Y143.598 E34.30520
G1 X117.933 Y145.016 E34.45334
G1 X116.310 Y146.099 E34.57068
G1 X115.186 Y146.699 E34.64732
G1 X111.001 Y148.378 E34.91844
G1 X109.304 Y148.824 E35.02392
G1 X107.200 Y149.240 E35.15294
G1 X106.202 Y149.395 E35.21366
G1 X104.382 Y149.577 E35.32365
G1 X102.405 Y149.702 E35.44274
G1 X100.481 Y149.717 E35.55845
G1 X98.615 Y149.640 E35.67079
G1 X96.733 Y149.487 E35.78432
G1 X95.883 Y149.382 E35.83578
G1 X94.646 Y149.194 E35.91107
G1 X92.249 Y148.716 E36.05802
G1 X91.046 Y148.353 E36.13357
G1 X87.482 Y146.889 E36.36525
G1 X85.408 Y145.872 E36.50418
G1 X83.455 Y144.583 E36.64488
G1 X81.071 Y142.906 E36.82018
G1 X79.085 Y141.088 E36.98203
G1 X53.889 Y115.084 E39.15935
G1 X53.145 Y114.163 E39.23059
G1 X51.670 Y111.869 E39.39457
G1 X51.570 Y111.672 E39.40785
G1 X51.140 Y110.600 E39.47733
G1 X50.691 Y109.014 E39.57641
G1 X50.182 Y106.474 E39.73218
G1 X50.057 Y105.259 E39.80568
G1 X50.046 Y103.346 E39.92067
G1 X51.499 Y70.999 E41.86781
G1 X51.576 Y70.156 E41.91868
G1 X51.745 Y68.717 E42.00583
G1 X52.352 Y65.966 E42.17520
G1 X52.545 Y65.401 E42.21111
G1 X53.127 Y64.147 E42.29424
G1 X53.859 Y62.942 E42.37902
G1 X55.057 Y61.154 E42.50846
G1 X56.684 Y59.061 E42.66785
G1 X57.075 Y58.681 E42.70065
G1 F1860.000 E39.70065
G92 E0
G1 X121.954 Y116.186 F7800.000
G1 E3.10000 F1860.000
G1 X122.116 Y116.739 E3.13471 F441.000
G1 X122.567 Y117.692 E3.19812
G1 X123.049 Y118.974 E3.28042
G1 X123.498 Y121.238 E3.41922
G1 X123.662 Y122.807 E3.51410
G1 X123.646 Y124.379 E3.60864
G1 X123.450 Y125.950 E3.70385
G1 X123.005 Y128.162 E3.83952
G1 X122.678 Y128.926 E3.88948
G1 X122.511 Y129.252 E3.91152
G1 X122.471 Y129.422 E3.92201
G1 X122.052 Y130.388 E3.98532
G1 X121.859 Y131.008 E4.02437
G1 X121.642 Y131.527 E4.05822
G1 X120.578 Y133.120 E4.17342
G1 X120.043 Y133.842 E4.22743
G1 X119.967 Y133.909 E4.23353
G1 X118.586 Y135.857 E4.37712
G1 X118.422 Y135.966 E4.38895
G1 X117.718 Y136.567 E4.44466
G1 X116.893 Y137.364 E4.51361
G1 X116.006 Y138.006 E4.57943
G1 X114.451 Y139.044 E4.69186
G1 X114.119 Y139.336 E4.71845
G1 X112.541 Y140.389 E4.83254
G1 X110.553 Y141.064 E4.95876
G1 X110.150 Y141.169 E4.98380
G1 X109.546 Y141.532 E5.02620
G1 X109.161 Y141.789 E5.05402
G1 X108.567 Y141.926 E5.09070
G1 X107.953 Y142.117 E5.12937
G1 X106.059 Y142.495 E5.24547
G1 X105.485 Y142.591 E5.28050
G1 X103.900 Y142.753 E5.37628
G1 X102.313 Y142.862 E5.47196
G1 X100.728 Y142.881 E5.56726
G1 X99.141 Y142.819 E5.66277
G1 X97.553 Y142.695 E5.75854
G1 X95.973 Y142.483 E5.85445
G1 X93.617 Y142.013 E5.99888
G1 X92.528 Y141.555 E6.06994
G1 X91.459 Y140.999 E6.14238
G1 X90.897 Y140.846 E6.17744
G1 X90.237 Y140.627 E6.21920
G1 X89.800 Y140.415 E6.24842
G1 X89.153 Y140.148 E6.29050
G1 X87.591 Y139.105 E6.40345
G1 X87.525 Y139.027 E6.40959
G1 X87.238 Y138.882 E6.42895
G1 X85.657 Y137.828 E6.54320
G1 X85.202 Y137.345 E6.58310
G1 X84.988 Y137.042 E6.60540
G1 X84.560 Y136.757 E6.63633
G1 X83.998 Y136.324 E6.67899
G1 X83.572 Y135.761 E6.72142
G1 X83.273 Y135.313 E6.75380
G1 X82.977 Y135.089 E6.77611
G1 X82.504 Y134.650 E6.81498
G1 X81.448 Y133.068 E6.92933
G1 X81.122 Y132.425 E6.97267
G1 X80.238 Y131.100 E7.06849
G1 X80.073 Y130.689 E7.09512
G1 X79.757 Y130.024 E7.13938
G1 X79.572 Y129.436 E7.17645
G1 X79.440 Y128.773 E7.21709
G1 X79.222 Y127.848 E7.27422
G1 X78.540 Y124.373 E7.48717
G1 X78.529 Y122.812 E7.58106
G1 X78.740 Y121.559 E7.65745
G1 X78.771 Y121.239 E7.67681
G1 X79.149 Y119.343 E7.79306
G1 X79.380 Y118.409 E7.85091
G1 X79.510 Y117.753 E7.89112
G1 X79.703 Y117.099 E7.93214
G1 X79.881 Y116.653 E7.96100
G1 X78.175 Y116.489 E8.06403
G1 X76.810 Y116.258 E8.14729
G1 X75.396 Y116.062 E8.23313
G1 X74.877 Y116.023 E8.26444
G1 X73.968 Y115.891 E8.31965
G1 X73.072 Y115.818 E8.37372
G1 X72.520 Y115.740 E8.40725
G1 X70.355 Y115.535 E8.53800
G1 X68.769 Y115.338 E8.63410
G1 X66.356 Y114.866 E8.78196
G1 X65.526 Y114.561 E8.83514
G1 X65.210 Y114.477 E8.85482
G1 X64.721 Y114.151 E8.89017
G1 X64.218 Y113.854 E8.92530
G1 X63.708 Y113.707 E8.95719
G1 X63.056 Y113.440 E8.99955
G1 X62.498 Y113.100 E9.03884
G1 X62.047 Y112.864 E9.06946
G1 X60.491 Y111.825 E9.18194
G1 X60.433 Y111.741 E9.18810
G1 X59.685 Y111.011 E9.25091
G1 X58.987 Y110.439 E9.30523
G1 X58.803 Y110.317 E9.31848
G1 X57.762 Y108.757 E9.43124
G1 X57.685 Y108.605 E9.44152
G1 X57.590 Y108.228 E9.46489
G1 X57.391 Y107.631 E9.50269
G1 X56.897 Y105.165 E9.65394
G1 X56.882 Y103.600 E9.74808
G1 X56.943 Y102.026 E9.84279
G1 X57.417 Y99.574 E9.99297
G1 X57.579 Y98.962 E10.03102
G1 X57.660 Y98.559 E10.05573
G1 X57.725 Y98.368 E10.06790
G1 X58.492 Y97.218 E10.15099
G1 X58.568 Y97.013 E10.16415
G1 X58.936 Y96.426 E10.20581
G1 X59.998 Y94.834 E10.32087
G1 X60.572 Y94.295 E10.36821
G1 X60.843 Y94.114 E10.38783
G1 X61.023 Y93.845 E10.40727
G1 X61.573 Y93.283 E10.45459
G1 X63.022 Y92.316 E10.55933
G1 X63.411 Y91.921 E10.59266
G1 X64.980 Y90.874 E10.70612
G1 X65.300 Y90.754 E10.72662
G1 X66.153 Y90.528 E10.77974
G1 X66.872 Y90.366 E10.82406
G1 X68.768 Y89.988 E10.94030
G1 X70.346 Y89.802 E11.03586
G1 X71.928 Y89.728 E11.13109
G1 X73.512 Y89.751 E11.22632
G1 X78.568 Y90.201 E11.53156
G1 X78.279 Y89.584 E11.57255
G1 X78.192 Y89.478 E11.58081
G1 X78.111 Y89.418 E11.58687
G1 X77.069 Y87.856 E11.69977
G1 X76.535 Y87.014 E11.75972
G1 X76.153 Y86.613 E11.79304
G1 X75.096 Y85.030 E11.90753
G1 X74.973 Y84.770 E11.92481
G1 X74.856 Y84.679 E11.93371
G1 X73.544 Y82.687 E12.07716
G1 X73.375 Y82.572 E12.08942
G1 X72.771 Y81.980 E12.14028
G1 X72.574 Y81.706 E12.16059
G1 X71.917 Y81.696 E12.20008
G1 X70.314 Y81.807 E12.29674
G1 X68.741 Y81.828 E12.39134
G1 X68.124 Y81.752 E12.42868
G1 X67.701 Y81.668 E12.45463
G1 X67.174 Y81.593 E12.48664
G1 X65.283 Y81.216 E12.60259
G1 X64.964 Y81.120 E12.62261
G1 X61.480 Y78.793 E12.87457
G1 X60.785 Y78.140 E12.93187
G1 X60.671 Y77.970 E12.94422
G1 X60.609 Y77.916 E12.94917
G1 X60.069 Y77.130 E13.00653
G1 X59.005 Y75.536 E13.12173
G1 X58.813 Y75.027 E13.15445
G1 X58.440 Y73.155 E13.26928
G1 X58.313 Y71.597 E13.36324
G1 X58.458 Y70.038 E13.45740
G1 X58.832 Y68.159 E13.57260
G1 X59.008 Y67.642 E13.60546
G1 X59.554 Y66.734 E13.66916
G1 X60.613 Y65.146 E13.78394
G1 X61.925 Y63.495 E13.91076
G1 X62.045 Y63.316 E13.92369
G1 X62.718 Y62.868 E13.97232
G1 X63.993 Y61.971 E14.06608
G1 X64.071 Y61.862 E14.07415
G1 X64.762 Y61.294 E14.12791
G1 X66.354 Y60.231 E14.24301
G1 X66.706 Y60.067 E14.26637
G1 X68.300 Y58.992 E14.38195
G1 X69.002 Y58.761 E14.42642
G1 X69.434 Y58.591 E14.45435
G1 X70.075 Y58.435 E14.49400
G1 X72.068 Y58.038 E14.61620
G1 X73.557 Y57.831 E14.70663
G1 X74.062 Y57.789 E14.73706
G1 X74.772 Y57.677 E14.78029
G1 X76.505 Y57.529 E14.88488
G1 X79.921 Y57.302 E15.09079
G1 X81.569 Y57.354 E15.18991
G1 X85.067 Y57.663 E15.40109
G1 X85.816 Y57.766 E15.44652
G1 X86.290 Y57.800 E15.47512
G1 X87.874 Y58.061 E15.57166
G1 X89.773 Y58.439 E15.68807
G1 X90.403 Y58.598 E15.72715
G1 X90.878 Y58.794 E15.75803
G1 X91.525 Y59.016 E15.79919
G1 X93.110 Y60.084 E15.91411
G1 X93.465 Y60.258 E15.93785
G1 X95.051 Y61.316 E16.05255
G1 X95.624 Y61.853 E16.09973
G1 X95.761 Y62.048 E16.11409
G1 X96.089 Y62.267 E16.13779
G1 X96.755 Y62.784 E16.18849
G1 X97.369 Y63.443 E16.24262
G1 X97.520 Y63.668 E16.25893
G1 X97.668 Y63.768 E16.26972
G1 X98.263 Y64.408 E16.32227
G1 X99.144 Y65.728 E16.41770
G1 X99.662 Y66.221 E16.46066
G1 X99.976 Y66.694 E16.49484
G1 X100.247 Y66.291 E16.52408
G1 X100.669 Y65.912 E16.55818
G1 X101.637 Y64.461 E16.66304
G1 X102.183 Y63.886 E16.71074
G1 X102.375 Y63.747 E16.72502
G1 X102.581 Y63.438 E16.74734
G1 X103.127 Y62.811 E16.79732
G1 X103.759 Y62.327 E16.84523
G1 X104.125 Y62.082 E16.87168
G1 X104.289 Y61.850 E16.88878
G1 X104.815 Y61.328 E16.93334
G1 X106.401 Y60.270 E17.04796
G1 X106.655 Y60.139 E17.06518
G1 X106.742 Y60.044 E17.07294
G1 X108.308 Y58.999 E17.18613
G1 X109.028 Y58.740 E17.23217
G1 X109.425 Y58.572 E17.25810
G1 X110.079 Y58.391 E17.29890
G1 X113.569 Y57.681 E17.51306
G1 X113.799 Y57.656 E17.52696
G1 X115.152 Y57.394 E17.60986
G1 X116.690 Y57.230 E17.70285
G1 X118.185 Y57.135 E17.79291
G1 X119.924 Y57.119 E17.89752
G1 X121.664 Y57.135 E18.00214
G1 X123.156 Y57.230 E18.09204
G1 X124.827 Y57.430 E18.19322
G1 X125.948 Y57.625 E18.26167
G1 X126.708 Y57.719 E18.30769
G1 X127.505 Y57.878 E18.35657
G1 X127.877 Y57.926 E18.37912
G1 X129.776 Y58.304 E18.49555
G1 X131.353 Y58.683 E18.59308
G1 X131.729 Y58.817 E18.61708
G1 X133.306 Y59.869 E18.73107
G1 X133.470 Y60.013 E18.74420
G1 X134.502 Y60.609 E18.81587
G1 X134.651 Y60.677 E18.82570
G1 X136.209 Y61.717 E18.93835
G1 X136.306 Y61.854 E18.94848
G1 X136.766 Y62.280 E18.98615
G1 X138.010 Y63.110 E19.07608
G1 X138.659 Y64.083 E19.14640
G1 X139.269 Y64.682 E19.19778
G1 X139.473 Y64.835 E19.21316
G1 X140.517 Y66.399 E19.32623
G1 X140.979 Y67.481 E19.39693
G1 X141.207 Y68.158 E19.43995
G1 X141.581 Y70.035 E19.55501
G1 X141.699 Y71.590 E19.64877
G1 X141.520 Y73.151 E19.74324
G1 X141.147 Y75.021 E19.85794
G1 X140.905 Y75.589 E19.89507
G1 X139.839 Y77.186 E20.01053
G1 X139.246 Y78.027 E20.07239
G1 X139.154 Y78.134 E20.08088
G1 X138.378 Y78.790 E20.14203
G1 X136.776 Y79.859 E20.25780
G1 X136.114 Y80.244 E20.30385
G1 X136.014 Y80.279 E20.31020
G1 X134.833 Y81.066 E20.39558
G1 X134.567 Y81.144 E20.41222
G1 X132.676 Y81.521 E20.52816
G1 X132.277 Y81.574 E20.55237
G1 X131.670 Y81.695 E20.58964
G1 X131.113 Y81.756 E20.62329
G1 X128.980 Y81.667 E20.75166
G1 X127.927 Y81.590 E20.81520
G1 X127.414 Y81.612 E20.84604
G1 X127.114 Y82.022 E20.87658
G1 X126.470 Y82.697 E20.93266
G1 X126.363 Y82.769 E20.94044
G1 X126.238 Y82.968 E20.95455
G1 X126.127 Y83.204 E20.97025
G1 X125.081 Y84.772 E21.08361
G1 X124.895 Y84.924 E21.09805
G1 X124.816 Y85.093 E21.10930
G1 X123.754 Y86.684 E21.22428
G1 X123.318 Y87.201 E21.26496
G1 X122.968 Y87.767 E21.30500
G1 X122.878 Y87.952 E21.31739
G1 X121.431 Y90.121 E21.47416
G1 X123.789 Y89.914 E21.61649
G1 X124.202 Y89.848 E21.64167
G1 X125.222 Y89.743 E21.70329
G1 X126.067 Y89.587 E21.75495
G1 X126.346 Y89.556 E21.77183
G1 X127.922 Y89.480 E21.86676
G1 X129.500 Y89.583 E21.96181
G1 X129.815 Y89.624 E21.98094
G1 X130.630 Y89.786 E22.03093
G1 X131.080 Y89.833 E22.05814
G1 X132.976 Y90.211 E22.17437
G1 X134.557 Y90.566 E22.27180
G1 X135.017 Y90.729 E22.30115
G1 X136.600 Y91.786 E22.41561
G1 X137.223 Y92.272 E22.46310
G1 X137.326 Y92.395 E22.47273
G1 X138.432 Y93.147 E22.55317
G1 X139.275 Y93.831 E22.61847
G1 X139.994 Y94.678 E22.68530
G1 X140.548 Y95.428 E22.74137
G1 X141.608 Y97.016 E22.85615
G1 X141.636 Y97.093 E22.86107
G1 X142.319 Y98.162 E22.93739
G1 X142.444 Y98.556 E22.96220
G1 X142.821 Y100.449 E23.07825
G1 X143.082 Y102.022 E23.17417
G1 X143.118 Y103.597 E23.26891
G1 X143.101 Y105.165 E23.36319
G1 X142.727 Y107.044 E23.47843
G1 X142.559 Y107.721 E23.52036
G1 X142.284 Y108.597 E23.57556
G1 X142.161 Y108.828 E23.59127
G1 X141.119 Y110.390 E23.70420
G1 X140.198 Y111.026 E23.77147
G1 X139.424 Y111.735 E23.83464
G1 X139.360 Y111.824 E23.84119
G1 X137.802 Y112.864 E23.95384
G1 X137.378 Y113.075 E23.98230
G1 X136.783 Y113.422 E24.02371
G1 X136.146 Y113.664 E24.06472
G1 X135.602 Y113.814 E24.09864
G1 X134.549 Y114.384 E24.17068
G1 X133.434 Y114.811 E24.24246
G1 X131.080 Y115.273 E24.38670
