; generated by Slic3r 1.1.7 on 2015-01-07 at 16:27:31

; perimeters extrusion width = 0.40mm
; infill extrusion width = 0.44mm
; solid infill extrusion width = 0.44mm
; top infill extrusion width = 0.44mm

G21 ; set units to millimeters
M190 S60 ; wait for bed temperature to be reached
M104 S186 ; set temperature
G28 ; home all axes Start of G Code Slic3r
 
M109 S186 ; wait for temperature to be reached
G90 ; use absolute coordinates
G92 E0
M82 ; use absolute distances for extrusion
G1 F1860.000 E-3.00000
G92 E0
G1 Z0.294 F7800.000
G1 X70.956 Y75.980 F7800.000
G1 E3.10000 F1860.000
G1 X73.177 Y74.063 E3.28267 F1800.000
G1 X74.515 Y73.097 E3.38535
G1 X75.814 Y72.232 E3.48248
G1 X78.614 Y70.432 E3.68969
G1 X79.749 Y69.840 E3.76940
G1 X82.148 Y68.894 E3.92995
G1 X83.951 Y68.364 E4.04692
G1 X85.641 Y67.895 E4.15611
G1 X86.296 Y67.736 E4.19804
G1 X90.300 Y66.970 E4.45182
G1 X94.406 Y66.427 E4.70963
G1 X97.235 Y66.213 E4.88625
G1 X102.423 Y66.015 E5.20942
G1 X104.207 Y66.109 E5.32061
G1 X107.763 Y66.312 E5.54233 F1800.000
G1 X108.798 Y66.435 E5.60724
G1 X112.793 Y67.270 E5.86132
G1 X116.041 Y68.357 E6.07451
G1 X117.851 Y69.040 E6.19494
G1 X119.447 Y69.697 E6.30238
G1 X120.023 Y69.955 E6.34163
G1 X121.713 Y70.800 E6.45925
G1 X122.410 Y71.184 E6.50881
G1 X124.374 Y72.427 E6.65347
G1 X125.976 Y73.577 E6.77622
G1 X127.722 Y74.951 E6.91455
G1 X129.066 Y76.184 E7.02810
G1 X130.787 Y78.027 E7.18510
G1 X131.753 Y79.365 E7.28778
G1 X132.504 Y80.491 E7.37207
G1 X132.995 Y81.327 E7.43243
G1 X133.691 Y82.727 E7.52973
G1 X134.437 Y84.365 E7.64177
G1 X135.002 Y85.777 E7.73643
G1 X135.221 Y86.384 E7.77661
G1 X135.966 Y89.048 E7.94877
G1 X136.273 Y91.097 E8.07775
G1 X136.636 Y93.863 E8.25140
G1 X136.744 Y96.300 E8.40328
G1 X136.712 Y98.879 E8.56383
G1 X134.662 Y120.079 E9.88965
G1 X134.231 Y122.386 E10.03579
G1 X133.831 Y123.686 E10.12045
G1 X133.278 Y124.997 E10.20900
G1 X132.678 Y126.097 E10.28700
G1 X131.990 Y127.132 E10.36434
G1 X131.067 Y128.216 E10.45302
G1 X130.082 Y129.140 E10.53705
G1 X129.582 Y129.540 E10.57691
G1 X128.323 Y130.345 E10.66994
G1 X127.723 Y130.645 E10.71172
G1 X125.819 Y131.280 E10.83663
G1 X124.067 Y131.568 E10.94716
G1 X95.950 Y133.994 E12.70392
G1 X94.195 Y133.990 E12.81315
G1 X76.747 Y133.323 E13.90007
G1 X76.047 Y133.223 E13.94411
G1 X74.807 Y132.930 E14.02341
G1 X74.207 Y132.730 E14.06280
G1 X72.800 Y132.083 E14.15917
G1 X72.300 Y131.783 E14.19547
G1 X70.500 Y130.242 E14.34300
G1 X70.000 Y129.642 E14.39162
G1 X69.290 Y128.620 E14.46906
G1 X68.512 Y127.154 E14.57241
G1 X68.132 Y126.257 E14.63302
G1 X64.683 Y117.324 E15.22908
G1 X64.283 Y116.224 E15.30194
G1 X63.952 Y114.966 E15.38290
G1 X63.740 Y113.693 E15.46328
G1 X63.456 Y111.507 E15.60046
G1 X63.256 Y98.200 E16.42893
G1 X63.291 Y94.294 E16.67208
G1 X63.527 Y92.097 E16.80965
G1 X63.793 Y90.309 E16.92218
G1 X64.037 Y89.105 E16.99865
G1 X64.367 Y87.679 E17.08973
G1 X64.869 Y85.814 E17.20997
G1 X65.592 Y83.864 E17.33940
G1 X66.705 Y81.427 E17.50616
G1 X67.093 Y80.651 E17.56021
G1 X67.547 Y79.865 E17.61673
G1 X68.257 Y78.867 E17.69295
G1 X68.701 Y78.328 E17.73642
G1 X69.934 Y76.984 E17.84997
G1 X70.913 Y76.022 E17.93541
G1 X71.318 Y76.391 F7800.000
G1 X73.499 Y74.505 E18.11487 F1800.000
G1 X74.818 Y73.552 E18.21616
G1 X76.110 Y72.693 E18.31273
G1 X78.910 Y70.893 E18.51994
G1 X79.957 Y70.346 E18.59350
G1 X82.303 Y69.419 E18.75049
G1 X84.098 Y68.892 E18.86695
G1 X85.788 Y68.422 E18.97613
G1 X86.400 Y68.273 E19.01538
G1 X90.373 Y67.512 E19.26719
G1 X94.448 Y66.972 E19.52305
G1 X97.259 Y66.759 E19.69856
G1 X102.394 Y66.562 E20.01844
G1 X104.178 Y66.656 E20.12963
G1 X107.731 Y66.858 E20.35113 F1800.000
G1 X108.694 Y66.972 E20.41153
G1 X112.620 Y67.789 E20.66117
G1 X115.849 Y68.870 E20.87311
G1 X117.643 Y69.546 E20.99245
G1 X119.239 Y70.203 E21.09989
G1 X119.778 Y70.444 E21.13665
G1 X121.468 Y71.289 E21.25427
G1 X122.120 Y71.648 E21.30060
G1 X124.055 Y72.872 E21.44316
G1 X125.642 Y74.011 E21.56471
G1 X127.354 Y75.355 E21.70024
G1 X128.680 Y76.570 E21.81217
G1 X130.345 Y78.349 E21.96384
G1 X131.298 Y79.668 E22.06513
G1 X132.049 Y80.795 E22.14942
G1 X132.506 Y81.572 E22.20555
G1 X133.195 Y82.956 E22.30180
G1 X133.929 Y84.568 E22.41207
G1 X134.494 Y85.980 E22.50673
G1 X134.699 Y86.547 E22.54426
G1 X135.425 Y89.129 E22.71119
G1 X135.731 Y91.174 E22.83993
G1 X136.090 Y93.889 E23.01037
G1 X136.197 Y96.300 E23.16063
G1 X136.167 Y98.827 E23.31792
G1 X134.121 Y119.996 E24.64181
G1 X133.708 Y122.225 E24.78298
G1 X133.308 Y123.525 E24.86765
G1 X132.798 Y124.735 E24.94937
G1 X132.198 Y125.835 E25.02736
G1 X131.563 Y126.790 E25.09874
G1 X130.680 Y127.830 E25.18366
G1 X129.740 Y128.713 E25.26392
G1 X129.240 Y129.113 E25.30378
G1 X128.078 Y129.856 E25.38963
G1 X127.478 Y130.156 E25.43141
G1 X125.721 Y130.742 E25.54668
G1 X124.019 Y131.022 E25.65406
G1 X95.950 Y133.447 E27.40785
G1 X94.215 Y133.443 E27.51586
G1 X76.824 Y132.781 E28.59918
G1 X76.124 Y132.681 E28.64322
G1 X74.980 Y132.411 E28.71640
G1 X74.380 Y132.211 E28.75579
G1 X73.082 Y131.614 E28.84473
G1 X72.582 Y131.314 E28.88103
G1 X70.920 Y129.891 E29.01718
G1 X70.420 Y129.291 E29.06580
G1 X69.766 Y128.348 E29.13726
G1 X69.015 Y126.938 E29.23673
G1 X68.643 Y126.060 E29.29611
G1 X65.197 Y117.137 E29.89148
G1 X64.797 Y116.037 E29.96434
G1 X64.492 Y114.877 E30.03906
G1 X64.280 Y113.603 E30.11944
G1 X64.004 Y111.499 E30.25152
G1 X63.803 Y98.200 E31.07947
G1 X63.835 Y94.349 E31.31923
G1 X64.069 Y92.174 E31.45536
G1 X64.330 Y90.416 E31.56601
G1 X64.524 Y89.446 E31.62756
G1 X64.898 Y87.812 E31.73193
G1 X65.384 Y85.998 E31.84884
G1 X66.090 Y84.091 E31.97542
G1 X67.194 Y81.672 E32.14093
G1 X67.582 Y80.896 E32.19497
G1 X68.002 Y80.168 E32.24726
G1 X68.412 Y79.572 E32.29231
G1 X69.105 Y78.696 E32.36184
G1 X70.320 Y77.370 E32.47377
G1 X71.275 Y76.433 E32.55709
G1 F1860.000 E29.55709
G92 E0
G1 X125.454 Y123.381 F7800.000
G1 E3.10000 F1860.000
G1 X124.991 Y123.751 E3.13691 F441.000
G1 X124.456 Y124.019 E3.17412
G1 X123.424 Y124.206 E3.23946
G1 X122.463 Y124.206 E3.29923
G1 X121.390 Y124.109 E3.36634
G1 X120.315 Y123.913 E3.43433
G1 X119.239 Y123.620 E3.50376
G1 X117.055 Y122.826 E3.64843
G1 X116.070 Y122.432 E3.71443
G1 X115.070 Y121.932 E3.78402
G1 X114.076 Y121.534 E3.85067
G1 X113.187 Y121.040 E3.91400
G1 X112.305 Y120.599 E3.97536
G1 X111.209 Y120.709 E4.04395
G1 X110.107 Y120.909 E4.11364
G1 X105.434 Y121.406 E4.40622
G1 X103.634 Y121.406 E4.51827
G1 X102.734 Y121.506 E4.57464
G1 X101.765 Y121.506 E4.63496
G1 X100.559 Y121.386 E4.71036
G1 X100.286 Y122.069 E4.75617
G1 X99.717 Y123.018 E4.82505
G1 X99.317 Y123.418 E4.86027
G1 X98.717 Y124.418 E4.93286
G1 X98.328 Y124.807 E4.96712
G1 X98.028 Y125.207 E4.99825
G1 X97.657 Y125.578 E5.03086
G1 X96.895 Y126.149 E5.09016
G1 X96.526 Y126.333 E5.11581
G1 X95.890 Y126.606 E5.15893
G1 X94.486 Y126.606 E5.24630
G1 X93.744 Y126.421 E5.29392
G1 X93.074 Y126.133 E5.33932
G1 X92.302 Y125.748 E5.39303
G1 X91.613 Y125.256 E5.44571
G1 X90.823 Y124.762 E5.50375
G1 X90.230 Y124.267 E5.55180
G1 X89.530 Y123.767 E5.60535
G1 X88.948 Y123.283 E5.65246
G1 X88.329 Y122.664 E5.70695
G1 X87.244 Y123.026 E5.77818
G1 X85.436 Y123.829 E5.90134
G1 X82.457 Y125.021 E6.10108
G1 X81.369 Y125.318 E6.17124
G1 X80.361 Y125.620 E6.23674
G1 X79.487 Y125.912 E6.29413
G1 X78.634 Y126.006 E6.34755
G1 X77.771 Y126.006 E6.40126
G1 X77.118 Y125.913 E6.44233
G1 X76.573 Y125.732 E6.47805
G1 X76.144 Y125.474 E6.50924
G1 X75.692 Y124.932 E6.55315
G1 X75.313 Y124.269 E6.60068
G1 X75.025 Y123.596 E6.64629
G1 X74.434 Y121.824 E6.76250
G1 X74.241 Y120.855 E6.82405
G1 X74.140 Y119.955 E6.88042
G1 X73.944 Y118.971 E6.94288
G1 X73.944 Y117.247 E7.05019
G1 X72.848 Y116.480 E7.13347
G1 X72.188 Y115.726 E7.19579
G1 X71.616 Y114.773 E7.26500
G1 X71.235 Y113.725 E7.33442
G1 X70.846 Y111.387 E7.48197
G1 X71.042 Y108.939 E7.63487
G1 X71.234 Y107.882 E7.70174
G1 X71.621 Y106.914 E7.76660
G1 X72.002 Y106.057 E7.82502
G1 X72.599 Y105.340 E7.88305
G1 X72.217 Y104.576 E7.93623
G1 X71.917 Y103.876 E7.98363
G1 X71.622 Y103.287 E8.02463
G1 X71.236 Y102.129 E8.10063
G1 X71.040 Y100.955 E8.17472
G1 X70.644 Y98.179 E8.34927
G1 X70.644 Y95.024 E8.54566
G1 X70.744 Y94.424 E8.58352
G1 X70.744 Y94.029 E8.60812
G1 X70.844 Y93.529 E8.63986
G1 X70.844 Y93.129 E8.66476
G1 X71.044 Y92.236 E8.72172
G1 X71.044 Y91.729 E8.75329
G1 X71.234 Y90.776 E8.81382
G1 X71.437 Y90.168 E8.85370
G1 X71.537 Y89.468 E8.89772
G1 X71.736 Y88.871 E8.93687
G1 X71.832 Y88.292 E8.97343
G1 X72.144 Y87.669 E9.01675
G1 X72.144 Y87.469 E9.02920
G1 X72.344 Y87.069 E9.05704
G1 X72.344 Y86.922 E9.06623
G1 X72.391 Y86.874 E9.07043
G1 X72.622 Y86.413 E9.10253
G1 X72.722 Y86.113 E9.12222
G1 X72.918 Y85.720 E9.14952
G1 X73.318 Y84.720 E9.21656
G1 X73.705 Y83.948 E9.27034
G1 X74.172 Y83.293 E9.32044
G1 X74.667 Y82.798 E9.36399
G1 X75.167 Y82.198 E9.41260
G1 X75.851 Y81.515 E9.47279
G1 X77.534 Y80.029 E9.61256
G1 X78.618 Y79.241 E9.69596
G1 X79.811 Y78.446 E9.78521
G1 X82.586 Y76.661 E9.99061
G1 X84.248 Y75.977 E10.10244
G1 X85.931 Y75.482 E10.21165
G1 X87.714 Y74.987 E10.32683
G1 X89.506 Y74.688 E10.43995
G1 X91.297 Y74.290 E10.55418
G1 X93.190 Y74.091 E10.67261
G1 X94.985 Y73.792 E10.78595
G1 X97.567 Y73.593 E10.94715
G1 X102.049 Y73.394 E11.22641
G1 X103.818 Y73.487 E11.33669
G1 X107.412 Y73.692 E11.56078 F441.000
G1 X110.476 Y74.285 E11.75503
G1 X113.452 Y75.277 E11.95030
G1 X115.043 Y75.873 E12.05604
G1 X116.728 Y76.567 E12.16952
G1 X118.506 Y77.456 E12.29326
G1 X120.087 Y78.444 E12.40928
G1 X121.475 Y79.436 E12.51549
G1 X122.761 Y80.425 E12.61651
G1 X123.847 Y81.413 E12.70786
G1 X124.826 Y82.391 E12.79403
G1 X125.609 Y83.468 E12.87689
G1 X126.395 Y84.648 E12.96515
G1 X126.985 Y85.827 E13.04724
G1 X127.580 Y87.116 E13.13561
G1 X128.173 Y88.598 E13.23499
G1 X128.663 Y90.166 E13.33722
G1 X129.257 Y94.228 E13.59276
G1 X129.356 Y96.307 E13.72233
G1 X129.356 Y98.183 E13.83910
G1 X128.960 Y101.554 E14.05040
G1 X128.664 Y103.031 E14.14415
G1 X128.270 Y104.410 E14.23345
G1 X127.776 Y105.794 E14.32493
G1 X126.783 Y108.178 E14.48567
G1 X126.248 Y109.248 E14.56017
G1 X126.361 Y110.159 E14.61731
G1 X126.562 Y110.861 E14.66278
G1 X126.762 Y112.261 E14.75082
G1 X126.962 Y112.961 E14.79614
G1 X127.356 Y115.721 E14.96966
G1 X127.356 Y116.321 E15.00700
G1 X127.456 Y117.021 E15.05102
G1 X127.456 Y117.579 E15.08577
G1 X127.356 Y118.279 E15.12979
G1 X127.356 Y118.976 E15.17315
G1 X127.163 Y120.232 E15.25229
G1 X126.969 Y120.813 E15.29041
G1 X126.778 Y121.482 E15.33371
G1 X126.492 Y121.959 E15.36830
G1 X126.201 Y122.541 E15.40883
G1 X125.831 Y123.004 E15.44574
G1 X125.496 Y123.338 E15.47519
G1 F1860.000 E12.47519
G92 E0
G1 X104.183 Y73.651 F7800.000
G1 X104.108 Y119.140 F7800.000
G1 E3.10000 F1860.000
G1 X106.597 Y118.841 E3.25600 F630.000
G1 X107.397 Y118.841 E3.30580
G1 X108.349 Y118.735 E3.36543
G1 X109.194 Y118.629 E3.41845
G1 X110.084 Y118.432 E3.47519
G1 X110.766 Y118.363 E3.51790
G1 X111.253 Y118.642 E3.55280
G1 X112.891 Y119.461 E3.66680
G1 X113.823 Y119.875 E3.73028
G1 X114.861 Y120.290 E3.79985
G1 X115.796 Y120.602 E3.86123
G1 X117.846 Y121.217 E3.99447
G1 X118.967 Y121.441 E4.06560
G1 X120.997 Y121.441 E4.19196
G1 X122.125 Y121.315 E4.26265
G1 X123.371 Y120.568 E4.35311
G1 X123.887 Y120.052 E4.39849
G1 X124.249 Y119.570 E4.43603
G1 X124.606 Y118.975 E4.47923
G1 X125.040 Y117.889 E4.55200
G1 X125.269 Y117.203 E4.59702
G1 X125.491 Y115.870 E4.68119
G1 X125.491 Y115.270 E4.71854
G1 X125.591 Y114.670 E4.75640
G1 X125.591 Y114.030 E4.79619
G1 X125.491 Y113.430 E4.83405
G1 X125.491 Y112.930 E4.86518
G1 X124.981 Y109.871 E5.05823
G1 X124.872 Y109.106 E5.10635
G1 X124.669 Y108.497 E5.14634
G1 X124.528 Y107.652 E5.19967
G1 X124.911 Y106.962 E5.24879
G1 X125.324 Y105.930 E5.31794
G1 X125.834 Y104.808 E5.39470
G1 X126.258 Y103.535 E5.47820
G1 X126.878 Y100.950 E5.64367
G1 X127.142 Y98.974 E5.76777
G1 X125.507 Y97.488 E5.90530
G1 X114.365 Y96.475 E6.60177
G1 X105.328 Y92.459 E7.21731
G1 X94.977 Y92.459 E7.86165
G1 X87.670 Y95.591 E8.35655
G1 X84.482 Y98.779 E8.63717
G1 X83.446 Y100.506 E8.76259
G1 X84.912 Y101.647 E8.87823
G1 X85.632 Y102.287 E8.93817
G1 X85.390 Y102.609 E8.96322
G1 X84.362 Y101.966 E9.03873
G1 X83.487 Y101.528 E9.09964
G1 X82.601 Y101.196 E9.15855
G1 X81.699 Y100.970 E9.21640
G1 X80.697 Y100.859 E9.27918
G1 X79.614 Y100.859 E9.34660
G1 X78.596 Y101.198 E9.41336
G1 X77.508 Y101.525 E9.48410
G1 X76.384 Y102.199 E9.56566
G1 X74.801 Y103.360 E9.68787
G1 X74.159 Y104.002 E9.74439
G1 X73.678 Y104.963 E9.81131
G1 X73.397 Y105.713 E9.86117
G1 X72.713 Y104.346 E9.95633
G1 X72.413 Y103.646 E10.00374
G1 X72.129 Y103.077 E10.04331
G1 X71.769 Y101.997 E10.11423
G1 X71.581 Y100.871 E10.18524
G1 X71.191 Y98.140 E10.35698
G1 X71.191 Y95.070 E10.54812
G1 X71.291 Y94.470 E10.58599
G1 X71.291 Y94.083 E10.61004
G1 X71.391 Y93.583 E10.64178
G1 X71.391 Y93.183 E10.66668
G1 X71.591 Y92.304 E10.72284
G1 X71.591 Y91.783 E10.75522
G1 X71.764 Y90.916 E10.81026
G1 X71.972 Y90.294 E10.85109
G1 X72.072 Y89.594 E10.89511
G1 X72.269 Y89.003 E10.93386
G1 X72.359 Y88.463 E10.96797
G1 X72.691 Y87.798 E11.01421
G1 X72.691 Y87.599 E11.02666
G1 X72.891 Y87.198 E11.05450
G1 X72.891 Y87.098 E11.06073
G1 X73.129 Y86.623 E11.09385
G1 X73.229 Y86.323 E11.11353
G1 X73.418 Y85.945 E11.13982
G1 X73.818 Y84.945 E11.20687
G1 X74.179 Y84.223 E11.25711
G1 X74.587 Y83.652 E11.30078
G1 X75.072 Y83.168 E11.34345
G1 X75.572 Y82.568 E11.39207
G1 X76.225 Y81.914 E11.44958
G1 X77.878 Y80.456 E11.58681
G1 X78.931 Y79.690 E11.66784
G1 X80.111 Y78.904 E11.75612
G1 X82.841 Y77.149 E11.95814
G1 X84.429 Y76.494 E12.06511
G1 X86.081 Y76.009 E12.17228
G1 X87.832 Y75.522 E12.28540
G1 X89.610 Y75.226 E12.39762
G1 X91.386 Y74.831 E12.51082
G1 X93.263 Y74.634 E12.62835
G1 X95.052 Y74.336 E12.74121
G1 X97.600 Y74.140 E12.90030
G1 X102.048 Y73.942 E13.17746
G1 X107.342 Y74.236 E13.50754
G1 X110.339 Y74.816 E13.69752
G1 X113.269 Y75.793 E13.88982
G1 X114.842 Y76.383 E13.99439
G1 X116.501 Y77.066 E14.10609
G1 X118.238 Y77.934 E14.22696
G1 X119.782 Y78.899 E14.34032
G1 X121.149 Y79.876 E14.44487
G1 X122.410 Y80.845 E14.54389
G1 X123.470 Y81.809 E14.63303
G1 X124.409 Y82.748 E14.71571
G1 X125.160 Y83.781 E14.79521
G1 X125.921 Y84.923 E14.88066
G1 X126.492 Y86.064 E14.96010
G1 X127.077 Y87.333 E15.04705
G1 X127.657 Y88.782 E15.14422
G1 X128.128 Y90.289 E15.24250
G1 X128.712 Y94.280 E15.49356
G1 X128.809 Y96.320 E15.62072
G1 X128.809 Y98.151 E15.73468
G1 X128.419 Y101.468 E15.94261
G1 X128.132 Y102.902 E16.03362
G1 X127.749 Y104.243 E16.12044
G1 X127.265 Y105.597 E16.20993
G1 X126.285 Y107.950 E16.36862
G1 X125.684 Y109.152 E16.45226
G1 X125.824 Y110.269 E16.52233
G1 X126.026 Y110.976 E16.56811
G1 X126.226 Y112.376 E16.65614
G1 X126.426 Y113.076 E16.70146
G1 X126.809 Y115.760 E16.87024
G1 X126.809 Y116.360 E16.90758
G1 X126.909 Y117.060 E16.95160
G1 X126.909 Y117.540 E16.98151
G1 X126.809 Y118.240 E17.02553
G1 X126.809 Y118.930 E17.06849
G1 X126.628 Y120.106 E17.14253
G1 X126.446 Y120.651 E17.17832
G1 X126.272 Y121.262 E17.21787
G1 X126.012 Y121.695 E17.24928
G1 X125.738 Y122.244 E17.28750
G1 X125.422 Y122.638 E17.31892
G1 X125.088 Y122.972 E17.34833
G1 X124.694 Y123.288 E17.37975
G1 X124.281 Y123.494 E17.40848
G1 X123.374 Y123.659 E17.46588
G1 X122.488 Y123.659 E17.52104
G1 X121.464 Y123.566 E17.58508
G1 X120.436 Y123.379 E17.65008
G1 X119.405 Y123.098 E17.71663
G1 X117.250 Y122.314 E17.85936
G1 X116.295 Y121.932 E17.92340
G1 X115.295 Y121.432 E17.99300
G1 X114.312 Y121.039 E18.05890
G1 X113.442 Y120.556 E18.12081
G1 X112.408 Y120.039 E18.19277
G1 X111.133 Y120.167 E18.27257
G1 X110.028 Y120.367 E18.34246
G1 X105.403 Y120.859 E18.63197
G1 X103.603 Y120.859 E18.74402
G1 X102.703 Y120.959 E18.80039
G1 X101.792 Y120.959 E18.85713
G1 X100.038 Y120.784 E18.96683
G1 X100.668 Y119.944 E19.03218
G1 X100.868 Y119.544 E19.06002
G1 X101.505 Y118.695 E19.12605
G1 X102.158 Y116.735 E19.25466
G1 X102.568 Y115.093 E19.36003
G1 X102.981 Y113.238 E19.47833
G1 X103.091 Y112.246 E19.54043
G1 X103.091 Y111.254 E19.60224
G1 X102.972 Y110.183 E19.66927
G1 X102.259 Y108.520 E19.78191
G1 X101.477 Y107.738 E19.85079
G1 X100.500 Y107.127 E19.92250
