; generated by Slic3r 1.1.7 on 2015-01-07 at 16:28:36

; perimeters extrusion width = 0.40mm
; infill extrusion width = 0.44mm
; solid infill extrusion width = 0.44mm
; top infill extrusion width = 0.44mm

G21 ; set units to millimeters
M190 S60 ; wait for bed temperature to be reached
M104 S186 ; set temperature
G28 ; home all axes Start of G Code Slic3r
 
M109 S186 ; wait for temperature to be reached
G90 ; use absolute coordinates
G92 E0
M82 ; use absolute distances for extrusion
G1 F1860.000 E-3.00000
G92 E0
G1 Z0.294 F7800.000
G1 X82.372 Y50.954 F7800.000
G1 E3.10000 F1860.000
G1 X83.052 Y49.903 E3.17795 F1800.000
G1 X84.281 Y48.388 E3.29934
G1 X85.638 Y47.030 E3.41884
G1 X87.111 Y45.835 E3.53693
G1 X87.975 Y45.247 E3.60200
G1 X88.676 Y44.817 E3.65322
G1 X90.332 Y43.974 E3.76887
G1 X91.262 Y43.595 E3.83137
G1 X92.052 Y43.318 E3.88349
G1 X93.826 Y42.852 E3.99769
G1 X95.731 Y42.578 E4.11747
G1 X96.661 Y42.533 E4.17544
G1 X97.556 Y42.538 E4.23117
G1 X99.565 Y42.739 E4.35686 F1800.000
G1 X102.765 Y43.459 E4.56103
G1 X105.837 Y44.572 E4.76440
G1 X108.790 Y45.994 E4.96845
G1 X111.590 Y47.672 E5.17161
G1 X114.210 Y49.593 E5.37385
G1 X116.617 Y51.822 E5.57808
G1 X118.513 Y54.185 E5.76667
G1 X123.429 Y62.196 E6.35175
G1 X123.978 Y63.294 E6.42816
G1 X132.625 Y85.134 E7.89033
G1 X133.531 Y87.670 E8.05797
G1 X134.320 Y90.319 E8.23004
G1 X134.954 Y93.077 E8.40622
G1 X135.399 Y95.972 E8.58852
G1 X135.567 Y98.451 E8.74323
G1 X135.555 Y100.378 E8.86316
G1 X135.522 Y101.157 E8.91168
G1 X135.210 Y104.057 E9.09328
G1 X134.552 Y107.095 E9.28677
G1 X133.899 Y109.086 E9.41719
G1 X133.526 Y110.049 E9.48148
G1 X117.623 Y143.787 E11.80324
G1 X112.747 Y152.158 E12.40628
G1 X111.864 Y153.362 E12.49922
G1 X111.167 Y154.128 E12.56369
G1 X109.875 Y155.243 E12.66996
G1 X109.032 Y155.809 E12.73317
G1 X107.520 Y156.579 E12.83875
G1 X106.566 Y156.929 E12.90201
G1 X104.915 Y157.319 E13.00765
G1 X103.891 Y157.434 E13.07179
G1 X102.181 Y157.419 E13.17826
G1 X100.731 Y157.218 E13.26933
G1 X87.719 Y154.770 E14.09354
G1 X86.077 Y154.422 E14.19802
G1 X84.897 Y154.063 E14.27480
G1 X83.050 Y153.319 E14.39876
G1 X81.115 Y152.151 E14.53945
G1 X78.569 Y149.994 E14.74716
G1 X77.354 Y148.664 E14.85929
G1 X76.900 Y148.019 E14.90839
G1 X75.952 Y146.123 E15.04039
G1 X75.651 Y145.186 E15.10161
G1 X65.247 Y109.723 E17.40220
G1 X64.682 Y106.955 E17.57809
G1 X64.451 Y104.332 E17.74199
G1 X64.452 Y101.776 E17.90107
G1 X64.760 Y97.594 E18.16211
G1 X64.847 Y96.711 E18.21734
G1 X65.687 Y91.333 E18.55617
G1 X66.954 Y85.727 E18.91396
G1 X67.066 Y85.338 E18.93914
G1 X68.632 Y79.982 E19.28653
G1 X70.716 Y74.202 E19.66898
G1 X73.141 Y68.603 E20.04880
G1 X74.494 Y65.871 E20.23858
G1 X82.344 Y51.007 E21.28495
G1 X82.856 Y51.209 F7800.000
G1 X83.483 Y50.239 E21.35689 F1800.000
G1 X84.675 Y48.767 E21.47480
G1 X85.991 Y47.448 E21.59077
G1 X87.419 Y46.288 E21.70529
G1 X88.283 Y45.700 E21.77036
G1 X88.935 Y45.299 E21.81802
G1 X90.538 Y44.480 E21.93005
G1 X91.468 Y44.102 E21.99255
G1 X92.203 Y43.844 E22.04103
G1 X93.919 Y43.391 E22.15154
G1 X95.757 Y43.124 E22.26713
G1 X96.687 Y43.080 E22.32510
G1 X97.519 Y43.084 E22.37688
G1 X99.456 Y43.275 E22.49802 F1800.000
G1 X102.585 Y43.976 E22.69764
G1 X105.604 Y45.067 E22.89747
G1 X108.513 Y46.466 E23.09843
G1 X111.272 Y48.117 E23.29853
G1 X113.847 Y50.002 E23.49721
G1 X116.200 Y52.176 E23.69662
G1 X118.046 Y54.472 E23.88000
G1 X122.604 Y61.899 E24.42244
G1 X123.469 Y63.496 E24.53550
G1 X132.111 Y85.319 E25.99663
G1 X133.008 Y87.828 E26.16249
G1 X133.788 Y90.445 E26.33244
G1 X134.414 Y93.165 E26.50619
G1 X134.853 Y96.014 E26.68567
G1 X135.020 Y98.448 E26.83751
G1 X135.008 Y100.375 E26.95745
G1 X134.978 Y101.105 E27.00295
G1 X134.673 Y103.950 E27.18109
G1 X134.032 Y106.925 E27.37048
G1 X133.379 Y108.915 E27.50090
G1 X133.031 Y109.816 E27.56102
G1 X117.150 Y143.511 E29.87979
G1 X112.274 Y151.882 E30.48284
G1 X111.460 Y152.993 E30.56860
G1 X110.762 Y153.759 E30.63307
G1 X109.570 Y154.789 E30.73115
G1 X108.727 Y155.355 E30.79436
G1 X107.332 Y156.066 E30.89180
G1 X106.378 Y156.416 E30.95505
G1 X104.854 Y156.775 E31.05254
G1 X103.830 Y156.890 E31.11669
G1 X102.251 Y156.876 E31.21494
G1 X100.832 Y156.680 E31.30411
G1 X87.833 Y154.235 E32.12753
G1 X85.102 Y153.555 E32.30271
G1 X83.255 Y152.811 E32.42667
G1 X81.469 Y151.733 E32.55651
G1 X78.923 Y149.576 E32.76422
G1 X77.801 Y148.350 E32.86770
G1 X77.347 Y147.705 E32.91680
G1 X76.473 Y145.954 E33.03862
G1 X76.176 Y145.032 E33.09890
G1 X65.781 Y109.604 E35.39723
G1 X65.227 Y106.901 E35.56902
G1 X64.998 Y104.327 E35.72987
G1 X64.997 Y101.816 E35.88613
G1 X65.305 Y97.634 E36.14718
G1 X65.387 Y96.794 E36.19973
G1 X66.221 Y91.453 E36.53626
G1 X67.479 Y85.879 E36.89193
G1 X69.148 Y80.166 E37.26241
G1 X71.218 Y74.419 E37.64269
G1 X73.632 Y68.845 E38.02075
G1 X74.978 Y66.126 E38.20961
G1 X82.828 Y51.263 E39.25598
G1 F1860.000 E36.25598
G92 E0
G1 X107.222 Y143.784 F7800.000
G1 E3.10000 F1860.000
G1 X107.098 Y146.617 E3.27655 F441.000
G1 X106.855 Y147.530 E3.33533
G1 X106.376 Y148.416 E3.39803
G1 X105.727 Y149.129 E3.45806
G1 X104.943 Y149.655 E3.51685
G1 X104.055 Y149.981 E3.57570
G1 X103.102 Y150.088 E3.63542
G1 X102.369 Y149.993 E3.68141
G1 X102.369 Y150.058 E3.68547
G1 X101.126 Y149.577 E3.76844
G1 X100.170 Y148.919 E3.84064
G1 X99.197 Y147.850 E3.93065
G1 X98.444 Y146.644 E4.01913
G1 X96.899 Y143.843 E4.21826
G1 X94.281 Y145.986 E4.42887
G1 X93.121 Y146.720 E4.51427
G1 X91.918 Y147.251 E4.59615
G1 X90.633 Y147.537 E4.67811
G1 X89.221 Y147.536 E4.76600
G1 X87.634 Y147.200 E4.86698
G1 X86.035 Y146.556 E4.97425
G1 X86.256 Y145.421 E5.04623
G1 X84.825 Y145.182 E5.13653
G1 X83.979 Y144.841 E5.19331
G1 X83.369 Y144.375 E5.24107
G1 X82.967 Y143.803 E5.28461
G1 X82.749 Y143.131 E5.32858
G1 X82.704 Y142.367 E5.37621
G1 X82.830 Y141.531 E5.42888
G1 X83.117 Y140.646 E5.48680
G1 X83.556 Y139.738 E5.54953
G1 X84.133 Y138.834 E5.61630
G1 X84.836 Y137.958 E5.68620
G1 X85.647 Y137.135 E5.75818
G1 X86.555 Y136.387 E5.83142
G1 X87.545 Y135.738 E5.90506
G1 X88.600 Y135.210 E5.97854
G1 X89.797 Y134.793 E6.05741
G1 X90.307 Y134.225 E6.10496
G1 X90.626 Y133.681 E6.14421
G1 X90.861 Y132.711 E6.20636
G1 X90.787 Y131.957 E6.25349
G1 X90.629 Y131.474 E6.28515
G1 X89.153 Y130.558 E6.39329
G1 X88.109 Y129.559 E6.48319
G1 X86.183 Y126.891 E6.68802
G1 X85.575 Y125.855 E6.76282
G1 X85.110 Y124.781 E6.83566
G1 X83.806 Y120.180 E7.13337
G1 X83.418 Y119.031 E7.20884
G1 X82.914 Y117.897 E7.28612
G1 X79.855 Y113.746 E7.60712
G1 X78.477 Y113.599 E7.69339
G1 X77.378 Y113.346 E7.76357
G1 X76.406 Y112.981 E7.82817
G1 X75.553 Y112.517 E7.88865
G1 X74.807 Y111.960 E7.94658
G1 X74.164 Y111.320 E8.00307
G1 X73.612 Y110.606 E8.05925
G1 X73.151 Y109.829 E8.11547
G1 X72.452 Y108.093 E8.23199
G1 X72.033 Y106.208 E8.35217
G1 X71.839 Y104.251 E8.47460
G1 X71.821 Y102.306 E8.59566
G1 X72.151 Y97.819 E8.87575
G1 X72.900 Y92.934 E9.18337
G1 X74.053 Y87.774 E9.51252
G1 X75.592 Y82.462 E9.85676
G1 X77.503 Y77.120 E10.20998
G1 X79.769 Y71.868 E10.56600
G1 X81.028 Y69.319 E10.74300
G1 X82.371 Y66.837 E10.91866
G1 X83.792 Y64.439 E11.09218
G1 X85.308 Y62.118 E11.26476
G1 X88.897 Y54.421 E11.79339
G1 X89.620 Y53.495 E11.86657
G1 X90.420 Y52.661 E11.93847
G1 X91.279 Y51.935 E12.00848
G1 X92.185 Y51.318 E12.07673
G1 X93.130 Y50.811 E12.14348
G1 X94.104 Y50.415 E12.20893
G1 X95.099 Y50.130 E12.27333
G1 X96.102 Y49.957 E12.33672
G1 X97.070 Y49.910 E12.39704
G1 X98.102 Y49.981 E12.46145
G1 X100.349 Y50.441 E12.60419
G1 X102.705 Y51.263 E12.75953
G1 X105.061 Y52.372 E12.92162
G1 X107.303 Y53.689 E13.08347
G1 X109.320 Y55.131 E13.23782
G1 X110.997 Y56.618 E13.37733
G1 X112.227 Y58.069 E13.49577
G1 X117.116 Y66.034 E14.07755
G1 X121.812 Y79.210 E14.94825
G1 X123.849 Y83.392 E15.23784
G1 X125.680 Y87.652 E15.52645
G1 X126.463 Y89.821 E15.66998
G1 X127.132 Y92.027 E15.81354
G1 X127.663 Y94.271 E15.95707
G1 X128.034 Y96.559 E16.10133
G1 X128.179 Y98.418 E16.21738
G1 X128.166 Y100.470 E16.34515
G1 X127.961 Y102.629 E16.48017
G1 X127.527 Y104.807 E16.61840
G1 X126.835 Y106.917 E16.75660
G1 X125.847 Y108.881 E16.89345
G1 X125.241 Y109.770 E16.96047
G1 X124.546 Y110.595 E17.02763
G1 X123.762 Y111.341 E17.09498
G1 X122.894 Y111.992 E17.16251
G1 X122.047 Y112.396 E17.22095
G1 X120.140 Y112.835 E17.34273
G1 X119.044 Y113.184 E17.41434
G1 X114.993 Y125.041 E18.19432
G1 X114.137 Y126.168 E18.28240
G1 X113.240 Y127.167 E18.36599
G1 X111.383 Y128.860 E18.52242
G1 X107.630 Y131.844 E18.82093
G1 X106.302 Y132.328 E18.90886
G1 X111.874 Y134.926 E19.29158
G1 X112.126 Y135.978 E19.35891
G1 X112.094 Y137.295 E19.44092
G1 X111.782 Y138.696 E19.53026
G1 X111.229 Y140.086 E19.62342
G1 X110.470 Y141.373 E19.71637
G1 X109.555 Y142.463 E19.80498
G1 X108.521 Y143.274 E19.88679
G1 X107.990 Y143.541 E19.92377
G1 X107.279 Y143.766 E19.97021
G1 X106.823 Y143.813 F7800.000
G1 X106.692 Y143.377 F7800.000
G1 X106.554 Y146.534 E20.16689 F630.000
G1 X106.343 Y147.326 E20.21793
G1 X105.926 Y148.097 E20.27245
G1 X105.367 Y148.712 E20.32421
G1 X104.692 Y149.164 E20.37477
G1 X103.928 Y149.445 E20.42541
G1 X103.107 Y149.537 E20.47689
G1 X102.251 Y149.425 E20.53060
G1 X101.383 Y149.089 E20.58852
G1 X100.532 Y148.504 E20.65281
G1 X99.635 Y147.518 E20.73580
G1 X98.916 Y146.367 E20.82029
G1 X97.061 Y143.004 E21.05939
G1 X93.960 Y145.542 E21.30881
G1 X92.863 Y146.236 E21.38960
G1 X91.746 Y146.728 E21.46558
G1 X90.573 Y146.990 E21.54044
G1 X89.278 Y146.989 E21.62101
G1 X87.794 Y146.675 E21.71545
G1 X86.659 Y146.217 E21.79166
G1 X86.900 Y144.974 E21.87048
G1 X84.974 Y144.652 E21.99204
G1 X84.252 Y144.362 E22.04048
G1 X83.768 Y143.992 E22.07838
G1 X83.462 Y143.556 E22.11154
G1 X83.291 Y143.029 E22.14601
G1 X83.254 Y142.392 E22.18572
G1 X83.364 Y141.657 E22.23203
G1 X83.626 Y140.850 E22.28480
G1 X84.034 Y140.006 E22.34320
G1 X84.578 Y139.154 E22.40612
G1 X85.245 Y138.323 E22.47244
G1 X86.017 Y137.539 E22.54092
G1 X86.880 Y136.828 E22.61054
G1 X87.818 Y136.213 E22.68034
G1 X88.814 Y135.715 E22.74963
G1 X90.110 Y135.264 E22.83508
G1 X90.751 Y134.550 E22.89484
G1 X91.139 Y133.888 E22.94255
G1 X91.415 Y132.749 E23.01550
G1 X91.326 Y131.844 E23.07214
G1 X91.087 Y131.114 E23.11994
G1 X89.490 Y130.123 E23.23694
G1 X88.524 Y129.199 E23.32017
G1 X86.642 Y126.592 E23.52027
G1 X86.064 Y125.607 E23.59138
G1 X85.627 Y124.597 E23.65989
G1 X84.328 Y120.018 E23.95618
G1 X83.928 Y118.832 E24.03405
G1 X83.390 Y117.620 E24.11662
G1 X80.152 Y113.227 E24.45634
G1 X78.567 Y113.058 E24.55556
G1 X77.536 Y112.821 E24.62142
G1 X76.634 Y112.482 E24.68138
G1 X75.849 Y112.055 E24.73705
G1 X75.166 Y111.545 E24.79013
G1 X74.575 Y110.958 E24.84198
G1 X74.066 Y110.298 E24.89386
G1 X73.643 Y109.586 E24.94539
G1 X72.977 Y107.930 E25.05651
G1 X72.574 Y106.122 E25.17184
G1 X72.386 Y104.222 E25.29069
G1 X72.368 Y102.324 E25.40882
G1 X72.695 Y97.881 E25.68616
G1 X73.438 Y93.036 E25.99129
G1 X74.583 Y87.910 E26.31822
G1 X76.112 Y82.631 E26.66035
G1 X78.013 Y77.320 E27.01144
G1 X80.266 Y72.098 E27.36550
G1 X81.514 Y69.570 E27.54098
G1 X82.847 Y67.107 E27.71535
G1 X84.257 Y64.729 E27.88745
G1 X85.788 Y62.385 E28.06172
G1 X89.367 Y54.709 E28.58891
G1 X90.034 Y53.853 E28.65647
G1 X90.795 Y53.061 E28.72486
G1 X91.610 Y52.371 E28.79131
G1 X92.470 Y51.787 E28.85600
G1 X93.363 Y51.307 E28.91915
G1 X94.283 Y50.933 E28.98096
G1 X95.221 Y50.664 E29.04170
G1 X96.162 Y50.501 E29.10114
G1 X97.064 Y50.458 E29.15738
G1 X98.028 Y50.524 E29.21753
G1 X100.203 Y50.969 E29.35571
G1 X102.498 Y51.770 E29.50699
G1 X104.805 Y52.857 E29.66575
G1 X107.005 Y54.148 E29.82452
G1 X108.978 Y55.559 E29.97555
G1 X110.604 Y57.002 E30.11086
G1 X111.783 Y58.391 E30.22427
G1 X116.619 Y66.272 E30.79988
G1 X121.307 Y79.422 E31.66891
G1 X123.351 Y83.620 E31.95959
G1 X125.171 Y87.853 E32.24638
G1 X125.944 Y89.993 E32.38801
G1 X126.604 Y92.170 E32.52962
G1 X127.126 Y94.378 E32.67087
G1 X127.490 Y96.624 E32.81251
G1 X127.632 Y98.437 E32.92571
G1 X127.619 Y100.442 E33.05054
G1 X127.419 Y102.550 E33.18231
G1 X126.997 Y104.668 E33.31675
G1 X126.328 Y106.707 E33.45036
G1 X125.375 Y108.602 E33.58241
G1 X124.804 Y109.439 E33.64544
G1 X124.147 Y110.220 E33.70899
G1 X123.408 Y110.923 E33.77247
G1 X122.610 Y111.522 E33.83460
G1 X121.865 Y111.876 E33.88590
G1 X119.996 Y112.307 E34.00534
G1 X118.615 Y112.746 E34.09551
G1 X114.504 Y124.781 E34.88716
G1 X113.715 Y125.819 E34.96833
G1 X112.851 Y126.781 E35.04882
G1 X111.028 Y128.443 E35.20240
G1 X107.359 Y131.361 E35.49422
G1 X104.874 Y132.265 E35.65882
G1 X111.404 Y135.311 E36.10733
G1 X111.578 Y136.036 E36.15377
G1 X111.548 Y137.228 E36.22801
G1 X111.258 Y138.534 E36.31130
G1 X110.736 Y139.845 E36.39910
G1 X110.022 Y141.056 E36.48660
G1 X109.172 Y142.067 E36.56884
G1 X108.226 Y142.810 E36.64371
G1 X107.783 Y143.033 E36.67456
G1 X106.749 Y143.359 E36.74210
G1 X97.348 Y127.272 F7800.000
G1 X92.058 Y124.806 E37.10542 F441.000
G1 X91.084 Y123.816 E37.19185
G1 X90.364 Y122.665 E37.27635
G1 X92.744 Y122.710 E37.42451
G1 X93.186 Y122.896 E37.45438
G1 X95.045 Y123.433 E37.57482
G1 X97.348 Y123.842 E37.72043
G1 X97.348 Y127.212 E37.93018
G1 X97.233 Y127.655 F7800.000
G1 X97.895 Y128.131 F7800.000
G1 X91.737 Y125.260 E38.35311 F630.000
G1 X90.652 Y124.157 E38.44943
G1 X89.364 Y122.099 E38.60053
G1 X92.859 Y122.164 E38.81810
G1 X93.369 Y122.379 E38.85252
G1 X95.169 Y122.899 E38.96917
G1 X97.895 Y123.384 E39.14153
G1 X97.895 Y128.071 E39.43328
G1 X97.348 Y119.331 F7800.000
G1 X89.714 Y119.188 E39.90852 F441.000
G1 X88.931 Y117.966 E39.99890
G1 X88.826 Y117.535 E40.02650
G1 X88.472 Y116.324 E40.10501
G1 X88.025 Y115.236 E40.17828
G1 X86.605 Y113.109 E40.33746
G1 X88.951 Y113.143 E40.48355
G1 X90.599 Y114.856 E40.63153
G1 X91.441 Y115.188 E40.68783
G1 X92.321 Y115.385 E40.74400
G1 X93.192 Y115.443 E40.79836
G1 X94.043 Y115.372 E40.85151
G1 X94.865 Y115.182 E40.90399
G1 X95.642 Y114.882 E40.95583
G1 X96.364 Y114.483 E41.00724
G1 X97.348 Y113.749 E41.08359
G1 X97.348 Y119.271 E41.42728
G1 X97.343 Y119.731 F7800.000
G1 X97.895 Y119.888 F7800.000
G1 X89.412 Y119.730 E41.95544 F630.000
G1 X88.421 Y118.184 E42.06972
G1 X88.298 Y117.677 E42.10224
G1 X87.955 Y116.506 E42.17817
G1 X87.539 Y115.494 E42.24624
G1 X85.571 Y112.547 E42.46685
G1 X89.187 Y112.599 E42.69197
G1 X90.911 Y114.391 E42.84674
G1 X91.602 Y114.664 E42.89296
G1 X92.399 Y114.842 E42.94385
G1 X93.188 Y114.895 E42.99303
G1 X93.958 Y114.830 E43.04115
G1 X94.704 Y114.657 E43.08879
G1 X95.410 Y114.385 E43.13590
G1 X96.067 Y114.022 E43.18266
G1 X97.895 Y112.659 E43.32458
G1 X97.895 Y119.828 E43.77086
G1 X102.576 Y123.154 F7800.000
G1 X104.497 Y123.035 E43.89066 F441.000
G1 X105.002 Y122.939 E43.92266
G1 X109.659 Y123.025 E44.21261
G1 X108.585 Y124.250 E44.31401
G1 X107.408 Y125.186 E44.40763
G1 X106.192 Y125.838 E44.49350
G1 X104.948 Y126.282 E44.57573
G1 X102.576 Y126.857 E44.72766
G1 X102.576 Y123.214 E44.95443
G1 X102.560 Y122.755 F7800.000
G1 X102.029 Y122.640 F7800.000
G1 X104.429 Y122.491 E45.10409 F630.000
G1 X104.955 Y122.390 E45.13747
G1 X110.847 Y122.500 E45.50428
G1 X108.964 Y124.648 E45.68207
G1 X107.710 Y125.645 E45.78182
G1 X106.415 Y126.340 E45.87331
G1 X105.105 Y126.807 E45.95987
G1 X102.029 Y127.553 E46.15690
G1 X102.029 Y122.700 E46.45900
G1 X102.576 Y119.428 F7800.000
G1 X102.576 Y115.063 E46.73073 F441.000
G1 X104.272 Y115.669 E46.84282
G1 X105.474 Y115.789 E46.91804
G1 X106.598 Y115.618 E46.98880
G1 X107.633 Y115.193 E47.05844
G1 X108.564 Y114.550 E47.12888
G1 X109.372 Y113.728 E47.20060
G1 X109.570 Y113.441 E47.22235
G1 X112.380 Y113.481 E47.39727
G1 X112.192 Y114.040 E47.43393
G1 X111.918 Y115.818 E47.54595
G1 X109.958 Y119.185 E47.78843
G1 X109.561 Y119.559 E47.82241
G1 X102.636 Y119.429 E48.25352
G1 X102.176 Y119.426 F7800.000
G1 X102.029 Y119.965 F7800.000
G1 X102.029 Y114.286 E48.60703 F630.000
G1 X104.393 Y115.131 E48.76330
G1 X105.460 Y115.238 E48.83005
G1 X106.451 Y115.087 E48.89245
G1 X107.371 Y114.710 E48.95434
G1 X108.210 Y114.130 E49.01785
G1 X108.948 Y113.379 E49.08338
G1 X109.285 Y112.889 E49.12038
G1 X113.136 Y112.945 E49.36013
G1 X112.726 Y114.169 E49.44052
G1 X112.443 Y116.004 E49.55607
G1 X110.391 Y119.529 E49.80995
G1 X109.773 Y120.110 E49.86276
