; generated by Slic3r 1.1.7 on 2014-12-10 at 18:49:50

; perimeters extrusion width = 0.42mm
; infill extrusion width = 0.74mm
; solid infill extrusion width = 0.71mm
; top infill extrusion width = 0.71mm
; support material extrusion width = 0.42mm

G21 ; set units to millimeters
M190 S65 ; wait for bed temperature to be reached
M104 S186 ; set temperature
G28 ; home all axes
M109 S186 ; wait for temperature to be reached
G90 ; use absolute coordinates
G92 E0
M82 ; use absolute distances for extrusion
G1 F1860.000 E-3.00000
G92 E0
G1 Z0.200 F6000.000
G1 X72.723 Y53.478 F6000.000
G1 E3.10000 F1860.000
G1 X73.546 Y52.555 E3.12287 F1200.000
G1 X74.372 Y51.874 E3.14269
G1 X75.337 Y51.292 E3.16353
G1 X76.825 Y50.619 E3.19374
G1 X78.389 Y50.147 E3.22396
G1 X79.146 Y49.997 E3.23825
G1 X80.001 Y49.883 E3.25420
G1 X81.209 Y49.818 E3.27658
G1 X85.718 Y49.838 E3.36001
G1 X87.965 Y50.051 E3.40175 F1200.000
G1 X120.841 Y56.186 E4.02047
G1 X122.432 Y56.559 E4.05069
G1 X123.164 Y56.808 E4.06500
G1 X123.960 Y57.137 E4.08092
G1 X124.652 Y57.478 E4.09520
G1 X125.492 Y57.972 E4.11323
G1 X126.455 Y58.747 E4.13611
G1 X127.278 Y59.672 E4.15901
G1 X127.938 Y60.718 E4.18189
G1 X128.013 Y60.868 E4.18499
G1 X128.416 Y61.859 E4.20479
G1 X128.700 Y63.064 E4.22769
G1 X128.723 Y63.230 E4.23079
G1 X128.784 Y64.119 E4.24728
G1 X128.722 Y118.782 E5.25855
G1 X128.465 Y119.992 E5.28144
G1 X128.415 Y120.153 E5.28456
G1 X128.012 Y121.144 E5.30434
G1 X127.376 Y122.205 E5.32723
G1 X126.574 Y123.147 E5.35012
G1 X126.454 Y123.263 E5.35320
G1 X99.654 Y148.423 E6.03326
G1 X97.752 Y149.663 E6.07527
G1 X95.209 Y150.182 E6.12329
G1 X85.209 Y150.182 E6.30829
G1 X82.973 Y149.785 E6.35030
G1 X81.011 Y148.643 E6.39230
G1 X79.562 Y146.895 E6.43431
G1 X78.887 Y145.173 E6.46853
G1 X71.300 Y112.753 E7.08450
G1 X71.216 Y111.698 E7.10409
G1 X71.278 Y57.035 E8.11535
G1 X71.535 Y55.825 E8.13825
G1 X71.585 Y55.664 E8.14136
G1 X71.988 Y54.674 E8.16115
G1 X72.686 Y53.529 E8.18596
G1 X72.922 Y53.624 F6000.000
G1 X73.718 Y52.732 E8.20808 F1200.000
G1 X74.513 Y52.077 E8.22714
G1 X75.446 Y51.513 E8.24730
G1 X76.905 Y50.854 E8.27692
G1 X78.437 Y50.390 E8.30654
G1 X79.194 Y50.239 E8.32082
G1 X80.017 Y50.130 E8.33618
G1 X81.209 Y50.065 E8.35826
G1 X85.699 Y50.085 E8.44133
G1 X87.919 Y50.294 E8.48258 F1200.000
G1 X120.793 Y56.429 E9.10125
G1 X122.352 Y56.793 E9.13087
G1 X123.084 Y57.042 E9.14518
G1 X123.850 Y57.358 E9.16051
G1 X124.542 Y57.700 E9.17479
G1 X125.351 Y58.175 E9.19214
G1 X126.283 Y58.925 E9.21427
G1 X127.079 Y59.818 E9.23641
G1 X127.717 Y60.830 E9.25853
G1 X127.793 Y60.979 E9.26163
G1 X128.180 Y61.933 E9.28068
G1 X128.455 Y63.098 E9.30282
G1 X128.478 Y63.264 E9.30592
G1 X128.537 Y64.119 E9.32178
G1 X128.478 Y118.748 E10.33242
G1 X128.229 Y119.918 E10.35456
G1 X128.179 Y120.079 E10.35767
G1 X127.792 Y121.032 E10.37670
G1 X127.177 Y122.058 E10.39883
G1 X126.401 Y122.969 E10.42097
G1 X126.282 Y123.085 E10.42405
G1 X99.485 Y148.242 E11.10403
G1 X97.616 Y149.453 E11.14523
G1 X95.209 Y149.935 E11.19064
G1 X85.209 Y149.935 E11.37564
G1 X83.018 Y149.538 E11.41683
G1 X81.105 Y148.398 E11.45802
G1 X79.714 Y146.660 E11.49922
G1 X79.127 Y145.116 E11.52977
G1 X71.545 Y112.719 E12.14531
G1 X71.463 Y111.698 E12.16427
G1 X71.522 Y57.069 E13.17490
G1 X71.771 Y55.899 E13.19704
G1 X71.821 Y55.738 E13.20015
G1 X72.208 Y54.785 E13.21919
G1 X72.885 Y53.675 E13.24324
G1 F1860.000 E10.24324
G92 E0
G1 X85.556 Y111.083 F6000.000
G1 E3.10000 F1860.000
G1 X84.273 Y112.061 E3.12984 F1200.000
G1 X83.495 Y112.481 E3.14621
G1 X82.660 Y112.775 E3.16257
G1 X81.790 Y112.934 E3.17893
G1 X80.906 Y112.956 E3.19530
G1 X80.029 Y112.840 E3.21166
G1 X79.181 Y112.588 E3.22803
G1 X78.384 Y112.207 E3.24438
G1 X78.295 Y112.146 E3.24638
G1 X78.154 Y111.984 E3.25035
G1 X78.073 Y111.785 E3.25432
G1 X78.061 Y111.571 E3.25829
G1 X78.120 Y111.365 E3.26225
G1 X78.173 Y111.271 E3.26425
G1 X78.323 Y111.118 E3.26821
G1 X78.415 Y111.061 E3.27020
G1 X78.619 Y110.997 E3.27417
G1 X78.727 Y110.991 E3.27616
G1 X78.937 Y111.032 E3.28013
G1 X79.693 Y111.388 E3.29559
G1 X80.394 Y111.584 E3.30905
G1 X81.118 Y111.660 E3.32251
G1 X81.844 Y111.614 E3.33598
G1 X82.553 Y111.448 E3.34944
G1 X83.224 Y111.166 E3.36290
G1 X83.838 Y110.776 E3.37637
G1 X84.349 Y110.316 E3.38908
G1 X84.831 Y109.719 E3.40328
G1 X85.181 Y109.081 E3.41675
G1 X85.421 Y108.394 E3.43021
G1 X85.542 Y107.676 E3.44367
G1 X85.542 Y106.949 E3.45714
G1 X85.427 Y106.271 E3.46985
G1 X85.181 Y105.544 E3.48405
G1 X84.831 Y104.906 E3.49752
G1 X84.379 Y104.336 E3.51098
G1 X83.838 Y103.849 E3.52444
G1 X83.224 Y103.459 E3.53791
G1 X82.553 Y103.177 E3.55137
G1 X81.844 Y103.011 E3.56483
G1 X81.118 Y102.965 E3.57829
G1 X80.394 Y103.041 E3.59176
G1 X79.693 Y103.237 E3.60522
G1 X78.937 Y103.593 E3.62068
G1 X78.727 Y103.634 E3.62464
G1 X78.514 Y103.604 E3.62861
G1 X78.415 Y103.564 E3.63060
G1 X78.242 Y103.437 E3.63457
G1 X78.173 Y103.354 E3.63656
G1 X78.082 Y103.160 E3.64053
G1 X78.058 Y102.946 E3.64450
G1 X78.073 Y102.840 E3.64649
G1 X78.105 Y102.737 E3.64848
G1 X78.218 Y102.554 E3.65245
G1 X78.384 Y102.418 E3.65643
G1 X79.181 Y102.037 E3.67278
G1 X80.029 Y101.785 E3.68915
G1 X80.906 Y101.669 E3.70551
G1 X81.790 Y101.691 E3.72187
G1 X82.660 Y101.850 E3.73824
G1 X83.495 Y102.144 E3.75460
G1 X84.273 Y102.564 E3.77096
G1 X85.556 Y103.542 E3.80081
G1 X85.556 Y66.083 E4.49380
G1 X84.273 Y67.061 E4.52364
G1 X83.495 Y67.481 E4.54000
G1 X82.660 Y67.775 E4.55637
G1 X81.790 Y67.934 E4.57273
G1 X80.906 Y67.956 E4.58909
G1 X80.029 Y67.840 E4.60546
G1 X79.181 Y67.588 E4.62182
G1 X78.384 Y67.207 E4.63817
G1 X78.295 Y67.146 E4.64018
G1 X78.218 Y67.071 E4.64217
G1 X78.105 Y66.888 E4.64614
G1 X78.058 Y66.679 E4.65010
G1 X78.082 Y66.465 E4.65407
G1 X78.173 Y66.271 E4.65804
G1 X78.323 Y66.118 E4.66201
G1 X78.415 Y66.061 E4.66400
G1 X78.619 Y65.997 E4.66797
G1 X78.727 Y65.991 E4.66996
G1 X78.937 Y66.032 E4.67393
G1 X79.693 Y66.388 E4.68938
G1 X80.394 Y66.584 E4.70285
G1 X81.118 Y66.660 E4.71631
G1 X81.844 Y66.614 E4.72977
G1 X82.553 Y66.448 E4.74323
G1 X83.224 Y66.166 E4.75670
G1 X83.838 Y65.776 E4.77016
G1 X84.349 Y65.316 E4.78288
G1 X84.831 Y64.719 E4.79708
G1 X85.181 Y64.081 E4.81054
G1 X85.421 Y63.394 E4.82400
G1 X85.542 Y62.676 E4.83747
G1 X85.542 Y61.949 E4.85093
G1 X85.421 Y61.231 E4.86440
G1 X85.195 Y60.582 E4.87711
G1 X84.831 Y59.906 E4.89131
G1 X84.379 Y59.336 E4.90477
G1 X83.838 Y58.849 E4.91824
G1 X83.224 Y58.459 E4.93170
G1 X82.553 Y58.177 E4.94517
G1 X81.883 Y58.020 E4.95788
G1 X81.118 Y57.965 E4.97208
G1 X80.394 Y58.041 E4.98555
G1 X79.693 Y58.237 E4.99901
G1 X78.937 Y58.593 E5.01446
G1 X78.727 Y58.634 E5.01843
G1 X78.619 Y58.628 E5.02042
G1 X78.514 Y58.604 E5.02241
G1 X78.323 Y58.507 E5.02638
G1 X78.173 Y58.354 E5.03035
G1 X78.120 Y58.260 E5.03234
G1 X78.061 Y58.054 E5.03631
G1 X78.073 Y57.840 E5.04028
G1 X78.154 Y57.641 E5.04425
G1 X78.295 Y57.479 E5.04821
G1 X78.386 Y57.416 E5.05026
G1 X79.046 Y57.091 E5.06388
G1 X79.746 Y56.853 E5.07756
G1 X80.471 Y56.709 E5.09124
G1 X81.220 Y56.660 E5.10513
G1 X85.195 Y56.660 E5.17866
G1 X86.719 Y56.780 E5.20694
G1 X88.192 Y57.133 E5.23496
G1 X89.591 Y57.713 E5.26297
G1 X90.882 Y58.504 E5.29099
G1 X92.034 Y59.488 E5.31901
G1 X93.017 Y60.639 E5.34703
G1 X93.809 Y61.931 E5.37505
G1 X94.388 Y63.330 E5.40307
G1 X94.742 Y64.803 E5.43109
G1 X94.862 Y66.326 E5.45936
G1 X94.862 Y143.340 E6.88414
G1 X85.556 Y143.340 E7.05629
G1 X85.556 Y111.146 E7.65189
G1 X85.309 Y111.583 F6000.000
G1 X84.408 Y112.270 E7.67285 F1200.000
G1 X83.595 Y112.708 E7.68994
G1 X82.724 Y113.014 E7.70702
G1 X81.816 Y113.181 E7.72410
G1 X80.893 Y113.204 E7.74118
G1 X79.985 Y113.083 E7.75812
G1 X79.092 Y112.819 E7.77534
G1 X78.259 Y112.422 E7.79242
G1 X78.137 Y112.337 E7.79517
G1 X77.943 Y112.114 E7.80065
G1 X77.831 Y111.839 E7.80613
G1 X77.815 Y111.544 E7.81161
G1 X77.895 Y111.259 E7.81709
G1 X77.970 Y111.130 E7.81984
G1 X78.176 Y110.918 E7.82532
G1 X78.303 Y110.840 E7.82807
G1 X78.585 Y110.752 E7.83355
G1 X78.734 Y110.743 E7.83630
G1 X79.024 Y110.800 E7.84177
G1 X79.780 Y111.156 E7.85722
G1 X80.441 Y111.340 E7.86991
G1 X81.123 Y111.412 E7.88261
G1 X81.808 Y111.369 E7.89530
G1 X82.476 Y111.212 E7.90800
G1 X83.109 Y110.946 E7.92069
G1 X83.688 Y110.579 E7.93339
G1 X84.198 Y110.119 E7.94608
G1 X84.624 Y109.582 E7.95878
G1 X84.955 Y108.980 E7.97147
G1 X85.180 Y108.332 E7.98417
G1 X85.295 Y107.656 E7.99686
G1 X85.295 Y106.969 E8.00956
G1 X85.184 Y106.312 E8.02189
G1 X84.955 Y105.645 E8.03495
G1 X84.624 Y105.043 E8.04764
G1 X84.198 Y104.506 E8.06034
G1 X83.688 Y104.046 E8.07303
G1 X83.109 Y103.679 E8.08573
G1 X82.476 Y103.413 E8.09842
G1 X81.808 Y103.256 E8.11112
G1 X81.123 Y103.213 E8.12381
G1 X80.441 Y103.285 E8.13651
G1 X79.780 Y103.469 E8.14920
G1 X79.024 Y103.825 E8.16465
G1 X78.881 Y103.865 E8.16739
G1 X78.585 Y103.874 E8.17287
G1 X78.440 Y103.841 E8.17562
G1 X78.303 Y103.785 E8.17837
G1 X78.064 Y103.610 E8.18385
G1 X77.970 Y103.495 E8.18660
G1 X77.843 Y103.227 E8.19208
G1 X77.815 Y103.081 E8.19483
G1 X77.831 Y102.786 E8.20031
G1 X77.875 Y102.644 E8.20305
G1 X78.031 Y102.392 E8.20853
G1 X78.259 Y102.203 E8.21402
G1 X79.092 Y101.806 E8.23110
G1 X79.978 Y101.543 E8.24818
G1 X80.893 Y101.421 E8.26526
G1 X81.816 Y101.444 E8.28234
G1 X82.724 Y101.611 E8.29942
G1 X83.595 Y101.917 E8.31650
G1 X84.408 Y102.355 E8.33359
G1 X85.309 Y103.042 E8.35455
G1 X85.309 Y66.583 E9.02906
G1 X84.408 Y67.270 E9.05003
G1 X83.595 Y67.708 E9.06711
G1 X82.724 Y68.014 E9.08419
G1 X81.816 Y68.181 E9.10127
G1 X80.893 Y68.204 E9.11835
G1 X79.978 Y68.082 E9.13544
G1 X79.092 Y67.819 E9.15252
G1 X78.259 Y67.422 E9.16960
G1 X78.137 Y67.337 E9.17235
G1 X77.943 Y67.114 E9.17783
G1 X77.831 Y66.839 E9.18331
G1 X77.811 Y66.692 E9.18606
G1 X77.843 Y66.398 E9.19153
G1 X77.970 Y66.130 E9.19701
G1 X78.176 Y65.918 E9.20249
G1 X78.440 Y65.784 E9.20797
G1 X78.585 Y65.751 E9.21072
G1 X78.734 Y65.743 E9.21347
G1 X79.024 Y65.800 E9.21895
G1 X79.780 Y66.156 E9.23439
G1 X80.441 Y66.340 E9.24709
G1 X81.123 Y66.412 E9.25978
G1 X81.808 Y66.369 E9.27248
G1 X82.476 Y66.212 E9.28517
G1 X83.109 Y65.946 E9.29787
G1 X83.688 Y65.579 E9.31056
G1 X84.198 Y65.119 E9.32326
G1 X84.624 Y64.582 E9.33595
G1 X84.955 Y63.980 E9.34865
G1 X85.180 Y63.332 E9.36134
G1 X85.295 Y62.656 E9.37404
G1 X85.295 Y61.969 E9.38673
G1 X85.180 Y61.293 E9.39943
G1 X84.961 Y60.663 E9.41176
G1 X84.624 Y60.043 E9.42482
G1 X84.198 Y59.506 E9.43751
G1 X83.688 Y59.046 E9.45021
G1 X83.109 Y58.679 E9.46290
G1 X82.476 Y58.413 E9.47560
G1 X81.827 Y58.261 E9.48793
G1 X81.123 Y58.213 E9.50098
G1 X80.441 Y58.285 E9.51368
G1 X79.780 Y58.469 E9.52637
G1 X79.024 Y58.825 E9.54182
G1 X78.734 Y58.882 E9.54729
G1 X78.585 Y58.874 E9.55004
G1 X78.440 Y58.841 E9.55279
G1 X78.176 Y58.707 E9.55827
G1 X77.970 Y58.495 E9.56375
G1 X77.895 Y58.366 E9.56650
G1 X77.815 Y58.081 E9.57198
G1 X77.831 Y57.786 E9.57746
G1 X77.943 Y57.511 E9.58294
G1 X78.137 Y57.288 E9.58842
G1 X78.260 Y57.203 E9.59118
G1 X78.951 Y56.862 E9.60544
G1 X79.682 Y56.614 E9.61972
G1 X80.439 Y56.463 E9.63400
G1 X81.212 Y56.413 E9.64833
G1 X85.205 Y56.413 E9.72220
G1 X86.758 Y56.535 E9.75101
G1 X88.268 Y56.897 E9.77975
G1 X89.703 Y57.492 E9.80849
G1 X91.028 Y58.303 E9.83723
G1 X92.209 Y59.312 E9.86597
G1 X93.218 Y60.494 E9.89471
G1 X94.030 Y61.818 E9.92345
G1 X94.624 Y63.253 E9.95219
G1 X94.987 Y64.764 E9.98093
G1 X95.109 Y66.316 E10.00974
G1 X95.109 Y143.588 E11.43927
G1 X85.309 Y143.588 E11.62057
G1 X85.309 Y111.646 E12.21150
G1 X85.132 Y111.202 F6000.000
G1 X85.439 Y110.973 F6000.000
G1 X84.656 Y110.190 E12.23199 F1200.000
G1 X84.499 Y110.384 E12.23660
G1 X85.240 Y111.124 E12.25598
G1 X85.041 Y111.276 E12.26061
G1 X84.321 Y110.556 E12.27945
G1 X84.136 Y110.722 E12.28404
G1 X84.842 Y111.427 E12.30250
G1 X84.643 Y111.579 E12.30713
G1 X83.952 Y110.888 E12.32522
G1 X83.740 Y111.027 E12.32990
G1 X84.444 Y111.731 E12.34832
G1 X84.246 Y111.882 E12.35294
G1 X83.526 Y111.163 E12.37177
G1 X83.312 Y111.299 E12.37647
G1 X84.026 Y112.014 E12.39517
G1 X83.799 Y112.136 E12.39996
G1 X83.067 Y111.405 E12.41910
G1 X82.820 Y111.508 E12.42406
G1 X83.571 Y112.259 E12.44370
G1 X83.331 Y112.370 E12.44859
G1 X82.569 Y111.608 E12.46853
G1 X82.285 Y111.674 E12.47392
G1 X83.072 Y112.461 E12.49451
G1 X82.813 Y112.552 E12.49959
G1 X82.001 Y111.741 E12.52082
G1 X81.693 Y111.783 E12.52658
G1 X82.544 Y112.634 E12.54884
G1 X82.248 Y112.688 E12.55441
G1 X81.364 Y111.804 E12.57754
G1 X81.019 Y111.810 E12.58392
G1 X81.952 Y112.743 E12.60834
G1 X81.637 Y112.779 F6000.000
G1 X80.627 Y111.768 E12.63477 F1200.000
G1 X80.205 Y111.696 E12.64270
G1 X81.295 Y112.787 E12.67124
G1 X80.953 Y112.796 E12.67757
G1 X79.718 Y111.561 E12.70989
G1 X79.085 Y111.278 F6000.000
G1 X80.556 Y112.749 E12.74838 F1200.000
G1 X80.152 Y112.695 E12.75592
G1 X78.621 Y111.164 E12.79600
G1 X78.387 Y111.280 E12.80083
G1 X79.675 Y112.568 E12.83453
G1 X79.155 Y112.399 E12.84464
G1 X78.246 Y111.490 E12.86842
G1 X78.290 Y111.885 E12.87576
G1 X78.485 Y112.079 E12.88085
G1 F1860.000 E9.88085
G92 E0
G1 X78.632 Y103.465 F6000.000
G1 E3.10000 F1860.000
G1 X78.232 Y103.065 E3.11047 F1200.000
G1 X78.278 Y102.760 E3.11616
G1 X78.935 Y103.418 E3.13336
G1 X79.173 Y103.306 E3.13823
G1 X78.440 Y102.572 E3.15742
G1 X78.674 Y102.456 E3.16225
G1 X79.412 Y103.193 E3.18155
G1 X79.652 Y103.083 E3.18644
G1 X78.911 Y102.342 E3.20582
G1 X79.148 Y102.229 E3.21068
G1 X79.926 Y103.007 E3.23102
G1 X80.200 Y102.930 E3.23629
G1 X79.406 Y102.136 E3.25705
G1 X79.676 Y102.056 E3.26227
G1 X80.491 Y102.871 E3.28358
G1 X80.808 Y102.837 E3.28948
G1 X79.947 Y101.976 E3.31202
G1 X80.239 Y101.918 E3.31754
G1 X81.127 Y102.806 E3.34077
G1 X81.501 Y102.830 E3.34771
G1 X80.549 Y101.877 E3.37263
G1 X80.858 Y101.836 E3.37841
G1 X81.877 Y102.855 E3.40507
G1 X82.335 Y102.962 E3.41377
G1 X81.208 Y101.836 E3.44324
G1 X81.567 Y101.845 E3.44989
G1 X82.854 Y103.131 E3.48354
G1 X83.552 Y103.479 F6000.000
G1 X81.957 Y101.883 E3.52530 F1200.000
G1 X83.406 Y102.281 F6000.000
G1 X94.703 Y113.578 E3.82085 F1200.000
G1 X94.703 Y113.928 E3.82734
G1 X82.866 Y102.091 E4.13703
G1 X82.386 Y101.962 E4.14622
G1 X94.703 Y114.279 E4.46847
G1 X94.703 Y114.629 E4.47496
G1 X85.053 Y104.979 E4.72742
G1 X85.392 Y105.669 F6000.000
G1 X94.703 Y114.980 E4.97102 F1200.000
G1 X94.703 Y115.330 E4.97751
G1 X85.571 Y106.199 E5.21641
G1 X85.649 Y106.627 E5.22447
G1 X94.703 Y115.680 E5.46133
G1 X94.703 Y116.031 E5.46782
G1 X85.701 Y107.030 E5.70332
G1 X85.701 Y107.380 E5.70980
G1 X94.703 Y116.381 E5.94530
G1 X94.703 Y116.732 E5.95178
G1 X85.695 Y107.725 E6.18744
G1 X85.645 Y108.025 E6.19306
G1 X94.703 Y117.082 E6.43005
G1 X94.703 Y117.433 E6.43653
G1 X85.594 Y108.324 E6.67484
G1 X85.518 Y108.599 E6.68011
G1 X94.703 Y117.783 E6.92040
G1 X94.703 Y118.134 E6.92689
G1 X85.428 Y108.859 E7.16955
G1 X85.337 Y109.119 E7.17464
G1 X94.703 Y118.484 E7.41968
G1 X94.703 Y118.835 E7.42616
G1 X85.216 Y109.348 E7.67435
G1 X85.092 Y109.574 E7.67913
G1 X94.703 Y119.185 E7.93057
G1 X94.703 Y119.536 E7.93705
G1 X84.968 Y109.801 E8.19175
G1 X84.812 Y109.996 E8.19636
G1 X94.703 Y119.886 E8.45513
G1 X94.703 Y120.236 E8.46161
G1 X85.715 Y111.249 E8.69675
G1 X85.715 Y111.600 E8.70323
G1 X94.703 Y120.587 E8.93836
G1 X94.703 Y120.937 E8.94485
G1 X85.715 Y111.950 E9.17998
G1 X85.715 Y112.301 E9.18646
G1 X94.703 Y121.288 E9.42160
G1 X94.703 Y121.638 E9.42808
G1 X85.715 Y112.651 E9.66321
G1 X85.715 Y113.002 E9.66970
G1 X94.703 Y121.989 E9.90483
G1 X94.703 Y122.339 E9.91131
G1 X85.715 Y113.352 E10.14645
G1 X85.715 Y113.703 E10.15293
G1 X94.703 Y122.690 E10.38806
G1 X94.703 Y123.040 E10.39455
G1 X85.715 Y114.053 E10.62968
G1 X85.715 Y114.403 E10.63616
G1 X94.703 Y123.391 E10.87130
G1 X94.703 Y123.741 E10.87778
G1 X85.715 Y114.754 E11.11291
G1 X85.715 Y115.104 E11.11940
G1 X94.703 Y124.092 E11.35453
G1 X94.703 Y124.442 E11.36102
G1 X85.715 Y115.455 E11.59615
G1 X85.715 Y115.805 E11.60263
G1 X94.703 Y124.792 E11.83777
G1 X94.703 Y125.143 E11.84425
G1 X85.715 Y116.156 E12.07938
G1 X85.715 Y116.506 E12.08587
G1 X94.703 Y125.493 E12.32100
G1 X94.703 Y125.844 E12.32748
G1 X85.715 Y116.857 E12.56262
G1 X85.715 Y117.207 E12.56910
G1 X94.703 Y126.194 E12.80423
G1 X94.703 Y126.545 E12.81072
