; generated by Slic3r 1.1.7 on 2014-12-13 at 17:18:06

; perimeters extrusion width = 0.42mm
; infill extrusion width = 0.74mm
; solid infill extrusion width = 0.71mm
; top infill extrusion width = 0.71mm
; support material extrusion width = 0.42mm

G21 ; set units to millimeters
M190 S57 ; wait for bed temperature to be reached
M104 S186 ; set temperature
G28 ; home all axes Start of G Code Slic3r
 
M109 S186 ; wait for temperature to be reached
G90 ; use absolute coordinates
G92 E0
M82 ; use absolute distances for extrusion
G1 F1860.000 E-3.00000
G92 E0
G1 Z0.200 F6000.000
G1 X83.486 Y70.968 F6000.000
G1 E3.10000 F1860.000
G1 X86.698 Y67.756 E3.18404 F1200.000
G1 X88.405 Y66.516 E3.22306
G1 X92.452 Y64.454 E3.30711
G1 X94.458 Y63.802 E3.34613
G1 X98.945 Y63.091 E3.43018
G1 X101.055 Y63.091 E3.46920
G1 X105.542 Y63.802 E3.55324 F1200.000
G1 X107.548 Y64.454 E3.59226
G1 X111.595 Y66.516 E3.67631
G1 X113.302 Y67.756 E3.71533
G1 X116.514 Y70.968 E3.79937
G1 X117.754 Y72.675 E3.83839
G1 X119.816 Y76.722 E3.92244
G1 X120.468 Y78.728 E3.96146
G1 X121.173 Y83.178 E4.04481
G1 X121.262 Y84.270 E4.06507
G1 X121.262 Y130.250 E4.91571
G1 X120.865 Y132.529 E4.95852
G1 X119.720 Y134.540 E5.00132
G1 X117.963 Y136.046 E5.04412
G1 X115.801 Y136.869 E5.08693
G1 X114.520 Y136.992 E5.11074
G1 X85.480 Y136.992 E5.64798
G1 X83.201 Y136.595 E5.69079
G1 X81.190 Y135.450 E5.73359
G1 X79.684 Y133.693 E5.77639
G1 X78.861 Y131.531 E5.81920
G1 X78.738 Y130.250 E5.84301
G1 X78.821 Y83.215 E6.71316
G1 X79.532 Y78.728 E6.79720
G1 X80.184 Y76.722 E6.83622
G1 X82.246 Y72.674 E6.92027
G1 X83.449 Y71.019 E6.95812
G1 X83.661 Y71.143 F6000.000
G1 X86.873 Y67.931 E7.04217 F1200.000
G1 X88.517 Y66.737 E7.07976
G1 X92.565 Y64.674 E7.16380
G1 X94.497 Y64.046 E7.20139
G1 X98.984 Y63.336 E7.28544
G1 X101.016 Y63.336 E7.32303
G1 X105.503 Y64.046 E7.40707 F1200.000
G1 X107.435 Y64.674 E7.44466
G1 X111.483 Y66.737 E7.52871
G1 X113.127 Y67.931 E7.56630
G1 X116.339 Y71.143 E7.65034
G1 X117.533 Y72.787 E7.68793
G1 X119.596 Y76.835 E7.77197
G1 X120.224 Y78.767 E7.80957
G1 X120.929 Y83.217 E7.89292
G1 X121.014 Y84.270 E7.91246
G1 X121.014 Y130.250 E8.76310
G1 X120.618 Y132.486 E8.80511
G1 X119.475 Y134.448 E8.84711
G1 X117.727 Y135.897 E8.88912
G1 X114.520 Y136.744 E8.95049
G1 X85.480 Y136.744 E9.48774
G1 X83.244 Y136.348 E9.52974
G1 X81.282 Y135.205 E9.57175
G1 X79.833 Y133.457 E9.61376
G1 X78.986 Y130.250 E9.67513
G1 X79.066 Y83.254 E10.54456
G1 X79.776 Y78.767 E10.62861
G1 X80.404 Y76.835 E10.66620
G1 X82.467 Y72.787 E10.75025
G1 X83.624 Y71.194 E10.78667
G1 X83.836 Y71.318 F6000.000
G1 X87.048 Y68.106 E10.87071 F1200.000
G1 X88.629 Y66.957 E10.90687
G1 X92.677 Y64.894 E10.99091
G1 X94.536 Y64.290 E11.02707
G1 X99.023 Y63.580 E11.11112
G1 X100.977 Y63.580 E11.14728
G1 X105.464 Y64.290 E11.23132 F1200.000
G1 X107.323 Y64.894 E11.26748
G1 X111.371 Y66.957 E11.35153
G1 X112.952 Y68.106 E11.38769
G1 X116.164 Y71.318 E11.47173
G1 X117.313 Y72.899 E11.50789
G1 X119.376 Y76.947 E11.59193
G1 X119.980 Y78.806 E11.62809
G1 X120.684 Y83.256 E11.71144
G1 X120.767 Y84.270 E11.73027
G1 X120.767 Y130.250 E12.58091
G1 X120.370 Y132.441 E12.62210
G1 X119.230 Y134.354 E12.66329
G1 X117.492 Y135.745 E12.70449
G1 X114.520 Y136.497 E12.76121
G1 X85.480 Y136.497 E13.29845
G1 X83.289 Y136.100 E13.33964
G1 X81.376 Y134.960 E13.38084
G1 X79.985 Y133.222 E13.42203
G1 X79.233 Y130.250 E13.47875
G1 X79.310 Y83.293 E14.34747
G1 X80.020 Y78.806 E14.43151
G1 X80.624 Y76.947 E14.46767
G1 X82.687 Y72.899 E14.55172
G1 X83.799 Y71.369 E14.58671
G1 F1860.000 E11.58671
G92 E0
G1 X93.548 Y86.165 F6000.000
G1 E3.10000 F1860.000
G1 X93.294 Y86.403 E3.10643 F1200.000
G1 X93.013 Y86.607 E3.11286
G1 X92.709 Y86.775 E3.11929
G1 X92.385 Y86.902 E3.12572
G1 X92.049 Y86.989 E3.13215
G1 X91.704 Y87.032 E3.13858
G1 X91.356 Y87.032 E3.14502
G1 X91.011 Y86.989 E3.15145
G1 X90.675 Y86.902 E3.15787
G1 X90.351 Y86.775 E3.16431
G1 X90.047 Y86.607 E3.17074
G1 X89.766 Y86.403 E3.17717
G1 X89.512 Y86.165 E3.18360
G1 X89.291 Y85.897 E3.19003
G1 X89.104 Y85.603 E3.19646
G1 X88.956 Y85.289 E3.20289
G1 X88.849 Y84.958 E3.20932
G1 X88.784 Y84.617 E3.21575
G1 X88.762 Y84.270 E3.22218
G1 X88.784 Y83.923 E3.22861
G1 X88.849 Y83.582 E3.23504
G1 X88.956 Y83.251 E3.24147
G1 X89.104 Y82.937 E3.24790
G1 X89.291 Y82.643 E3.25434
G1 X89.512 Y82.375 E3.26077
G1 X89.766 Y82.137 E3.26719
G1 X90.047 Y81.933 E3.27362
G1 X90.351 Y81.765 E3.28006
G1 X90.675 Y81.638 E3.28649
G1 X91.011 Y81.551 E3.29292
G1 X91.356 Y81.508 E3.29935
G1 X91.704 Y81.508 E3.30578
G1 X92.049 Y81.551 E3.31221
G1 X92.385 Y81.638 E3.31864 F1200.000
G1 X92.709 Y81.765 E3.32507
G1 X93.013 Y81.933 E3.33150
G1 X93.294 Y82.137 E3.33793
G1 X93.548 Y82.375 E3.34436
G1 X93.769 Y82.643 E3.35079
G1 X93.956 Y82.937 E3.35723
G1 X94.104 Y83.251 E3.36366
G1 X94.211 Y83.582 E3.37009
G1 X94.276 Y83.923 E3.37652
G1 X94.298 Y84.270 E3.38295
G1 X94.276 Y84.617 E3.38938
G1 X94.211 Y84.958 E3.39581
G1 X94.104 Y85.289 E3.40224
G1 X93.956 Y85.603 E3.40867
G1 X93.769 Y85.897 E3.41510
G1 X93.588 Y86.116 E3.42037
G1 X93.367 Y85.995 F6000.000
G1 X93.136 Y86.212 E3.42622 F1200.000
G1 X92.880 Y86.398 E3.43208
G1 X92.603 Y86.550 E3.43793
G1 X92.309 Y86.667 E3.44379
G1 X92.002 Y86.746 E3.44964
G1 X91.688 Y86.785 E3.45550
G1 X91.372 Y86.785 E3.46135
G1 X91.058 Y86.746 E3.46721
G1 X90.751 Y86.667 E3.47306
G1 X90.457 Y86.550 E3.47892
G1 X90.180 Y86.398 E3.48477
G1 X89.924 Y86.212 E3.49063
G1 X89.693 Y85.995 E3.49648
G1 X89.491 Y85.751 E3.50234
G1 X89.322 Y85.484 E3.50819
G1 X89.187 Y85.198 E3.51405
G1 X89.089 Y84.897 E3.51990
G1 X89.030 Y84.586 E3.52576
G1 X89.010 Y84.270 E3.53161
G1 X89.030 Y83.954 E3.53747
G1 X89.089 Y83.643 E3.54332
G1 X89.187 Y83.342 E3.54918
G1 X89.322 Y83.056 E3.55503
G1 X89.491 Y82.789 E3.56089
G1 X89.693 Y82.545 E3.56674
G1 X89.924 Y82.328 E3.57260
G1 X90.180 Y82.142 E3.57845
G1 X90.457 Y81.990 E3.58431
G1 X90.751 Y81.873 E3.59016
G1 X91.058 Y81.794 E3.59602
G1 X91.372 Y81.755 E3.60187
G1 X91.688 Y81.755 E3.60773 F1200.000
G1 X92.002 Y81.794 E3.61359
G1 X92.309 Y81.873 E3.61944
G1 X92.603 Y81.990 E3.62530
G1 X92.880 Y82.142 E3.63115
G1 X93.136 Y82.328 E3.63701
G1 X93.367 Y82.545 E3.64286
G1 X93.569 Y82.789 E3.64872
G1 X93.738 Y83.056 E3.65457
G1 X93.873 Y83.342 E3.66043
G1 X93.971 Y83.643 E3.66628
G1 X94.030 Y83.954 E3.67214
G1 X94.050 Y84.270 E3.67799
G1 X94.030 Y84.586 E3.68385
G1 X93.971 Y84.897 E3.68970
G1 X93.873 Y85.198 E3.69556
G1 X93.738 Y85.484 E3.70141
G1 X93.569 Y85.751 E3.70727
G1 X93.407 Y85.947 E3.71196
G1 F1860.000 E0.71196
G92 E0
G1 X91.319 Y81.443 F6000.000
G1 X100.903 Y84.920 F6000.000
G1 E3.10000 F1860.000
G1 X100.862 Y84.270 E3.11205 F1200.000
G1 X100.903 Y83.620 E3.12410
G1 X101.025 Y82.980 E3.13616
G1 X101.226 Y82.360 E3.14821
G1 X101.504 Y81.771 E3.16026
G1 X101.853 Y81.221 E3.17231
G1 X102.268 Y80.719 E3.18436
G1 X102.743 Y80.273 E3.19642
G1 X103.270 Y79.890 E3.20847
G1 X103.841 Y79.576 E3.22052
G1 X104.447 Y79.336 E3.23258
G1 X105.078 Y79.174 E3.24463
G1 X105.724 Y79.092 E3.25668
G1 X106.376 Y79.092 E3.26874
G1 X106.996 Y79.171 E3.28029
G1 X107.653 Y79.336 E3.29284 F1200.000
G1 X108.259 Y79.576 E3.30489
G1 X108.830 Y79.890 E3.31695
G1 X109.357 Y80.273 E3.32900
G1 X109.832 Y80.719 E3.34105
G1 X110.247 Y81.221 E3.35311
G1 X110.596 Y81.771 E3.36516
G1 X110.874 Y82.360 E3.37721
G1 X111.075 Y82.980 E3.38926
G1 X111.197 Y83.620 E3.40132
G1 X111.236 Y84.243 E3.41287
G1 X111.197 Y84.920 E3.42542
G1 X111.075 Y85.560 E3.43747
G1 X110.874 Y86.180 E3.44952
G1 X110.596 Y86.769 E3.46157
G1 X110.247 Y87.319 E3.47363
G1 X109.832 Y87.821 E3.48568
G1 X109.357 Y88.267 E3.49774
G1 X108.830 Y88.650 E3.50979
G1 X108.259 Y88.964 E3.52184
G1 X107.627 Y89.211 E3.53439
G1 X107.022 Y89.366 E3.54594
G1 X106.376 Y89.448 E3.55800
G1 X105.724 Y89.448 E3.57005
G1 X105.078 Y89.366 E3.58210
G1 X104.447 Y89.204 E3.59415
G1 X103.841 Y88.964 E3.60621
G1 X103.270 Y88.650 E3.61826
G1 X102.743 Y88.267 E3.63031
G1 X102.268 Y87.821 E3.64237
G1 X101.853 Y87.319 E3.65442
G1 X101.504 Y86.769 E3.66647
G1 X101.226 Y86.180 E3.67852
G1 X101.025 Y85.560 E3.69058
G1 X100.915 Y84.982 E3.70147
G1 X101.149 Y84.889 F6000.000
G1 X101.110 Y84.270 E3.71294 F1200.000
G1 X101.149 Y83.651 E3.72442
G1 X101.265 Y83.041 E3.73590
G1 X101.457 Y82.451 E3.74738
G1 X101.721 Y81.890 E3.75885
G1 X102.053 Y81.366 E3.77033
G1 X102.449 Y80.888 E3.78181
G1 X102.901 Y80.463 E3.79329
G1 X103.403 Y80.099 E3.80476
G1 X103.947 Y79.800 E3.81624
G1 X104.523 Y79.572 E3.82772
G1 X105.124 Y79.417 E3.83920
G1 X105.740 Y79.340 E3.85067
G1 X106.360 Y79.340 E3.86215 F1200.000
G1 X106.976 Y79.417 E3.87363
G1 X107.577 Y79.572 E3.88511
G1 X108.153 Y79.800 E3.89658
G1 X108.697 Y80.099 E3.90806
G1 X109.199 Y80.463 E3.91954
G1 X109.651 Y80.888 E3.93102
G1 X110.047 Y81.366 E3.94249
G1 X110.379 Y81.890 E3.95397
G1 X110.643 Y82.451 E3.96545
G1 X110.835 Y83.041 E3.97692
G1 X110.951 Y83.651 E3.98840
G1 X110.989 Y84.259 E3.99967
G1 X110.951 Y84.889 E4.01136
G1 X110.835 Y85.499 E4.02283
G1 X110.643 Y86.089 E4.03431
G1 X110.379 Y86.650 E4.04579
G1 X110.047 Y87.174 E4.05726
G1 X109.651 Y87.652 E4.06874
G1 X109.199 Y88.077 E4.08022
G1 X108.697 Y88.441 E4.09170
G1 X108.153 Y88.740 E4.10318
G1 X107.566 Y88.971 E4.11486
G1 X106.976 Y89.123 E4.12613
G1 X106.360 Y89.200 E4.13761
G1 X105.740 Y89.200 E4.14908
G1 X105.124 Y89.123 E4.16056
G1 X104.523 Y88.968 E4.17204
G1 X103.937 Y88.735 E4.18372
G1 X103.403 Y88.441 E4.19499
G1 X102.901 Y88.077 E4.20647
G1 X102.449 Y87.652 E4.21795
G1 X102.053 Y87.174 E4.22943
G1 X101.721 Y86.650 E4.24090
G1 X101.457 Y86.089 E4.25238
G1 X101.265 Y85.499 E4.26385
G1 X101.161 Y84.951 E4.27417
G1 F1860.000 E1.27417
G92 E0
G1 X105.827 Y78.929 F6000.000
G1 X105.129 Y94.413 F6000.000
G1 E3.10000 F1860.000
G1 X105.382 Y94.313 E3.10503 F1200.000
G1 X105.645 Y94.245 E3.11005
G1 X105.914 Y94.211 E3.11508
G1 X106.186 Y94.211 E3.12010
G1 X106.455 Y94.245 E3.12512
G1 X106.718 Y94.313 E3.13015 F1200.000
G1 X106.971 Y94.413 E3.13518
G1 X107.209 Y94.544 E3.14020
G1 X107.429 Y94.703 E3.14523
G1 X107.627 Y94.889 E3.15025
G1 X107.800 Y95.099 E3.15528
G1 X107.945 Y95.328 E3.16030
G1 X108.061 Y95.574 E3.16532
G1 X108.145 Y95.832 E3.17035
G1 X108.196 Y96.099 E3.17538
G1 X108.213 Y96.370 E3.18040
G1 X108.196 Y96.641 E3.18543
G1 X108.145 Y96.908 E3.19045
G1 X108.061 Y97.166 E3.19548
G1 X107.945 Y97.412 E3.20050
G1 X107.800 Y97.641 E3.20553
G1 X107.627 Y97.851 E3.21055
G1 X107.429 Y98.037 E3.21557
G1 X107.209 Y98.196 E3.22060
G1 X106.971 Y98.327 E3.22563
G1 X106.718 Y98.427 E3.23065
G1 X106.455 Y98.495 E3.23568
G1 X106.186 Y98.529 E3.24070
G1 X105.914 Y98.529 E3.24573
G1 X105.645 Y98.495 E3.25075
G1 X105.382 Y98.427 E3.25577
G1 X105.129 Y98.327 E3.26080
G1 X104.891 Y98.196 E3.26582
G1 X104.671 Y98.037 E3.27085
G1 X104.473 Y97.851 E3.27588
G1 X104.300 Y97.641 E3.28090
G1 X104.155 Y97.412 E3.28593
G1 X104.039 Y97.166 E3.29095
G1 X103.955 Y96.908 E3.29598
G1 X103.904 Y96.641 E3.30100
G1 X103.887 Y96.370 E3.30603
G1 X103.904 Y96.099 E3.31105
G1 X103.955 Y95.832 E3.31607
G1 X104.039 Y95.574 E3.32110
G1 X104.155 Y95.328 E3.32612
G1 X104.300 Y95.099 E3.33115
G1 X104.473 Y94.889 E3.33617
G1 X104.671 Y94.703 E3.34120
G1 X104.891 Y94.544 E3.34623
G1 X105.074 Y94.443 E3.35008
G1 X105.235 Y94.637 F6000.000
G1 X105.458 Y94.549 E3.35453 F1200.000
G1 X105.691 Y94.489 E3.35898
G1 X105.930 Y94.459 E3.36343
G1 X106.170 Y94.459 E3.36788 F1200.000
G1 X106.409 Y94.489 E3.37233
G1 X106.642 Y94.549 E3.37678
G1 X106.865 Y94.637 E3.38123
G1 X107.076 Y94.753 E3.38568
G1 X107.271 Y94.894 E3.39013
G1 X107.446 Y95.059 E3.39458
G1 X107.599 Y95.244 E3.39903
G1 X107.728 Y95.447 E3.40348
G1 X107.831 Y95.665 E3.40793
G1 X107.905 Y95.894 E3.41238
G1 X107.950 Y96.130 E3.41683
G1 X107.965 Y96.370 E3.42128
G1 X107.950 Y96.610 E3.42573
G1 X107.905 Y96.846 E3.43017
G1 X107.831 Y97.075 E3.43463
G1 X107.728 Y97.293 E3.43907
G1 X107.599 Y97.496 E3.44352
G1 X107.446 Y97.681 E3.44797
G1 X107.271 Y97.846 E3.45242
G1 X107.076 Y97.987 E3.45687
G1 X106.865 Y98.103 E3.46132
G1 X106.642 Y98.191 E3.46577
G1 X106.409 Y98.251 E3.47022
G1 X106.170 Y98.281 E3.47467
G1 X105.930 Y98.281 E3.47912
G1 X105.691 Y98.251 E3.48357
G1 X105.458 Y98.191 E3.48802
G1 X105.235 Y98.103 E3.49247
G1 X105.024 Y97.987 E3.49692
G1 X104.829 Y97.846 E3.50137
G1 X104.654 Y97.681 E3.50582
G1 X104.501 Y97.496 E3.51027
G1 X104.372 Y97.293 E3.51472
G1 X104.269 Y97.075 E3.51917
G1 X104.195 Y96.846 E3.52362
G1 X104.150 Y96.610 E3.52807
G1 X104.135 Y96.370 E3.53251
G1 X104.150 Y96.130 E3.53696
G1 X104.195 Y95.894 E3.54141
G1 X104.269 Y95.665 E3.54586
G1 X104.372 Y95.447 E3.55031
G1 X104.501 Y95.244 E3.55476
G1 X104.654 Y95.059 E3.55921
G1 X104.829 Y94.894 E3.56366
G1 X105.024 Y94.753 E3.56811
G1 X105.179 Y94.667 E3.57139
G1 X106.028 Y94.239 F6000.000
G1 F1860.000 E0.57139
G92 E0
G1 X96.696 Y96.023 F6000.000
G1 E3.10000 F1860.000
G1 X96.718 Y96.370 E3.10643 F1200.000
G1 X96.696 Y96.717 E3.11286
G1 X96.631 Y97.058 E3.11929
G1 X96.524 Y97.389 E3.12572
G1 X96.376 Y97.703 E3.13215
G1 X96.189 Y97.997 E3.13858
G1 X95.968 Y98.265 E3.14502
G1 X95.714 Y98.503 E3.15144
G1 X95.433 Y98.707 E3.15788
G1 X95.129 Y98.875 E3.16431
G1 X94.805 Y99.002 E3.17074
G1 X94.469 Y99.089 E3.17717
G1 X94.124 Y99.132 E3.18360
G1 X93.776 Y99.132 E3.19003
G1 X93.431 Y99.089 E3.19646
G1 X93.095 Y99.002 E3.20289
G1 X92.772 Y98.875 E3.20932
G1 X92.467 Y98.707 E3.21575
G1 X92.186 Y98.503 E3.22218
G1 X91.932 Y98.265 E3.22861
G1 X91.711 Y97.997 E3.23504
G1 X91.524 Y97.703 E3.24147
G1 X91.376 Y97.389 E3.24791
G1 X91.269 Y97.058 E3.25434
G1 X91.204 Y96.717 E3.26077
G1 X91.182 Y96.370 E3.26720
G1 X91.204 Y96.023 E3.27363
G1 X91.269 Y95.682 E3.28006
G1 X91.376 Y95.351 E3.28649
G1 X91.524 Y95.037 E3.29292
G1 X91.711 Y94.743 E3.29935
G1 X91.932 Y94.475 E3.30578
G1 X92.186 Y94.237 E3.31221
G1 X92.467 Y94.033 E3.31864
G1 X92.772 Y93.865 E3.32507
G1 X93.095 Y93.738 E3.33150
G1 X93.431 Y93.651 E3.33793
G1 X93.776 Y93.608 E3.34436
G1 X94.124 Y93.608 E3.35079
G1 X94.469 Y93.651 E3.35723
G1 X94.805 Y93.738 E3.36366 F1200.000
G1 X95.128 Y93.865 E3.37008
G1 X95.433 Y94.033 E3.37652
G1 X95.714 Y94.237 E3.38295
G1 X95.968 Y94.475 E3.38938
G1 X96.189 Y94.743 E3.39581
G1 X96.376 Y95.037 E3.40224
G1 X96.524 Y95.351 E3.40867
G1 X96.631 Y95.682 E3.41510
G1 X96.684 Y95.961 E3.42037
G1 X96.450 Y96.054 F6000.000
G1 X96.470 Y96.370 E3.42622 F1200.000
G1 X96.450 Y96.686 E3.43208
G1 X96.391 Y96.997 E3.43793
G1 X96.293 Y97.298 E3.44379
G1 X96.158 Y97.584 E3.44964
G1 X95.989 Y97.851 E3.45550
G1 X95.787 Y98.095 E3.46135
G1 X95.556 Y98.312 E3.46721
G1 X95.300 Y98.498 E3.47306
G1 X95.023 Y98.650 E3.47892
G1 X94.729 Y98.767 E3.48477
G1 X94.422 Y98.846 E3.49063
G1 X94.108 Y98.885 E3.49648
G1 X93.792 Y98.885 E3.50234
G1 X93.478 Y98.846 E3.50819
G1 X93.171 Y98.767 E3.51405
G1 X92.877 Y98.650 E3.51990
G1 X92.600 Y98.498 E3.52576
G1 X92.344 Y98.312 E3.53161
G1 X92.113 Y98.095 E3.53747
G1 X91.911 Y97.851 E3.54332
G1 X91.742 Y97.584 E3.54918
G1 X91.607 Y97.298 E3.55504
G1 X91.509 Y96.997 E3.56089
G1 X91.450 Y96.686 E3.56674
G1 X91.430 Y96.370 E3.57260
G1 X91.450 Y96.054 E3.57846
G1 X91.509 Y95.743 E3.58431
G1 X91.607 Y95.442 E3.59016
G1 X91.742 Y95.156 E3.59602
G1 X91.911 Y94.889 E3.60188
G1 X92.113 Y94.645 E3.60773
G1 X92.344 Y94.428 E3.61359
G1 X92.600 Y94.242 E3.61944
G1 X92.877 Y94.090 E3.62530
G1 X93.171 Y93.973 E3.63115
G1 X93.478 Y93.894 E3.63701
G1 X93.792 Y93.855 E3.64286
G1 X94.108 Y93.855 E3.64872 F1200.000
G1 X94.422 Y93.894 E3.65457
G1 X94.729 Y93.973 E3.66043
G1 X95.023 Y94.090 E3.66628
G1 X95.300 Y94.242 E3.67214
G1 X95.556 Y94.428 E3.67799
G1 X95.787 Y94.645 E3.68385
G1 X95.989 Y94.889 E3.68970
G1 X96.158 Y95.156 E3.69556
G1 X96.293 Y95.442 E3.70141
G1 X96.391 Y95.743 E3.70727
G1 X96.439 Y95.992 E3.71196
G1 F1860.000 E0.71196
G92 E0
G1 X93.694 Y93.554 F6000.000
G1 X92.325 Y129.903 F6000.000
G1 E3.10000 F1860.000
G1 X85.827 Y129.903 E3.22021 F1200.000
G1 X85.827 Y84.297 E4.06392
G1 X86.525 Y79.892 E4.14645
G1 X88.537 Y75.942 E4.22845
G1 X91.672 Y72.807 E4.31046
G1 X95.622 Y70.795 E4.39247
G1 X100.000 Y70.102 E4.47448
G1 X104.378 Y70.795 E4.55649
G1 X108.328 Y72.807 E4.63850
