; generated by Slic3r 1.1.7 on 2014-12-11 at 17:44:46

; perimeters extrusion width = 0.40mm
; infill extrusion width = 0.67mm
; solid infill extrusion width = 0.67mm
; top infill extrusion width = 0.67mm
; support material extrusion width = 0.40mm

G21 ; set units to millimeters
M190 S57 ; wait for bed temperature to be reached
M104 S186 ; set temperature
G28 ; home all axes Start of G Code Slic3r
 
M109 S186 ; wait for temperature to be reached
G90 ; use absolute coordinates
G92 E0
M82 ; use absolute distances for extrusion
M106 S155
G1 F1860.000 E-3.00000
G92 E0
G1 Z0.200 F6000.000
G1 X101.055 Y73.351 F6000.000
G1 E3.10000 F1860.000
G1 X102.438 Y71.492 E3.14212 F1200.000
G1 X104.356 Y70.201 E3.18415
G1 X105.912 Y69.722 E3.21375
G1 X106.522 Y69.633 E3.22496
G1 X107.083 Y69.582 E3.23520
G1 X107.334 Y69.570 E3.23976
G1 X109.624 Y69.882 E3.28178
G1 X111.054 Y70.528 E3.31030 F1200.000
G1 X112.688 Y71.884 E3.34890
G1 X112.740 Y71.944 E3.35036
G1 X114.114 Y74.411 E3.40168
G1 X114.535 Y75.825 E3.42850
G1 X114.936 Y77.506 E3.45992
G1 X115.300 Y79.268 E3.49262
G1 X115.924 Y82.640 E3.55497
G1 X116.132 Y84.598 E3.59077
G1 X116.137 Y85.488 E3.60695
G1 X115.876 Y87.365 E3.64139
G1 X109.470 Y108.611 E4.04480
G1 X108.921 Y109.913 E4.07049
G1 X102.548 Y121.476 E4.31051
G1 X101.622 Y122.767 E4.33938
G1 X96.278 Y128.616 E4.48342
G1 X94.449 Y130.029 E4.52544
G1 X92.249 Y130.740 E4.56746
G1 X90.847 Y130.790 E4.59296
G1 X90.468 Y130.764 E4.59988
G1 X88.223 Y130.211 E4.64190
G1 X86.298 Y128.931 E4.68392
G1 X84.891 Y127.018 E4.72710
G1 X84.567 Y126.317 E4.74113
G1 X84.217 Y125.181 E4.76275
G1 X84.091 Y124.594 E4.77367
G1 X83.860 Y123.220 E4.79898
G1 X83.690 Y121.743 E4.82602
G1 X83.592 Y120.447 E4.84965
G1 X83.574 Y120.054 E4.85679
G1 X83.567 Y118.248 E4.88963
G1 X83.628 Y117.328 E4.90638
G1 X83.762 Y116.237 E4.92637
G1 X83.949 Y115.308 E4.94359
G1 X84.319 Y114.085 E4.96682
G1 X101.028 Y73.405 E5.76631
G1 X101.272 Y73.460 F6000.000
G1 X102.606 Y71.667 E5.80694 F1200.000
G1 X104.493 Y70.406 E5.84819
G1 X105.955 Y69.961 E5.87598
G1 X106.548 Y69.875 E5.88686
G1 X107.097 Y69.825 E5.89689
G1 X107.343 Y69.813 E5.90137
G1 X109.590 Y70.126 E5.94262
G1 X110.930 Y70.737 E5.96938 F1200.000
G1 X112.505 Y72.044 E6.00659
G1 X112.558 Y72.104 E6.00805
G1 X113.882 Y74.482 E6.05752
G1 X114.300 Y75.883 E6.08410
G1 X114.698 Y77.555 E6.11536
G1 X115.062 Y79.313 E6.14799
G1 X115.683 Y82.672 E6.21008
G1 X115.889 Y84.600 E6.24533
G1 X115.894 Y85.489 E6.26150
G1 X115.643 Y87.298 E6.29469
G1 X109.237 Y108.540 E6.69804
G1 X108.708 Y109.796 E6.72280
G1 X102.335 Y121.359 E6.96282
G1 X101.443 Y122.603 E6.99065
G1 X96.098 Y128.452 E7.13469
G1 X94.298 Y129.834 E7.17593
G1 X92.133 Y130.511 E7.21718
G1 X90.864 Y130.548 E7.24025
G1 X90.484 Y130.521 E7.24718
G1 X88.283 Y129.972 E7.28843
G1 X86.405 Y128.697 E7.32968
G1 X85.109 Y126.911 E7.36980
G1 X84.793 Y126.227 E7.38351
G1 X84.495 Y125.301 E7.40118
G1 X84.330 Y124.551 E7.41513
G1 X84.101 Y123.192 E7.44020
G1 X83.933 Y121.724 E7.46705
G1 X83.817 Y120.050 E7.49756
G1 X83.810 Y118.264 E7.53003
G1 X83.871 Y117.346 E7.54676
G1 X84.000 Y116.285 E7.56618
G1 X84.187 Y115.356 E7.58341
G1 X84.544 Y114.177 E7.60580
G1 X101.245 Y73.514 E8.40494
G1 X101.489 Y73.570 F6000.000
G1 X102.775 Y71.842 E8.44409 F1200.000
G1 X104.629 Y70.611 E8.48455
G1 X105.998 Y70.200 E8.51053
G1 X106.573 Y70.117 E8.52109
G1 X107.313 Y70.057 E8.53458
G1 X109.556 Y70.370 E8.57575
G1 X110.806 Y70.946 E8.60078 F1200.000
G1 X112.322 Y72.204 E8.63660
G1 X112.375 Y72.264 E8.63806
G1 X113.650 Y74.553 E8.68567
G1 X114.064 Y75.942 E8.71202
G1 X114.460 Y77.605 E8.74311
G1 X114.823 Y79.359 E8.77567
G1 X115.443 Y82.704 E8.83751
G1 X115.646 Y84.602 E8.87221
G1 X115.651 Y85.490 E8.88836
G1 X115.409 Y87.231 E8.92030
G1 X109.005 Y108.470 E9.32359
G1 X108.496 Y109.679 E9.34743
G1 X102.122 Y121.242 E9.58745
G1 X101.263 Y122.439 E9.61424
G1 X95.919 Y128.288 E9.75827
G1 X94.149 Y129.637 E9.79873
G1 X92.018 Y130.280 E9.83920
G1 X90.881 Y130.305 E9.85987
G1 X90.501 Y130.279 E9.86679
G1 X88.343 Y129.733 E9.90725
G1 X86.514 Y128.464 E9.94772
G1 X85.327 Y126.804 E9.98482
G1 X85.018 Y126.136 E9.99820
G1 X84.731 Y125.244 E10.01523
G1 X84.569 Y124.509 E10.02890
G1 X84.343 Y123.163 E10.05373
G1 X84.175 Y121.706 E10.08039
G1 X84.060 Y120.046 E10.11063
G1 X84.052 Y118.280 E10.14274
G1 X84.113 Y117.363 E10.15944
G1 X84.238 Y116.333 E10.17831
G1 X84.425 Y115.404 E10.19553
G1 X84.769 Y114.270 E10.21709
G1 X101.462 Y73.623 E11.01589
G1 F1860.000 E8.01589
G92 E0
G1 X103.831 Y95.273 F6000.000
G1 E3.10000 F1860.000
G1 X104.148 Y95.092 E3.10664 F1200.000
G1 X104.343 Y94.748 E3.11382
G1 X104.449 Y94.295 E3.12229
G1 X104.507 Y93.727 E3.13265
G1 X104.523 Y93.057 E3.14485
G1 X104.494 Y92.297 E3.15867
G1 X104.438 Y91.694 E3.16968
G1 X104.157 Y89.420 E3.21133
G1 X103.999 Y87.777 E3.24135
G1 X103.963 Y86.795 E3.25920
G1 X104.020 Y85.947 E3.27466
G1 X104.185 Y85.359 E3.28576
G1 X104.450 Y85.081 E3.29273
G1 X104.802 Y84.959 E3.29952
G1 X105.224 Y84.932 E3.30720
G1 X105.658 Y84.946 E3.31508
G1 X106.018 Y84.905 E3.32168
G1 X106.287 Y84.820 E3.32681
G1 X106.879 Y84.489 E3.33914
G1 X107.057 Y84.354 E3.34319
G1 X107.221 Y84.145 E3.34802
G1 X107.331 Y83.869 E3.35343
G1 X107.382 Y83.457 E3.36097
G1 X107.394 Y82.838 E3.37223
G1 X107.301 Y78.969 E3.44259
G1 X107.306 Y77.555 E3.46828
G1 X107.345 Y77.016 E3.47811
G1 X107.504 Y76.998 E3.48102
G1 X107.674 Y77.538 E3.49130
G1 X108.015 Y78.959 E3.51787
G1 X108.355 Y80.600 E3.54835
G1 X108.916 Y83.586 E3.60357
G1 X109.061 Y84.668 E3.62341
G1 X109.065 Y85.463 E3.63787
G1 X108.919 Y85.972 E3.64749
G1 X108.609 Y86.288 E3.65553
G1 X108.146 Y86.505 E3.66483
G1 X107.606 Y86.636 E3.67494
G1 X105.904 Y86.905 E3.70626
G1 X105.681 Y86.963 E3.71045
G1 X105.425 Y87.116 E3.71586
G1 X105.243 Y87.374 E3.72161
G1 X105.174 Y87.710 E3.72785
G1 X105.169 Y88.081 E3.73459
G1 X105.353 Y90.655 E3.78151
G1 X105.372 Y91.593 E3.79856
G1 X105.356 Y92.609 E3.81703
G1 X105.287 Y93.659 E3.83615
G1 X105.161 Y94.623 E3.85384
G1 X104.998 Y95.417 E3.86857
G1 X104.817 Y95.934 E3.87853
G1 X104.635 Y96.157 E3.88376
G1 X104.472 Y96.225 E3.88697
G1 X104.261 Y96.226 E3.89082
G1 X103.545 Y96.107 E3.90401
G1 X103.276 Y96.106 E3.90889
G1 X102.997 Y96.158 E3.91406
G1 X102.889 Y96.195 E3.91614
G1 X102.657 Y96.344 E3.92115
G1 X102.471 Y96.585 E3.92669
G1 X102.359 Y96.924 E3.93317
G1 X102.336 Y97.133 E3.93699
G1 X102.335 Y97.628 E3.94599
G1 X102.374 Y98.155 E3.95561
G1 X102.375 Y98.427 E3.96055
G1 X102.337 Y98.580 E3.96341
G1 X102.100 Y98.968 E3.97168
G1 X102.040 Y99.132 E3.97485
G1 X102.008 Y99.346 E3.97878
G1 X101.946 Y102.224 E4.03111
G1 X101.971 Y102.490 E4.03598
G1 X102.118 Y103.128 E4.04788
G1 X102.381 Y103.862 E4.06205
G1 X102.527 Y104.204 E4.06880
G1 X102.593 Y104.317 E4.07119
G1 X102.708 Y104.611 E4.07694
G1 X102.784 Y104.991 E4.08397
G1 X102.833 Y105.304 E4.08974
G1 X102.840 Y105.978 E4.10199
G1 X102.712 Y106.512 E4.11198
G1 X102.455 Y106.842 E4.11958
G1 X101.966 Y107.007 E4.12896
G1 X101.255 Y107.029 E4.14188
G1 X100.473 Y106.935 E4.15619
G1 X99.766 Y106.778 E4.16937
G1 X99.268 Y106.628 E4.17882
G1 X98.381 Y106.263 E4.19627
G1 X98.018 Y106.176 E4.20305
G1 X97.681 Y106.168 E4.20917
G1 X97.336 Y106.263 E4.21569
G1 X97.036 Y106.500 E4.22264
G1 X96.837 Y106.865 E4.23019
G1 X96.723 Y107.344 E4.23914
G1 X96.664 Y107.985 E4.25084
G1 X96.648 Y108.838 E4.26635
G1 X96.669 Y109.948 E4.28654
G1 X96.775 Y112.615 E4.33505
G1 X96.815 Y114.003 E4.36031
G1 X96.823 Y115.310 E4.38406
G1 X96.769 Y116.469 E4.40515
G1 X96.621 Y117.404 E4.42237
G1 X96.368 Y118.023 E4.43452
G1 X96.006 Y118.333 E4.44318
G1 X95.531 Y118.481 E4.45224
G1 X94.974 Y118.511 E4.46238
G1 X94.429 Y118.482 E4.47229
G1 X93.994 Y118.489 E4.48020
G1 X93.332 Y118.539 E4.49227
G1 X92.981 Y118.449 E4.49884
G1 X92.701 Y118.418 E4.50398
G1 X92.378 Y118.522 E4.51014
G1 X92.140 Y118.779 E4.51651
G1 X91.963 Y119.167 E4.52426
G1 X91.914 Y119.333 E4.52742
G1 X91.750 Y120.020 E4.54024
G1 X91.350 Y122.477 E4.58551
G1 X91.203 Y123.266 E4.60010
G1 X91.039 Y123.266 E4.60309
G1 X90.881 Y122.377 E4.61950
G1 X90.741 Y121.199 E4.64106
G1 X90.645 Y119.929 E4.66422
G1 X90.625 Y118.702 E4.68652
G1 X90.698 Y117.615 E4.70632
G1 X90.874 Y116.744 E4.72248
G1 X91.139 Y116.172 E4.73394
G1 X91.488 Y115.889 E4.74211
G1 X91.931 Y115.759 E4.75050
G1 X92.439 Y115.739 E4.75975
G1 X93.464 Y115.786 E4.77840
G1 X94.377 Y115.729 E4.79502
G1 X94.682 Y115.687 E4.80063
G1 X95.009 Y115.567 E4.80697
G1 X95.294 Y115.328 E4.81373
G1 X95.463 Y114.969 E4.82094
G1 X95.534 Y114.517 E4.82925
G1 X95.554 Y113.914 E4.84023
G1 X95.527 Y109.285 E4.92437
G1 X95.538 Y107.941 E4.94881
G1 X95.581 Y106.748 E4.97050
G1 X95.684 Y105.740 E4.98893
G1 X95.863 Y104.966 E5.00336
G1 X96.114 Y104.472 E5.01344
G1 X96.437 Y104.229 E5.02080
G1 X96.846 Y104.124 E5.02846
G1 X97.311 Y104.122 E5.03692
G1 X98.033 Y104.226 E5.05019
G1 X98.941 Y104.326 E5.06679
G1 X99.435 Y104.467 E5.07612
G1 X99.728 Y104.512 E5.08152
G1 X100.058 Y104.452 E5.08762
G1 X100.312 Y104.236 E5.09368
G1 X100.600 Y103.798 E5.10320
G1 X100.712 Y103.663 E5.10640
G1 X100.772 Y103.640 E5.10756
G1 X100.810 Y103.597 E5.10860
G1 X100.869 Y103.590 E5.10967
G1 X100.985 Y103.472 E5.11270
G1 X101.094 Y103.404 E5.11502
G1 X101.247 Y103.184 E5.11989
G1 X101.386 Y102.916 E5.12538
G1 X101.475 Y102.601 E5.13133
G1 X101.531 Y102.217 E5.13839
G1 X101.604 Y99.250 E5.19234
G1 X101.528 Y98.944 E5.19807
G1 X101.374 Y98.638 E5.20431
G1 X101.270 Y98.360 E5.20970
G1 X101.200 Y97.906 E5.21805
G1 X101.177 Y97.204 E5.23082
G1 X101.205 Y96.404 E5.24536
G1 X101.305 Y95.652 E5.25916
G1 X101.473 Y95.109 E5.26949
G1 X101.682 Y94.866 E5.27533
G1 X101.922 Y94.770 E5.28002
G1 X102.215 Y94.764 E5.28536
G1 X102.516 Y94.825 E5.29095
G1 X102.758 Y94.897 E5.29554
G1 X103.275 Y95.158 E5.30606
G1 X103.520 Y95.253 E5.31085
G1 X103.771 Y95.268 E5.31541
G1 X103.774 Y95.025 F6000.000
G1 X103.970 Y94.913 E5.31952 F1200.000
G1 X104.114 Y94.660 E5.32481
G1 X104.209 Y94.254 E5.33239
G1 X104.241 Y93.943 E5.33807
G1 X104.265 Y93.712 E5.34229
G1 X104.280 Y93.058 E5.35420
G1 X104.251 Y92.314 E5.36772
G1 X104.196 Y91.717 E5.37862
G1 X103.916 Y89.448 E5.42018
G1 X103.757 Y87.790 E5.45045
G1 X103.719 Y86.794 E5.46859
G1 X103.780 Y85.906 E5.48476
G1 X103.969 Y85.234 E5.49746
G1 X104.315 Y84.871 E5.50657
G1 X104.753 Y84.718 E5.51501
G1 X105.221 Y84.689 E5.52353
G1 X105.649 Y84.702 E5.53132
G1 X105.966 Y84.666 E5.53712
G1 X106.192 Y84.595 E5.54142
G1 X106.745 Y84.285 E5.55296
G1 X106.885 Y84.179 E5.55615
G1 X107.008 Y84.023 E5.55975
G1 X107.094 Y83.808 E5.56397
G1 X107.139 Y83.442 E5.57067
G1 X107.151 Y82.837 E5.58166
G1 X107.058 Y78.971 E5.65197
G1 X107.062 Y77.696 E5.67515
G1 X107.124 Y76.542 E5.69616
G1 X107.151 Y76.539 E5.69664
G1 X107.161 Y76.425 E5.69871
G1 X107.417 Y76.414 E5.70337
G1 X107.544 Y76.385 E5.70574
G1 X107.580 Y76.493 E5.70781
G1 X107.607 Y76.489 E5.70830
G1 X107.908 Y77.472 E5.72697
G1 X108.252 Y78.905 E5.75378
G1 X108.594 Y80.553 E5.78436
G1 X109.156 Y83.548 E5.83976
G1 X109.304 Y84.650 E5.85998
G1 X109.308 Y85.497 E5.87537
G1 X109.136 Y86.097 E5.88673
G1 X108.752 Y86.489 E5.89670
G1 X108.227 Y86.735 E5.90723
G1 X107.652 Y86.875 E5.91799
G1 X105.955 Y87.143 E5.94922
G1 X105.772 Y87.191 E5.95267
G1 X105.596 Y87.296 E5.95640
G1 X105.470 Y87.475 E5.96038
G1 X105.417 Y87.736 E5.96521
G1 X105.413 Y88.075 E5.97138
G1 X105.596 Y90.644 E6.01821
G1 X105.615 Y91.592 E6.03544
G1 X105.599 Y92.618 E6.05409
G1 X105.528 Y93.682 E6.07347
G1 X105.401 Y94.661 E6.09142
G1 X105.235 Y95.477 E6.10656
G1 X105.031 Y96.058 E6.11775
G1 X104.786 Y96.357 E6.12478
G1 X104.522 Y96.468 E6.13000
G1 X104.237 Y96.469 E6.13517
G1 X103.532 Y96.350 E6.14817
G1 X103.301 Y96.348 E6.15237
G1 X103.061 Y96.393 E6.15680
G1 X102.825 Y96.525 E6.16173
G1 X102.686 Y96.706 E6.16587
G1 X102.597 Y96.976 E6.17105
G1 X102.579 Y97.148 E6.17419
G1 X102.577 Y97.617 E6.18270
G1 X102.617 Y98.143 E6.19230
G1 X102.618 Y98.452 E6.19792
G1 X102.566 Y98.667 E6.20194
G1 X102.316 Y99.081 E6.21073
G1 X102.274 Y99.201 E6.21304
G1 X102.251 Y99.360 E6.21597
G1 X102.189 Y102.219 E6.26795
G1 X102.248 Y102.649 E6.27583
G1 X102.350 Y103.056 E6.28347
G1 X102.606 Y103.766 E6.29719
G1 X102.816 Y104.218 E6.30625
G1 X102.941 Y104.540 E6.31253
G1 X103.022 Y104.945 E6.32004
G1 X103.075 Y105.284 E6.32627
G1 X103.083 Y106.007 E6.33941
G1 X102.936 Y106.621 E6.35089
G1 X102.601 Y107.049 E6.36077
G1 X102.009 Y107.248 E6.37213
G1 X101.245 Y107.272 E6.38603
G1 X100.434 Y107.175 E6.40087
G1 X99.705 Y107.014 E6.41445
G1 X99.181 Y106.855 E6.42440
G1 X98.298 Y106.491 E6.44176
G1 X97.987 Y106.418 E6.44757
G1 X97.711 Y106.411 E6.45258
G1 X97.448 Y106.484 E6.45754
G1 X97.225 Y106.661 E6.46273
G1 X97.065 Y106.952 E6.46876
G1 X96.963 Y107.384 E6.47683
G1 X96.907 Y107.998 E6.48804
G1 X96.891 Y108.837 E6.50329
G1 X96.912 Y109.942 E6.52339
G1 X97.018 Y112.607 E6.57187
G1 X97.057 Y113.999 E6.59718
G1 X97.066 Y115.315 E6.62111
G1 X97.011 Y116.494 E6.64257
G1 X96.857 Y117.470 E6.66053
G1 X96.571 Y118.168 E6.67425
G1 X96.125 Y118.551 E6.68492
G1 X95.572 Y118.722 E6.69546
G1 X94.976 Y118.754 E6.70631
G1 X94.424 Y118.725 E6.71636
G1 X94.006 Y118.732 E6.72395
G1 X93.304 Y118.782 E6.73674
G1 X92.934 Y118.688 E6.74369
G1 X92.727 Y118.665 E6.74747
G1 X92.518 Y118.732 E6.75147
G1 X92.343 Y118.918 E6.75611
G1 X92.190 Y119.253 E6.76279
G1 X91.989 Y120.066 E6.77802
G1 X91.590 Y122.517 E6.82316
G1 X91.345 Y123.777 E6.84651
G1 X91.214 Y123.920 E6.85001
G1 X91.001 Y123.929 E6.85389
G1 X90.983 Y123.845 E6.85545
G1 X90.893 Y123.739 E6.85798
G1 X90.872 Y123.652 E6.85961
G1 X90.641 Y122.411 E6.88256
G1 X90.499 Y121.223 E6.90431
G1 X90.402 Y119.939 E6.92771
G1 X90.381 Y118.696 E6.95032
G1 X90.457 Y117.581 E6.97062
G1 X90.641 Y116.669 E6.98754
G1 X90.940 Y116.021 E7.00052
G1 X91.373 Y115.669 E7.01065
G1 X91.892 Y115.517 E7.02049
G1 X92.442 Y115.495 E7.03049
G1 X93.454 Y115.543 E7.04891
G1 X94.356 Y115.486 E7.06534
G1 X94.625 Y115.449 E7.07027
G1 X94.884 Y115.355 E7.07529
G1 X95.098 Y115.175 E7.08036
G1 X95.228 Y114.897 E7.08595
G1 X95.292 Y114.494 E7.09337
G1 X95.311 Y113.911 E7.10398
G1 X95.284 Y109.284 E7.18808
G1 X95.295 Y107.937 E7.21258
G1 X95.339 Y106.731 E7.23452
G1 X95.444 Y105.700 E7.25335
G1 X95.633 Y104.882 E7.26861
G1 X95.923 Y104.312 E7.28024
G1 X96.330 Y104.006 E7.28951
G1 X96.814 Y103.881 E7.29860
G1 X97.327 Y103.879 E7.30792
G1 X98.066 Y103.985 E7.32148
G1 X98.981 Y104.086 E7.33823
G1 X99.489 Y104.229 E7.34782
G1 X99.724 Y104.266 E7.35215
G1 X99.952 Y104.225 E7.35635
G1 X100.131 Y104.071 E7.36064
G1 X100.399 Y103.661 E7.36954
G1 X100.561 Y103.462 E7.37421
G1 X100.630 Y103.434 E7.37557
G1 X100.703 Y103.366 E7.37739
G1 X100.755 Y103.360 E7.37833
G1 X100.917 Y103.228 E7.38211
G1 X101.047 Y103.041 E7.38627
G1 X101.161 Y102.819 E7.39080
G1 X101.266 Y102.399 E7.39866
G1 X101.297 Y101.988 E7.40616
G1 X101.362 Y99.271 E7.45558
G1 X101.306 Y99.045 E7.45981
G1 X101.148 Y98.730 E7.46621
G1 X101.033 Y98.418 E7.47226
G1 X100.957 Y97.924 E7.48135
G1 X100.934 Y97.203 E7.49445
G1 X100.962 Y96.383 E7.50937
G1 X101.066 Y95.600 E7.52373
G1 X101.255 Y94.989 E7.53536
G1 X101.537 Y94.662 E7.54319
G1 X101.873 Y94.528 E7.54977
G1 X102.234 Y94.520 E7.55635
G1 X102.575 Y94.589 E7.56267
G1 X102.840 Y94.668 E7.56769
G1 X103.478 Y94.980 E7.58061
G1 X103.569 Y95.013 E7.58236
G1 X103.714 Y95.021 E7.58500
G1 X103.944 Y95.175 F6000.000
G1 F1860.000 E4.58500
G92 E0
G1 X101.772 Y102.458 F6000.000
G1 E3.10000 F1860.000
G1 X101.815 Y102.501 E3.10110 F1200.000
G1 X101.622 Y102.653 E3.10558
G1 X101.916 Y102.947 E3.11312
G1 X101.546 Y102.923 E3.11986
G1 X102.064 Y103.441 E3.13319
G1 X102.265 Y103.988 F6000.000
G1 X101.436 Y103.159 E3.15451 F1200.000
G1 X101.305 Y103.374 E3.15909
G1 X102.539 Y104.607 E3.19079
G1 X102.635 Y105.049 E3.19901
G1 X101.143 Y103.557 E3.23736
G1 X100.960 Y103.720 E3.24181
G1 X102.678 Y105.438 E3.28598
G1 X102.682 Y105.787 E3.29233
G1 X100.753 Y103.858 E3.34193
G1 X100.612 Y104.063 E3.34645
G1 X102.650 Y106.101 E3.39884
G1 X102.583 Y106.380 E3.40405
G1 X100.475 Y104.272 E3.45825
G1 X100.305 Y104.447 E3.46269
G1 X102.451 Y106.593 E3.51786
G1 X102.256 Y106.744 E3.52234
