; generated by Slic3r 1.1.7 on 2014-12-12 at 15:11:20

; perimeters extrusion width = 0.42mm
; infill extrusion width = 0.74mm
; solid infill extrusion width = 0.71mm
; top infill extrusion width = 0.71mm
; support material extrusion width = 0.42mm

G21 ; set units to millimeters
M190 S57 ; wait for bed temperature to be reached
M104 S186 ; set temperature
G28 ; home all axes Start of G Code Slic3r
 
M109 S186 ; wait for temperature to be reached
G90 ; use absolute coordinates
G92 E0
M82 ; use absolute distances for extrusion
M106 S144
G1 F1860.000 E-3.00000
G92 E0
G1 Z0.200 F6000.000
G1 X89.420 Y73.085 F6000.000
G1 E3.10000 F1860.000
G1 X91.243 Y71.660 E3.14280 F1200.000
G1 X93.742 Y70.898 E3.19113
G1 X94.608 Y70.845 E3.20719
G1 X120.568 Y70.845 E3.68745
G1 X122.848 Y71.242 E3.73025
G1 X124.859 Y72.387 E3.77306 F1200.000
G1 X126.856 Y75.156 E3.83624
G1 X127.089 Y75.872 E3.85016
G1 X127.530 Y77.606 E3.88326
G1 X127.876 Y79.444 E3.91787
G1 X128.358 Y82.514 E3.97535
G1 X128.529 Y84.307 E4.00867
G1 X128.532 Y85.052 E4.02246
G1 X128.291 Y86.868 E4.05636
G1 X128.059 Y87.683 E4.07203
G1 X121.097 Y108.990 E4.48673
G1 X115.152 Y120.441 E4.72542
G1 X114.467 Y121.503 E4.74880
G1 X109.468 Y127.857 E4.89837
G1 X107.746 Y129.403 E4.94117
G1 X105.603 Y130.276 E4.98398
G1 X104.169 Y130.430 E5.01066
G1 X77.634 Y130.407 E5.50158
G1 X75.384 Y129.864 E5.54438
G1 X73.451 Y128.593 E5.58719
G1 X71.684 Y125.849 E5.64758
G1 X71.419 Y124.930 E5.66526
G1 X71.282 Y124.262 E5.67789
G1 X71.166 Y123.523 E5.69172
G1 X71.093 Y122.739 E5.70629
G1 X71.050 Y121.062 E5.73734
G1 X71.105 Y120.009 E5.75683
G1 X71.211 Y118.986 E5.77586
G1 X71.406 Y118.015 E5.79419
G1 X71.521 Y117.542 E5.80320
G1 X71.724 Y116.869 E5.81620
G1 X76.756 Y102.838 E6.09196
G1 X88.186 Y75.042 E6.64798
G1 X89.387 Y73.138 E6.68962
G1 X89.632 Y73.219 F6000.000
G1 X91.435 Y71.839 E6.73162 F1200.000
G1 X93.767 Y71.144 E6.77664
G1 X94.608 Y71.092 E6.79224
G1 X120.568 Y71.092 E7.27250
G1 X122.804 Y71.489 E7.31450
G1 X124.766 Y72.632 E7.35651 F1200.000
G1 X126.626 Y75.245 E7.41586
G1 X126.849 Y75.935 E7.42927
G1 X127.288 Y77.653 E7.46207
G1 X127.632 Y79.484 E7.49654
G1 X128.113 Y82.544 E7.55385
G1 X128.282 Y84.308 E7.58662
G1 X128.285 Y85.053 E7.60041
G1 X128.052 Y86.803 E7.63307
G1 X127.823 Y87.607 E7.64854
G1 X120.878 Y108.877 E8.06248
G1 X114.932 Y120.327 E8.30117
G1 X114.272 Y121.351 E8.32370
G1 X109.273 Y127.704 E8.47326
G1 X107.579 Y129.216 E8.51527
G1 X105.468 Y130.052 E8.55728
G1 X104.169 Y130.183 E8.58142
G1 X77.649 Y130.160 E9.07205
G1 X75.444 Y129.621 E9.11405
G1 X73.559 Y128.355 E9.15606
G1 X71.918 Y125.769 E9.21271
G1 X71.660 Y124.877 E9.22990
G1 X71.525 Y124.220 E9.24230
G1 X71.411 Y123.495 E9.25587
G1 X71.339 Y122.728 E9.27012
G1 X71.297 Y121.070 E9.30081
G1 X71.351 Y120.027 E9.32013
G1 X71.454 Y119.028 E9.33872
G1 X71.646 Y118.072 E9.35675
G1 X71.760 Y117.604 E9.36566
G1 X71.957 Y116.952 E9.37827
G1 X76.984 Y102.932 E9.65381
G1 X88.415 Y75.136 E10.20983
G1 X89.598 Y73.272 E10.25067
G1 X89.844 Y73.355 F6000.000
G1 X91.625 Y72.019 E10.29186 F1200.000
G1 X93.792 Y71.390 E10.33360
G1 X94.608 Y71.340 E10.34873
G1 X120.568 Y71.340 E10.82899
G1 X122.759 Y71.736 E10.87019
G1 X124.672 Y72.876 E10.91138 F1200.000
G1 X126.395 Y75.335 E10.96692
G1 X126.610 Y75.998 E10.97983
G1 X127.045 Y77.700 E11.01233
G1 X127.388 Y79.523 E11.04665
G1 X127.867 Y82.575 E11.10379
G1 X128.034 Y84.309 E11.13602
G1 X128.038 Y85.054 E11.14981
G1 X127.814 Y86.737 E11.18122
G1 X127.588 Y87.531 E11.19649
G1 X120.658 Y108.763 E11.60967
G1 X114.713 Y120.214 E11.84837
G1 X114.078 Y121.198 E11.87003
G1 X109.079 Y127.552 E12.01960
G1 X107.412 Y129.028 E12.06079
G1 X105.334 Y129.826 E12.10198
G1 X104.169 Y129.936 E12.12362
G1 X77.665 Y129.914 E12.61395
G1 X75.504 Y129.377 E12.65515
G1 X73.669 Y128.116 E12.69634
G1 X72.152 Y125.690 E12.74928
G1 X71.901 Y124.823 E12.76598
G1 X71.769 Y124.179 E12.77814
G1 X71.657 Y123.467 E12.79147
G1 X71.586 Y122.717 E12.80540
G1 X71.544 Y121.079 E12.83572
G1 X71.598 Y120.045 E12.85487
G1 X71.698 Y119.069 E12.87302
G1 X71.887 Y118.130 E12.89075
G1 X71.999 Y117.667 E12.89955
G1 X72.190 Y117.035 E12.91177
G1 X77.213 Y103.026 E13.18710
G1 X88.643 Y75.230 E13.74312
G1 X89.810 Y73.408 E13.78314
G1 F1860.000 E10.78314
G92 E0
G1 X80.070 Y117.746 F6000.000
G1 E3.10000 F1860.000
G1 X79.735 Y117.765 E3.10621 F1200.000
G1 X79.415 Y117.848 E3.11231
G1 X79.119 Y118.026 E3.11870
G1 X79.010 Y117.914 E3.12160
G1 X79.102 Y117.768 E3.12480
G1 X79.311 Y117.619 E3.12954
G1 X79.541 Y117.556 E3.13394
G1 X79.835 Y117.545 E3.13939
G1 X80.070 Y117.560 E3.14374
G1 X80.070 Y117.683 E3.14602
G1 X80.267 Y117.568 F6000.000
G1 X80.858 Y117.570 E3.15697 F1200.000
G1 X81.265 Y117.524 E3.16454
G1 X81.671 Y117.432 E3.17223
G1 X82.056 Y117.246 E3.18014
G1 X82.357 Y116.987 E3.18749
G1 X82.622 Y116.691 E3.19484
G1 X82.887 Y116.261 E3.20419
G1 X83.060 Y115.693 E3.21518
G1 X83.231 Y115.723 E3.21839
G1 X83.224 Y115.876 E3.22121
G1 X83.106 Y116.637 E3.23546
G1 X82.911 Y117.142 E3.24547
G1 X82.631 Y117.426 E3.25286
G1 X82.249 Y117.625 E3.26082
G1 X82.059 Y117.680 E3.26447
G1 X81.802 Y117.747 E3.26940
G1 X81.355 Y117.796 E3.27772
G1 X80.872 Y117.805 E3.28665
G1 X80.256 Y117.760 E3.29807
G1 X80.263 Y117.631 E3.30046
G1 F1860.000 E0.30046
G92 E0
G1 X83.040 Y108.616 F6000.000
G1 E3.10000 F1860.000
G1 X83.076 Y107.077 E3.12847 F1200.000
G1 X83.165 Y106.185 E3.14506
G1 X83.319 Y105.523 E3.15764
G1 X83.527 Y105.119 E3.16604
G1 X83.783 Y104.926 E3.17197
G1 X84.108 Y104.847 E3.17816
G1 X84.486 Y104.861 E3.18516
G1 X84.865 Y104.940 E3.19233
G1 X85.180 Y105.038 E3.19842
G1 X85.775 Y105.272 E3.21025
G1 X86.124 Y105.386 E3.21704
G1 X86.547 Y105.474 E3.22503
G1 X86.994 Y105.508 E3.23332
G1 X87.446 Y105.459 E3.24175
G1 X87.874 Y105.278 E3.25035
G1 X88.179 Y104.928 E3.25893
G1 X88.346 Y104.538 E3.26678
G1 X88.444 Y104.113 E3.27484
G1 X88.546 Y103.125 E3.29322
G1 X88.647 Y99.947 E3.35204
G1 X88.626 Y97.409 E3.39900
G1 X88.658 Y96.716 E3.41183
G1 X88.739 Y96.060 E3.42405
G1 X88.874 Y95.585 E3.43319
G1 X89.037 Y95.380 E3.43804
G1 X89.222 Y95.294 E3.44181
G1 X89.455 Y95.275 E3.44615
G1 X90.135 Y95.366 E3.45883
G1 X90.660 Y95.481 E3.46878
G1 X90.960 Y95.479 E3.47433
G1 X91.282 Y95.317 E3.48101
G1 X91.515 Y94.984 E3.48852
G1 X91.662 Y94.500 E3.49787
G1 X91.758 Y93.896 E3.50919
G1 X91.811 Y93.177 E3.52253
G1 X91.821 Y92.362 E3.53761
G1 X91.788 Y91.508 E3.55341
G1 X91.603 Y89.022 E3.59954
G1 X91.797 Y89.004 E3.60314
G1 X91.973 Y90.668 E3.63410
G1 X92.049 Y91.588 E3.65118
G1 X92.094 Y92.563 E3.66923
G1 X92.093 Y93.577 E3.68800
G1 X92.040 Y94.532 E3.70568
G1 X91.930 Y95.330 E3.72060
G1 X91.770 Y95.860 E3.73083
G1 X91.607 Y96.068 E3.73573
G1 X91.456 Y96.133 E3.73876
G1 X91.260 Y96.130 E3.74240
G1 X90.212 Y95.894 E3.76226
G1 X89.958 Y95.862 E3.76701
G1 X89.634 Y95.896 E3.77302
G1 X89.300 Y96.097 E3.78025
G1 X89.090 Y96.465 E3.78809
G1 X89.010 Y96.950 E3.79718
G1 X88.997 Y97.266 E3.80302
G1 X89.026 Y98.647 E3.82858
G1 X88.950 Y101.560 E3.88249
G1 X88.953 Y102.415 E3.89831
G1 X89.010 Y103.882 E3.92547
G1 X89.020 Y104.781 E3.94210
G1 X88.970 Y105.301 E3.95176
G1 X88.839 Y105.724 E3.95996
G1 X88.631 Y105.989 E3.96620
G1 X88.257 Y106.146 E3.97370
G1 X87.724 Y106.208 E3.98363
G1 X87.122 Y106.182 E3.99477
G1 X86.569 Y106.100 E4.00512
G1 X86.153 Y106.000 E4.01305
G1 X85.262 Y105.669 E4.03063
G1 X84.910 Y105.585 E4.03731
G1 X84.520 Y105.565 E4.04455
G1 X84.109 Y105.662 E4.05235
G1 X83.741 Y105.933 E4.06080
G1 X83.497 Y106.371 E4.07008
G1 X83.354 Y106.938 E4.08091
G1 X83.273 Y107.671 E4.09454
G1 X83.234 Y108.620 E4.11211
G1 X83.103 Y108.617 E4.11452
G1 F1860.000 E1.11452
G92 E0
G1 X91.536 Y87.268 F6000.000
G1 E3.10000 F1860.000
G1 X91.599 Y86.518 E3.11394 F1200.000
G1 X91.734 Y86.100 E3.12205
G1 X91.920 Y85.919 E3.12686
G1 X92.178 Y85.828 E3.13192
G1 X92.868 Y85.787 E3.14472
G1 X93.182 Y85.721 E3.15064
G1 X93.430 Y85.617 E3.15562
G1 X93.786 Y85.421 E3.16313
G1 X94.293 Y85.220 E3.17322
G1 X94.599 Y85.025 E3.17993
G1 X94.858 Y84.720 E3.18734
G1 X94.994 Y84.304 E3.19544
G1 X95.029 Y83.753 E3.20565
G1 X94.999 Y82.998 E3.21962
G1 X94.900 Y81.674 E3.24420
G1 X95.089 Y81.651 E3.24772
G1 X95.365 Y83.398 E3.28044
G1 X95.480 Y84.356 E3.29829
G1 X95.483 Y85.035 E3.31085
G1 X95.370 Y85.440 E3.31862
G1 X95.138 Y85.685 E3.32487
G1 X94.779 Y85.856 E3.33223
G1 X94.352 Y85.958 E3.34034
G1 X92.718 Y86.147 E3.37078
G1 X92.397 Y86.233 E3.37692
G1 X92.077 Y86.427 E3.38385
G1 X91.833 Y86.771 E3.39166
G1 X91.711 Y87.287 E3.40147
G1 X91.599 Y87.275 E3.40357
G1 F1860.000 E0.40357
G92 E0
G1 X89.156 Y95.051 F6000.000
G1 E3.10000 F1860.000
G1 X89.459 Y95.027 E3.10562 F1200.000
G1 X90.179 Y95.123 E3.11905
G1 X90.687 Y95.234 E3.12867
G1 X90.901 Y95.232 E3.13262
G1 X91.115 Y95.124 E3.13707
G1 X91.291 Y94.873 E3.14274
G1 X91.420 Y94.446 E3.15099
G1 X91.512 Y93.870 E3.16179
G1 X91.564 Y93.165 E3.17486
G1 X91.574 Y92.366 E3.18965
G1 X91.541 Y91.521 E3.20529
G1 X91.300 Y88.114 E3.26847
G1 X91.288 Y87.160 E3.28613
G1 X91.356 Y86.467 E3.29902
G1 X91.517 Y85.966 E3.30874
G1 X91.786 Y85.703 E3.31570
G1 X92.125 Y85.584 E3.32234
G1 X92.839 Y85.540 E3.33557
G1 X93.108 Y85.483 E3.34066
G1 X93.321 Y85.394 E3.34493
G1 X93.686 Y85.195 E3.35263
G1 X94.179 Y84.999 E3.36245
G1 X94.433 Y84.838 E3.36800
G1 X94.638 Y84.597 E3.37386
G1 X94.750 Y84.255 E3.38052
G1 X94.782 Y83.751 E3.38986
G1 X94.735 Y82.750 E3.40839
G1 X94.562 Y80.503 E3.45009
G1 X94.489 Y78.932 E3.47919
G1 X94.514 Y78.318 E3.49055
G1 X94.682 Y78.298 E3.49369
G1 X94.856 Y78.919 E3.50561
G1 X95.163 Y80.538 E3.53609
G1 X95.610 Y83.363 E3.58901
G1 X95.727 Y84.341 E3.60723
G1 X95.731 Y85.067 E3.62067
G1 X95.592 Y85.565 E3.63023
G1 X95.285 Y85.889 E3.63848
G1 X94.862 Y86.090 E3.64715
G1 X94.396 Y86.201 E3.65601
G1 X92.764 Y86.391 E3.68641
G1 X92.496 Y86.462 E3.69154
G1 X92.248 Y86.613 E3.69690
G1 X92.062 Y86.875 E3.70284
G1 X91.972 Y87.255 E3.71008
G1 X91.952 Y87.739 E3.71904
G1 X91.983 Y88.328 E3.72996
G1 X92.219 Y90.645 E3.77304
G1 X92.295 Y91.572 E3.79024
G1 X92.342 Y92.557 E3.80849
G1 X92.341 Y93.584 E3.82749
G1 X92.286 Y94.555 E3.84549
G1 X92.172 Y95.382 E3.86093
G1 X91.994 Y95.974 E3.87237
G1 X91.763 Y96.271 E3.87933
G1 X91.506 Y96.381 E3.88449
G1 X91.229 Y96.376 E3.88961
G1 X90.361 Y96.172 E3.90612
G1 X89.955 Y96.111 E3.91370
G1 X89.713 Y96.136 E3.91821
G1 X89.484 Y96.274 E3.92315
G1 X89.326 Y96.552 E3.92907
G1 X89.256 Y96.976 E3.93703
G1 X89.244 Y97.274 E3.94254
G1 X89.273 Y98.646 E3.96793
G1 X89.197 Y101.562 E4.02190
G1 X89.200 Y102.409 E4.03757
G1 X89.257 Y103.876 E4.06471
G1 X89.268 Y104.790 E4.08164
G1 X89.214 Y105.350 E4.09204
G1 X89.063 Y105.838 E4.10149
G1 X88.786 Y106.193 E4.10982
G1 X88.322 Y106.388 E4.11912
G1 X87.732 Y106.456 E4.13011
G1 X87.100 Y106.429 E4.14183
G1 X86.519 Y106.342 E4.15268
G1 X86.083 Y106.237 E4.16099
G1 X85.190 Y105.906 E4.17860
G1 X84.875 Y105.831 E4.18460
G1 X84.542 Y105.814 E4.19076
G1 X84.215 Y105.891 E4.19697
G1 X83.931 Y106.101 E4.20352
G1 X83.729 Y106.463 E4.21118
G1 X83.598 Y106.983 E4.22111
G1 X83.519 Y107.690 E4.23426
G1 X83.482 Y108.609 E4.25129
G1 X83.473 Y109.767 E4.27271
G1 X83.518 Y114.903 E4.36774
G1 X83.470 Y115.901 E4.38621
G1 X83.346 Y116.701 E4.40119
G1 X83.125 Y117.276 E4.41258
G1 X82.773 Y117.633 E4.42186
G1 X82.333 Y117.859 E4.43102
G1 X81.846 Y117.990 E4.44034
G1 X81.368 Y118.043 E4.44924
G1 X80.867 Y118.052 E4.45852
G1 X80.027 Y117.997 E4.47409
G1 X79.771 Y118.011 E4.47882
G1 X79.511 Y118.078 E4.48379
G1 X79.261 Y118.229 E4.48919
G1 X79.034 Y118.483 E4.49551
G1 X78.829 Y118.894 E4.50400
G1 X78.748 Y119.144 E4.50885
G1 X78.656 Y119.527 E4.51614
G1 X78.536 Y120.381 E4.53211
G1 X78.353 Y122.492 E4.57131
G1 X78.235 Y123.228 E4.58510
G1 X78.188 Y123.249 E4.58603
G1 X78.048 Y123.229 E4.58867
G1 X77.927 Y122.432 E4.60358
G1 X77.888 Y121.299 E4.62455
G1 X77.955 Y120.135 E4.64612
G1 X78.166 Y119.174 E4.66431
G1 X78.360 Y118.731 E4.67327
G1 X78.446 Y118.470 E4.67836
G1 X78.528 Y118.333 E4.68130
G1 X78.688 Y117.949 E4.68901
G1 X78.921 Y117.592 E4.69690
G1 X79.197 Y117.395 E4.70316
G1 X79.329 Y117.356 E4.70571
G1 X79.504 Y117.310 E4.70907
G1 X79.839 Y117.297 E4.71526
G1 X80.447 Y117.327 E4.72653
G1 X80.840 Y117.323 E4.73381
G1 X81.219 Y117.280 E4.74085
G1 X81.593 Y117.195 E4.74796
G1 X81.916 Y117.039 E4.75460
G1 X82.166 Y116.829 E4.76062
G1 X82.421 Y116.544 E4.76770
G1 X82.660 Y116.157 E4.77611
G1 X82.804 Y115.684 E4.78526
G1 X82.878 Y115.085 E4.79642
G1 X82.900 Y114.318 E4.81063
G1 X82.794 Y109.452 E4.90067
G1 X82.793 Y108.168 E4.92441
G1 X82.829 Y107.061 E4.94491
G1 X82.921 Y106.144 E4.96195
G1 X83.085 Y105.437 E4.97539
G1 X83.333 Y104.955 E4.98540
G1 X83.675 Y104.698 E4.99333
G1 X84.083 Y104.598 E5.00109
G1 X84.516 Y104.614 E5.00912
G1 X84.927 Y104.700 E5.01688
G1 X85.199 Y104.785 E5.02216
G1 X85.859 Y105.039 E5.03523
G1 X86.188 Y105.146 E5.04164
G1 X86.581 Y105.228 E5.04906
G1 X87.048 Y105.254 E5.05772
G1 X87.384 Y105.217 E5.06398
G1 X87.727 Y105.072 E5.07087
G1 X87.966 Y104.796 E5.07761
G1 X88.113 Y104.454 E5.08450
G1 X88.200 Y104.071 E5.09176
G1 X88.247 Y103.694 E5.09880
G1 X88.320 Y102.679 E5.11763
G1 X88.399 Y99.943 E5.16825
G1 X88.375 Y98.032 E5.20361
G1 X88.379 Y97.403 E5.21526
G1 X88.412 Y96.694 E5.22839
G1 X88.496 Y96.011 E5.24112
G1 X88.649 Y95.472 E5.25148
G1 X88.879 Y95.180 E5.25835
G1 X89.100 Y95.078 E5.26285
G1 X89.357 Y95.279 F6000.000
G1 F1860.000 E2.26285
G92 E0
G1 X84.545 Y105.036 F6000.000
G1 E3.10000 F1860.000
G1 X84.588 Y105.079 E3.10113 F1200.000
G1 X84.520 Y105.376 E3.10678
G1 X84.151 Y105.008 E3.11642
G1 X83.851 Y105.074 E3.12210
G1 X84.244 Y105.467 E3.13238
G1 X83.974 Y105.564 E3.13767
G1 X83.658 Y105.247 E3.14596
G1 X83.522 Y105.477 E3.15091
G1 X83.763 Y105.719 E3.15723
G1 X83.578 Y105.900 E3.16203
G1 X83.429 Y105.751 E3.16590
G1 X83.360 Y106.049 E3.17155
G1 X83.412 Y106.100 E3.17290
G1 X84.721 Y105.243 F6000.000
G1 X84.969 Y105.288 E3.17906 F1200.000
G1 X85.321 Y105.394 E3.18801
G1 X85.928 Y105.621 E3.20380
G1 X86.236 Y105.714 E3.21165
G1 X86.516 Y105.775 E3.21864
G1 X86.944 Y105.828 E3.22916
G1 X87.126 Y106.023 F6000.000
G1 X87.087 Y105.984 E3.23018 F1200.000
G1 X87.153 Y105.661 E3.23627
G1 X87.532 Y106.040 E3.24619
G1 X87.907 Y106.027 E3.25313
G1 X87.492 Y105.612 E3.26397
G1 X87.765 Y105.497 E3.26946
G1 X88.247 Y105.978 E3.28205
G1 X88.509 Y105.852 E3.28744
G1 X88.015 Y105.359 E3.30035
G1 X88.196 Y105.151 E3.30544
G1 X88.695 Y105.650 E3.31850
G1 X88.787 Y105.354 E3.32423
G1 X88.355 Y104.922 E3.33554
G1 X88.471 Y104.650 E3.34101
G1 X88.838 Y105.016 E3.35060
G1 X88.860 Y104.650 E3.35739
G1 X88.817 Y104.607 E3.35851
G1 X88.700 Y104.434 F6000.000
G1 X88.742 Y103.889 E3.37182 F1200.000
G1 X88.763 Y103.136 E3.39020
G1 X88.763 Y103.136 F6000.000
G1 X88.777 Y101.565 E3.41003 F1200.000
G1 F1860.000 E0.41003
G92 E0
G1 X88.823 Y99.519 F6000.000
G1 E3.10000 F1860.000
G1 X88.809 Y97.458 E3.12601 F1200.000
G1 X88.830 Y96.928 E3.13271
G1 X88.911 Y96.359 E3.13996
G1 X88.933 Y96.293 E3.14084
G1 X89.104 Y96.117 E3.14394
G1 X89.634 Y95.595 F6000.000
G1 X89.976 Y95.603 E3.15228 F1200.000
G1 X90.709 Y95.745 E3.17047
G1 X89.438 Y95.436 F6000.000
G1 X89.477 Y95.475 E3.17147 F1200.000
G1 X89.138 Y95.537 E3.17784
G1 X89.425 Y95.824 E3.18534
G1 X89.054 Y95.854 E3.19222
G1 X88.983 Y95.784 E3.19406
G1 X90.850 Y95.841 F6000.000
G1 X90.893 Y95.884 E3.19519 F1200.000
G1 X91.412 Y95.973 E3.20492
G1 X91.051 Y95.612 E3.21436
G1 X91.337 Y95.468 E3.22028
G1 X91.633 Y95.764 E3.22803
G1 X91.732 Y95.434 E3.23441
G1 X91.534 Y95.235 E3.23961
G1 X91.804 Y95.076 E3.24542
G1 X91.760 Y95.032 E3.24656
G1 X91.776 Y94.872 F6000.000
G1 X91.848 Y94.538 E3.25088 F1200.000
G1 X91.890 Y94.152 E3.25578
G1 F1860.000 E0.25578
G92 E0
G1 X91.690 Y88.890 F6000.000
G1 E3.10000 F1860.000
G1 X91.628 Y87.970 E3.12247 F1200.000
G1 X91.628 Y87.403 E3.13630
G1 X91.842 Y86.284 F6000.000
G1 X91.903 Y86.344 E3.13789 F1200.000
G1 X92.218 Y86.037 E3.14603
G1 X92.178 Y85.997 E3.14709
G1 X92.377 Y86.020 F6000.000
G1 X92.859 Y85.959 E3.15322 F1200.000
G1 X92.912 Y85.953 F6000.000
G1 X93.378 Y85.865 E3.15920 F1200.000
G1 X93.536 Y85.841 F6000.000
G1 X93.582 Y85.887 E3.16039 F1200.000
G1 X93.917 Y85.848 E3.16664
