; generated by Slic3r 1.1.7 on 2014-12-11 at 17:33:29

; perimeters extrusion width = 0.40mm
; infill extrusion width = 0.67mm
; solid infill extrusion width = 0.67mm
; top infill extrusion width = 0.67mm
; support material extrusion width = 0.40mm

G21 ; set units to millimeters
M190 S57 ; wait for bed temperature to be reached
M104 S186 ; set temperature
G28 ; home all axes Start of G Code Slic3r
 
M109 S186 ; wait for temperature to be reached
G90 ; use absolute coordinates
G92 E0
M82 ; use absolute distances for extrusion
G1 F1860.000 E-3.00000
G92 E0
G1 Z0.200 F6000.000
G1 X70.110 Y97.210 F6000.000
G1 E3.10000 F1860.000
G1 X79.326 Y91.306 E3.29896 F1200.000
G1 X80.756 Y90.613 E3.32785
G1 X80.898 Y90.564 E3.33058
G1 X82.584 Y90.214 E3.36188
G1 X115.475 Y87.696 E3.96156
G1 X126.619 Y87.071 E4.16447
G1 X127.044 Y87.122 E4.17225
G1 X127.176 Y87.142 E4.17468 F1200.000
G1 X129.369 Y87.875 E4.21670
G1 X130.559 Y88.696 E4.24299
G1 X130.707 Y88.823 E4.24653
G1 X132.174 Y90.609 E4.28855
G1 X132.832 Y92.241 E4.32053
G1 X132.916 Y92.586 E4.32699
G1 X132.897 Y95.736 E4.38425
G1 X132.642 Y96.593 E4.40051
G1 X131.852 Y98.117 E4.43172
G1 X131.027 Y99.098 E4.45502
G1 X130.711 Y99.394 E4.46289
G1 X121.188 Y107.746 E4.69315
G1 X120.016 Y108.570 E4.71921
G1 X119.886 Y108.643 E4.72191
G1 X117.669 Y109.406 E4.76454
G1 X105.392 Y111.276 E4.99029
G1 X94.949 Y112.670 E5.18181
G1 X81.443 Y112.953 E5.42740
G1 X79.664 Y112.590 E5.46040
G1 X71.580 Y109.763 E5.61610
G1 X68.807 Y107.921 E5.67662
G1 X68.674 Y107.774 E5.68023
G1 X67.442 Y105.818 E5.72225
G1 X66.979 Y104.003 E5.75629
G1 X66.940 Y103.567 E5.76426
G1 X67.449 Y100.438 E5.82188
G1 X67.853 Y99.602 E5.83876
G1 X68.833 Y98.272 E5.86879
G1 X70.064 Y97.248 E5.89790
G1 X70.241 Y97.415 F6000.000
G1 X79.457 Y91.511 E6.09686 F1200.000
G1 X80.835 Y90.843 E6.12470
G1 X80.977 Y90.794 E6.12743
G1 X82.602 Y90.456 E6.15761
G1 X115.490 Y87.938 E6.75723
G1 X126.596 Y87.313 E6.95944
G1 X127.008 Y87.362 E6.96698
G1 X127.140 Y87.382 E6.96941 F1200.000
G1 X129.290 Y88.109 E7.01066
G1 X130.401 Y88.880 E7.03525
G1 X130.548 Y89.007 E7.03878
G1 X131.983 Y90.765 E7.08003
G1 X132.597 Y92.301 E7.11011
G1 X132.680 Y92.641 E7.11647
G1 X132.661 Y95.677 E7.17167
G1 X132.413 Y96.509 E7.18744
G1 X131.652 Y97.979 E7.21753
G1 X130.857 Y98.925 E7.24000
G1 X130.551 Y99.211 E7.24762
G1 X121.028 Y107.563 E7.47788
G1 X119.898 Y108.358 E7.50300
G1 X119.768 Y108.430 E7.50570
G1 X117.631 Y109.166 E7.54679
G1 X105.359 Y111.035 E7.77245
G1 X94.944 Y112.427 E7.96348
G1 X81.461 Y112.711 E8.20863
G1 X79.744 Y112.361 E8.24048
G1 X71.660 Y109.534 E8.39618
G1 X68.987 Y107.758 E8.45451
G1 X68.854 Y107.611 E8.45812
G1 X67.651 Y105.687 E8.49937
G1 X67.221 Y103.977 E8.53143
G1 X67.182 Y103.548 E8.53925
G1 X67.673 Y100.533 E8.59479
G1 X68.045 Y99.756 E8.61045
G1 X69.009 Y98.439 E8.64012
G1 X70.195 Y97.453 E8.66816
G1 X70.372 Y97.619 F6000.000
G1 X79.588 Y91.715 E8.86712 F1200.000
G1 X80.915 Y91.072 E8.89392
G1 X81.057 Y91.023 E8.89665
G1 X82.621 Y90.698 E8.92570
G1 X115.506 Y88.181 E9.52526
G1 X126.574 Y87.555 E9.72678
G1 X126.972 Y87.602 E9.73407
G1 X127.104 Y87.622 E9.73650 F1200.000
G1 X129.210 Y88.342 E9.77696
G1 X130.242 Y89.064 E9.79986
G1 X130.390 Y89.191 E9.80340
G1 X131.791 Y90.921 E9.84386
G1 X132.362 Y92.362 E9.87205
G1 X132.443 Y92.697 E9.87831
G1 X132.426 Y95.619 E9.93144
G1 X132.185 Y96.426 E9.94674
G1 X131.452 Y97.840 E9.97570
G1 X130.687 Y98.752 E9.99733
G1 X130.391 Y99.028 E10.00470
G1 X120.868 Y107.380 E10.23497
G1 X119.780 Y108.146 E10.25914
G1 X119.650 Y108.218 E10.26184
G1 X117.593 Y108.926 E10.30140
G1 X105.326 Y110.794 E10.52698
G1 X94.938 Y112.184 E10.71750
G1 X81.479 Y112.469 E10.96223
G1 X79.824 Y112.132 E10.99292
G1 X71.740 Y109.305 E11.14862
G1 X69.167 Y107.596 E11.20476
G1 X69.034 Y107.448 E11.20838
G1 X67.861 Y105.557 E11.24884
G1 X67.462 Y103.950 E11.27893
G1 X67.425 Y103.530 E11.28661
G1 X67.897 Y100.627 E11.34006
G1 X68.257 Y99.875 E11.35523
G1 X69.186 Y98.606 E11.38381
G1 X70.326 Y97.657 E11.41078
G1 F1860.000 E8.41078
G92 E0
G1 X97.569 Y101.315 F6000.000
G1 E3.10000 F1860.000
G1 X97.940 Y101.275 E3.10679 F1200.000
G1 X98.287 Y101.133 E3.11361
G1 X106.345 Y96.667 E3.28109
G1 X106.799 Y98.697 E3.31892
G1 X106.934 Y99.072 E3.32616
G1 X107.171 Y99.388 E3.33333
G1 X107.493 Y99.598 E3.34032
G1 X107.870 Y99.676 E3.34732
G1 X108.260 Y99.618 E3.35450
G1 X108.620 Y99.447 E3.36174
G1 X115.930 Y94.761 E3.51958
G1 X116.915 Y97.008 E3.56418
G1 X117.074 Y97.290 E3.57007
G1 X117.297 Y97.527 E3.57598
G1 X117.576 Y97.686 E3.58181
G1 X117.889 Y97.751 E3.58764
G1 X118.214 Y97.721 E3.59355
G1 X118.520 Y97.614 E3.59944
G1 X125.422 Y94.404 E3.73783
G1 X125.514 Y94.545 E3.74089
G1 X116.539 Y102.417 E3.95792
G1 X114.454 Y99.546 E4.02242
G1 X114.256 Y99.321 E4.02786
G1 X114.011 Y99.144 E4.03336
G1 X113.730 Y99.042 E4.03879
G1 X113.432 Y99.026 E4.04422
G1 X113.137 Y99.093 E4.04971
G1 X112.867 Y99.223 E4.05516
G1 X104.460 Y104.259 E4.23332
G1 X103.945 Y102.462 E4.26732
G1 X103.806 Y102.126 E4.27393
G1 X103.582 Y101.840 E4.28053
G1 X103.285 Y101.645 E4.28699
G1 X102.939 Y101.563 E4.29346
G1 X102.578 Y101.597 E4.30005
G1 X102.238 Y101.727 E4.30667
G1 X94.798 Y105.592 E4.45908
G1 X93.469 Y101.091 E4.54439
G1 X93.324 Y100.751 E4.55111
G1 X93.093 Y100.465 E4.55780
G1 X92.789 Y100.273 E4.56435
G1 X92.436 Y100.198 E4.57090
G1 X92.071 Y100.242 E4.57759
G1 X91.730 Y100.384 E4.58431
G1 X81.926 Y105.891 E4.78872
G1 X80.513 Y102.151 E4.86141
G1 X80.376 Y101.873 E4.86704
G1 X80.178 Y101.632 E4.87271
G1 X79.923 Y101.459 E4.87831
G1 X79.628 Y101.370 E4.88391
G1 X79.316 Y101.367 E4.88958
G1 X79.014 Y101.436 E4.89522
G1 X74.719 Y102.858 E4.97746
G1 X74.645 Y102.703 E4.98058
G1 X83.122 Y97.273 E5.16360
G1 X84.297 Y100.968 E5.23408
G1 X84.444 Y101.297 E5.24064
G1 X84.673 Y101.574 E5.24718
G1 X84.972 Y101.761 E5.25358
G1 X85.317 Y101.835 E5.26000
G1 X85.675 Y101.795 E5.26654
G1 X86.009 Y101.661 E5.27309
G1 X95.535 Y96.543 E5.46967
G1 X96.543 Y100.387 E5.54193
G1 X96.681 Y100.736 E5.54875
G1 X96.908 Y101.032 E5.55553
G1 X97.213 Y101.233 E5.56217
G1 X97.510 Y101.301 E5.56772
G1 X97.583 Y101.069 F6000.000
G1 X97.880 Y101.037 E5.57314 F1200.000
G1 X98.182 Y100.913 E5.57907
G1 X106.236 Y96.450 E5.74646
G1 X106.359 Y96.419 E5.74877
G1 X106.409 Y96.425 E5.74970
G1 X106.525 Y96.494 E5.75214
G1 X106.580 Y96.604 E5.75438
G1 X107.033 Y98.629 E5.79210
G1 X107.150 Y98.955 E5.79840
G1 X107.339 Y99.208 E5.80413
G1 X107.587 Y99.369 E5.80951
G1 X107.877 Y99.429 E5.81489
G1 X108.189 Y99.383 E5.82062
G1 X108.502 Y99.234 E5.82693
G1 X115.805 Y94.552 E5.98463
G1 X115.928 Y94.509 E5.98699
G1 X116.075 Y94.556 E5.98981
G1 X116.149 Y94.656 E5.99206
G1 X117.132 Y96.899 E6.03659
G1 X117.271 Y97.145 E6.04172
G1 X117.449 Y97.334 E6.04644
G1 X117.663 Y97.456 E6.05091
G1 X117.903 Y97.505 E6.05537
G1 X118.162 Y97.482 E6.06010
G1 X118.428 Y97.389 E6.06522
G1 X125.922 Y93.904 E6.21547
G1 X126.038 Y93.956 E6.21777
G1 X126.061 Y93.832 E6.22006
G1 X126.229 Y93.980 E6.22414
G1 X126.278 Y94.189 E6.22804
G1 X126.176 Y94.167 E6.22994
G1 X126.175 Y94.289 E6.23217
G1 X116.694 Y102.604 E6.46142
G1 X116.587 Y102.663 E6.46364
G1 X116.433 Y102.644 E6.46646
G1 X116.347 Y102.566 E6.46856
G1 X114.264 Y99.698 E6.53300
G1 X114.092 Y99.502 E6.53775
G1 X113.896 Y99.361 E6.54213
G1 X113.681 Y99.283 E6.54629
G1 X113.453 Y99.271 E6.55045
G1 X113.218 Y99.324 E6.55483
G1 X112.982 Y99.437 E6.55958
G1 X104.577 Y104.472 E6.73770
G1 X104.414 Y104.504 E6.74073
G1 X104.290 Y104.442 E6.74325
G1 X104.229 Y104.336 E6.74547
G1 X103.716 Y102.542 E6.77938
G1 X103.594 Y102.249 E6.78514
G1 X103.416 Y102.021 E6.79041
G1 X103.187 Y101.872 E6.79537
G1 X102.922 Y101.809 E6.80033
G1 X102.633 Y101.836 E6.80560
G1 X102.337 Y101.949 E6.81136
G1 X94.902 Y105.811 E6.96367
G1 X94.771 Y105.843 E6.96613
G1 X94.631 Y105.781 E6.96892
G1 X94.567 Y105.669 E6.97126
G1 X93.240 Y101.174 E7.05647
G1 X93.114 Y100.878 E7.06232
G1 X92.930 Y100.649 E7.06767
G1 X92.696 Y100.501 E7.07270
G1 X92.425 Y100.444 E7.07773
G1 X92.133 Y100.479 E7.08307
G1 X91.836 Y100.603 E7.08892
G1 X82.038 Y106.107 E7.29322
G1 X81.914 Y106.143 E7.29557
G1 X81.769 Y106.088 E7.29838
G1 X81.702 Y105.985 E7.30062
G1 X80.290 Y102.248 E7.37324
G1 X80.171 Y102.005 E7.37815
G1 X80.012 Y101.813 E7.38268
G1 X79.817 Y101.681 E7.38697
G1 X79.591 Y101.613 E7.39126
G1 X79.342 Y101.611 E7.39578
G1 X79.079 Y101.670 E7.40069
G1 X73.990 Y103.355 E7.49814
G1 X73.856 Y103.323 E7.50065
G1 X73.762 Y103.215 E7.50325
G1 X73.751 Y103.069 E7.50590
G1 X73.798 Y102.957 E7.50811
G1 X82.999 Y97.063 E7.70675
G1 X83.119 Y97.024 E7.70905
G1 X83.256 Y97.062 E7.71163
G1 X83.351 Y97.190 E7.71453
G1 X84.524 Y100.881 E7.78493
G1 X84.652 Y101.167 E7.79064
G1 X84.835 Y101.389 E7.79586
G1 X85.065 Y101.532 E7.80078
G1 X85.329 Y101.589 E7.80570
G1 X85.615 Y101.557 E7.81092
G1 X85.906 Y101.441 E7.81663
G1 X95.427 Y96.325 E8.01312
G1 X95.584 Y96.299 E8.01601
G1 X95.703 Y96.352 E8.01838
G1 X95.767 Y96.472 E8.02085
G1 X96.775 Y100.312 E8.09301
G1 X96.894 Y100.616 E8.09895
G1 X97.076 Y100.852 E8.10437
G1 X97.310 Y101.006 E8.10946
G1 X97.525 Y101.056 E8.11347
G1 X97.732 Y101.328 F6000.000
G1 X96.431 Y100.527 F6000.000
G1 X93.641 Y97.737 E8.18518 F1200.000
G1 X93.866 Y97.617 E8.18982
G1 X96.292 Y100.042 E8.25218
G1 X96.169 Y99.574 E8.26097
G1 X94.091 Y97.496 E8.31440
G1 X94.315 Y97.375 E8.31904
G1 X96.046 Y99.106 E8.36354
G1 X95.923 Y98.638 E8.37233
G1 X94.540 Y97.255 E8.40790
G1 X94.764 Y97.134 E8.41253
G1 X95.800 Y98.170 E8.43917
G1 X95.678 Y97.702 E8.44797
G1 X94.989 Y97.013 E8.46567
G1 X95.214 Y96.893 E8.47030
G1 X95.555 Y97.234 E8.47907
G1 F1860.000 E5.47907
G92 E0
G1 X93.048 Y100.252 F6000.000
G1 E3.10000 F1860.000
G1 X91.620 Y98.824 E3.13672 F1200.000
G1 X91.395 Y98.944 E3.14135
G1 X92.504 Y100.053 E3.16985
G1 X92.177 Y100.072 E3.17579
G1 X91.171 Y99.065 E3.20167
G1 X90.946 Y99.186 E3.20630
G1 X91.903 Y100.143 E3.23090
G1 X91.660 Y100.245 E3.23570
G1 X90.721 Y99.306 E3.25982
G1 X90.497 Y99.427 E3.26445
G1 X91.438 Y100.369 E3.28866
G1 X91.217 Y100.493 E3.29327
G1 X90.272 Y99.548 E3.31757
G1 X90.048 Y99.669 E3.32220
G1 X90.996 Y100.617 E3.34659
G1 X90.775 Y100.741 E3.35120
G1 X89.823 Y99.789 E3.37568
G1 X89.598 Y99.910 E3.38031
G1 X90.554 Y100.866 E3.40488
G1 X90.333 Y100.990 E3.40949
G1 X89.374 Y100.031 E3.43415
G1 X89.149 Y100.151 E3.43878
G1 X90.112 Y101.114 E3.46353
G1 X89.891 Y101.238 E3.46814
G1 X88.925 Y100.272 E3.49298
G1 X88.700 Y100.393 E3.49762
G1 X89.670 Y101.362 E3.52254
G1 X89.449 Y101.487 E3.52715
G1 X88.475 Y100.513 E3.55217
G1 X88.251 Y100.634 E3.55681
G1 X89.227 Y101.611 E3.58192
G1 X89.006 Y101.735 E3.58653
G1 X88.026 Y100.755 E3.61172
G1 X87.802 Y100.876 E3.61636
G1 X88.785 Y101.859 E3.64165
G1 X88.564 Y101.983 E3.64626
G1 X87.577 Y100.996 E3.67164
G1 X87.352 Y101.117 E3.67627
G1 X88.343 Y102.108 E3.70174
G1 X88.122 Y102.232 E3.70635
G1 X87.128 Y101.238 E3.73191
G1 X86.903 Y101.358 E3.73654
G1 X87.901 Y102.356 E3.76219
G1 X87.680 Y102.480 E3.76680
G1 X86.679 Y101.479 E3.79254
G1 X86.454 Y101.600 E3.79718
G1 X87.459 Y102.604 E3.82300
G1 X87.237 Y102.729 E3.82761
G1 X86.229 Y101.720 E3.85353
G1 X85.998 Y101.834 E3.85822
G1 X87.016 Y102.853 E3.88441
G1 X86.795 Y102.977 E3.88902
G1 X85.751 Y101.933 E3.91587
G1 X85.450 Y101.977 E3.92140
G1 X86.574 Y103.101 E3.95029
G1 X86.353 Y103.225 E3.95490
G1 X85.069 Y101.941 E3.98792
G1 X84.151 Y101.023 F6000.000
G1 X81.576 Y98.448 E4.05411 F1200.000
G1 X81.787 Y98.314 E4.05865
G1 X83.990 Y100.517 E4.11530
G1 X83.829 Y100.011 E4.12495
G1 X81.997 Y98.179 E4.17205
G1 X82.208 Y98.044 E4.17659
G1 X83.668 Y99.504 E4.21414
G1 X83.507 Y98.998 E4.22380
G1 X82.418 Y97.909 E4.25180
G1 X82.628 Y97.774 E4.25634
G1 X83.346 Y98.492 E4.27479
G1 X83.185 Y97.986 E4.28445
G1 X82.839 Y97.639 E4.29335
G1 X81.366 Y98.583 F6000.000
G1 X86.132 Y103.350 E4.41589 F1200.000
G1 X85.911 Y103.474 E4.42050
G1 X81.155 Y98.718 E4.54276
G1 X80.945 Y98.853 E4.54731
G1 X85.690 Y103.598 E4.66930
G1 X85.469 Y103.722 E4.67391
G1 X80.734 Y98.988 E4.79562
G1 X80.524 Y99.123 E4.80017
G1 X85.247 Y103.846 E4.92161
G1 X85.026 Y103.971 E4.92622
G1 X80.313 Y99.257 E5.04739
G1 X80.103 Y99.392 E5.05193
G1 X84.805 Y104.095 E5.17283
G1 X84.584 Y104.219 E5.17744
G1 X79.892 Y99.527 E5.29806
G1 X79.682 Y99.662 E5.30260
G1 X84.363 Y104.343 E5.42295
G1 X84.142 Y104.467 E5.42756
G1 X79.471 Y99.797 E5.54764
G1 X79.261 Y99.932 E5.55218
G1 X83.921 Y104.592 E5.67198
G1 X83.700 Y104.716 E5.67659
G1 X79.050 Y100.066 E5.79612
G1 X78.840 Y100.201 E5.80067
G1 X79.939 Y101.301 E5.82893
G1 X79.506 Y101.213 E5.83696
G1 X78.630 Y100.336 E5.85950
G1 X78.419 Y100.471 E5.86404
G1 X79.185 Y101.237 E5.88374
G1 X78.909 Y101.306 E5.88891
G1 X78.209 Y100.606 E5.90692
G1 X77.998 Y100.741 E5.91147
G1 X78.650 Y101.392 E5.92822
G1 X78.390 Y101.478 E5.93319
G1 X77.788 Y100.875 E5.94868
G1 X77.577 Y101.010 E5.95323
G1 X78.131 Y101.564 E5.96747
G1 X77.871 Y101.650 E5.97243
G1 X77.367 Y101.145 E5.98541
G1 X77.156 Y101.280 E5.98996
G1 X77.612 Y101.736 E6.00168
G1 X77.353 Y101.822 E6.00664
G1 X76.946 Y101.415 E6.01710
G1 X76.735 Y101.550 E6.02165
G1 X77.093 Y101.908 E6.03085
G1 X76.834 Y101.993 E6.03582
G1 X76.525 Y101.684 E6.04376
G1 X76.516 Y102.021 E6.04989
G1 X76.574 Y102.079 E6.05138
G1 F1860.000 E3.05138
G92 E0
G1 X80.587 Y101.949 F6000.000
G1 E3.10000 F1860.000
G1 X83.479 Y104.840 E3.17433 F1200.000
G1 X83.258 Y104.964 E3.17894
G1 X80.823 Y102.529 E3.24154
G1 X81.032 Y103.084 F6000.000
G1 X83.036 Y105.088 E3.29306 F1200.000
G1 X82.815 Y105.213 E3.29767
G1 X81.242 Y103.639 E3.33811
G1 X81.452 Y104.194 F6000.000
G1 X82.594 Y105.337 E3.36749 F1200.000
G1 X82.373 Y105.461 E3.37210
G1 X81.661 Y104.749 E3.39040
G1 X81.871 Y105.304 F6000.000
G1 X82.152 Y105.585 E3.39762 F1200.000
G1 F1860.000 E0.39762
G92 E0
G1 X93.959 Y102.199 F6000.000
G1 E3.10000 F1860.000
G1 X96.363 Y104.603 E3.16181 F1200.000
G1 X96.590 Y104.485 E3.16646
G1 X93.814 Y101.709 E3.23783
G1 X93.670 Y101.219 E3.24711
G1 X96.818 Y104.367 E3.32804
G1 X96.136 Y104.721 F6000.000
G1 X94.104 Y102.689 E3.38029 F1200.000
G1 X94.248 Y103.179 E3.38957
G1 X95.909 Y104.839 E3.43226
G1 X95.681 Y104.957 E3.43692
G1 X94.393 Y103.668 E3.47004
G1 X94.537 Y104.158 E3.47933
G1 X95.454 Y105.075 E3.50290
G1 X95.227 Y105.193 E3.50755
G1 X94.682 Y104.648 E3.52156
G1 X94.827 Y105.138 E3.53085
G1 X95.000 Y105.311 E3.53530
G1 F1860.000 E0.53530
G92 E0
G1 X93.431 Y100.635 F6000.000
G1 E3.10000 F1860.000
G1 X97.045 Y104.249 E3.19290 F1200.000
G1 X97.272 Y104.131 E3.19756
G1 X91.845 Y98.703 E3.33709
G1 X92.069 Y98.582 E3.34173
G1 X97.499 Y104.013 E3.48133
G1 X97.727 Y103.894 E3.48599
G1 X92.294 Y98.462 E3.62566
G1 X92.518 Y98.341 E3.63030
G1 X97.954 Y103.776 E3.77004
G1 X98.181 Y103.658 E3.77470
G1 X92.743 Y98.220 E3.91450
G1 X92.968 Y98.100 E3.91914
G1 X98.408 Y103.540 E4.05902
G1 X98.636 Y103.422 E4.06367
G1 X93.192 Y97.979 E4.20362
G1 X93.417 Y97.858 E4.20825
G1 X98.863 Y103.304 E4.34826
G1 X99.090 Y103.186 E4.35292
G1 X97.322 Y101.419 E4.39836
G1 X97.706 Y101.457 E4.40537
G1 X99.317 Y103.068 E4.44679
G1 X99.545 Y102.950 E4.45145
G1 X98.009 Y101.415 E4.49091
G1 X98.255 Y101.315 E4.49573
G1 X99.772 Y102.832 E4.53473
G1 X99.999 Y102.714 E4.53939
G1 X98.486 Y101.201 E4.57828
G1 X98.708 Y101.078 E4.58290
G1 X100.226 Y102.596 E4.62193
G1 X100.454 Y102.478 E4.62658
G1 X98.930 Y100.955 E4.66574
G1 X99.153 Y100.832 E4.67036
G1 X100.681 Y102.360 E4.70964
G1 X100.908 Y102.242 E4.71430
G1 X99.375 Y100.708 E4.75372
G1 X99.597 Y100.585 E4.75833
G1 X101.135 Y102.124 E4.79788
G1 X101.363 Y102.006 E4.80254
G1 X99.819 Y100.462 E4.84222
G1 X100.041 Y100.339 E4.84683
G1 X101.590 Y101.887 E4.88664
G1 X101.817 Y101.769 E4.89130
G1 X100.263 Y100.216 E4.93124
G1 X100.486 Y100.093 E4.93585
G1 X102.044 Y101.651 E4.97592
G1 X102.281 Y101.543 E4.98066
G1 X100.708 Y99.970 E5.02111
G1 X100.930 Y99.846 E5.02573
G1 X102.531 Y101.448 E5.06689
G1 X102.844 Y101.415 E5.07261
G1 X101.152 Y99.723 E5.11611
G1 X101.374 Y99.600 E5.12073
G1 X103.251 Y101.476 E5.16897
G1 F1860.000 E2.16897
G92 E0
G1 X104.682 Y103.944 F6000.000
G1 E3.10000 F1860.000
G1 X104.472 Y103.734 E3.10542 F1200.000
G1 X104.333 Y103.250 E3.11456
