; generated by Slic3r 1.1.7 on 2014-12-10 at 16:41:45

; perimeters extrusion width = 0.42mm
; infill extrusion width = 0.74mm
; solid infill extrusion width = 0.71mm
; top infill extrusion width = 0.71mm
; support material extrusion width = 0.42mm

G21 ; set units to millimeters
M190 S65 ; wait for bed temperature to be reached
M104 S186 ; set temperature
G28 ; home all axes
M109 S186 ; wait for temperature to be reached
G90 ; use absolute coordinates
G92 E0
M82 ; use absolute distances for extrusion
G1 F1860.000 E-3.00000
G92 E0
G1 Z0.200 F6000.000
G1 X84.791 Y76.982 F6000.000
G1 E3.10000 F1860.000
G1 X86.450 Y75.370 E3.14280 F1200.000
G1 X89.017 Y74.311 E3.19416
G1 X92.297 Y73.703 E3.25589
G1 X93.975 Y73.468 E3.28724
G1 X95.313 Y73.398 E3.31201
G1 X96.761 Y73.410 E3.33881
G1 X107.612 Y74.227 E3.54013 F1200.000
G1 X108.465 Y74.400 E3.55623
G1 X110.649 Y75.258 E3.59964
G1 X116.411 Y78.810 E3.72485
G1 X117.895 Y80.052 E3.76066
G1 X118.497 Y80.725 E3.77737
G1 X119.470 Y82.140 E3.80913
G1 X120.163 Y83.533 E3.83792
G1 X120.770 Y85.024 E3.86770
G1 X121.305 Y86.700 E3.90026
G1 X121.655 Y88.154 E3.92792
G1 X122.325 Y91.498 E3.99102
G1 X123.444 Y102.389 E4.19355
G1 X123.335 Y104.465 E4.23201
G1 X121.827 Y111.508 E4.36526
G1 X120.002 Y117.153 E4.47501
G1 X119.897 Y117.361 E4.47934
G1 X119.183 Y118.490 E4.50404
G1 X117.070 Y121.197 E4.56758
G1 X115.354 Y122.749 E4.61038
G1 X112.930 Y123.686 E4.65846
G1 X105.952 Y124.919 E4.78954
G1 X104.546 Y125.018 E4.81563
G1 X103.880 Y124.971 E4.82798
G1 X103.295 Y124.900 E4.83889
G1 X102.709 Y124.807 E4.84985
G1 X101.644 Y124.570 E4.87003
G1 X100.696 Y124.284 E4.88836
G1 X99.872 Y123.975 E4.90464
G1 X99.183 Y123.671 E4.91858
G1 X98.614 Y123.388 E4.93033
G1 X97.584 Y122.802 E4.95225
G1 X96.815 Y122.305 E4.96920
G1 X86.009 Y114.716 E5.21348
G1 X85.009 Y113.927 E5.23704
G1 X83.542 Y112.222 E5.27865
G1 X78.222 Y103.410 E5.46910
G1 X77.638 Y102.176 E5.49435
G1 X77.325 Y101.290 E5.51172
G1 X76.938 Y99.034 E5.55407
G1 X76.940 Y97.408 E5.58416
G1 X77.051 Y94.900 E5.63061
G1 X77.690 Y91.208 E5.69993
G1 X78.954 Y86.811 E5.78457
G1 X79.406 Y85.653 E5.80757
G1 X81.746 Y81.183 E5.90089
G1 X84.754 Y77.033 E5.99572
G1 X84.991 Y77.127 F6000.000
G1 X86.625 Y75.550 E6.03772 F1200.000
G1 X89.062 Y74.554 E6.08643
G1 X92.336 Y73.947 E6.14804
G1 X93.990 Y73.715 E6.17894
G1 X95.314 Y73.646 E6.20346
G1 X96.744 Y73.656 E6.22992
G1 X107.563 Y74.469 E6.43064 F1200.000
G1 X108.416 Y74.642 E6.44674
G1 X110.520 Y75.469 E6.48857
G1 X116.281 Y79.020 E6.61376
G1 X117.711 Y80.217 E6.64826
G1 X118.313 Y80.890 E6.66496
G1 X119.250 Y82.253 E6.69556
G1 X119.935 Y83.629 E6.72400
G1 X120.535 Y85.103 E6.75344
G1 X121.065 Y86.759 E6.78561
G1 X121.413 Y88.206 E6.81314
G1 X122.079 Y91.524 E6.87575
G1 X123.198 Y102.414 E7.07828
G1 X123.093 Y104.414 E7.11533
G1 X121.590 Y111.435 E7.24817
G1 X119.781 Y117.042 E7.35716
G1 X119.676 Y117.251 E7.36148
G1 X118.989 Y118.338 E7.38528
G1 X116.875 Y121.045 E7.44882
G1 X115.186 Y122.562 E7.49082
G1 X112.887 Y123.443 E7.53637
G1 X105.909 Y124.676 E7.66745
G1 X104.554 Y124.771 E7.69258
G1 X103.910 Y124.725 E7.70454
G1 X103.324 Y124.655 E7.71545
G1 X102.758 Y124.565 E7.72604
G1 X101.712 Y124.332 E7.74588
G1 X100.779 Y124.051 E7.76390
G1 X99.969 Y123.747 E7.77990
G1 X99.291 Y123.448 E7.79362
G1 X98.214 Y122.888 E7.81608
G1 X97.716 Y122.593 E7.82680
G1 X96.952 Y122.099 E7.84362
G1 X86.159 Y114.520 E8.08761
G1 X85.167 Y113.737 E8.11098
G1 X83.753 Y112.095 E8.15107
G1 X78.433 Y103.282 E8.34152
G1 X77.871 Y102.093 E8.36584
G1 X77.558 Y101.208 E8.38322
G1 X77.185 Y99.034 E8.42401
G1 X77.187 Y97.412 E8.45402
G1 X77.295 Y94.939 E8.49983
G1 X77.928 Y91.276 E8.56859
G1 X79.192 Y86.879 E8.65323
G1 X79.627 Y85.763 E8.67539
G1 X81.946 Y81.329 E8.76797
G1 X84.954 Y77.179 E8.86280
G1 X85.191 Y77.273 F6000.000
G1 X86.799 Y75.732 E8.90399 F1200.000
G1 X89.107 Y74.797 E8.95006
G1 X92.375 Y74.191 E9.01155
G1 X94.005 Y73.962 E9.04200
G1 X95.315 Y73.893 E9.06628
G1 X96.727 Y73.903 E9.09239
G1 X107.514 Y74.712 E9.29252 F1200.000
G1 X108.367 Y74.884 E9.30862
G1 X110.391 Y75.680 E9.34885
G1 X116.151 Y79.230 E9.47403
G1 X117.526 Y80.382 E9.50721
G1 X118.129 Y81.055 E9.52392
G1 X119.030 Y82.366 E9.55335
G1 X119.707 Y83.725 E9.58144
G1 X120.301 Y85.181 E9.61054
G1 X120.825 Y86.817 E9.64232
G1 X121.171 Y88.257 E9.66972
G1 X121.833 Y91.549 E9.73184
G1 X122.952 Y102.439 E9.93437
G1 X122.851 Y104.363 E9.97002
G1 X121.354 Y111.363 E10.10245
G1 X119.560 Y116.931 E10.21067
G1 X119.455 Y117.140 E10.21499
G1 X118.794 Y118.186 E10.23789
G1 X116.680 Y120.892 E10.30142
G1 X115.019 Y122.375 E10.34261
G1 X112.844 Y123.199 E10.38564
G1 X105.866 Y124.432 E10.51672
G1 X104.473 Y124.521 E10.54255
G1 X103.939 Y124.480 E10.55246
G1 X102.808 Y124.323 E10.57359
G1 X101.780 Y124.094 E10.59307
G1 X101.342 Y123.970 E10.60148
G1 X100.488 Y123.683 E10.61816
G1 X100.067 Y123.520 E10.62652
G1 X99.399 Y123.226 E10.64001
G1 X98.848 Y122.952 E10.65139
G1 X98.083 Y122.525 E10.66762
G1 X96.907 Y121.771 E10.69346
G1 X86.309 Y114.323 E10.93309
G1 X85.325 Y113.547 E10.95628
G1 X83.965 Y111.967 E10.99484
G1 X78.645 Y103.154 E11.18529
G1 X78.104 Y102.011 E11.20869
G1 X77.791 Y101.125 E11.22606
G1 X77.432 Y99.035 E11.26530
G1 X77.435 Y97.417 E11.29524
G1 X77.539 Y94.977 E11.34040
G1 X78.165 Y91.344 E11.40861
G1 X79.429 Y86.947 E11.49325
G1 X79.848 Y85.874 E11.51456
G1 X82.146 Y81.474 E11.60640
G1 X85.154 Y77.324 E11.70123
G1 F1860.000 E8.70123
G92 E0
G1 X104.010 Y117.923 F6000.000
G1 E3.10000 F1860.000
G1 X103.949 Y118.077 E3.10307 F1200.000
G1 X103.512 Y117.988 E3.11131
G1 X103.009 Y117.845 E3.12099
G1 X102.564 Y117.685 E3.12974
G1 X102.178 Y117.519 E3.13752
G1 X101.849 Y117.360 E3.14427
G1 X101.221 Y117.007 E3.15760
G1 X100.540 Y116.566 E3.17260
G1 X99.756 Y116.008 E3.19042
G1 X96.411 Y113.456 E3.26825
G1 X96.518 Y113.301 E3.27173
G1 X103.956 Y117.890 E3.43343
G1 X103.874 Y118.018 F6000.000
G1 F1860.000 E0.43343
G92 E0
G1 X89.584 Y108.933 F6000.000
G1 E3.10000 F1860.000
G1 X91.187 Y110.000 E3.13563 F1200.000
G1 X94.680 Y112.190 E3.21191
G1 X96.382 Y113.322 E3.24971
G1 F1860.000 E0.24971
G92 E0
G1 X98.456 Y114.754 F6000.000
G1 E3.10000 F1860.000
G1 X100.350 Y116.042 E3.15584 F1200.000
G1 X101.398 Y116.714 E3.18620
G1 X102.307 Y117.237 E3.21175
G1 X103.233 Y117.691 E3.23690
G1 F1860.000 E0.23690
G92 E0
G1 X98.456 Y114.754 F6000.000
G1 E3.10000 F1860.000
G1 X97.691 Y114.226 E3.11173 F1200.000
G1 F1860.000 E0.11173
G92 E0
G1 X113.870 Y114.341 F6000.000
G1 E3.10000 F1860.000
G1 X113.975 Y114.132 E3.11183 F1200.000
G1 X114.182 Y112.208 F6000.000
G1 X111.756 Y117.047 E3.38607 F1200.000
G1 X111.175 Y116.696 E3.42047
G1 X113.604 Y111.851 E3.69505
G1 X113.025 Y111.494 E3.72948
G1 X111.082 Y115.370 E3.94913
G1 X110.504 Y115.013 E3.98356
G1 X112.447 Y111.137 E4.20321
G1 X111.869 Y110.780 E4.23764
G1 X109.926 Y114.657 E4.45730
G1 X109.347 Y114.300 E4.49172
G1 X111.290 Y110.423 E4.71138
G1 X110.712 Y110.067 E4.74580
G1 X108.769 Y113.943 E4.96546
G1 X108.191 Y113.586 E4.99988
G1 X110.134 Y109.710 E5.21954
G1 X109.555 Y109.353 E5.25396
G1 X107.612 Y113.229 E5.47362
G1 X107.034 Y112.872 E5.50805
G1 X108.977 Y108.996 E5.72770
G1 X108.399 Y108.639 E5.76213
G1 X106.456 Y112.516 E5.98178
G1 X105.877 Y112.159 E6.01621
G1 X107.820 Y108.282 E6.23587
G1 X107.242 Y107.926 E6.27029
G1 X105.299 Y111.802 E6.48995
G1 X104.721 Y111.445 E6.52437
G1 X106.664 Y107.569 E6.74403
G1 X106.085 Y107.212 E6.77845
G1 X104.142 Y111.088 E6.99811
G1 X103.564 Y110.731 E7.03253
G1 X105.507 Y106.855 E7.25219
G1 X104.929 Y106.498 E7.28662
G1 X102.986 Y110.375 E7.50627
G1 X102.407 Y110.018 E7.54070
G1 X104.350 Y106.141 E7.76035
G1 X103.772 Y105.785 E7.79478
G1 X101.829 Y109.661 E8.01444
G1 X101.251 Y109.304 E8.04886
G1 X103.194 Y105.428 E8.26852
G1 X102.615 Y105.071 E8.30294
G1 X100.672 Y108.947 E8.52260
G1 X100.094 Y108.590 E8.55702
G1 X102.037 Y104.714 E8.77668
G1 X101.459 Y104.357 E8.81111
G1 X99.516 Y108.234 E9.03076
G1 X98.937 Y107.877 E9.06519
G1 X100.880 Y104.000 E9.28484
G1 X100.302 Y103.644 E9.31927
G1 X98.359 Y107.520 E9.53893
G1 X97.781 Y107.163 E9.57335
G1 X99.724 Y103.287 E9.79301
G1 X99.145 Y102.930 E9.82743
G1 X97.202 Y106.806 E10.04709
G1 X96.624 Y106.449 E10.08151
G1 X98.567 Y102.573 E10.30117
G1 X97.988 Y102.216 E10.33559
G1 X96.046 Y106.093 E10.55525
G1 X95.467 Y105.736 E10.58968
G1 X97.410 Y101.859 E10.80933
G1 X96.832 Y101.503 E10.84376
G1 X94.889 Y105.379 E11.06341
G1 X94.311 Y105.022 E11.09784
G1 X96.253 Y101.146 E11.31750
G1 X95.675 Y100.789 E11.35192
G1 X93.732 Y104.665 E11.57158
G1 X93.154 Y104.309 E11.60600
G1 X95.097 Y100.432 E11.82566
G1 X94.518 Y100.075 E11.86008
G1 X92.576 Y103.952 E12.07974
G1 X91.997 Y103.595 E12.11417
G1 X93.940 Y99.718 E12.33382
G1 X93.362 Y99.362 E12.36825
G1 X91.419 Y103.238 E12.58790
G1 X90.841 Y102.881 E12.62233
G1 X92.783 Y99.005 E12.84199
G1 X92.205 Y98.648 E12.87641
G1 X90.262 Y102.524 E13.09607
G1 X89.684 Y102.168 E13.13049
G1 X91.627 Y98.291 E13.35015
G1 X91.048 Y97.934 E13.38458
G1 X89.106 Y101.811 E13.60423
G1 X88.527 Y101.454 E13.63866
G1 X90.470 Y97.577 E13.85831
G1 X89.892 Y97.221 E13.89274
G1 X87.949 Y101.097 E14.11239
G1 X87.370 Y100.740 E14.14682
G1 X89.313 Y96.864 E14.36648
G1 X88.735 Y96.507 E14.40090
G1 X86.792 Y100.383 E14.62056
G1 X86.214 Y100.027 E14.65498
G1 X88.157 Y96.150 E14.87464
G1 X87.578 Y95.793 E14.90906
G1 X85.635 Y99.670 E15.12872
G1 X85.057 Y99.313 E15.16315
G1 X87.000 Y95.436 E15.38280
G1 X86.422 Y95.080 E15.41723
G1 X83.993 Y99.925 E15.69181
G1 X84.600 Y100.225 E15.72610
G1 X84.571 Y100.282 E15.72932
G1 X83.680 Y99.040 E15.80678
G1 X85.843 Y94.723 E16.05142
G1 X85.265 Y94.366 E16.08585
G1 X83.681 Y97.527 E16.26495
G1 X83.708 Y95.961 F6000.000
G1 X84.687 Y94.009 E16.37555 F1200.000
G1 X84.072 Y93.724 E16.40986
G1 X84.099 Y93.670 E16.41293
G1 X84.169 Y93.071 F6000.000
G1 X89.698 Y82.039 E16.80076 F1200.000
G1 X90.079 Y81.279 F6000.000
G1 X90.250 Y80.939 E16.81271 F1200.000
G1 X91.286 Y80.746 E16.84583
G1 X84.887 Y93.513 E17.29470
G1 X85.604 Y93.956 E17.32120
G1 X92.322 Y80.553 E17.79241
G1 X93.358 Y80.361 E17.82554
G1 X86.322 Y94.399 E18.31909
G1 X87.040 Y94.842 E18.34560
G1 X94.379 Y80.198 E18.86044
G1 X95.348 Y80.140 E18.89094
G1 X87.757 Y95.285 E19.42339
G1 X88.475 Y95.727 E19.44990
G1 X96.290 Y80.135 E19.99809
G1 X97.197 Y80.200 E20.02667
G1 X89.193 Y96.170 E20.58813
G1 X89.910 Y96.613 E20.61464
G1 X98.101 Y80.272 E21.18915
G1 X98.997 Y80.359 E21.21744
G1 X90.628 Y97.056 E21.80445
G1 X91.346 Y97.499 E21.83096
G1 X99.817 Y80.597 E22.42517
G1 X100.777 Y80.557 E22.45536
G1 X92.063 Y97.941 E23.06655
G1 X92.781 Y98.384 E23.09305
G1 X101.683 Y80.623 E23.71748
G1 X102.597 Y80.674 E23.74625
G1 X93.499 Y98.827 E24.38446
G1 X94.216 Y99.270 E24.41096
G1 X103.473 Y80.801 E25.06028
G1 X104.437 Y80.752 E25.09062
G1 X94.934 Y99.713 E25.75722
G1 X95.652 Y100.155 E25.78373
G1 X105.361 Y80.783 E26.46479
G1 X106.275 Y80.835 E26.49357
G1 X96.370 Y100.598 E27.18841
G1 X97.087 Y101.041 E27.21491
G1 X107.128 Y81.007 E27.91925
G1 X107.847 Y81.448 E27.94575
G1 X97.805 Y101.484 E28.65017
G1 X98.523 Y101.927 E28.67668
G1 X108.565 Y81.890 E29.38111
G1 X109.282 Y82.333 E29.40761
G1 X99.240 Y102.369 E30.11204
G1 X99.958 Y102.812 E30.13854
G1 X110.000 Y82.776 E30.84297
G1 X110.718 Y83.219 E30.86947
G1 X100.676 Y103.255 E31.57390
G1 X101.393 Y103.698 E31.60040
G1 X111.435 Y83.662 E32.30483
G1 X112.153 Y84.104 E32.33133
G1 X102.111 Y104.141 E33.03576
G1 X102.829 Y104.583 E33.06226
G1 X112.871 Y84.547 E33.76669
G1 X113.473 Y85.220 E33.79508
G1 X103.546 Y105.026 E34.49141
G1 X104.264 Y105.469 E34.51791
G1 X113.949 Y86.146 E35.19726
G1 X114.377 Y87.165 E35.23202
G1 X104.982 Y105.912 E35.89109
G1 X105.699 Y106.355 E35.91760
G1 X114.754 Y88.289 E36.55273
G1 X115.060 Y89.553 E36.59359
G1 X106.417 Y106.797 E37.19988
G1 X107.135 Y107.240 E37.22638
G1 X115.339 Y90.870 E37.80192
G1 X115.619 Y92.187 E37.84425
G1 X107.852 Y107.683 E38.38903
G1 X108.570 Y108.126 E38.41554
G1 X115.631 Y94.036 E38.91088
G1 X115.643 Y95.888 E38.96907
G1 X109.288 Y108.569 E39.41489
G1 X110.005 Y109.011 E39.44140
G1 X115.770 Y97.509 E39.84578
G1 X116.031 Y98.862 E39.88909
G1 X110.723 Y109.454 E40.26147
G1 X111.441 Y109.897 E40.28798
G1 X116.354 Y100.093 E40.63265
G1 X116.562 Y101.553 E40.67899
G1 X112.158 Y110.340 E40.98791
G1 X112.876 Y110.782 E41.01441
G1 X115.837 Y104.875 E41.22210
G1 X116.429 Y103.693 F6000.000
G1 X116.738 Y103.078 E41.24374 F1200.000
G1 F1860.000 E38.24374
G92 E0
G1 X115.652 Y107.119 F6000.000
G1 E3.10000 F1860.000
G1 X113.594 Y111.225 E3.24438 F1200.000
G1 X114.311 Y111.668 E3.27089
G1 X115.379 Y109.537 E3.34582
G1 F1860.000 E0.34582
G92 E0
G1 X85.433 Y88.673 F6000.000
G1 E3.10000 F1860.000
G1 X87.204 Y85.140 E3.22422 F1200.000
M106 S230
M140 S50 ; set bed temperature
G1 F1860.000 E0.22422
G92 E0
G1 Z0.370 F6000.000
G1 X84.526 Y91.881 F6000.000
G1 E3.10000 F1860.000
G1 X84.491 Y91.950 E3.10336 F1650.000
G1 F1860.000 E0.10336
G92 E0
G1 X83.970 Y94.514 F6000.000
G1 E3.10000 F1860.000
G1 X85.118 Y92.223 E3.21129 F1650.000
G1 X85.702 Y92.583 E3.24106
G1 X84.433 Y95.113 E3.36399
G1 X85.017 Y95.473 E3.39377
G1 X86.285 Y92.943 E3.51670
G1 X86.868 Y93.303 E3.54647
G1 X85.600 Y95.833 E3.66940
G1 X86.184 Y96.193 E3.69917
G1 X87.452 Y93.663 E3.82210
G1 X88.035 Y94.023 E3.85187
G1 X86.767 Y96.553 E3.97480
G1 X87.350 Y96.913 E4.00458
G1 X88.618 Y94.383 E4.12750
G1 X89.202 Y94.743 E4.15728
G1 X87.934 Y97.273 E4.28021
G1 X88.517 Y97.633 E4.30998
G1 X89.785 Y95.103 E4.43291
G1 X90.369 Y95.463 E4.46268
G1 X89.100 Y97.993 E4.58561
G1 X89.684 Y98.353 E4.61539
G1 X90.952 Y95.823 E4.73831
G1 X91.535 Y96.182 E4.76809
G1 X90.267 Y98.713 E4.89102
G1 X90.851 Y99.073 E4.92079
G1 X92.119 Y96.542 E5.04372
G1 X92.702 Y96.902 E5.07349
G1 X91.434 Y99.433 E5.19642
G1 X92.017 Y99.792 E5.22620
G1 X93.285 Y97.262 E5.34912
G1 X93.869 Y97.622 E5.37890
G1 X92.601 Y100.152 E5.50183
G1 X93.184 Y100.512 E5.53160
G1 X94.452 Y97.982 E5.65453
G1 X95.036 Y98.342 E5.68430
G1 X93.767 Y100.872 E5.80723
G1 X94.351 Y101.232 E5.83701
G1 X95.619 Y98.702 E5.95993
G1 X96.202 Y99.062 E5.98971
G1 X94.934 Y101.592 E6.11264
G1 X95.518 Y101.952 E6.14241
G1 X96.786 Y99.422 E6.26534
G1 X97.369 Y99.782 E6.29511
G1 X96.101 Y102.312 E6.41804
G1 X96.684 Y102.672 E6.44782
G1 X97.953 Y100.142 E6.57074
G1 X98.536 Y100.502 E6.60052
G1 X97.268 Y103.032 E6.72345
G1 X97.851 Y103.392 E6.75322
G1 X99.119 Y100.862 E6.87615
G1 X99.703 Y101.222 E6.90592
G1 X98.434 Y103.752 E7.02885
G1 X99.018 Y104.112 E7.05863
G1 X100.286 Y101.582 E7.18155
G1 X100.869 Y101.942 E7.21133
G1 X99.601 Y104.472 E7.33426
G1 X100.185 Y104.832 E7.36403
G1 X101.453 Y102.301 E7.48696
G1 X102.036 Y102.661 E7.51673
G1 X100.768 Y105.192 E7.63966
G1 X101.351 Y105.552 E7.66944
G1 X102.620 Y103.021 E7.79237
G1 X103.203 Y103.381 E7.82214
G1 X101.935 Y105.911 E7.94507
G1 X102.518 Y106.271 E7.97484
G1 X103.786 Y103.741 E8.09777
G1 X104.370 Y104.101 E8.12754
G1 X103.102 Y106.631 E8.25047
G1 X103.685 Y106.991 E8.28025
G1 X104.953 Y104.461 E8.40318
G1 X105.536 Y104.821 E8.43295
G1 X104.268 Y107.351 E8.55588
G1 X104.852 Y107.711 E8.58565
G1 X106.120 Y105.181 E8.70858
G1 X106.703 Y105.541 E8.73836
G1 X105.435 Y108.071 E8.86129
G1 X106.018 Y108.431 E8.89106
G1 X107.287 Y105.901 E9.01399
G1 X107.870 Y106.261 E9.04376
G1 X106.602 Y108.791 E9.16669
G1 X107.185 Y109.151 E9.19646
G1 X108.453 Y106.621 E9.31939
G1 X109.037 Y106.981 E9.34917
G1 X107.769 Y109.511 E9.47210
G1 X108.352 Y109.871 E9.50187
G1 X109.620 Y107.341 E9.62480
G1 X110.203 Y107.701 E9.65457
G1 X108.935 Y110.231 E9.77750
G1 X109.519 Y110.591 E9.80727
G1 X110.787 Y108.061 E9.93020
G1 X111.370 Y108.420 E9.95997
G1 X110.102 Y110.951 E10.08290
G1 X110.685 Y111.311 E10.11267
G1 X111.954 Y108.780 E10.23560
G1 X112.537 Y109.140 E10.26537
G1 X111.269 Y111.671 E10.38830
G1 X111.852 Y112.030 E10.41807
G1 X113.120 Y109.500 E10.54100
G1 X113.704 Y109.860 E10.57077
G1 X112.436 Y112.390 E10.69370
G1 X113.019 Y112.750 E10.72348
G1 X114.287 Y110.220 E10.84640
G1 X114.871 Y110.580 E10.87618
G1 X113.602 Y113.110 E10.99911
G1 X114.195 Y113.452 E11.02882
G1 X114.348 Y113.146 E11.04371
G1 F1860.000 E8.04371
G92 E0
