; generated by Slic3r 1.1.7 on 2014-12-13 at 20:42:57

; perimeters extrusion width = 0.42mm
; infill extrusion width = 0.74mm
; solid infill extrusion width = 0.71mm
; top infill extrusion width = 0.71mm
; support material extrusion width = 0.42mm

G21 ; set units to millimeters
M190 S57 ; wait for bed temperature to be reached
M104 S186 ; set temperature
G28 ; home all axes Start of G Code Slic3r
 
M109 S186 ; wait for temperature to be reached
G90 ; use absolute coordinates
G92 E0
M82 ; use absolute distances for extrusion
G1 F1860.000 E-3.00000
G92 E0
G1 Z0.200 F6000.000
G1 X82.796 Y66.475 F6000.000
G1 E3.10000 F1860.000
G1 X83.846 Y65.368 E3.12563 F1200.000
G1 X88.558 Y61.448 E3.22857
G1 X90.173 Y60.597 E3.25921
G1 X95.779 Y58.571 E3.35931
G1 X97.750 Y58.276 E3.39278
G1 X103.410 Y58.277 E3.48782
G1 X105.553 Y58.644 E3.52433 F1200.000
G1 X111.892 Y61.037 E3.63811
G1 X112.548 Y61.450 E3.65112
G1 X112.972 Y61.778 E3.66012
G1 X117.268 Y65.383 E3.75430
G1 X118.137 Y66.259 E3.77502
G1 X118.776 Y67.180 E3.79385
G1 X121.874 Y72.607 E3.89879
G1 X122.138 Y73.276 E3.91087
G1 X122.387 Y74.251 E3.92777
G1 X123.368 Y79.821 E4.02274
G1 X123.454 Y81.240 E4.04661
G1 X121.691 Y119.860 E4.69581
G1 X121.615 Y120.440 E4.70562
G1 X120.672 Y125.789 E4.79683
G1 X120.347 Y126.980 E4.81756
G1 X119.852 Y128.041 E4.83722
G1 X116.887 Y133.143 E4.93632
G1 X116.761 Y133.325 E4.94003
G1 X115.606 Y134.575 E4.96862
G1 X111.345 Y138.150 E5.06201
G1 X109.757 Y139.125 E5.09331
G1 X109.318 Y139.302 E5.10125
G1 X104.214 Y141.160 E5.19246
G1 X102.847 Y141.501 E5.21612
G1 X101.843 Y141.576 E5.23303
G1 X96.411 Y141.576 E5.32424
G1 X95.241 Y141.473 E5.34397
G1 X94.041 Y141.158 E5.36480
G1 X88.077 Y138.917 E5.47178
G1 X86.851 Y138.099 E5.49654
G1 X82.128 Y134.079 E5.60069
G1 X81.140 Y132.766 E5.62828
G1 X78.174 Y127.588 E5.72849
G1 X77.594 Y125.803 E5.76000
G1 X76.624 Y120.290 E5.85400
G1 X76.541 Y119.373 E5.86947
G1 X77.684 Y80.177 E6.52793
G1 X78.717 Y74.243 E6.62908
G1 X79.041 Y73.054 E6.64977
G1 X79.199 Y72.667 E6.65680
G1 X79.530 Y72.014 E6.66909
G1 X82.758 Y66.526 E6.77601
G1 X82.993 Y66.624 F6000.000
G1 X84.005 Y65.558 E6.80070 F1200.000
G1 X88.700 Y61.650 E6.90327
G1 X90.258 Y60.830 E6.93284
G1 X95.851 Y58.807 E7.03272
G1 X97.750 Y58.523 E7.06495
G1 X103.406 Y58.524 E7.15992
G1 X105.472 Y58.878 E7.19514 F1200.000
G1 X111.772 Y61.253 E7.30819
G1 X112.404 Y61.651 E7.32074
G1 X112.813 Y61.967 E7.32941
G1 X117.109 Y65.572 E7.42359
G1 X117.946 Y66.416 E7.44354
G1 X118.562 Y67.304 E7.46170
G1 X121.649 Y72.710 E7.56623
G1 X121.904 Y73.355 E7.57788
G1 X122.143 Y74.294 E7.59416
G1 X123.124 Y79.862 E7.68909
G1 X123.207 Y81.229 E7.71209
G1 X121.445 Y119.837 E8.36108
G1 X121.371 Y120.397 E8.37057
G1 X120.428 Y125.746 E8.46178
G1 X120.115 Y126.893 E8.48174
G1 X119.638 Y127.917 E8.50072
G1 X116.682 Y133.005 E8.59953
G1 X116.560 Y133.181 E8.60313
G1 X115.447 Y134.386 E8.63067
G1 X111.188 Y137.959 E8.72403
G1 X109.658 Y138.899 E8.75418
G1 X109.234 Y139.070 E8.76186
G1 X104.129 Y140.928 E8.85307
G1 X102.812 Y141.256 E8.87586
G1 X101.843 Y141.329 E8.89219
G1 X95.284 Y141.230 E9.00235
G1 X94.125 Y140.926 E9.02246
G1 X88.193 Y138.699 E9.12886
G1 X87.010 Y137.909 E9.15275
G1 X82.306 Y133.907 E9.25646
G1 X81.354 Y132.643 E9.28304
G1 X78.396 Y127.480 E9.38296
G1 X77.838 Y125.760 E9.41332
G1 X76.869 Y120.253 E9.50721
G1 X76.788 Y119.367 E9.52215
G1 X77.929 Y80.205 E10.18005
G1 X78.960 Y74.286 E10.28094
G1 X79.273 Y73.141 E10.30088
G1 X79.425 Y72.768 E10.30765
G1 X79.745 Y72.138 E10.31951
G1 X82.955 Y66.674 E10.42592
G1 X83.190 Y66.773 F6000.000
G1 X84.164 Y65.747 E10.44967 F1200.000
G1 X88.842 Y61.853 E10.55188
G1 X90.342 Y61.062 E10.58036
G1 X95.924 Y59.043 E10.68003
G1 X97.750 Y58.770 E10.71104
G1 X103.401 Y58.771 E10.80593
G1 X105.392 Y59.112 E10.83985 F1200.000
G1 X111.653 Y61.469 E10.95219
G1 X112.261 Y61.852 E10.96426
G1 X112.654 Y62.156 E10.97261
G1 X116.950 Y65.761 E11.06678
G1 X117.755 Y66.573 E11.08598
G1 X118.348 Y67.427 E11.10344
G1 X121.425 Y72.812 E11.20758
G1 X121.670 Y73.433 E11.21879
G1 X121.900 Y74.337 E11.23446
G1 X122.880 Y79.903 E11.32936
G1 X122.960 Y81.218 E11.35148
G1 X121.199 Y119.813 E12.00026
G1 X121.128 Y120.354 E12.00942
G1 X120.185 Y125.703 E12.10063
G1 X119.884 Y126.806 E12.11983
G1 X119.423 Y127.793 E12.13812
G1 X116.477 Y132.867 E12.23664
G1 X116.359 Y133.038 E12.24014
G1 X115.288 Y134.197 E12.26663
G1 X111.030 Y137.769 E12.35995
G1 X109.559 Y138.672 E12.38895
G1 X109.149 Y138.838 E12.39637
G1 X104.045 Y140.696 E12.48758
G1 X102.778 Y141.012 E12.50951
G1 X101.843 Y141.082 E12.52525
G1 X95.327 Y140.987 E12.63469
G1 X94.210 Y140.693 E12.65408
G1 X88.309 Y138.481 E12.75990
G1 X87.169 Y137.720 E12.78292
G1 X82.484 Y133.735 E12.88620
G1 X81.568 Y132.519 E12.91177
G1 X78.618 Y127.371 E13.01140
G1 X78.081 Y125.717 E13.04060
G1 X77.113 Y120.216 E13.13439
G1 X77.035 Y119.362 E13.14880
G1 X78.175 Y80.233 E13.80614
G1 X79.204 Y74.329 E13.90678
G1 X79.504 Y73.227 E13.92596
G1 X79.651 Y72.868 E13.93247
G1 X79.959 Y72.261 E13.94390
G1 X83.153 Y66.823 E14.04980
G1 F1860.000 E11.04980
G92 E0
G1 X104.446 Y83.985 F6000.000
G1 E3.10000 F1860.000
G1 X103.170 Y85.134 E3.12883 F1200.000
G1 X101.578 Y85.777 E3.15765
G1 X99.863 Y85.837 E3.18648
G1 X98.230 Y85.306 E3.21531
G1 X98.143 Y85.239 E3.21715
G1 X96.877 Y84.249 E3.24414
G1 X95.967 Y82.793 E3.27296
G1 X95.610 Y81.114 E3.30179
G1 X95.626 Y81.006 E3.30363
G1 X95.849 Y79.414 E3.33062
G1 X96.655 Y77.898 E3.35945
G1 X97.931 Y76.750 E3.38827
G1 X99.523 Y76.107 E3.41710
G1 X101.238 Y76.047 E3.44593
G1 X101.343 Y76.081 E3.44777
G1 X102.871 Y76.577 E3.47476 F1200.000
G1 X104.224 Y77.634 E3.50358
G1 X105.134 Y79.090 E3.53241
G1 X105.490 Y80.769 E3.56124
G1 X105.252 Y82.469 E3.59007
G1 X104.475 Y83.929 E3.61783
G1 X104.248 Y83.830 F6000.000
G1 X103.037 Y84.921 E3.64520 F1200.000
G1 X101.526 Y85.531 E3.67256
G1 X99.897 Y85.588 E3.69993
G1 X98.348 Y85.084 E3.72729
G1 X98.296 Y85.044 E3.72840
G1 X97.064 Y84.081 E3.75465
G1 X96.200 Y82.699 E3.78202
G1 X95.861 Y81.105 E3.80938
G1 X95.871 Y81.040 E3.81049
G1 X96.088 Y79.492 E3.83674
G1 X96.853 Y78.053 E3.86411
G1 X98.064 Y76.963 E3.89147
G1 X99.575 Y76.352 E3.91883
G1 X99.641 Y76.350 E3.91994
G1 X101.203 Y76.295 E3.94620 F1200.000
G1 X102.753 Y76.799 E3.97356
G1 X104.037 Y77.802 E4.00092
G1 X104.901 Y79.184 E4.02829
G1 X105.240 Y80.778 E4.05565
G1 X105.013 Y82.392 E4.08301
G1 X104.277 Y83.775 E4.10932
G1 F1860.000 E1.10932
G92 E0
G1 X99.531 Y75.945 F6000.000
G1 X113.716 Y89.297 F6000.000
G1 E3.10000 F1860.000
G1 X112.673 Y91.103 E3.13502 F1200.000
G1 X108.452 Y94.644 E3.22754
G1 X103.297 Y96.521 E3.31967
G1 X97.803 Y96.521 E3.41191
G1 X92.642 Y94.642 E3.50416
G1 X88.434 Y91.111 E3.59640
G1 X85.687 Y86.354 E3.68864
G1 X84.733 Y80.946 E3.78086
G1 X85.689 Y75.524 E3.87330
G1 X88.432 Y70.774 E3.96540
G1 X92.640 Y67.243 E4.05764
G1 X97.801 Y65.365 E4.14988
G1 X103.297 Y65.365 E4.24217 F1200.000
G1 X108.457 Y67.243 E4.33437
G1 X112.666 Y70.775 E4.42666
G1 X115.415 Y75.536 E4.51896
G1 X116.369 Y80.945 E4.61121
G1 X115.415 Y86.353 E4.70341
G1 X113.747 Y89.242 E4.75943
G1 X113.930 Y89.420 F6000.000
G1 X112.861 Y91.268 E4.79527 F1200.000
G1 X108.582 Y94.858 E4.88906
G1 X103.359 Y96.761 E4.98242
G1 X97.784 Y96.768 E5.07603
G1 X92.501 Y94.847 E5.17043
G1 X88.234 Y91.259 E5.26404
G1 X85.450 Y86.430 E5.35765
G1 X84.483 Y80.942 E5.45122
G1 X85.454 Y75.438 E5.54508
G1 X88.253 Y70.602 E5.63891
G1 X92.526 Y67.022 E5.73252
G1 X97.719 Y65.132 E5.82533
G1 X97.765 Y65.118 E5.82613
G1 X103.341 Y65.118 E5.91976
G1 X108.582 Y67.025 E6.01343 F1200.000
G1 X112.859 Y70.614 E6.10717
G1 X115.651 Y75.450 E6.20094
G1 X116.614 Y80.975 E6.29513
G1 X115.654 Y86.421 E6.38798
G1 X113.961 Y89.366 E6.44502
G1 F1860.000 E3.44502
G92 E0
G1 X103.691 Y65.349 F6000.000
G1 X103.888 Y65.749 F6000.000
G1 E3.10000 F1860.000
G1 X115.591 Y77.453 E3.37794 F1200.000
G1 X115.666 Y77.877 E3.38518
G1 X103.338 Y65.549 E3.67795
G1 X102.963 Y65.524 E3.68426
G1 X115.741 Y78.302 E3.98770
G1 X115.816 Y78.726 E3.99494
G1 X102.613 Y65.524 E4.30847
G1 X102.264 Y65.524 E4.31434
G1 X115.891 Y79.151 E4.63795
G1 X115.966 Y79.575 E4.64519
G1 X101.914 Y65.524 E4.97888
G1 X101.565 Y65.524 E4.98476
G1 X116.040 Y80.000 E5.32853
G1 X116.115 Y80.424 E5.33577
G1 X101.215 Y65.524 E5.68962
G1 X100.865 Y65.524 E5.69549
G1 X116.190 Y80.849 E6.05943
G1 X116.167 Y81.175 E6.06492
G1 X100.516 Y65.524 E6.43660
G1 X100.166 Y65.524 E6.44247
G1 X116.114 Y81.472 E6.82121
G1 X116.062 Y81.770 E6.82628
G1 X99.816 Y65.524 E7.21208
G1 X99.467 Y65.524 E7.21795
G1 X116.009 Y82.067 E7.61080
G1 X115.957 Y82.364 E7.61587
G1 X99.117 Y65.524 E8.01579
G1 X98.767 Y65.524 E8.02166
G1 X115.905 Y82.661 E8.42864
G1 X115.852 Y82.958 E8.43370
G1 X98.418 Y65.524 E8.84774
G1 X98.068 Y65.524 E8.85361
G1 X115.800 Y83.256 E9.27470
G1 X115.747 Y83.553 E9.27977
G1 X97.748 Y65.554 E9.70722
G1 X97.492 Y65.647 E9.71180
G1 X115.695 Y83.850 E10.14409
G1 X115.642 Y84.147 E10.14916
G1 X97.235 Y65.740 E10.58630
G1 X96.979 Y65.834 E10.59088
G1 X115.590 Y84.445 E11.03285
G1 X115.538 Y84.742 E11.03792
G1 X96.723 Y65.927 E11.48474
G1 X96.466 Y66.020 E11.48932
G1 X115.485 Y85.039 E11.94099
G1 X115.433 Y85.336 E11.94606
G1 X96.210 Y66.113 E12.40256
G1 X95.954 Y66.207 E12.40715
G1 X115.380 Y85.634 E12.86850
G1 X115.328 Y85.931 E12.87356
G1 X95.697 Y66.300 E13.33976
G1 X95.441 Y66.393 E13.34434
G1 X115.276 Y86.228 E13.81537
G1 X115.165 Y86.467 E13.81980
G1 X95.185 Y66.487 E14.29430
G1 X94.928 Y66.580 E14.29888
G1 X115.037 Y86.689 E14.77643
G1 X114.909 Y86.911 E14.78073
G1 X94.672 Y66.673 E15.26133
G1 X94.415 Y66.767 E15.26591
G1 X114.781 Y87.132 E15.74956
G1 X114.653 Y87.354 E15.75386
G1 X94.159 Y66.860 E16.24056
G1 X93.903 Y66.953 E16.24514
G1 X114.525 Y87.576 E16.73488
G1 X114.397 Y87.797 E16.73918
G1 X104.707 Y78.107 E16.96930
G1 X105.284 Y79.034 F6000.000
G1 X114.269 Y88.019 E17.18268 F1200.000
G1 X114.141 Y88.241 E17.18698
G1 X105.379 Y79.478 E17.39507
G1 X105.473 Y79.922 E17.40270
G1 X114.013 Y88.462 E17.60551
G1 X113.885 Y88.684 E17.60981
G1 X105.568 Y80.366 E17.80734
G1 X105.647 Y80.796 E17.81468
G1 X113.757 Y88.906 E18.00727
G1 X113.629 Y89.127 E18.01157
G1 X105.604 Y81.102 E18.20215
G1 X105.561 Y81.409 E18.20735
G1 X113.501 Y89.349 E18.39591
G1 X113.373 Y89.571 E18.40021
G1 X105.518 Y81.715 E18.58676
G1 X105.475 Y82.022 E18.59196
G1 X113.246 Y89.792 E18.77649
G1 X113.118 Y90.014 E18.78078
G1 X105.432 Y82.329 E18.96330
G1 X105.359 Y82.606 E18.96811
G1 X112.990 Y90.236 E19.14931
G1 X112.862 Y90.457 E19.15361
G1 X105.238 Y82.834 E19.33465
G1 X105.117 Y83.062 E19.33899
G1 X112.734 Y90.679 E19.51988
G1 X112.606 Y90.901 E19.52418
G1 X104.995 Y83.290 E19.70491
G1 X104.874 Y83.519 E19.70925
G1 X112.437 Y91.082 E19.88887
G1 X112.253 Y91.247 E19.89303
G1 X104.752 Y83.747 E20.07115
G1 X104.631 Y83.975 E20.07549
G1 X112.063 Y91.407 E20.25197
G1 X111.873 Y91.566 E20.25614
G1 X104.477 Y84.171 E20.43177
G1 X104.293 Y84.336 E20.43593
G1 X111.682 Y91.726 E20.61141
G1 X111.492 Y91.885 E20.61558
G1 X104.109 Y84.502 E20.79092
G1 X103.925 Y84.668 E20.79507
G1 X111.302 Y92.045 E20.97027
G1 X111.112 Y92.204 E20.97443
G1 X103.741 Y84.833 E21.14948
G1 X103.557 Y84.999 E21.15364
G1 X110.922 Y92.364 E21.32854
G1 X110.732 Y92.524 E21.33271
G1 X103.373 Y85.165 E21.50746
G1 X103.166 Y85.307 E21.51169
G1 X110.542 Y92.683 E21.68685
G1 X110.352 Y92.843 E21.69102
G1 X102.917 Y85.408 E21.86759
G1 X102.668 Y85.508 E21.87210
G1 X110.162 Y93.002 E22.05006
G1 X109.971 Y93.162 E22.05423
G1 X102.419 Y85.609 E22.23359
G1 X102.170 Y85.709 E22.23810
G1 X109.781 Y93.321 E22.41887
G1 X109.591 Y93.481 E22.42303
G1 X101.921 Y85.810 E22.60520
G1 X101.672 Y85.911 E22.60971
G1 X109.401 Y93.640 E22.79327
G1 X109.211 Y93.800 E22.79744
G1 X101.355 Y85.944 E22.98400
G1 X101.017 Y85.956 E22.98968
G1 X109.021 Y93.959 E23.17975
G1 X108.831 Y94.119 E23.18392
G1 X100.679 Y85.967 E23.37750
G1 X100.341 Y85.979 E23.38317
G1 X108.641 Y94.278 E23.58026
G1 X108.450 Y94.438 E23.58443
G1 X100.004 Y85.991 E23.78503
G1 X99.573 Y85.910 E23.79239
G1 X108.222 Y94.559 E23.99778
G1 X107.965 Y94.652 E24.00236
G1 X99.055 Y85.742 E24.21396
G1 X98.537 Y85.573 E24.22311
G1 X107.709 Y94.745 E24.44092
G1 X107.453 Y94.839 E24.44550
G1 X97.737 Y85.123 E24.67622
G1 X96.400 Y83.786 F6000.000
G1 X86.702 Y74.088 E24.90651 F1200.000
G1 X86.830 Y73.867 E24.91081
G1 X95.817 Y82.854 E25.12424
G1 X95.723 Y82.410 E25.13186
G1 X86.958 Y73.645 E25.34001
G1 X87.086 Y73.423 E25.34431
G1 X95.629 Y81.966 E25.54718
G1 X95.534 Y81.522 E25.55480
G1 X87.214 Y73.202 E25.75239
G1 X87.342 Y72.980 E25.75669
G1 X95.453 Y81.091 E25.94930
G1 X95.496 Y80.784 E25.95450
G1 X87.470 Y72.758 E26.14510
G1 X87.598 Y72.537 E26.14940
G1 X95.539 Y80.478 E26.33798
G1 X95.582 Y80.171 E26.34318
G1 X87.726 Y72.315 E26.52975
G1 X87.854 Y72.093 E26.53404
G1 X95.625 Y79.864 E26.71860
G1 X95.668 Y79.558 E26.72379
G1 X87.982 Y71.872 E26.90633
G1 X88.110 Y71.650 E26.91063
G1 X95.740 Y79.280 E27.09183
G1 X95.862 Y79.052 E27.09617
G1 X88.238 Y71.428 E27.27722
G1 X88.366 Y71.207 E27.28152
G1 X95.983 Y78.824 E27.46241
G1 X96.104 Y78.595 E27.46675
G1 X88.494 Y70.985 E27.64748
G1 X88.661 Y70.802 E27.65164
G1 X96.226 Y78.367 E27.83130
G1 X96.347 Y78.139 E27.83564
G1 X88.844 Y70.636 E28.01382
G1 X89.034 Y70.476 E28.01799
G1 X96.469 Y77.911 E28.19453
G1 X96.622 Y77.714 E28.19872
G1 X89.225 Y70.317 E28.37439
G1 X89.415 Y70.157 E28.37856
G1 X96.806 Y77.549 E28.55408
G1 X96.990 Y77.383 E28.55824
G1 X89.605 Y69.998 E28.73362
G1 X89.795 Y69.838 E28.73779
G1 X97.174 Y77.217 E28.91303
G1 X97.358 Y77.052 E28.91718
G1 X89.985 Y69.679 E29.09228
G1 X90.175 Y69.519 E29.09644
G1 X97.542 Y76.886 E29.27139
G1 X97.726 Y76.720 E29.27554
G1 X90.365 Y69.360 E29.45034
G1 X90.555 Y69.200 E29.45451
G1 X97.933 Y76.577 E29.62971
G1 X98.182 Y76.477 E29.63422
G1 X90.746 Y69.041 E29.81081
G1 X90.936 Y68.881 E29.81498
G1 X98.431 Y76.376 E29.99297
G1 X98.680 Y76.276 E29.99748
G1 X91.126 Y68.722 E30.17687
G1 X91.316 Y68.562 E30.18104
G1 X98.929 Y76.175 E30.36183
G1 X99.178 Y76.074 E30.36634
G1 X91.506 Y68.403 E30.54853
G1 X91.696 Y68.243 E30.55270
G1 X99.427 Y75.974 E30.73629
G1 X99.742 Y75.940 E30.74162
G1 X91.886 Y68.083 E30.92819
G1 X92.076 Y67.924 E30.93236
G1 X100.080 Y75.928 E31.12244
G1 X100.418 Y75.916 E31.12811
G1 X92.266 Y67.764 E31.32170
G1 X92.457 Y67.605 E31.32587
G1 X100.756 Y75.904 E31.52296
G1 X101.094 Y75.893 E31.52864
G1 X92.647 Y67.445 E31.72924
G1 X92.877 Y67.326 E31.73360
G1 X101.523 Y75.972 E31.93892
G1 X102.041 Y76.140 E31.94806
G1 X93.134 Y67.233 E32.15958
G1 X93.390 Y67.140 E32.16417
G1 X102.559 Y76.308 E32.38190
G1 X103.347 Y76.747 F6000.000
G1 X93.646 Y67.046 E32.61228 F1200.000
G1 F1860.000 E29.61228
G92 E0
G1 X86.574 Y74.310 F6000.000
G1 E3.10000 F1860.000
G1 X107.196 Y94.932 E3.58973 F1200.000
G1 X106.940 Y95.025 E3.59431
G1 X86.446 Y74.532 E4.08099
G1 X86.318 Y74.753 E4.08529
G1 X106.684 Y95.118 E4.56892
G1 X106.427 Y95.212 E4.57350
G1 X86.190 Y74.975 E5.05409
G1 X86.062 Y75.197 E5.05839
G1 X106.171 Y95.305 E5.53592
G1 X105.914 Y95.398 E5.54050
G1 X85.934 Y75.418 E6.01499
G1 X85.827 Y75.661 E6.01944
G1 X105.658 Y95.492 E6.49039
G1 X105.402 Y95.585 E6.49497
G1 X85.775 Y75.958 E6.96108
G1 X85.722 Y76.255 E6.96615
G1 X105.145 Y95.678 E7.42741
G1 X104.889 Y95.772 E7.43199
G1 X85.670 Y76.552 E7.88841
G1 X85.617 Y76.850 E7.89348
G1 X104.633 Y95.865 E8.34506
G1 X104.376 Y95.958 E8.34964
G1 X85.565 Y77.147 E8.79637
G1 X85.513 Y77.444 E8.80144
G1 X104.120 Y96.051 E9.24333
G1 X103.864 Y96.145 E9.24791
G1 X85.460 Y77.741 E9.68496
G1 X85.408 Y78.038 E9.69003
G1 X103.607 Y96.238 E10.12224
G1 X103.351 Y96.331 E10.12682
G1 X85.355 Y78.336 E10.55418
G1 X85.303 Y78.633 E10.55925
G1 X103.031 Y96.361 E10.98026
G1 X102.682 Y96.361 E10.98613
G1 X85.250 Y78.930 E11.40009
G1 X85.198 Y79.227 E11.40516
G1 X102.332 Y96.361 E11.81206
G1 X101.982 Y96.361 E11.81793
G1 X85.146 Y79.525 E12.21777
G1 X85.093 Y79.822 E12.22283
G1 X101.633 Y96.361 E12.61561
G1 X101.283 Y96.361 E12.62149
G1 X85.041 Y80.119 E13.00721
G1 X84.988 Y80.416 E13.01227
G1 X100.933 Y96.361 E13.39094
G1 X100.584 Y96.361 E13.39681
G1 X84.936 Y80.714 E13.76841
