; generated by Slic3r 1.1.7 on 2014-12-07 at 17:32:26

; perimeters extrusion width = 0.42mm
; infill extrusion width = 0.74mm
; solid infill extrusion width = 0.71mm
; top infill extrusion width = 0.71mm
; support material extrusion width = 0.42mm

G21 ; set units to millimeters
M190 S60 ; wait for bed temperature to be reached
M104 S186 ; set temperature
G28 ; home all axes
M109 S186 ; wait for temperature to be reached
G90 ; use absolute coordinates
G92 E0
M82 ; use absolute distances for extrusion
M106 S127
G1 F1860.000 E-3.00000
G92 E0
G1 Z0.200 F6000.000
G1 X85.396 Y83.505 F6000.000
G1 E3.10000 F1860.000
G1 X86.075 Y82.811 E3.11796 F1200.000
G1 X88.104 Y80.893 E3.16963
G1 X89.839 Y79.399 E3.21197
G1 X91.658 Y77.889 E3.25571
G1 X93.258 Y76.660 E3.29304
G1 X94.949 Y75.405 E3.33199
G1 X98.080 Y73.259 E3.40222
G1 X100.973 Y71.464 E3.46520
G1 X102.400 Y70.636 E3.49574
G1 X105.250 Y69.052 E3.55604
G1 X109.160 Y67.096 E3.63694
G1 X112.098 Y65.729 E3.69688
G1 X114.061 Y65.043 E3.73536
G1 X115.816 Y64.665 E3.76857
G1 X117.881 Y64.493 E3.80689
G1 X119.255 Y64.563 E3.83235
G1 X120.834 Y64.772 E3.86182 F1200.000
G1 X122.429 Y65.170 E3.89224
G1 X123.671 Y65.622 E3.91668
G1 X124.443 Y65.957 E3.93225
G1 X125.517 Y66.549 E3.95494
G1 X126.218 Y67.027 E3.97062
G1 X127.665 Y68.378 E4.00726
G1 X128.239 Y69.108 E4.02443
G1 X129.316 Y71.132 E4.06685
G1 X129.683 Y72.274 E4.08903
G1 X129.949 Y73.482 E4.11193
G1 X132.921 Y98.239 E4.57323
G1 X132.970 Y100.017 E4.60612
G1 X132.284 Y103.104 E4.66464
G1 X130.014 Y107.635 E4.75839
G1 X128.657 Y109.455 E4.80039
G1 X127.347 Y110.410 E4.83038
G1 X87.144 Y132.610 E5.68001
G1 X84.004 Y133.419 E5.73998
G1 X75.004 Y133.419 E5.90648
G1 X72.769 Y133.022 E5.94849
G1 X70.806 Y131.880 E5.99050
G1 X69.357 Y130.132 E6.03250
G1 X68.517 Y127.232 E6.08835
G1 X67.910 Y114.430 E6.32547
G1 X68.591 Y111.212 E6.38632
G1 X78.007 Y92.426 E6.77507
G1 X78.688 Y91.346 E6.79869
G1 X81.589 Y87.641 E6.88574
G1 X83.965 Y84.969 E6.95190
G1 X85.352 Y83.550 E6.98860
G1 X85.573 Y83.678 F6000.000
G1 X86.245 Y82.991 E7.00639 F1200.000
G1 X88.266 Y81.080 E7.05784
G1 X89.997 Y79.589 E7.10011
G1 X91.808 Y78.085 E7.14366
G1 X93.406 Y76.858 E7.18093
G1 X95.089 Y75.608 E7.21971
G1 X98.211 Y73.469 E7.28972
G1 X101.097 Y71.678 E7.35257
G1 X102.521 Y70.851 E7.38302
G1 X105.361 Y69.273 E7.44314
G1 X109.266 Y67.319 E7.52392
G1 X112.186 Y65.960 E7.58350
G1 X114.118 Y65.283 E7.62138
G1 X115.847 Y64.911 E7.65410
G1 X117.871 Y64.740 E7.69168
G1 X119.228 Y64.808 E7.71681
G1 X120.781 Y65.014 E7.74579 F1200.000
G1 X122.348 Y65.404 E7.77566
G1 X123.573 Y65.849 E7.79977
G1 X124.345 Y66.184 E7.81534
G1 X125.378 Y66.753 E7.83717
G1 X126.078 Y67.231 E7.85285
G1 X127.471 Y68.531 E7.88809
G1 X128.044 Y69.261 E7.90527
G1 X129.080 Y71.208 E7.94607
G1 X129.448 Y72.349 E7.96825
G1 X129.703 Y73.512 E7.99028
G1 X132.674 Y98.246 E8.45115
G1 X132.723 Y100.023 E8.48404
G1 X132.063 Y102.994 E8.54033
G1 X129.793 Y107.524 E8.63408
G1 X128.456 Y109.305 E8.67527
G1 X127.227 Y110.194 E8.70333
G1 X87.024 Y132.393 E9.55295
G1 X84.004 Y133.172 E9.61065
G1 X75.004 Y133.172 E9.77715
G1 X72.813 Y132.775 E9.81834
G1 X70.901 Y131.635 E9.85953
G1 X69.510 Y129.896 E9.90073
G1 X68.764 Y127.220 E9.95212
G1 X68.157 Y114.418 E10.18923
G1 X68.812 Y111.323 E10.24777
G1 X78.228 Y92.536 E10.63652
G1 X78.883 Y91.498 E10.65924
G1 X81.774 Y87.805 E10.74600
G1 X84.142 Y85.141 E10.81194
G1 X85.529 Y83.723 E10.84864
G1 F1860.000 E7.84864
G92 E0
G1 X83.657 Y126.577 F6000.000
G1 E3.10000 F1860.000
G1 X75.352 Y126.577 E3.25365 F1200.000
G1 X75.352 Y118.764 E3.39820
G1 X83.657 Y118.764 E3.55186
G1 X83.657 Y126.514 E3.69524
G1 X83.904 Y126.824 F6000.000
G1 X75.104 Y126.824 E3.85804 F1200.000
G1 X75.104 Y118.517 E4.01174
G1 X83.904 Y118.517 E4.17454
G1 X83.904 Y126.761 E4.32707
G1 X83.541 Y126.614 F6000.000
G1 F1860.000 E1.32707
G92 E0
G1 X83.458 Y118.923 F6000.000
G1 E3.10000 F1860.000
G1 X83.498 Y118.963 E3.10105 F1200.000
G1 X83.498 Y119.313 E3.10752
G1 X83.108 Y118.923 E3.11773
G1 X82.758 Y118.923 E3.12420
G1 X83.498 Y119.663 E3.14357
G1 X83.498 Y120.013 E3.15004
G1 X82.408 Y118.923 E3.17856
G1 X82.058 Y118.923 E3.18504
G1 X83.498 Y120.363 E3.22272
G1 X83.498 Y120.713 E3.22920
G1 X81.708 Y118.923 E3.27603
G1 X81.358 Y118.923 E3.28251
G1 X83.498 Y121.063 E3.33851
G1 X83.498 Y121.413 E3.34498
G1 X81.008 Y118.923 E3.41014
G1 X80.658 Y118.923 E3.41661
G1 X83.498 Y121.763 E3.49093
G1 X83.498 Y122.113 E3.49740
G1 X80.308 Y118.923 E3.58088
G1 X79.958 Y118.923 E3.58735
G1 X83.498 Y122.464 E3.67998
G1 X83.498 Y122.814 E3.68646
G1 X79.608 Y118.923 E3.78825
G1 X79.257 Y118.923 E3.79472
G1 X83.498 Y123.164 E3.90567
G1 X83.498 Y123.514 E3.91214
G1 X78.907 Y118.923 E4.03225
G1 X78.557 Y118.923 E4.03873
G1 X83.498 Y123.864 E4.16799
G1 X83.498 Y124.214 E4.17447
G1 X78.207 Y118.923 E4.31289
G1 X77.857 Y118.923 E4.31936
G1 X83.498 Y124.564 E4.46694
G1 X83.498 Y124.914 E4.47342
G1 X77.507 Y118.923 E4.63016
G1 X77.157 Y118.923 E4.63663
G1 X83.498 Y125.264 E4.80253
G1 X83.498 Y125.614 E4.80901
G1 X76.807 Y118.923 E4.98406
G1 X76.457 Y118.923 E4.99054
G1 X83.498 Y125.964 E5.17475
G1 X83.498 Y126.314 E5.18123
G1 X76.107 Y118.923 E5.37460
G1 X75.757 Y118.923 E5.38108
G1 X83.252 Y126.418 E5.57717
G1 X82.902 Y126.418 E5.58364
G1 X75.511 Y119.027 E5.77701
G1 X75.511 Y119.377 E5.78349
G1 X82.552 Y126.418 E5.96770
G1 X82.202 Y126.418 E5.97418
G1 X75.511 Y119.727 E6.14924
G1 X75.511 Y120.077 E6.15571
G1 X81.852 Y126.418 E6.32161
G1 X81.502 Y126.418 E6.32808
G1 X75.511 Y120.427 E6.48482
G1 X75.511 Y120.777 E6.49130
G1 X81.152 Y126.418 E6.63888
G1 X80.802 Y126.418 E6.64536
G1 X75.511 Y121.127 E6.78378
G1 X75.511 Y121.477 E6.79025
G1 X80.452 Y126.418 E6.91952
G1 X80.101 Y126.418 E6.92599
G1 X75.511 Y121.827 E7.04610
G1 X75.511 Y122.177 E7.05257
G1 X79.751 Y126.418 E7.16352
G1 X79.401 Y126.418 E7.17000
G1 X75.511 Y122.527 E7.27179
G1 X75.511 Y122.877 E7.27826
G1 X79.051 Y126.418 E7.37089
G1 X78.701 Y126.418 E7.37737
G1 X75.511 Y123.228 E7.46084
G1 X75.511 Y123.578 E7.46732
G1 X78.351 Y126.418 E7.54163
G1 X78.001 Y126.418 E7.54810
G1 X75.511 Y123.928 E7.61326
G1 X75.511 Y124.278 E7.61974
G1 X77.651 Y126.418 E7.67573
G1 X77.301 Y126.418 E7.68221
G1 X75.511 Y124.628 E7.72905
G1 X75.511 Y124.978 E7.73552
G1 X76.951 Y126.418 E7.77320
G1 X76.601 Y126.418 E7.77968
G1 X75.511 Y125.328 E7.80820
G1 X75.511 Y125.678 E7.81468
G1 X76.251 Y126.418 E7.83404
G1 X75.901 Y126.418 E7.84052
G1 X75.511 Y126.028 E7.85072
G1 X75.511 Y126.378 E7.85720
G1 X75.551 Y126.418 E7.85824
G1 F1860.000 E4.85824
G92 E0
G1 X80.443 Y113.307 F6000.000
G1 E3.10000 F1860.000
G1 X95.613 Y83.040 E4.16413 F1200.000
G1 X97.141 Y81.866 F6000.000
G1 X86.384 Y103.329 E4.91870 F1200.000
G1 F1860.000 E1.91870
G92 E0
G1 X88.368 Y106.869 F6000.000
G1 E3.10000 F1860.000
G1 X85.283 Y113.023 E3.31636 F1200.000
G1 X86.227 Y113.015 E3.34602
G1 X90.034 Y105.420 E3.61305
G1 X91.613 Y104.144 F6000.000
G1 X87.155 Y113.038 E3.92574 F1200.000
G1 X88.087 Y113.054 E3.95502
G1 X93.134 Y102.983 E4.30908
G1 X94.296 Y100.664 F6000.000
G1 X106.869 Y75.579 E5.19101 F1200.000
G1 X108.173 Y74.851 E5.23796
G1 X89.018 Y113.070 E6.58163
G1 X89.413 Y114.157 F6000.000
G1 X109.431 Y74.217 E7.98581 F1200.000
G1 X110.684 Y73.592 E8.02983
G1 X90.566 Y113.732 E9.44105
G1 X92.315 Y112.116 F6000.000
G1 X101.832 Y93.128 E10.10863 F1200.000
G1 X101.438 Y95.790 F6000.000
G1 X93.984 Y110.661 E10.63146 F1200.000
G1 X95.562 Y109.387 F6000.000
G1 X101.885 Y96.772 E11.07499 F1200.000
G1 X102.716 Y96.988 E11.10198
G1 X97.106 Y108.181 E11.49552
G1 X98.550 Y107.176 E11.55081
G1 X103.811 Y96.677 E11.91992
G1 X105.021 Y96.138 E11.96155
G1 X99.980 Y106.196 E12.31516
G1 X101.268 Y105.502 E12.36114
G1 X106.250 Y95.561 E12.71062
G1 X107.482 Y94.978 E12.75347
G1 X102.555 Y104.808 E13.09906
G1 X103.843 Y104.113 E13.14503
G1 X108.705 Y94.412 E13.48611
G1 X109.928 Y93.847 E13.52843
G1 X105.127 Y103.427 E13.86522
G1 X106.376 Y102.808 E13.90903
G1 X111.150 Y93.283 E14.24392
G1 X112.373 Y92.719 E14.28624
G1 X107.626 Y102.190 E14.61923
G1 X108.875 Y101.572 E14.66305
G1 X113.595 Y92.154 E14.99415
G1 X114.813 Y91.599 E15.03620
G1 X109.771 Y101.659 E15.38988
G1 X110.152 Y102.774 E15.42690
G1 X115.930 Y91.244 E15.83224
G1 X116.958 Y91.068 E15.86502
G1 X110.622 Y103.711 E16.30951
G1 X111.235 Y104.361 E16.33762
G1 X117.935 Y90.994 E16.80758
G1 X118.856 Y91.031 E16.83655
G1 X111.958 Y104.794 E17.32041
G1 X112.796 Y104.998 E17.34751
G1 X115.538 Y99.527 E17.53985
G1 X115.858 Y100.763 F6000.000
G1 X113.765 Y104.939 E17.68666 F1200.000
G1 X115.001 Y104.347 E17.72975
G1 X116.125 Y102.103 E17.80862
G1 F1860.000 E14.80862
G92 E0
G1 X119.883 Y102.105 F6000.000
G1 E3.10000 F1860.000
G1 X124.145 Y93.601 E3.39900 F1200.000
G1 X124.730 Y94.310 E3.42788
G1 X120.203 Y103.340 E3.74539
G1 X120.756 Y104.113 E3.77524
G1 X125.280 Y95.086 E4.09261
G1 X125.762 Y95.999 E4.12506
G1 X121.435 Y104.633 E4.42860
G1 X122.219 Y104.943 E4.45510
G1 X126.153 Y97.093 E4.73108
G1 X126.429 Y98.417 E4.77359
G1 X123.126 Y105.008 E5.00530
G1 X124.208 Y104.725 E5.04043
G1 X126.478 Y100.195 E5.19970
G1 X120.442 Y99.116 F6000.000
G1 X123.500 Y93.015 E5.41421 F1200.000
G1 X122.821 Y92.493 E5.44110
G1 X120.022 Y98.079 E5.63746
G1 X119.392 Y97.460 E5.66521
G1 X122.107 Y92.043 E5.85564
G1 X121.346 Y91.687 E5.88205
G1 X118.627 Y97.112 E6.07275
G1 X117.720 Y97.047 E6.10134
G1 X120.566 Y91.368 E6.30099
G1 X119.722 Y91.179 E6.32820
G1 X116.552 Y97.503 E6.55056
G1 F1860.000 E3.55056
G92 E0
G1 X123.448 Y83.745 F6000.000
G1 E3.10000 F1860.000
G1 X121.742 Y87.147 E3.21962 F1200.000
G1 X120.562 Y87.627 E3.25967
G1 X123.017 Y82.729 E3.43188
G1 X122.412 Y82.061 E3.46020
G1 X119.503 Y87.865 E3.66423
G1 X118.507 Y87.978 E3.69575
G1 X121.696 Y81.616 E3.91941
G1 X120.863 Y81.403 E3.94643
G1 X117.555 Y88.003 E4.17847
G1 X116.672 Y87.891 E4.20646
G1 X119.904 Y81.442 E4.43317
G1 X118.759 Y81.852 E4.47140
G1 X115.821 Y87.712 E4.67743
G1 X115.007 Y87.463 E4.70421
G1 X117.769 Y81.952 E4.89796
G1 X116.944 Y81.724 E4.92486
G1 X114.242 Y87.114 E5.11436
G1 X113.495 Y86.729 E5.14077
G1 X116.251 Y81.231 E5.33407
G1 X115.717 Y80.422 E5.36453
G1 X112.811 Y86.221 E5.56839
G1 X112.149 Y85.666 E5.59553
G1 X119.442 Y71.116 E6.10707
G1 X118.551 Y71.019 E6.13524
G1 X111.533 Y85.020 E6.62749
G1 X110.948 Y84.314 E6.65633
G1 X117.629 Y70.983 E7.12500
G1 X116.626 Y71.109 E7.15676
G1 X110.403 Y83.525 E7.59329
G1 X109.882 Y82.691 E7.62423
G1 X115.560 Y71.362 E8.02251
G1 X114.400 Y71.802 E8.06150
G1 X108.580 Y83.414 E8.46975
G1 X106.819 Y85.052 F6000.000
G1 X113.159 Y72.403 E8.91445 F1200.000
G1 X111.937 Y72.967 E8.95674
G1 X104.923 Y86.961 E9.44874
G1 X93.998 Y84.386 F6000.000
G1 X79.616 Y113.082 E10.45763 F1200.000
G1 X78.676 Y113.082 E10.48717
G1 X92.344 Y85.812 E11.44593
G1 X90.550 Y87.518 F6000.000
G1 X77.737 Y113.082 E12.34471 F1200.000
G1 X76.797 Y113.082 E12.37424
G1 X88.616 Y89.502 E13.20326
G1 X86.451 Y91.947 F6000.000
G1 X75.316 Y114.162 E13.98430 F1200.000
G1 X74.397 Y114.122 E14.01322
G1 X83.813 Y95.336 E14.67370
G1 X90.059 Y97.871 F6000.000
G1 X98.641 Y80.748 E15.27573 F1200.000
G1 X100.079 Y79.754 E15.33066
G1 X92.427 Y95.020 E15.86736
G1 F1860.000 E12.86736
G92 E0
G1 X94.965 Y95.580 F6000.000
G1 E3.10000 F1860.000
G1 X104.238 Y77.078 E3.75047 F1200.000
G1 X105.565 Y76.307 E3.79870
G1 X94.794 Y97.797 E4.55424
G1 X95.028 Y93.579 F6000.000
G1 X102.874 Y77.927 E5.10455 F1200.000
G1 X101.509 Y78.775 E5.15506
G1 X94.461 Y92.837 E5.64944
G1 F1860.000 E2.64944
G92 E0
G1 X86.628 Y108.466 F6000.000
G1 E3.10000 F1860.000
G1 X84.315 Y113.081 E3.26224 F1200.000
G1 X83.016 Y113.797 F6000.000
G1 X84.789 Y110.260 E3.38659 F1200.000
G1 F1860.000 E0.38659
G92 E0
G1 X82.734 Y110.611 F6000.000
G1 E3.10000 F1860.000
G1 X80.789 Y114.491 E3.23643 F1200.000
G1 X81.771 Y114.407 E3.26740
G1 X82.816 Y112.322 E3.34071
G1 F1860.000 E0.34071
G92 E0
G1 X120.896 Y77.587 F6000.000
G1 E3.10000 F1860.000
G1 X123.134 Y73.123 E3.25696 F1200.000
G1 X122.560 Y72.393 E3.28614
G1 X119.967 Y77.566 E3.46800
G1 X119.158 Y77.305 E3.49471
G1 X121.860 Y71.916 E3.68420
G1 X121.088 Y71.581 E3.71064
G1 X118.348 Y77.048 E3.90285
G1 X117.376 Y77.111 E3.93345
G1 X120.288 Y71.302 E4.13770
G1 X123.501 Y74.264 F6000.000
G1 X122.029 Y77.202 E4.24098 F1200.000
M106 S252
M140 S50 ; set bed temperature
G1 F1860.000 E1.24098
G92 E0
G1 Z0.325 F6000.000
G1 X119.546 Y77.009 F6000.000
G1 E3.10000 F1860.000
G1 X121.480 Y77.009 E3.13800 F3300.000
G1 X123.053 Y74.089 E3.20315
G1 X110.628 Y74.089 E3.44722
G1 X116.529 Y77.009 F6000.000
G1 X105.168 Y77.009 E3.67039 F3300.000
G1 X100.564 Y79.929 E3.77749
G1 X115.145 Y79.929 E4.06393
G1 X110.448 Y82.849 E4.17259
G1 X122.597 Y82.849 E4.41124
G1 X122.713 Y85.769 E4.46865
G1 X112.907 Y85.769 E4.66129
G1 F1860.000 E1.66129
G92 E0
G1 X108.597 Y82.849 F6000.000
G1 E3.10000 F1860.000
G1 X96.551 Y82.849 E3.33665 F3300.000
G1 X93.026 Y85.769 E3.42657
G1 X105.478 Y85.769 E3.67119
G1 X103.166 Y88.689 F6000.000
G1 X89.958 Y88.689 E3.93064 F3300.000
G1 X87.282 Y91.609 E4.00845
G1 X101.882 Y91.609 E4.29526
G1 X101.089 Y94.529 E4.35470
G1 X95.452 Y94.529 E4.46544
G1 X95.242 Y97.449 E4.52295
G1 X115.971 Y97.449 E4.93016
G1 X115.244 Y100.369 F6000.000
G1 X94.796 Y100.369 E5.33184 F3300.000
G1 X93.427 Y103.289 F6000.000
G1 X104.487 Y103.289 E5.54910 F3300.000
G1 X99.204 Y106.209 E5.66767
G1 X89.763 Y106.209 E5.85315
G1 X86.540 Y109.129 E5.93857
G1 X95.210 Y109.129 E6.10888
G1 X91.753 Y112.049 E6.19777
G1 X83.647 Y112.049 E6.35702
G1 X81.691 Y112.049 F6000.000
G1 X75.581 Y112.049 E6.47706 F3300.000
G1 X76.714 Y109.129 E6.53859
G1 X82.921 Y109.129 E6.66052
G1 X84.318 Y106.209 E6.72411
G1 X77.978 Y106.209 E6.84865
G1 X79.422 Y103.289 E6.91265
G1 X85.913 Y103.289 E7.04015
G1 X87.745 Y100.369 E7.10786
G1 X81.043 Y100.369 E7.23951
G1 X82.868 Y97.449 E7.30715
G1 X89.860 Y97.449 E7.44452
G1 X92.308 Y94.529 E7.51936
G1 X84.933 Y94.529 E7.66424
G1 X94.130 Y93.135 F6000.000
G1 X94.875 Y92.400 E7.68481 F3300.000
G1 X95.024 Y93.100 E7.69886
G1 X95.075 Y94.092 E7.71838
G1 X95.017 Y95.167 E7.73952
G1 X94.801 Y97.961 E7.79458
G1 X94.585 Y99.514 E7.82538
G1 X94.273 Y100.851 E7.85233
G1 X93.871 Y101.977 E7.87583
G1 X93.472 Y102.759 E7.89309
G1 X91.582 Y104.193 E7.93969
G1 X90.305 Y105.221 E7.97190
G1 X87.631 Y107.538 E8.04139
G1 X85.421 Y109.642 E8.10134
G1 X83.841 Y111.258 E8.14573
G1 X82.025 Y113.196 E8.19790
G1 X81.731 Y113.007 E8.20478
G1 X83.038 Y109.816 E8.27252
G1 X84.581 Y106.562 E8.34327
G1 X86.257 Y103.493 E8.41196
G1 X88.052 Y100.627 E8.47839
G1 X89.949 Y97.975 E8.54245
G1 X91.959 Y95.500 E8.60508
G1 X94.130 Y93.135 E8.66813
G1 F1860.000 E5.66813
G92 E0
G1 X109.453 Y94.529 F6000.000
G1 E3.10000 F1860.000
G1 X124.368 Y94.529 E3.39299 F3300.000
G1 X125.827 Y97.449 E3.45711
G1 X120.037 Y97.449 E3.57084
G1 X120.765 Y100.369 F6000.000
G1 X126.051 Y100.369 E3.67468 F3300.000
G1 X125.156 Y103.289 E3.73468
G1 X120.643 Y103.289 E3.82333
G1 F1860.000 E0.82333
G92 E0
G1 X115.357 Y103.289 F6000.000
G1 E3.10000 F1860.000
G1 X110.853 Y103.289 E3.18847 F3300.000
G1 X116.169 Y91.609 F6000.000
G1 X119.724 Y91.609 E3.25830 F3300.000
G1 F1860.000 E0.25830
G92 E0
G1 X118.974 Y71.058 F6000.000
G1 E3.10000 F1860.000
G1 X117.666 Y70.998 E3.12571 F3300.000
G1 X116.229 Y71.179 E3.15417
G1 X114.843 Y71.601 E3.18263
G1 X113.687 Y72.183 E3.20804
G1 X112.007 Y72.954 E3.24436
G1 X108.291 Y74.809 E3.32595
G1 X104.742 Y76.789 E3.40578
G1 X101.382 Y78.877 E3.48349
G1 X98.219 Y81.064 E3.55903
G1 X95.256 Y83.339 E3.63241
G1 X92.497 Y85.695 E3.70369
G1 X89.940 Y88.126 E3.77300
G1 X87.584 Y90.627 E3.84050
G1 X85.365 Y93.273 E3.90834
G1 X83.256 Y96.121 E3.97794
G1 X81.270 Y99.167 E4.04938
G1 X79.416 Y102.407 E4.12271
G1 X77.705 Y105.832 E4.19792
G1 X76.150 Y109.424 E4.27481
G1 X75.173 Y111.997 E4.32889
G1 X74.411 Y114.142 E4.37360
G1 X75.576 Y114.142 E4.39649
G1 X75.942 Y113.062 E4.41889
G1 X80.554 Y113.062 E4.50948
G1 X80.163 Y114.142 E4.53204
G1 X81.140 Y114.142 E4.55123
G1 X80.836 Y114.467 E4.55997
G1 X82.583 Y114.318 E4.59440
G1 X83.107 Y113.648 E4.61112
G1 X83.637 Y113.061 E4.62664
G1 X84.608 Y113.061 E4.64572
G1 X85.708 Y112.967 E4.66740
