; generated by Slic3r 1.1.7 on 2014-12-11 at 17:22:08

; perimeters extrusion width = 0.40mm
; infill extrusion width = 0.67mm
; solid infill extrusion width = 0.67mm
; top infill extrusion width = 0.67mm
; support material extrusion width = 0.40mm

G21 ; set units to millimeters
M190 S57 ; wait for bed temperature to be reached
M104 S186 ; set temperature
G28 ; home all axes Start of G Code Slic3r
 
M109 S186 ; wait for temperature to be reached
G90 ; use absolute coordinates
G92 E0
M82 ; use absolute distances for extrusion
M106 S244
G1 F1860.000 E-3.00000
G92 E0
G1 Z0.200 F6000.000
G1 X98.486 Y115.552 F6000.000
G1 E3.10000 F1860.000
G1 X100.422 Y114.012 E3.14497 F1200.000
G1 X103.962 Y113.033 E3.21175
G1 X108.804 Y112.893 E3.29981
G1 X111.257 Y113.220 E3.34478
G1 X113.479 Y114.307 E3.38975 F1200.000
G1 X115.241 Y116.043 E3.43473
G1 X116.363 Y118.248 E3.47970
G1 X116.727 Y120.695 E3.52467
G1 X116.296 Y123.131 E3.56965
G1 X115.115 Y125.305 E3.61462
G1 X113.306 Y126.993 E3.65960
G1 X110.017 Y128.227 E3.72346
G1 X108.564 Y128.377 E3.75000
G1 X107.089 Y128.455 E3.77685
G1 X105.286 Y128.469 E3.80963
G1 X103.803 Y128.421 E3.83661
G1 X101.384 Y127.903 E3.88158
G1 X99.254 Y126.645 E3.92656
G1 X97.633 Y124.776 E3.97153
G1 X96.688 Y122.490 E4.01650
G1 X96.517 Y120.022 E4.06148
G1 X97.138 Y117.627 E4.10645
G1 X98.453 Y115.602 E4.15033
G1 X98.716 Y115.713 F6000.000
G1 X98.853 Y115.517 E4.15468 F1200.000
G1 X100.816 Y114.077 E4.19893
G1 X103.969 Y113.276 E4.25808
G1 X108.811 Y113.136 E4.34614
G1 X111.223 Y113.464 E4.39039
G1 X113.402 Y114.551 E4.43465 F1200.000
G1 X115.114 Y116.281 E4.47890
G1 X116.177 Y118.471 E4.52316
G1 X116.479 Y120.887 E4.56741
G1 X115.986 Y123.271 E4.61166
G1 X114.752 Y125.369 E4.65592
G1 X112.908 Y126.958 E4.70017
G1 X109.986 Y127.986 E4.75649
G1 X108.548 Y128.134 E4.78275
G1 X107.082 Y128.212 E4.80946
G1 X105.291 Y128.226 E4.84200
G1 X103.815 Y128.179 E4.86885
G1 X101.436 Y127.663 E4.91311
G1 X99.350 Y126.408 E4.95736
G1 X97.779 Y124.548 E5.00161
G1 X96.891 Y122.282 E5.04587
G1 X96.780 Y119.850 E5.09012
G1 X97.458 Y117.512 E5.13438
G1 X98.681 Y115.762 E5.17319
G1 X98.934 Y115.877 F6000.000
G1 X99.224 Y115.492 E5.18195 F1200.000
G1 X101.211 Y114.157 E5.22548
G1 X103.976 Y113.519 E5.27707
G1 X108.818 Y113.379 E5.36513
G1 X111.190 Y113.708 E5.40865
G1 X113.323 Y114.794 E5.45217 F1200.000
G1 X114.983 Y116.519 E5.49569
G1 X115.987 Y118.692 E5.53922
G1 X116.225 Y121.075 E5.58274
G1 X115.670 Y123.404 E5.62626
G1 X114.384 Y125.423 E5.66978
G1 X112.508 Y126.910 E5.71330
G1 X109.954 Y127.745 E5.76214
G1 X108.533 Y127.892 E5.78812
G1 X107.074 Y127.969 E5.81468
G1 X105.297 Y127.983 E5.84699
G1 X103.827 Y127.936 E5.87372
G1 X101.489 Y127.422 E5.91724
G1 X99.448 Y126.171 E5.96076
G1 X97.928 Y124.322 E6.00428
G1 X97.097 Y122.076 E6.04781
G1 X97.047 Y119.683 E6.09133
G1 X97.783 Y117.404 E6.13485
G1 X98.898 Y115.925 E6.16852
G1 X99.139 Y116.044 F6000.000
G1 X99.599 Y115.479 E6.18177 F1200.000
G1 X101.608 Y114.253 E6.22455
G1 X103.983 Y113.762 E6.26865
G1 X108.825 Y113.622 E6.35671
G1 X111.155 Y113.951 E6.39949
G1 X113.243 Y115.038 E6.44227 F1200.000
G1 X114.850 Y116.757 E6.48504
G1 X115.794 Y118.912 E6.52782
G1 X115.966 Y121.259 E6.57060
G1 X115.349 Y123.530 E6.61338
G1 X114.011 Y125.465 E6.65616
G1 X112.105 Y126.846 E6.69894
G1 X109.923 Y127.504 E6.74037
G1 X108.517 Y127.649 E6.76607
G1 X107.066 Y127.726 E6.79248
G1 X105.302 Y127.740 E6.82455
G1 X103.839 Y127.694 E6.85115
G1 X101.542 Y127.182 E6.89393
G1 X99.547 Y125.935 E6.93671
G1 X98.079 Y124.095 E6.97949
G1 X97.308 Y121.872 E7.02227
G1 X97.320 Y119.519 E7.06504
G1 X98.114 Y117.304 E7.10782
G1 X99.101 Y116.091 E7.13626
G1 X99.331 Y116.213 F6000.000
G1 X99.979 Y115.478 E7.15407 F1200.000
G1 X102.004 Y114.365 E7.19609
G1 X103.990 Y114.005 E7.23279
G1 X108.832 Y113.864 E7.32085
G1 X111.120 Y114.195 E7.36287
G1 X113.161 Y115.281 E7.40489 F1200.000
G1 X114.714 Y116.993 E7.44691
G1 X115.595 Y119.130 E7.48893
G1 X115.702 Y121.439 E7.53095
G1 X115.021 Y123.648 E7.57297
G1 X113.632 Y125.496 E7.61499
G1 X111.701 Y126.765 E7.65701
G1 X109.892 Y127.263 E7.69112
G1 X108.501 Y127.407 E7.71653
G1 X107.058 Y127.483 E7.74280
G1 X105.307 Y127.497 E7.77463
G1 X103.851 Y127.451 E7.80111
G1 X101.597 Y126.941 E7.84313
G1 X99.647 Y125.699 E7.88516
G1 X98.234 Y123.870 E7.92718
G1 X97.522 Y121.671 E7.96920
G1 X97.597 Y119.360 E8.01122
G1 X98.450 Y117.212 E8.05324
G1 X99.291 Y116.258 E8.07635
G1 X99.507 Y116.383 F6000.000
G1 X100.362 Y115.491 E8.09881 F1200.000
G1 X102.401 Y114.495 E8.14006
G1 X103.998 Y114.247 E8.16943
G1 X108.839 Y114.107 E8.25749
G1 X111.084 Y114.439 E8.29874
G1 X113.077 Y115.524 E8.33999 F1200.000
G1 X114.574 Y117.229 E8.38124
G1 X115.392 Y119.346 E8.42249
G1 X115.431 Y121.615 E8.46374
G1 X114.687 Y123.758 E8.50499
G1 X113.249 Y125.514 E8.54624
G1 X111.295 Y126.667 E8.58749
G1 X109.861 Y127.022 E8.61435
G1 X108.485 Y127.165 E8.63948
G1 X107.051 Y127.241 E8.66560
G1 X105.313 Y127.254 E8.69720
G1 X103.863 Y127.208 E8.72356
G1 X101.652 Y126.701 E8.76481
G1 X99.750 Y125.463 E8.80606
G1 X98.391 Y123.646 E8.84731
G1 X97.742 Y121.472 E8.88856
G1 X97.881 Y119.207 E8.92981
G1 X98.792 Y117.128 E8.97106
G1 X99.466 Y116.426 E8.98876
G1 X99.667 Y116.551 F6000.000
G1 X100.749 Y115.518 E9.01594 F1200.000
G1 X102.797 Y114.644 E9.05641
G1 X104.005 Y114.490 E9.07855
G1 X108.846 Y114.350 E9.16660
G1 X111.047 Y114.683 E9.20707
G1 X112.991 Y115.767 E9.24753 F1200.000
G1 X114.431 Y117.465 E9.28799
G1 X115.184 Y119.559 E9.32846
G1 X115.154 Y121.785 E9.36892
G1 X114.346 Y123.859 E9.40938
G1 X112.861 Y125.517 E9.44985
G1 X109.829 Y126.781 E9.50956
G1 X108.470 Y126.922 E9.53441
G1 X107.043 Y126.998 E9.56039
G1 X105.318 Y127.011 E9.59175
G1 X103.875 Y126.966 E9.61798
G1 X101.708 Y126.461 E9.65845
G1 X99.855 Y125.227 E9.69891
G1 X98.552 Y123.422 E9.73938
G1 X97.966 Y121.275 E9.77984
G1 X98.170 Y119.059 E9.82030
G1 X99.139 Y117.055 E9.86077
G1 X99.624 Y116.592 E9.87295
G1 F1860.000 E6.87295
G92 E0
G1 X108.456 Y120.631 F6000.000
G1 E3.10000 F1860.000
G1 X106.642 Y120.712 E3.13301 F1200.000
G1 X104.914 Y120.734 E3.16442
M106 S255
M140 S50 ; set bed temperature
G1 F1860.000 E0.16442
G92 E0
G1 Z0.400 F6000.000
G1 X109.858 Y120.187 F6000.000
G1 E3.10000 F1860.000
G1 X108.020 Y120.334 E3.15518 F600.000
G1 X106.403 Y120.398 E3.20364
G1 X104.659 Y120.417 E3.25582
G1 X102.814 Y120.392 E3.31107
G1 F1860.000 E0.31107
G92 E0
G1 Z0.600 F6000.000
G1 X110.818 Y119.732 F6000.000
G1 E3.10000 F1860.000
G1 X109.766 Y119.864 E3.13175 F600.000
G1 X108.641 Y119.966 E3.16557
G1 X107.105 Y120.055 E3.21161
G1 X106.211 Y120.083 E3.23838
G1 X103.611 Y120.093 E3.31622
G1 X101.162 Y120.013 E3.38958
G1 F1860.000 E0.38958
G92 E0
G1 Z0.800 F6000.000
G1 X107.336 Y119.877 F6000.000
G1 E3.10000 F1860.000
G1 X106.245 Y119.925 E3.13269 F600.000
G1 X105.479 Y119.932 E3.15564
G1 X105.474 Y119.642 E3.16434
M106 S255
G1 X105.474 Y119.616 E3.16557 F600.000
G1 X106.034 Y119.600 E3.19271
G1 X107.321 Y119.563 E3.25508
G1 X107.322 Y119.588 E3.25632
M106 S255
G1 X107.333 Y119.817 E3.26315 F600.000
G1 X107.330 Y119.817 F6000.000
G1 F1860.000 E0.26315
G92 E0
G1 X105.276 Y119.778 F6000.000
G1 E3.10000 F1860.000
G1 X102.646 Y119.759 E3.17872 F600.000
G1 X100.855 Y119.684 E3.23240
G1 X99.936 Y119.622 E3.25995
G1 F1860.000 E0.25995
G92 E0
G1 X111.452 Y119.286 F6000.000
G1 E3.10000 F1860.000
G1 X110.589 Y119.425 E3.12616 F600.000
G1 X109.721 Y119.535 E3.15236
G1 X108.854 Y119.620 E3.17843
G1 X107.528 Y119.710 E3.21820
G1 F1860.000 E0.21820
G92 E0
G1 Z1.000 F6000.000
G1 X109.525 Y119.371 F6000.000
G1 E3.10000 F1860.000
G1 X108.740 Y119.504 E3.12382 F600.000
G1 X108.000 Y119.596 E3.14614
G1 X107.167 Y119.665 E3.17116
G1 X106.278 Y119.705 E3.19782
G1 X104.802 Y119.711 E3.24200
G1 X103.639 Y119.674 E3.27682
G1 X102.316 Y119.585 E3.31653
G1 X102.323 Y119.308 E3.32483
M106 S255
G1 X102.324 Y119.282 E3.32606 F600.000
G1 X104.914 Y119.207 E3.45156
G1 X109.495 Y119.074 E3.67353
G1 X109.498 Y119.100 E3.67476
M106 S255
G1 X109.519 Y119.311 E3.68112 F600.000
G1 X109.512 Y119.312 F6000.000
G1 F1860.000 E0.68112
G92 E0
G1 X102.129 Y119.088 F6000.000
G1 E3.10000 F1860.000
G1 X101.802 Y119.415 E3.11384 F600.000
G1 X100.032 Y119.314 E3.16691
G1 X98.986 Y119.222 E3.19835
G1 F1860.000 E0.19835
G92 E0
G1 X111.918 Y118.846 F6000.000
G1 E3.10000 F1860.000
G1 X110.942 Y119.026 E3.12972 F600.000
G1 X109.709 Y119.200 E3.16700
G1 F1860.000 E0.16700
G92 E0
G1 Z1.200 F6000.000
G1 X110.438 Y118.907 F6000.000
G1 E3.10000 F1860.000
G1 X109.670 Y119.095 E3.12367 F600.000
G1 X109.158 Y119.194 E3.13928
G1 X108.004 Y119.360 E3.17420
G1 X106.878 Y119.453 E3.20801
G1 X105.322 Y119.498 E3.25461
G1 X103.715 Y119.467 E3.30271
G1 X102.821 Y119.417 E3.32951
G1 X101.498 Y119.292 E3.36930
G1 X100.765 Y119.194 E3.39144
G1 X100.781 Y118.927 E3.39945
M106 S255
G1 X100.782 Y118.901 E3.40068 F600.000
G1 X105.329 Y118.769 E3.62100
G1 X110.399 Y118.623 E3.86663
G1 X110.402 Y118.648 E3.86787
M106 S255
G1 X110.430 Y118.848 E3.87390 F600.000
G1 X110.421 Y118.849 F6000.000
G1 F1860.000 E0.87390
G92 E0
G1 X100.574 Y119.034 F6000.000
G1 E3.10000 F1860.000
G1 X99.179 Y118.926 E3.14188 F600.000
G1 X98.181 Y118.821 E3.17192
G1 F1860.000 E0.17192
G92 E0
G1 X112.281 Y118.408 F6000.000
G1 E3.10000 F1860.000
G1 X111.279 Y118.620 E3.13067 F600.000
G1 X110.616 Y118.733 E3.15079
G1 X108.742 Y118.965 F6000.000
G1 X107.619 Y119.050 E3.17127 F600.000
G1 X106.091 Y119.117 E3.19907
G1 X104.553 Y119.142 E3.22704
G1 X103.030 Y119.132 E3.25473
G1 F1860.000 E0.25473
G92 E0
G1 Z1.400 F6000.000
G1 X111.044 Y118.451 F6000.000
G1 E3.10000 F1860.000
G1 X110.237 Y118.701 E3.12529 F600.000
G1 X109.640 Y118.851 E3.14373
G1 X108.821 Y119.011 E3.16869
G1 X108.007 Y119.125 E3.19331
G1 X107.177 Y119.204 E3.21825
G1 X106.341 Y119.252 E3.24333
G1 X105.498 Y119.274 E3.26858
G1 X104.319 Y119.269 E3.30385
G1 X102.908 Y119.212 E3.34613
G1 X102.028 Y119.143 E3.37255
G1 X101.134 Y119.040 E3.39950
G1 X100.232 Y118.903 E3.42682
G1 X99.650 Y118.792 E3.44455
G1 X99.672 Y118.533 E3.45233
M106 S255
G1 X99.674 Y118.508 E3.45357 F600.000
G1 X106.197 Y118.319 E3.76961
G1 X110.995 Y118.180 E4.00210
G1 X111.000 Y118.205 E4.00334
M106 S255
G1 X111.033 Y118.392 E4.00901 F600.000
G1 X111.022 Y118.393 F6000.000
G1 F1860.000 E1.00901
G92 E0
G1 X99.490 Y118.313 F6000.000
G1 E3.10000 F1860.000
G1 X99.179 Y118.607 E3.11280 F600.000
G1 X97.506 Y118.418 E3.16319
G1 F1860.000 E0.16319
G92 E0
G1 X112.565 Y117.974 F6000.000
G1 E3.10000 F1860.000
G1 X111.216 Y118.279 E3.14140 F600.000
G1 F1860.000 E0.14140
G92 E0
G1 X108.699 Y118.635 F6000.000
G1 E3.10000 F1860.000
G1 X107.299 Y118.740 E3.15852 F600.000
G1 X105.819 Y118.799 E3.22026
G1 X104.329 Y118.821 E3.28240
G1 X102.747 Y118.812 E3.34836
G1 F1860.000 E0.34836
G92 E0
G1 X108.699 Y118.637 F6000.000
G1 E3.10000 F1860.000
G1 X109.840 Y118.503 E3.12089 F600.000
G1 F1860.000 E0.12089
G92 E0
G1 X102.747 Y118.809 F6000.000
G1 E3.10000 F1860.000
G1 X101.213 Y118.755 E3.12789 F600.000
G1 F1860.000 E0.12789
G92 E0
G1 Z1.600 F6000.000
G1 X106.922 Y118.587 F6000.000
G1 E3.10000 F1860.000
G1 X105.551 Y118.650 E3.14108 F600.000
G1 X104.616 Y118.653 E3.16908
G1 X104.613 Y118.339 E3.17848
G1 X106.908 Y118.273 E3.24721
G1 X106.919 Y118.527 E3.25483
G1 F1860.000 E0.25483
G92 E0
G1 X111.484 Y118.001 F6000.000
G1 E3.10000 F1860.000
G1 X111.177 Y118.131 E3.10997 F600.000
G1 X110.403 Y118.392 E3.13443
G1 X109.614 Y118.601 E3.15886
G1 X108.815 Y118.763 E3.18327
G1 X108.007 Y118.884 E3.20771
G1 X107.193 Y118.968 E3.23223
G1 X106.371 Y119.023 E3.25687
G1 X105.546 Y119.050 E3.28159
G1 X104.093 Y119.046 E3.32507
G1 X103.000 Y119.002 E3.35783
G1 X102.130 Y118.939 E3.38394
G1 X101.135 Y118.831 E3.41391
G1 X100.361 Y118.718 E3.43732
G1 X99.631 Y118.582 E3.45955
G1 X98.762 Y118.388 E3.48618
G1 X98.787 Y118.133 E3.49385
M106 S255
G1 X98.790 Y118.108 E3.49509 F600.000
G1 X107.093 Y117.867 E3.89736
G1 X111.427 Y117.742 E4.10739
G1 X111.433 Y117.767 E4.10864
M106 S255
G1 X111.471 Y117.942 E4.11401 F600.000
G1 X111.459 Y117.945 F6000.000
G1 F1860.000 E1.11401
G92 E0
G1 X98.577 Y118.226 F6000.000
G1 E3.10000 F1860.000
G1 X96.919 Y118.004 E3.15010 F600.000
G1 F1860.000 E0.15010
G92 E0
G1 X112.792 Y117.540 F6000.000
G1 E3.10000 F1860.000
G1 X111.651 Y117.830 E3.13523 F600.000
G1 F1860.000 E0.13523
G92 E0
G1 X104.414 Y118.500 F6000.000
G1 E3.10000 F1860.000
G1 X102.656 Y118.487 E3.17332 F600.000
G1 X101.014 Y118.428 E3.24181
G1 X101.014 Y118.426 F6000.000
G1 X100.027 Y118.361 E3.25979 F600.000
G1 F1860.000 E0.25979
G92 E0
G1 X107.115 Y118.420 F6000.000
G1 E3.10000 F1860.000
G1 X108.435 Y118.323 E3.15521 F600.000
G1 X109.784 Y118.168 E3.21183
G1 X109.785 Y118.168 F6000.000
G1 X110.520 Y118.054 E3.22536 F600.000
G1 F1860.000 E0.22536
G92 E0
G1 Z1.800 F6000.000
G1 X108.936 Y118.083 F6000.000
G1 E3.10000 F1860.000
G1 X108.138 Y118.218 E3.12425 F600.000
G1 X107.448 Y118.303 E3.14504
G1 X106.383 Y118.387 E3.17703
G1 X105.580 Y118.419 E3.20108
G1 X104.600 Y118.430 E3.23042
G1 X103.490 Y118.408 E3.26366
G1 X102.457 Y118.351 E3.29463
G1 X101.833 Y118.294 E3.31338
G1 X101.843 Y117.994 E3.32238
G1 X108.904 Y117.789 E3.53383
G1 X108.930 Y118.023 E3.54087
G1 F1860.000 E0.54087
G92 E0
G1 X111.821 Y117.563 F6000.000
G1 E3.10000 F1860.000
G1 X111.121 Y117.870 E3.12288 F600.000
G1 X110.359 Y118.136 E3.14704
G1 X109.585 Y118.351 E3.17110
G1 X108.888 Y118.499 E3.19240
G1 X108.011 Y118.640 E3.21900
G1 X107.212 Y118.729 E3.24308
G1 X106.405 Y118.787 E3.26728
G1 X105.325 Y118.825 E3.29964
G1 X103.940 Y118.823 E3.34111
G1 X103.091 Y118.792 E3.36653
G1 X101.702 Y118.684 E3.40823
G1 X100.488 Y118.525 E3.44487
G1 X99.480 Y118.340 E3.47556
G1 X98.719 Y118.168 E3.49892
G1 X98.026 Y117.977 E3.52044
G1 X98.056 Y117.729 E3.52792
M106 S255
G1 X98.059 Y117.703 E3.52916 F600.000
G1 X106.891 Y117.448 E3.95708
G1 X111.763 Y117.306 E4.19313
G1 X111.768 Y117.332 E4.19438
M106 S255
G1 X111.808 Y117.504 E4.19968 F600.000
G1 X111.795 Y117.507 F6000.000
G1 F1860.000 E1.19968
G92 E0
G1 X97.844 Y117.815 F6000.000
G1 E3.10000 F1860.000
G1 X96.400 Y117.591 E3.14373 F600.000
G1 F1860.000 E0.14373
G92 E0
G1 X99.869 Y118.030 F6000.000
G1 E3.10000 F1860.000
G1 X101.638 Y118.139 E3.17390 F600.000
G1 X99.869 Y118.030 F6000.000
G1 X99.105 Y117.960 E3.18785 F600.000
G1 F1860.000 E0.18785
G92 E0
G1 X109.119 Y117.911 F6000.000
G1 E3.10000 F1860.000
G1 X110.448 Y117.715 E3.15602 F600.000
G1 F1860.000 E0.15602
G92 E0
G1 Z2.000 F6000.000
G1 X109.771 Y117.621 F6000.000
G1 E3.10000 F1860.000
G1 X108.713 Y117.871 E3.13253 F600.000
G1 X107.954 Y117.998 E3.15557
G1 X107.162 Y118.093 E3.17946
G1 X106.417 Y118.151 E3.20181
G1 X105.629 Y118.187 E3.22542
G1 X104.386 Y118.204 E3.26266
G1 X102.984 Y118.166 E3.30461
G1 X101.565 Y118.054 E3.34723
G1 X100.445 Y117.898 E3.38108
G1 X100.465 Y117.608 E3.38977
G1 X109.729 Y117.340 E3.66719
G1 X109.762 Y117.562 E3.67390
G1 F1860.000 E0.67390
G92 E0
G1 X97.397 Y117.562 F6000.000
G1 E3.10000 F1860.000
G1 X97.432 Y117.321 E3.10729 F600.000
M106 S255
G1 X97.435 Y117.296 E3.10854 F600.000
G1 X108.211 Y116.984 E3.63062
G1 X112.034 Y116.873 E3.81584
G1 X112.040 Y116.898 E3.81710
M106 S255
G1 X112.099 Y117.117 E3.82388 F600.000
G1 X111.880 Y117.236 E3.83136
G1 X110.954 Y117.648 E3.86170
G1 X110.320 Y117.876 E3.88187
G1 X109.560 Y118.093 E3.90553
G1 X108.790 Y118.264 E3.92913
G1 X107.872 Y118.413 E3.95697
G1 X107.196 Y118.491 E3.97733
G1 X105.796 Y118.582 E4.01935
G1 X104.384 Y118.604 E4.06161
G1 X103.180 Y118.576 E4.09766
G1 X102.337 Y118.527 E4.12293
G1 X101.485 Y118.448 E4.14855
G1 X100.619 Y118.332 E4.17470
G1 X99.335 Y118.094 E4.21381
G1 X98.587 Y117.916 E4.23681
G1 X97.454 Y117.581 E4.27218
G1 F1860.000 E1.27218
G92 E0
G1 X111.969 Y117.113 F6000.000
G1 X97.218 Y117.403 F6000.000
G1 E3.10000 F1860.000
G1 X95.932 Y117.178 E3.13906 F600.000
G1 F1860.000 E0.13906
G92 E0
G1 X102.549 Y117.843 F6000.000
G1 E3.10000 F1860.000
G1 X104.034 Y117.852 E3.12699 F600.000
G1 X105.619 Y117.823 E3.15581
G1 X107.132 Y117.755 E3.18334
G1 X108.075 Y117.681 E3.20054
G1 F1860.000 E0.20054
G92 E0
G1 Z2.200 F6000.000
G1 X99.455 Y117.494 F6000.000
G1 E3.10000 F1860.000
