; generated by Slic3r 1.1.7 on 2014-12-11 at 17:23:18

; perimeters extrusion width = 0.40mm
; infill extrusion width = 0.67mm
; solid infill extrusion width = 0.67mm
; top infill extrusion width = 0.67mm
; support material extrusion width = 0.40mm

G21 ; set units to millimeters
M190 S57 ; wait for bed temperature to be reached
M104 S186 ; set temperature
G28 ; home all axes Start of G Code Slic3r
 
M109 S186 ; wait for temperature to be reached
G90 ; use absolute coordinates
G92 E0
M82 ; use absolute distances for extrusion
M106 S244
G1 F1860.000 E-3.00000
G92 E0
G1 Z0.200 F6000.000
G1 X99.070 Y114.865 F6000.000
G1 E3.10000 F1860.000
G1 X101.160 Y113.542 E3.14497 F1200.000
G1 X103.959 Y112.927 E3.19707
G1 X108.801 Y112.787 E3.28513
G1 X111.253 Y113.113 E3.33010
G1 X113.476 Y114.201 E3.37508 F1200.000
G1 X115.238 Y115.937 E3.42005
G1 X116.359 Y118.142 E3.46502
G1 X116.724 Y120.484 E3.50812
G1 X116.327 Y122.926 E3.55309
G1 X115.176 Y125.116 E3.59806
G1 X113.390 Y126.827 E3.64304
G1 X111.167 Y127.880 E3.68775
G1 X110.210 Y128.126 E3.70570
G1 X108.977 Y128.346 E3.72848
G1 X107.811 Y128.466 E3.74978
G1 X106.721 Y128.510 E3.76961
G1 X106.205 Y128.507 E3.77900
G1 X104.764 Y128.440 E3.80523
G1 X103.897 Y128.355 E3.82107
G1 X102.979 Y128.230 E3.83791
G1 X100.629 Y127.456 E3.88288
G1 X98.646 Y125.977 E3.92785
G1 X97.234 Y123.945 E3.97283
G1 X96.540 Y121.570 E4.01780
G1 X96.634 Y119.098 E4.06277
G1 X97.508 Y116.784 E4.10775
G1 X99.032 Y114.912 E4.15163
G1 X99.281 Y115.050 F6000.000
G1 X99.439 Y114.870 E4.15598 F1200.000
G1 X101.545 Y113.649 E4.20023
G1 X103.966 Y113.170 E4.24511
G1 X108.808 Y113.030 E4.33316
G1 X111.220 Y113.357 E4.37742
G1 X113.398 Y114.444 E4.42167 F1200.000
G1 X115.110 Y116.175 E4.46593
G1 X116.174 Y118.365 E4.51018
G1 X116.481 Y120.484 E4.54911
G1 X116.084 Y122.886 E4.59336
G1 X114.934 Y125.031 E4.63762
G1 X113.155 Y126.693 E4.68187
G1 X111.099 Y127.647 E4.72307
G1 X110.164 Y127.888 E4.74064
G1 X108.948 Y128.104 E4.76308
G1 X107.799 Y128.223 E4.78408
G1 X106.722 Y128.267 E4.80367
G1 X106.206 Y128.264 E4.81306
G1 X104.786 Y128.198 E4.83890
G1 X103.927 Y128.114 E4.85458
G1 X103.017 Y127.990 E4.87129
G1 X100.707 Y127.222 E4.91555
G1 X98.767 Y125.751 E4.95980
G1 X97.404 Y123.734 E5.00405
G1 X96.764 Y121.386 E5.04831
G1 X96.914 Y118.956 E5.09256
G1 X97.838 Y116.704 E5.13682
G1 X99.242 Y115.095 E5.17563
G1 X99.481 Y115.237 F6000.000
G1 X99.810 Y114.885 E5.18439 F1200.000
G1 X101.929 Y113.770 E5.22792
G1 X103.973 Y113.413 E5.26564
G1 X108.815 Y113.272 E5.35370
G1 X111.187 Y113.601 E5.39722
G1 X113.320 Y114.688 E5.44075 F1200.000
G1 X114.980 Y116.413 E5.48427
G1 X115.984 Y118.586 E5.52779
G1 X116.238 Y120.484 E5.56260
G1 X115.841 Y122.845 E5.60612
G1 X114.693 Y124.946 E5.64965
G1 X112.921 Y126.555 E5.69317
G1 X111.032 Y127.414 E5.73089
G1 X110.117 Y127.650 E5.74807
G1 X108.920 Y127.863 E5.77017
G1 X107.787 Y127.981 E5.79088
G1 X106.724 Y128.024 E5.81022
G1 X106.207 Y128.021 E5.81961
G1 X104.809 Y127.956 E5.84506
G1 X103.958 Y127.873 E5.86060
G1 X103.055 Y127.750 E5.87717
G1 X100.785 Y126.989 E5.92070
G1 X98.889 Y125.527 E5.96422
G1 X97.576 Y123.525 E6.00774
G1 X96.991 Y121.203 E6.05126
G1 X97.197 Y118.818 E6.09479
G1 X98.173 Y116.632 E6.13831
G1 X99.440 Y115.280 E6.17198
G1 X99.667 Y115.425 F6000.000
G1 X100.185 Y114.912 E6.18523 F1200.000
G1 X102.313 Y113.908 E6.22801
G1 X103.980 Y113.655 E6.25866
G1 X108.822 Y113.515 E6.34672
G1 X111.152 Y113.845 E6.38950
G1 X113.240 Y114.931 E6.43228 F1200.000
G1 X114.847 Y116.650 E6.47505
G1 X115.791 Y118.806 E6.51783
G1 X115.996 Y120.484 E6.54857
G1 X115.598 Y122.803 E6.59135
G1 X114.452 Y124.859 E6.63412
G1 X112.688 Y126.415 E6.67690
G1 X110.964 Y127.180 E6.71118
G1 X110.070 Y127.411 E6.72797
G1 X108.891 Y127.622 E6.74973
G1 X107.774 Y127.738 E6.77015
G1 X106.725 Y127.781 E6.78925
G1 X106.208 Y127.778 E6.79863
G1 X104.831 Y127.714 E6.82370
G1 X103.989 Y127.632 E6.83908
G1 X103.093 Y127.510 E6.85553
G1 X100.864 Y126.755 E6.89831
G1 X99.013 Y125.302 E6.94108
G1 X97.751 Y123.316 E6.98386
G1 X97.222 Y121.023 E7.02664
G1 X97.486 Y118.685 E7.06942
G1 X98.512 Y116.567 E7.11220
G1 X99.624 Y115.467 E7.14063
G1 X99.839 Y115.613 F6000.000
G1 X100.562 Y114.952 E7.15845 F1200.000
G1 X102.696 Y114.062 E7.20047
G1 X103.987 Y113.898 E7.22414
G1 X108.829 Y113.758 E7.31220
G1 X111.117 Y114.089 E7.35422
G1 X113.158 Y115.175 E7.39624 F1200.000
G1 X114.710 Y116.887 E7.43826
G1 X115.592 Y119.024 E7.48028
G1 X115.753 Y120.484 E7.50699
G1 X115.356 Y122.761 E7.54901
G1 X114.211 Y124.770 E7.59103
G1 X112.455 Y126.272 E7.63305
G1 X110.896 Y126.947 E7.66392
G1 X110.023 Y127.173 E7.68032
G1 X108.863 Y127.381 E7.70175
G1 X107.762 Y127.496 E7.72188
G1 X106.726 Y127.538 E7.74072
G1 X106.210 Y127.535 E7.75011
G1 X104.854 Y127.473 E7.77478
G1 X104.020 Y127.391 E7.79002
G1 X103.131 Y127.270 E7.80633
G1 X100.943 Y126.522 E7.84835
G1 X99.139 Y125.078 E7.89037
G1 X97.929 Y123.108 E7.93239
G1 X97.457 Y120.846 E7.97441
G1 X97.779 Y118.557 E8.01643
G1 X98.856 Y116.512 E8.05846
G1 X99.795 Y115.654 E8.08157
G1 X99.996 Y115.800 F6000.000
G1 X100.942 Y115.005 E8.10403 F1200.000
G1 X103.994 Y114.141 E8.16170
G1 X108.836 Y114.001 E8.24975
G1 X111.081 Y114.333 E8.29100
G1 X113.074 Y115.418 E8.33225 F1200.000
G1 X114.571 Y117.123 E8.37350
G1 X115.389 Y119.239 E8.41475
G1 X115.510 Y120.484 E8.43748
G1 X115.113 Y122.718 E8.47873
G1 X113.971 Y124.679 E8.51998
G1 X112.223 Y126.126 E8.56123
G1 X110.829 Y126.714 E8.58874
G1 X109.976 Y126.934 E8.60475
G1 X108.835 Y127.139 E8.62583
G1 X107.749 Y127.253 E8.64567
G1 X106.727 Y127.295 E8.66427
G1 X106.211 Y127.292 E8.67365
G1 X104.876 Y127.231 E8.69794
G1 X104.051 Y127.150 E8.71302
G1 X103.168 Y127.030 E8.72921
G1 X101.024 Y126.289 E8.77045
G1 X99.266 Y124.855 E8.81170
G1 X98.110 Y122.902 E8.85295
G1 X97.696 Y120.671 E8.89420
G1 X98.077 Y118.434 E8.93545
G1 X99.205 Y116.465 E8.97670
G1 X99.951 Y115.839 E8.99440
G1 X100.138 Y115.985 F6000.000
G1 X101.324 Y115.074 E9.02159 F1200.000
G1 X104.001 Y114.384 E9.07185
G1 X108.843 Y114.244 E9.15991
G1 X111.044 Y114.577 E9.20037
G1 X112.988 Y115.661 E9.24083 F1200.000
G1 X114.428 Y117.358 E9.28130
G1 X115.267 Y120.484 E9.34013
G1 X114.870 Y122.674 E9.38059
G1 X113.730 Y124.586 E9.42105
G1 X111.992 Y125.976 E9.46152
G1 X110.761 Y126.480 E9.48569
G1 X109.930 Y126.696 E9.50131
G1 X108.806 Y126.898 E9.52206
G1 X107.737 Y127.010 E9.54161
G1 X106.729 Y127.052 E9.55995
G1 X106.212 Y127.050 E9.56934
G1 X104.899 Y126.989 E9.59324
G1 X104.082 Y126.909 E9.60817
G1 X103.206 Y126.790 E9.62422
G1 X101.105 Y126.056 E9.66469
G1 X99.395 Y124.631 E9.70515
G1 X98.293 Y122.697 E9.74561
G1 X97.940 Y120.500 E9.78608
G1 X98.381 Y118.318 E9.82654
G1 X99.559 Y116.429 E9.86701
G1 X100.090 Y116.021 E9.87919
G1 F1860.000 E6.87919
G92 E0
G1 X108.853 Y120.511 F6000.000
G1 E3.10000 F1860.000
G1 X108.060 Y120.606 E3.11451 F1200.000
G1 X106.757 Y120.679 E3.13824
G1 X105.484 Y120.680 E3.16138
G1 X104.452 Y120.647 E3.18015
M106 S255
M140 S50 ; set bed temperature
G1 F1860.000 E0.18015
G92 E0
G1 Z0.400 F6000.000
G1 X108.065 Y120.592 F6000.000
G1 E3.10000 F1860.000
G1 X107.403 Y120.670 E3.11995 F600.000
G1 X106.758 Y120.703 E3.13929
G1 X106.118 Y120.700 E3.15844
G1 X105.500 Y120.668 E3.17697
G1 X105.504 Y120.386 E3.18540
M106 S255
G1 X105.504 Y120.360 E3.18663 F600.000
G1 X108.043 Y120.287 E3.30965
G1 X108.045 Y120.312 E3.31088
M106 S255
G1 X108.061 Y120.532 E3.31748 F600.000
G1 X108.055 Y120.533 F6000.000
G1 F1860.000 E0.31748
G92 E0
G1 X105.302 Y120.508 F6000.000
G1 E3.10000 F1860.000
G1 X103.840 Y120.435 E3.14383 F600.000
G1 X102.322 Y120.305 E3.18942
G1 F1860.000 E0.18942
G92 E0
G1 X110.216 Y120.062 F6000.000
G1 E3.10000 F1860.000
G1 X109.295 Y120.271 E3.12827 F600.000
G1 X108.253 Y120.416 E3.15976
G1 F1860.000 E0.15976
G92 E0
G1 Z0.500 F6000.000
G1 Z0.600 F6000.000
G1 X110.078 Y120.049 F6000.000
G1 E3.10000 F1860.000
G1 X109.901 Y120.144 E3.10602 F600.000
G1 X109.304 Y120.384 E3.12528
G1 X108.684 Y120.564 E3.14459
G1 X108.352 Y120.629 E3.15473
G1 X107.381 Y120.700 E3.18386
G1 X106.053 Y120.734 E3.22365
G1 X105.087 Y120.723 E3.25257
G1 X104.902 Y120.706 E3.25813
G1 X103.838 Y120.554 E3.29029
G1 X103.198 Y120.433 E3.30981
G1 X102.609 Y120.297 E3.32788
G1 X102.635 Y120.043 E3.33551
M106 S255
G1 X102.638 Y120.018 E3.33675 F600.000
G1 X104.067 Y119.976 E3.40600
G1 X110.012 Y119.804 E3.69405
G1 X110.019 Y119.830 E3.69532
M106 S255
G1 X110.062 Y119.991 E3.70031 F600.000
G1 X110.048 Y119.994 F6000.000
G1 F1860.000 E0.70031
G92 E0
G1 X102.424 Y120.138 F6000.000
G1 E3.10000 F1860.000
G1 X100.811 Y119.912 E3.14876 F600.000
G1 F1860.000 E0.14876
G92 E0
G1 X105.400 Y120.335 F6000.000
G1 E3.10000 F1860.000
G1 X106.694 Y120.313 E3.15396 F600.000
G1 X108.112 Y120.256 E3.21310
G1 X108.112 Y120.264 F6000.000
G1 X109.199 Y120.115 E3.23305 F600.000
G1 F1860.000 E0.23305
G92 E0
G1 X105.400 Y120.334 F6000.000
G1 E3.10000 F1860.000
G1 X104.943 Y120.330 E3.10831 F600.000
G1 X103.912 Y120.272 E3.12708
G1 F1860.000 E0.12708
G92 E0
G1 Z0.800 F6000.000
G1 X110.908 Y119.378 F6000.000
G1 E3.10000 F1860.000
G1 X110.977 Y119.573 E3.10619 F600.000
G1 X110.470 Y119.933 E3.12478
G1 X110.046 Y120.162 E3.13922
G1 X109.110 Y120.319 E3.16761
G1 X108.318 Y120.411 E3.19150
G1 X107.236 Y120.491 E3.22396
G1 X106.467 Y120.517 E3.24700
G1 X104.712 Y120.505 E3.29952
G1 X103.751 Y120.463 E3.32833
G1 X102.541 Y120.374 E3.36465
G1 X101.619 Y120.117 E3.39331
G1 X101.000 Y119.902 E3.41290
G1 X101.037 Y119.664 E3.42011
M106 S255
G1 X101.041 Y119.638 E3.42136 F600.000
G1 X110.866 Y119.354 E3.89739
M106 S255
G1 X110.100 Y119.730 F6000.000
G1 X109.907 Y119.782 E3.90573 F600.000
G1 X109.045 Y119.865 E3.94180
G1 X107.209 Y119.976 E4.01850
G1 X104.727 Y120.019 E4.12199
G1 X102.540 Y119.984 E4.21316
G1 X102.546 Y119.795 F6000.000
G1 X102.380 Y119.961 E4.21743 F600.000
G1 X101.888 Y119.899 E4.22644
G1 F1860.000 E1.22644
G92 E0
G1 Z1.000 F6000.000
G1 X109.112 Y119.679 F6000.000
G1 E3.10000 F1860.000
G1 X107.882 Y119.826 E3.13709 F600.000
G1 X107.084 Y119.880 E3.16101
G1 X106.221 Y119.909 E3.18688
G1 X105.270 Y119.908 E3.21535
G1 X103.566 Y119.848 E3.26636
G1 X103.569 Y119.540 E3.27560
G1 X109.084 Y119.380 E3.44077
G1 X109.106 Y119.620 E3.44797
G1 F1860.000 E0.44797
G92 E0
G1 X99.819 Y119.491 F6000.000
G1 E3.10000 F1860.000
G1 X99.867 Y119.272 E3.10669 F600.000
M106 S255
G1 X99.873 Y119.247 E3.10796 F600.000
G1 X107.093 Y119.038 E3.45778
G1 X111.746 Y118.903 E3.68322
G1 X111.723 Y118.929 E3.68491
M106 S255
G1 X111.238 Y119.444 E3.70609 F600.000
G1 X110.913 Y119.717 E3.71877
G1 X109.855 Y119.961 E3.75130
G1 X108.887 Y120.119 E3.78064
G1 X108.001 Y120.218 E3.80735
G1 X107.107 Y120.280 E3.83416
G1 X106.210 Y120.309 E3.86104
G1 X104.531 Y120.291 E3.91129
G1 X103.475 Y120.242 E3.94294
G1 X102.134 Y120.134 E3.98320
G1 X101.002 Y119.995 E4.01735
G1 X100.088 Y119.624 E4.04687
G1 X99.873 Y119.517 E4.05406
G1 F1860.000 E1.05406
G92 E0
G1 X111.384 Y119.143 F6000.000
G1 X103.370 Y119.345 F6000.000
G1 E3.10000 F1860.000
G1 X103.040 Y119.683 E3.11969 F600.000
G1 X100.940 Y119.600 E3.20731
G1 F1860.000 E0.20731
G92 E0
G1 X109.297 Y119.513 F6000.000
G1 E3.10000 F1860.000
G1 X110.729 Y119.342 E3.16010 F600.000
G1 X111.271 Y119.151 E3.18406
G1 F1860.000 E0.18406
G92 E0
G1 Z1.100 F6000.000
G1 Z1.200 F6000.000
G1 X101.597 Y119.171 F6000.000
G1 E3.10000 F1860.000
G1 X110.267 Y118.920 E3.35965 F600.000
G1 X110.304 Y119.208 E3.36833
G1 X109.691 Y119.345 E3.38714
G1 X109.116 Y119.446 E3.40460
G1 X107.965 Y119.592 E3.43934
G1 X106.753 Y119.672 E3.47570
G1 X105.350 Y119.696 E3.51772
G1 X103.568 Y119.642 E3.57106
G1 X102.731 Y119.585 E3.59620
G1 X101.757 Y119.489 E3.62548
G1 X101.582 Y119.466 E3.63078
G1 X101.594 Y119.231 E3.63782
G1 F1860.000 E0.63782
G92 E0
G1 X98.887 Y119.081 F6000.000
G1 E3.10000 F1860.000
G1 X98.941 Y118.873 E3.10641 F600.000
M106 S255
G1 X98.948 Y118.848 E3.10769 F600.000
G1 X110.215 Y118.522 E3.65360
G1 X112.123 Y118.466 E3.74603
G1 X112.105 Y118.492 E3.74755
M106 S255
G1 X111.692 Y119.060 E3.76856 F600.000
G1 X111.495 Y119.284 E3.77750
G1 X111.402 Y119.315 E3.78040
G1 X110.621 Y119.545 E3.80480
G1 X109.739 Y119.744 E3.83186
G1 X108.875 Y119.888 E3.85808
G1 X108.390 Y119.948 E3.87270
G1 X107.125 Y120.056 E3.91072
G1 X105.952 Y120.094 E3.94585
G1 X104.326 Y120.075 E3.99450
G1 X102.718 Y119.985 E4.04272
G1 X101.709 Y119.887 E4.07306
G1 X100.857 Y119.775 E4.09879
G1 X99.868 Y119.608 E4.12881
G1 X99.302 Y119.326 E4.14775
G1 X98.939 Y119.111 E4.16037
G1 F1860.000 E1.16037
G92 E0
G1 X111.786 Y118.734 F6000.000
G1 X101.390 Y119.308 F6000.000
G1 E3.10000 F1860.000
G1 X100.117 Y119.231 E3.15317 F600.000
G1 X99.788 Y119.175 E3.16708
G1 F1860.000 E0.16708
G92 E0
G1 X104.553 Y119.383 F6000.000
G1 E3.10000 F1860.000
G1 X106.222 Y119.364 E3.13034 F600.000
G1 X108.107 Y119.279 E3.16463
G1 F1860.000 E0.16463
G92 E0
G1 Z1.400 F6000.000
G1 X100.278 Y119.073 F6000.000
G1 E3.10000 F1860.000
G1 X100.298 Y118.783 E3.10871 F600.000
G1 X110.980 Y118.474 E3.42860
G1 X111.024 Y118.752 E3.43701
G1 X110.240 Y118.974 E3.46142
G1 X109.624 Y119.116 E3.48032
G1 X108.797 Y119.261 E3.50547
G1 X107.968 Y119.365 E3.53047
G1 X107.119 Y119.433 E3.55595
G1 X106.263 Y119.469 E3.58162
G1 X105.397 Y119.480 E3.60754
G1 X103.644 Y119.435 E3.66002
G1 X102.738 Y119.379 E3.68720
G1 X101.838 Y119.296 E3.71425
G1 X100.953 Y119.184 E3.74094
G1 X100.337 Y119.083 E3.75963
G1 F1860.000 E0.75963
G92 E0
G1 X98.095 Y118.669 F6000.000
G1 E3.10000 F1860.000
G1 X98.152 Y118.471 E3.10618 F600.000
M106 S255
G1 X98.159 Y118.445 E3.10748 F600.000
G1 X110.220 Y118.096 E3.69181
G1 X112.406 Y118.033 E3.79776
G1 X112.393 Y118.058 E3.79916
M106 S255
G1 X112.227 Y118.382 E3.81005 F600.000
G1 X111.924 Y118.854 E3.82685
G1 X111.038 Y119.165 E3.85493
G1 X110.543 Y119.311 E3.87039
G1 X109.707 Y119.507 E3.89611
G1 X108.859 Y119.657 E3.92188
G1 X108.006 Y119.763 E3.94762
G1 X107.142 Y119.832 E3.97355
G1 X106.462 Y119.863 E3.99393
G1 X104.874 Y119.875 E4.04147
G1 X103.623 Y119.835 E4.07895
G1 X102.521 Y119.762 E4.11200
G1 X101.739 Y119.687 E4.13552
G1 X100.896 Y119.580 E4.16096
G1 X100.042 Y119.440 E4.18686
G1 X98.954 Y119.212 E4.22013
G1 X98.513 Y118.951 E4.23548
G1 X98.144 Y118.703 E4.24878
G1 F1860.000 E1.24878
G92 E0
G1 X112.128 Y118.307 F6000.000
G1 X108.172 Y118.946 F6000.000
G1 E3.10000 F1860.000
G1 X106.252 Y119.040 E3.18013 F600.000
G1 X104.220 Y119.064 E3.26484
G1 F1860.000 E0.26484
G92 E0
G1 X108.172 Y118.946 F6000.000
G1 E3.10000 F1860.000
G1 X109.697 Y118.802 E3.12784 F600.000
G1 F1860.000 E0.12784
G92 E0
G1 X104.221 Y118.870 F6000.000
G1 E3.10000 F1860.000
G1 X104.032 Y119.063 E3.10491 F600.000
G1 X102.095 Y119.025 E3.14013
G1 F1860.000 E0.14013
G92 E0
G1 Z1.600 F6000.000
G1 X99.258 Y118.672 F6000.000
G1 E3.10000 F1860.000
G1 X99.282 Y118.387 E3.10855 F600.000
G1 X111.473 Y118.034 E3.47361
G1 X111.527 Y118.297 E3.48165
G1 X111.185 Y118.433 E3.49264
G1 X110.397 Y118.679 E3.51738
G1 X109.598 Y118.874 E3.54199
G1 X108.785 Y119.022 E3.56672
G1 X107.961 Y119.131 E3.59159
G1 X106.935 Y119.216 E3.62241
G1 X106.164 Y119.250 E3.64551
G1 X104.617 Y119.257 E3.69182
G1 X102.828 Y119.177 E3.74544
G1 X101.942 Y119.099 E3.77207
G1 X101.044 Y118.991 E3.79914
G1 X100.140 Y118.848 E3.82653
G1 X99.317 Y118.683 E3.85166
G1 F1860.000 E0.85166
G92 E0
G1 X97.200 Y118.047 F6000.000
G1 E3.10000 F1860.000
M106 S255
G1 X112.645 Y117.600 E3.84832 F600.000
G1 X112.634 Y117.626 E3.84967
M106 S255
G1 X112.500 Y117.949 E3.86013 F600.000
G1 X112.254 Y118.429 E3.87628
G1 X111.331 Y118.805 E3.90613
G1 X110.674 Y119.015 E3.92676
G1 X109.680 Y119.265 E3.95745
G1 X108.501 Y119.467 E3.99324
G1 X107.157 Y119.603 E4.03369
G1 X106.174 Y119.650 E4.06315
G1 X104.573 Y119.656 E4.11109
G1 X102.801 Y119.576 E4.16419
G1 X101.550 Y119.458 E4.20178
G1 X100.072 Y119.242 E4.24651
G1 X99.193 Y119.067 E4.27333
G1 X98.171 Y118.813 E4.30486
G1 X97.782 Y118.529 E4.31928
G1 X97.246 Y118.086 E4.34009
G1 F1860.000 E1.34009
G92 E0
G1 X112.392 Y117.878 F6000.000
G1 X109.659 Y118.471 F6000.000
G1 E3.10000 F1860.000
G1 X107.906 Y118.636 E3.17341 F600.000
G1 X106.152 Y118.719 E3.24664
G1 X103.881 Y118.744 E3.34129
