; generated by Slic3r 1.1.7 on 2014-12-11 at 17:13:31

; perimeters extrusion width = 0.40mm
; infill extrusion width = 0.67mm
; solid infill extrusion width = 0.67mm
; top infill extrusion width = 0.67mm
; support material extrusion width = 0.40mm

G21 ; set units to millimeters
M190 S57 ; wait for bed temperature to be reached
M104 S186 ; set temperature
G28 ; home all axes Start of G Code Slic3r
 
M109 S186 ; wait for temperature to be reached
G90 ; use absolute coordinates
G92 E0
M82 ; use absolute distances for extrusion
M106 S248
G1 F1860.000 E-3.00000
G92 E0
G1 Z0.200 F6000.000
G1 X104.930 Y135.974 F6000.000
G1 E3.10000 F1860.000
G1 X106.953 Y134.621 E3.14425 F1200.000
G1 X109.816 Y133.958 E3.19768
G1 X116.611 Y133.762 E3.32125
G1 X119.023 Y134.089 E3.36550
G1 X121.201 Y135.176 E3.40976 F1200.000
G1 X122.913 Y136.907 E3.45401
G1 X123.977 Y139.097 E3.49826
G1 X124.278 Y141.512 E3.54252
G1 X123.786 Y143.896 E3.58677
G1 X122.552 Y145.995 E3.63102
G1 X120.708 Y147.584 E3.67528
G1 X118.264 Y148.534 E3.72294
G1 X117.022 Y148.755 E3.74588
G1 X115.215 Y148.952 E3.77892
G1 X113.481 Y149.029 E3.81047
G1 X111.827 Y149.012 E3.84054
G1 X110.262 Y148.924 E3.86903
G1 X109.341 Y148.838 E3.88586
G1 X106.986 Y148.220 E3.93011
G1 X104.956 Y146.876 E3.97437
G1 X103.467 Y144.951 E4.01862
G1 X102.678 Y142.648 E4.06288
G1 X102.672 Y140.214 E4.10713
G1 X103.450 Y137.907 E4.15138
G1 X104.893 Y136.022 E4.19455
G1 X105.147 Y136.153 F6000.000
G1 X105.302 Y135.966 E4.19897 F1200.000
G1 X107.345 Y134.717 E4.24249
G1 X109.823 Y134.201 E4.28851
G1 X116.618 Y134.005 E4.41208
G1 X118.989 Y134.333 E4.45561
G1 X121.123 Y135.420 E4.49913 F1200.000
G1 X122.783 Y137.145 E4.54265
G1 X123.787 Y139.318 E4.58617
G1 X124.025 Y141.700 E4.62970
G1 X123.470 Y144.029 E4.67322
G1 X122.184 Y146.048 E4.71674
G1 X120.307 Y147.535 E4.76026
G1 X118.217 Y148.295 E4.80070
G1 X116.994 Y148.514 E4.82329
G1 X115.203 Y148.710 E4.85604
G1 X113.482 Y148.786 E4.88735
G1 X111.840 Y148.770 E4.91721
G1 X110.285 Y148.682 E4.94552
G1 X109.363 Y148.596 E4.96235
G1 X107.049 Y147.982 E5.00587
G1 X105.064 Y146.644 E5.04939
G1 X103.625 Y144.730 E5.09291
G1 X102.893 Y142.451 E5.13644
G1 X102.946 Y140.058 E5.17996
G1 X103.779 Y137.813 E5.22348
G1 X105.109 Y136.199 E5.26150
G1 X105.352 Y136.335 F6000.000
G1 X105.677 Y135.969 E5.27040 F1200.000
G1 X107.737 Y134.830 E5.31318
G1 X109.830 Y134.444 E5.35189
G1 X116.625 Y134.247 E5.47546
G1 X118.955 Y134.577 E5.51823
G1 X121.042 Y135.663 E5.56101 F1200.000
G1 X122.649 Y137.382 E5.60379
G1 X123.593 Y139.538 E5.64657
G1 X123.766 Y141.885 E5.68935
G1 X123.148 Y144.155 E5.73213
G1 X121.811 Y146.091 E5.77490
G1 X119.905 Y147.471 E5.81768
G1 X118.170 Y148.057 E5.85096
G1 X116.965 Y148.273 E5.87322
G1 X115.190 Y148.467 E5.90568
G1 X113.484 Y148.543 E5.93673
G1 X111.853 Y148.527 E5.96639
G1 X110.307 Y148.440 E5.99452
G1 X109.386 Y148.354 E6.01135
G1 X107.113 Y147.744 E6.05412
G1 X105.173 Y146.412 E6.09690
G1 X103.787 Y144.511 E6.13968
G1 X103.112 Y142.257 E6.18246
G1 X103.225 Y139.906 E6.22524
G1 X104.114 Y137.727 E6.26802
G1 X105.312 Y136.380 E6.30079
G1 X105.542 Y136.518 F6000.000
G1 X106.056 Y135.984 E6.31427 F1200.000
G1 X108.128 Y134.959 E6.35629
G1 X109.837 Y134.687 E6.38775
G1 X116.632 Y134.490 E6.51132
G1 X118.920 Y134.821 E6.55335
G1 X120.960 Y135.907 E6.59537 F1200.000
G1 X122.513 Y137.619 E6.63739
G1 X123.395 Y139.756 E6.67941
G1 X123.502 Y142.065 E6.72143
G1 X122.821 Y144.274 E6.76345
G1 X121.432 Y146.122 E6.80547
G1 X119.500 Y147.391 E6.84749
G1 X118.124 Y147.819 E6.87370
G1 X116.937 Y148.032 E6.89562
G1 X115.178 Y148.224 E6.92779
G1 X113.485 Y148.300 E6.95859
G1 X111.865 Y148.285 E6.98804
G1 X110.330 Y148.198 E7.01599
G1 X109.408 Y148.113 E7.03282
G1 X107.178 Y147.506 E7.07484
G1 X105.284 Y146.181 E7.11686
G1 X103.951 Y144.293 E7.15888
G1 X103.335 Y142.065 E7.20090
G1 X103.510 Y139.760 E7.24292
G1 X104.454 Y137.650 E7.28494
G1 X105.501 Y136.562 E7.31240
G1 X105.718 Y136.702 F6000.000
G1 X106.439 Y136.013 E7.33052 F1200.000
G1 X108.519 Y135.106 E7.37177
G1 X109.844 Y134.930 E7.39608
G1 X116.639 Y134.733 E7.51965
G1 X118.884 Y135.065 E7.56090
G1 X120.876 Y136.150 E7.60215 F1200.000
G1 X122.374 Y137.855 E7.64340
G1 X123.192 Y139.971 E7.68465
G1 X123.231 Y142.240 E7.72590
G1 X122.486 Y144.384 E7.76715
G1 X121.049 Y146.139 E7.80840
G1 X118.077 Y147.580 E7.86845
G1 X116.908 Y147.791 E7.89003
G1 X115.165 Y147.982 E7.92190
G1 X113.486 Y148.057 E7.95246
G1 X111.878 Y148.042 E7.98170
G1 X110.352 Y147.957 E8.00947
G1 X109.431 Y147.871 E8.02630
G1 X107.243 Y147.268 E8.06755
G1 X105.397 Y145.949 E8.10880
G1 X104.118 Y144.075 E8.15005
G1 X103.563 Y141.875 E8.19130
G1 X103.799 Y139.618 E8.23255
G1 X104.799 Y137.581 E8.27380
G1 X105.675 Y136.744 E8.29583
G1 X105.878 Y136.885 F6000.000
G1 X106.825 Y136.057 E8.31869 F1200.000
G1 X109.851 Y135.173 E8.37602
G1 X116.646 Y134.976 E8.49959
G1 X118.847 Y135.309 E8.54005
G1 X120.791 Y136.393 E8.58051 F1200.000
G1 X122.231 Y138.090 E8.62098
G1 X122.984 Y140.185 E8.66144
G1 X122.954 Y142.411 E8.70191
G1 X122.146 Y144.484 E8.74237
G1 X120.661 Y146.143 E8.78283
G1 X118.030 Y147.342 E8.83540
G1 X116.880 Y147.549 E8.85664
G1 X115.153 Y147.739 E8.88822
G1 X113.487 Y147.815 E8.91853
G1 X111.891 Y147.799 E8.94756
G1 X110.375 Y147.715 E8.97516
G1 X109.453 Y147.629 E8.99198
G1 X107.309 Y147.031 E9.03245
G1 X105.511 Y145.718 E9.07291
G1 X104.288 Y143.859 E9.11337
G1 X103.795 Y141.688 E9.15384
G1 X104.095 Y139.483 E9.19430
G1 X105.149 Y137.523 E9.23477
G1 X105.833 Y136.925 E9.25128
G1 F1860.000 E6.25128
G92 E0
G1 X116.550 Y141.247 F6000.000
G1 E3.10000 F1860.000
G1 X114.824 Y141.389 E3.13149 F1200.000
G1 X113.516 Y141.442 E3.15528
G1 X112.222 Y141.457 E3.17881
G1 X110.515 Y141.437 E3.20984
M106 S255
M140 S50 ; set bed temperature
G1 F1860.000 E0.20984
G92 E0
G1 Z0.400 F6000.000
G1 X115.317 Y141.340 F6000.000
G1 E3.10000 F1860.000
G1 X114.819 Y141.399 E3.11499 F600.000
G1 X113.517 Y141.466 E3.15403
G1 X112.227 Y141.459 E3.19264
G1 X111.880 Y141.441 E3.20304
G1 X111.884 Y141.159 E3.21147
M106 S255
G1 X111.884 Y141.134 E3.21270 F600.000
G1 X115.294 Y141.035 E3.37794
G1 X115.296 Y141.060 E3.37917
M106 S255
G1 X115.312 Y141.280 E3.38578 F600.000
G1 X115.307 Y141.281 F6000.000
G1 F1860.000 E0.38578
G92 E0
G1 X111.686 Y140.939 F6000.000
G1 E3.10000 F1860.000
G1 X111.350 Y141.281 E3.11434 F600.000
G1 X109.776 Y141.238 E3.16147
G1 X107.477 Y141.106 E3.23043
G1 F1860.000 E0.23043
G92 E0
G1 X118.703 Y140.780 F6000.000
G1 E3.10000 F1860.000
G1 X117.404 Y140.984 E3.13936 F600.000
G1 X116.102 Y141.129 E3.17858
G1 X115.505 Y141.173 E3.19651
G1 F1860.000 E0.19651
G92 E0
G1 Z0.600 F6000.000
G1 X118.402 Y140.799 F6000.000
G1 E3.10000 F1860.000
G1 X117.409 Y141.087 E3.13095 F600.000
G1 X116.123 Y141.340 E3.17019
G1 X114.822 Y141.493 E3.20940
G1 X113.520 Y141.560 E3.24844
G1 X112.230 Y141.553 E3.28706
G1 X110.974 Y141.487 E3.32470
G1 X109.774 Y141.375 E3.36076
G1 X108.654 Y141.232 E3.39456
G1 X107.906 Y141.114 E3.41723
G1 X107.923 Y140.848 E3.42520
M106 S255
G1 X107.925 Y140.823 E3.42643 F600.000
G1 X116.223 Y140.582 E3.82849
G1 X118.359 Y140.521 E3.93197
G1 X118.363 Y140.546 E3.93321
M106 S255
G1 X118.393 Y140.740 E3.93908 F600.000
G1 X118.383 Y140.741 F6000.000
G1 F1860.000 E0.93908
G92 E0
G1 X107.716 Y140.956 F6000.000
G1 E3.10000 F1860.000
G1 X105.284 Y140.751 E3.17305 F600.000
G1 F1860.000 E0.17305
G92 E0
G1 X120.082 Y140.309 F6000.000
G1 E3.10000 F1860.000
G1 X118.579 Y140.632 E3.14603 F600.000
G1 F1860.000 E0.14603
G92 E0
G1 X115.774 Y140.987 F6000.000
G1 E3.10000 F1860.000
G1 X114.786 Y141.059 E3.14132 F600.000
G1 X113.509 Y141.110 E3.19456
G1 X111.364 Y141.115 E3.28402
G1 F1860.000 E0.28402
G92 E0
G1 X115.774 Y140.987 F6000.000
G1 E3.10000 F1860.000
G1 X117.108 Y140.849 E3.12438 F600.000
G1 F1860.000 E0.12438
G92 E0
G1 X111.364 Y141.115 F6000.000
G1 E3.10000 F1860.000
G1 X109.651 Y141.065 E3.13115 F600.000
G1 F1860.000 E0.13115
G92 E0
G1 Z0.800 F6000.000
G1 X117.154 Y140.824 F6000.000
G1 E3.10000 F1860.000
G1 X116.064 Y141.038 E3.13327 F600.000
G1 X114.791 Y141.188 E3.17162
G1 X113.513 Y141.254 E3.20993
G1 X112.244 Y141.247 E3.24792
G1 X111.005 Y141.182 E3.28505
G1 X109.603 Y141.044 E3.32723
G1 X109.618 Y140.748 E3.33609
G1 X117.121 Y140.531 E3.56081
G1 X117.148 Y140.764 E3.56783
G1 F1860.000 E0.56783
G92 E0
G1 X119.920 Y140.314 F6000.000
G1 E3.10000 F1860.000
G1 X118.669 Y140.817 E3.14035 F600.000
G1 X117.412 Y141.181 E3.17953
G1 X116.126 Y141.434 E3.21877
G1 X114.825 Y141.587 E3.25798
G1 X113.523 Y141.654 E3.29701
G1 X112.232 Y141.647 E3.33563
G1 X110.976 Y141.581 E3.37328
G1 X109.777 Y141.469 E3.40934
G1 X108.657 Y141.326 E3.44314
G1 X106.744 Y141.000 E3.50124
G1 X105.571 Y140.743 E3.53718
G1 X105.597 Y140.490 E3.54480
M106 S255
G1 X105.600 Y140.464 E3.54604 F600.000
G1 X110.086 Y140.335 E3.76342
G1 X119.865 Y140.051 E4.23722
G1 X119.870 Y140.077 E4.23847
M106 S255
G1 X119.908 Y140.255 E4.24392 F600.000
G1 X119.895 Y140.257 F6000.000
G1 F1860.000 E1.24392
G92 E0
G1 X105.386 Y140.583 F6000.000
G1 E3.10000 F1860.000
G1 X103.537 Y140.366 E3.15575 F600.000
G1 F1860.000 E0.15575
G92 E0
G1 X107.683 Y140.786 F6000.000
G1 E3.10000 F1860.000
G1 X109.411 Y140.886 E3.17214 F600.000
G1 X107.683 Y140.785 F6000.000
G1 X106.816 Y140.719 E3.18795 F600.000
G1 F1860.000 E0.18795
G92 E0
G1 X112.886 Y140.952 F6000.000
G1 E3.10000 F1860.000
G1 X114.401 Y140.909 E3.12754 F600.000
G1 F1860.000 E0.12754
G92 E0
G1 Z1.000 F6000.000
G1 X119.087 Y140.312 F6000.000
G1 E3.10000 F1860.000
G1 X118.541 Y140.532 E3.11762 F600.000
G1 X117.320 Y140.886 E3.15567
G1 X116.066 Y141.132 E3.19392
G1 X114.794 Y141.282 E3.23228
G1 X113.516 Y141.348 E3.27058
G1 X112.247 Y141.341 E3.30858
G1 X111.008 Y141.276 E3.34570
G1 X109.824 Y141.166 E3.38131
G1 X108.716 Y141.024 E3.41473
G1 X107.709 Y140.865 E3.44527
G1 X106.770 Y140.691 E3.47383
G1 X106.792 Y140.404 E3.48245
G1 X119.033 Y140.050 E3.84900
G1 X119.075 Y140.254 E3.85522
G1 X120.965 Y139.840 F6000.000
G1 X119.886 Y140.423 E3.89193 F600.000
G1 X118.672 Y140.911 E3.93109
G1 X117.415 Y141.275 E3.97027
G1 X116.129 Y141.528 E4.00951
G1 X114.828 Y141.681 E4.04872
G1 X113.525 Y141.748 E4.08776
G1 X112.235 Y141.741 E4.12638
G1 X110.979 Y141.675 E4.16403
G1 X109.780 Y141.563 E4.20008
G1 X108.660 Y141.420 E4.23388
G1 X107.641 Y141.259 E4.26475
G1 X106.000 Y140.939 E4.31479
G1 X104.627 Y140.611 E4.35706
G1 X103.769 Y140.363 E4.38380
G1 X103.800 Y140.116 E4.39123
M106 S255
G1 X103.803 Y140.091 E4.39247 F600.000
G1 X110.649 Y139.893 E4.72415
G1 X120.899 Y139.596 E5.22080
G1 X120.906 Y139.621 E5.22207
M106 S255
G1 X120.949 Y139.782 E5.22706 F600.000
G1 X120.935 Y139.785 F6000.000
G1 F1860.000 E2.22706
G92 E0
G1 X114.251 Y140.510 F6000.000
G1 E3.10000 F1860.000
G1 X114.292 Y140.551 E3.10273 F600.000
G1 X113.006 Y141.024 E3.16713
G1 X112.966 Y140.983 E3.16981
G1 X112.642 Y140.789 F6000.000
G1 X111.044 Y140.779 E3.23643 F600.000
G1 X109.334 Y140.715 E3.30780
G1 X109.334 Y140.715 F6000.000
G1 X108.235 Y140.654 E3.32780 F600.000
G1 F1860.000 E0.32780
G92 E0
G1 X105.426 Y140.418 F6000.000
G1 E3.10000 F1860.000
G1 X104.770 Y140.350 E3.11199 F600.000
G1 F1860.000 E0.11199
G92 E0
G1 X114.628 Y140.738 F6000.000
G1 E3.10000 F1860.000
G1 X115.989 Y140.638 E3.15690 F600.000
G1 X117.389 Y140.481 E3.21564
G1 X117.388 Y140.474 F6000.000
G1 X118.085 Y140.365 E3.22845 F600.000
G1 F1860.000 E0.22845
G92 E0
G1 Z1.200 F6000.000
G1 X120.312 Y139.834 F6000.000
G1 E3.10000 F1860.000
G1 X119.718 Y140.154 E3.12017 F644.141
G1 X118.544 Y140.626 E3.15806
G1 X117.888 Y140.816 E3.17852
G1 X116.089 Y141.005 E3.23264
G1 X114.680 Y141.096 E3.27493
G1 X113.285 Y141.147 E3.31671
G1 X110.925 Y141.158 E3.38735
G1 X108.508 Y141.085 E3.45975
G1 X107.711 Y140.959 E3.48387
G1 X106.437 Y140.717 E3.52271
G1 X104.728 Y140.317 E3.57526
G1 X104.756 Y140.038 E3.58365
G1 X120.246 Y139.589 E4.04751
G1 X120.296 Y139.776 E4.05329
G1 X121.736 Y139.172 F6000.000
G1 X121.804 Y139.367 E4.05948 F600.000
G1 X121.039 Y139.896 E4.08733
G1 X119.889 Y140.516 E4.12646
G1 X118.675 Y141.005 E4.16562
G1 X117.969 Y141.209 E4.18760
G1 X117.322 Y141.290 E4.20713
G1 X116.121 Y141.403 E4.24324
G1 X114.701 Y141.496 E4.28586
G1 X113.294 Y141.547 E4.32798
G1 X111.945 Y141.563 E4.36836
G1 X109.691 Y141.531 E4.43584
G1 X108.466 Y141.483 E4.47254
G1 X107.644 Y141.353 E4.49746
G1 X106.003 Y141.033 E4.54750
G1 X104.630 Y140.705 E4.58977
G1 X103.172 Y140.283 E4.63519
G1 X102.276 Y139.972 E4.66358
G1 X102.313 Y139.734 E4.67079
M106 S255
G1 X102.317 Y139.708 E4.67204 F600.000
G1 X121.693 Y139.147 E5.61085
M106 S255
G1 F1860.000 E2.61085
G92 E0
G1 X102.145 Y139.513 F6000.000
G1 E3.10000 F1860.000
G1 X101.852 Y139.772 E3.11168 F600.000
G1 X100.840 Y139.590 E3.14247
G1 F1860.000 E0.14247
G92 E0
G1 X108.376 Y140.255 F6000.000
G1 E3.10000 F1860.000
G1 X108.334 Y140.297 E3.10282 F600.000
G1 X108.798 Y140.772 E3.13403
G1 X109.343 Y140.227 E3.17029
G1 X109.709 Y140.799 E3.20225
G1 X110.310 Y140.199 E3.24220
G1 X110.620 Y140.827 E3.27516
G1 X111.276 Y140.171 E3.31881
G1 X111.552 Y140.833 E3.35257
G1 X112.243 Y140.143 E3.39851
G1 X112.495 Y140.829 E3.43290
G1 X113.210 Y140.115 E3.48041
G1 X113.444 Y140.819 E3.51533
G1 X114.177 Y140.087 E3.56406
G1 X114.418 Y140.784 E3.59876
G1 X115.143 Y140.059 E3.64700
G1 X115.414 Y140.726 E3.68089
G1 X116.110 Y140.031 E3.72715
G1 X116.434 Y140.645 E3.75983
G1 X117.077 Y140.003 E3.80256
G1 X117.483 Y140.536 E3.83406
G1 X118.043 Y139.975 E3.87135
G1 X118.767 Y140.190 E3.90684
G1 X118.820 Y140.137 E3.91036
G1 F1860.000 E0.91036
G92 E0
G1 X107.998 Y140.473 F6000.000
G1 E3.10000 F1860.000
G1 X106.587 Y140.362 E3.15900 F600.000
G1 X106.587 Y140.363 F6000.000
G1 X105.860 Y140.293 E3.17228 F600.000
G1 F1860.000 E0.17228
G92 E0
G1 Z1.400 F6000.000
G1 X121.257 Y139.367 F6000.000
G1 E3.10000 F1860.000
G1 X120.836 Y139.646 E3.11515 F749.563
G1 X119.721 Y140.248 E3.15305
G1 X119.461 Y140.352 E3.16143
G1 X118.397 Y140.525 E3.19372
G1 X117.562 Y140.634 E3.21892
G1 X116.056 Y140.787 E3.26425
G1 X114.534 Y140.887 E3.30988
G1 X113.048 Y140.938 E3.35441
G1 X110.855 Y140.947 E3.42003
G1 X109.522 Y140.917 E3.45997
G1 X107.567 Y140.832 E3.51853
G1 X106.075 Y140.733 E3.56329
G1 X104.735 Y140.412 E3.60455
G1 X103.086 Y139.923 E3.65602
G1 X103.127 Y139.659 E3.66400
G1 X121.184 Y139.137 E4.20476
G1 X121.239 Y139.310 E4.21019
G1 F1860.000 E1.21019
G92 E0
G1 X100.994 Y139.574 F6000.000
G1 E3.10000 F1860.000
G1 X101.037 Y139.345 E3.10696 F600.000
M106 S255
G1 X101.041 Y139.320 E3.10822 F600.000
G1 X104.686 Y139.214 E3.28481
G1 X122.731 Y138.692 E4.15909
G1 X122.700 Y138.718 E4.16103
M106 S255
G1 X122.105 Y139.234 E4.18461 F600.000
G1 X121.583 Y139.631 E4.20424
G1 X121.042 Y139.990 E4.22368
G1 X119.891 Y140.610 E4.26281
G1 X119.571 Y140.739 E4.27315
G1 X118.454 Y140.921 E4.30703
G1 X117.609 Y141.031 E4.33251
G1 X116.087 Y141.185 E4.37831
G1 X114.555 Y141.286 E4.42427
G1 X113.057 Y141.338 E4.46915
G1 X110.850 Y141.347 E4.53521
G1 X108.688 Y141.287 E4.59995
G1 X106.013 Y141.129 E4.68016
G1 X104.633 Y140.799 E4.72266
G1 X103.175 Y140.377 E4.76807
G1 X101.653 Y139.848 E4.81632
G1 X101.050 Y139.597 E4.83587
G1 F1860.000 E1.83587
G92 E0
G1 X122.348 Y138.908 F6000.000
G1 X119.990 Y139.493 F6000.000
G1 E3.10000 F1860.000
G1 X120.038 Y139.540 E3.10317 F655.868
G1 X119.550 Y139.970 E3.13371
G1 X119.099 Y139.519 E3.16373
G1 X118.798 Y140.135 E3.19596
G1 X118.208 Y139.544 E3.23521
G1 X118.000 Y140.253 E3.26993
G1 X117.317 Y139.570 E3.31533
G1 X117.180 Y140.349 E3.35254
G1 X116.426 Y139.596 E3.40265
G1 X116.348 Y140.434 E3.44223
G1 X115.536 Y139.622 E3.49624
G1 X115.498 Y140.501 E3.53763
G1 X114.645 Y139.647 E3.59440
G1 X113.754 Y139.673 E3.63631
G1 X114.638 Y140.558 E3.69512
G1 X113.756 Y140.592 E3.73664
G1 X112.863 Y139.699 E3.79602
G1 X111.972 Y139.725 E3.83792
G1 X112.865 Y140.618 E3.89729
G1 X111.952 Y140.621 E3.94022
G1 X111.081 Y139.751 E3.99811
G1 X111.039 Y140.625 E4.03927
G1 X110.190 Y139.776 E4.09568
G1 X110.106 Y140.609 E4.13502
G1 X109.300 Y139.802 E4.18866
G1 X109.160 Y140.580 E4.22580
G1 X108.409 Y139.828 E4.27578
G1 X108.202 Y140.538 E4.31054
G1 X107.518 Y139.854 E4.35602
