; generated by Slic3r 1.1.7 on 2014-11-23 at 19:59:09

; perimeters extrusion width = 0.50mm
; infill extrusion width = 0.52mm
; solid infill extrusion width = 0.52mm
; top infill extrusion width = 0.52mm

G21 ; set units to millimeters
M107
M190 S11 ; wait for bed temperature to be reached
M104 S208 ; set temperature
G28 ; home all axes
M109 S208 ; wait for temperature to be reached
G90 ; use absolute coordinates
G92 E0
M82 ; use absolute distances for extrusion
G1 F1800.000 E-1.00000
G92 E0
G1 Z0.500 F7800.000
G1 X82.657 Y62.316 F7800.000
G1 E1.00000 F1800.000
G1 X84.560 Y60.955 E1.43418 F1080.000
G1 X87.562 Y60.267 E2.00564
G1 X117.562 Y60.267 E7.57276
G1 X119.868 Y60.664 E8.00693
G1 X121.908 Y61.809 E8.44111 F1080.000
G1 X123.447 Y63.571 E8.87529
G1 X123.997 Y64.689 E9.10646
G1 X137.440 Y99.709 E16.06751
G1 X137.895 Y102.004 E16.50168
G1 X137.557 Y104.319 E16.93586
G1 X135.918 Y107.014 E17.52110
G1 X105.748 Y137.675 E25.50354
G1 X103.848 Y139.040 E25.93772
G1 X100.835 Y139.733 E26.51143
G1 X92.335 Y139.733 E28.08878
G1 X90.029 Y139.336 E28.52296
G1 X87.843 Y138.068 E28.99198
G1 X67.733 Y120.788 E33.91232
G1 X65.758 Y117.944 E34.55479
G1 X62.528 Y109.184 E36.28739
G1 X62.103 Y106.883 E36.72157
G1 X62.753 Y103.876 E37.29248
G1 X81.320 Y64.236 E45.41548
G1 X82.615 Y62.378 E45.83574
G1 F1800.000 E44.83574
G92 E0
G1 X98.549 Y130.555 F7800.000
G1 E1.00000 F1800.000
G1 X94.620 Y130.555 E1.72914 F540.000
G1 X94.615 Y109.097 E5.71121
G1 X94.525 Y108.508 E5.82179
G1 X94.331 Y107.944 E5.93241
G1 X94.037 Y107.425 E6.04306
G1 X93.791 Y107.112 E6.11688
G1 X93.510 Y106.832 E6.19059
G1 X93.196 Y106.587 E6.26443
G1 X92.856 Y106.382 E6.33822
G1 X92.492 Y106.220 E6.41203
G1 X92.112 Y106.103 E6.48585
G1 X91.721 Y106.032 E6.55963
G1 X91.324 Y106.009 E6.63347
G1 X90.731 Y106.065 E6.74405
G1 X90.345 Y106.162 E6.81788
G1 X73.568 Y112.597 E10.15226
G1 X71.920 Y108.125 E11.03659
G1 X92.758 Y100.126 E15.17876
G1 X98.549 Y100.126 E16.25340
G1 X98.549 Y130.480 E21.88625
G1 X99.442 Y131.448 F7800.000
G1 X93.727 Y131.448 E22.94671 F540.000
G1 X93.724 Y109.151 E27.08440
G1 X93.658 Y108.722 E27.16494
G1 X93.516 Y108.312 E27.24549
G1 X93.303 Y107.934 E27.32607
G1 X93.124 Y107.706 E27.37982
G1 X92.919 Y107.502 E27.43352
G1 X92.690 Y107.323 E27.48728
G1 X92.442 Y107.174 E27.54102
G1 X92.178 Y107.056 E27.59478
G1 X91.901 Y106.970 E27.64853
G1 X91.616 Y106.919 E27.70226
G1 X91.327 Y106.902 E27.75603
G1 X90.895 Y106.943 E27.83656
G1 X90.614 Y107.014 E27.89033
G1 X73.043 Y113.754 E31.38257
G1 X70.777 Y107.608 E32.59824
G1 X92.593 Y99.233 E36.93459
G1 X99.442 Y99.233 E38.20559
G1 X99.442 Y131.373 E44.16975
G1 X100.335 Y132.341 F7800.000
G1 X92.835 Y132.341 E45.56153 F540.000
G1 X92.835 Y109.288 E49.83940
G1 X92.791 Y108.936 E49.90526
G1 X92.662 Y108.597 E49.97251
G1 X92.514 Y108.369 E50.02302
G1 X92.258 Y108.113 E50.09025
G1 X91.947 Y107.926 E50.15750
G1 X91.601 Y107.819 E50.22476
G1 X91.239 Y107.798 E50.29202
G1 X90.883 Y107.865 E50.35929
G1 X72.519 Y114.912 E54.00940
G1 X69.635 Y107.090 E55.55641
G1 X92.427 Y98.341 E60.08693
G1 X100.335 Y98.341 E61.55429
G1 X100.335 Y132.266 E67.84977
G1 X99.902 Y132.091 F7800.000
G1 F1800.000 E66.84977
G92 E0
G1 X96.001 Y129.928 F7800.000
G1 E1.00000 F1800.000
G1 X95.247 Y129.174 E1.19788 F1080.000
G1 X95.247 Y127.880 E1.43806
G1 X97.295 Y129.928 E1.97562
G1 X97.922 Y129.261 E2.14549
G1 X95.246 Y126.585 E2.84771
G1 X95.246 Y125.291 E3.08789
G1 X97.922 Y127.967 E3.79018
G1 X97.922 Y126.673 E4.03031
G1 X95.246 Y123.997 E4.73268
G1 X95.246 Y122.703 E4.97286
G1 X97.922 Y125.379 E5.67531
G1 X97.922 Y124.085 E5.91544
G1 X95.245 Y121.408 E6.61797
G1 X95.245 Y120.114 E6.85815
G1 X97.922 Y122.791 E7.56076
G1 X97.922 Y121.497 E7.80089
G1 X95.245 Y118.820 E8.50357
G1 X95.244 Y117.525 E8.74376
G1 X97.922 Y120.203 E9.44652
G1 X97.922 Y118.909 E9.68665
G1 X95.244 Y116.231 E10.38949
G1 X95.244 Y114.937 E10.62968
G1 X97.922 Y117.615 E11.33260
G1 X97.922 Y116.321 E11.57273
G1 X95.243 Y113.642 E12.27573
G1 X95.243 Y112.348 F7800.000
G1 X97.922 Y115.027 E12.97881 F1080.000
G1 X97.922 Y113.733 E13.21894
G1 X95.243 Y111.054 E13.92209
G1 X95.243 Y109.760 E14.16228
G1 X97.922 Y112.439 E14.86551
G1 X97.922 Y111.145 E15.10564
G1 X95.137 Y108.360 E15.83649
G1 F1800.000 E14.83649
G92 E0
G1 X97.882 Y100.753 F7800.000
G1 E1.00000 F1800.000
G1 X97.922 Y100.793 E1.01050 F1080.000
G1 X97.922 Y102.087 E1.25063
G1 X96.588 Y100.753 E1.60072
G1 X95.294 Y100.753 E1.84084
G1 X97.922 Y103.381 E2.53053
G1 X97.922 Y104.675 E2.77065
G1 X94.000 Y100.753 E3.79993
G1 X92.753 Y100.800 E4.03155
G1 X97.922 Y105.969 E5.38816
G1 X97.922 Y107.263 E5.62829
G1 X91.818 Y101.159 E7.23029
G1 X90.883 Y101.518 E7.41615
G1 X97.922 Y108.557 E9.26355
G1 X97.922 Y109.851 E9.50368
G1 X89.948 Y101.877 E11.59647
G1 X89.013 Y102.236 E11.78233
G1 X92.273 Y105.496 E12.63785
G1 X90.902 Y105.419 E12.89257
G1 X88.078 Y102.595 E13.63381
G1 X87.143 Y102.954 E13.81967
G1 X89.864 Y105.675 E14.53379
G1 X88.928 Y106.033 E14.71968
G1 X86.207 Y103.313 E15.43374
G1 X85.272 Y103.671 E15.61960
G1 X87.993 Y106.392 E16.33360
G1 X87.058 Y106.751 E16.51949
G1 X84.337 Y104.030 E17.23344
G1 X83.402 Y104.389 E17.41930
G1 X86.123 Y107.110 E18.13320
G1 X85.187 Y107.468 E18.31908
G1 X82.467 Y104.748 E19.03292
G1 X81.532 Y105.107 E19.21878
G1 X84.252 Y107.827 E19.93256
G1 X83.317 Y108.186 E20.11845
G1 X80.597 Y105.466 E20.83217
G1 X79.662 Y105.825 E21.01804
G1 X82.381 Y108.544 E21.73170
G1 X81.446 Y108.903 E21.91759
G1 X78.727 Y106.184 E22.63120
G1 X77.792 Y106.543 E22.81707
G1 X80.511 Y109.262 E23.53062
G1 X79.576 Y109.621 E23.71651
G1 X76.857 Y106.902 E24.43000
G1 X75.922 Y107.261 E24.61587
G1 X78.640 Y109.979 E25.32931
G1 X77.705 Y110.338 E25.51520
G1 X74.987 Y107.620 E26.22858
G1 X74.052 Y107.979 E26.41444
G1 X76.770 Y110.697 E27.12777
G1 X75.835 Y111.056 E27.31366
G1 X73.117 Y108.338 E28.02693
G1 X73.159 Y109.674 E28.27507
G1 X74.899 Y111.414 E28.73174
G1 X73.964 Y111.773 E28.91763
G1 X73.915 Y111.724 E28.93055
G1 F1800.000 E27.93055
G92 E0
G1 X96.622 Y84.427 F7800.000
G1 E1.00000 F1800.000
G1 X96.193 Y84.047 E1.10627 F540.000
G1 X95.792 Y83.636 E1.21286
G1 X95.423 Y83.198 E1.31905
G1 X94.984 Y82.575 E1.46059
G1 X94.696 Y82.080 E1.56685
G1 X94.444 Y81.564 E1.67338
G1 X94.231 Y81.031 E1.77999
G1 X94.058 Y80.486 E1.88601
G1 X93.926 Y79.929 E1.99232
G1 X93.835 Y79.363 E2.09869
G1 X93.786 Y78.793 E2.20483
G1 X93.779 Y78.216 E2.31189
G1 X93.835 Y77.453 E2.45375
G1 X93.926 Y76.888 E2.56004
G1 X94.058 Y76.333 E2.66593
G1 X94.232 Y75.786 E2.77242
G1 X94.445 Y75.253 E2.87901
G1 X94.696 Y74.739 E2.98509
G1 X94.985 Y74.243 E3.09155
G1 X95.326 Y73.749 E3.20305
G1 X95.794 Y73.180 E3.33966
G1 X96.193 Y72.771 E3.44585
G1 X96.624 Y72.390 E3.55254
G1 X97.077 Y72.045 E3.65816
G1 X97.558 Y71.732 E3.76468
G1 X98.061 Y71.455 E3.87120
G1 X98.759 Y71.146 E4.01293
G1 X99.303 Y70.959 E4.11972
G1 X99.856 Y70.813 E4.22579
G1 X100.417 Y70.708 E4.33173
G1 X100.991 Y70.645 E4.43882
G1 X101.592 Y70.624 E4.55051
G1 X102.132 Y70.645 E4.65079 F540.000
G1 X102.518 Y70.683 E4.72266
G1 X103.083 Y70.774 E4.82892
G1 X103.455 Y70.857 E4.89959
G1 X103.823 Y70.959 E4.97053
G1 X104.363 Y71.145 E5.07655
G1 X104.719 Y71.292 E5.14792
G1 X105.232 Y71.543 E5.25404
G1 X105.729 Y71.833 E5.36063
G1 X106.045 Y72.044 E5.43118
G1 X106.668 Y72.532 E5.57809
G1 X107.067 Y72.904 E5.67928
G1 X107.332 Y73.183 E5.75066
G1 X107.682 Y73.597 E5.85135
G1 X107.926 Y73.925 E5.92710
G1 X108.140 Y74.245 E5.99859
G1 X108.428 Y74.739 E6.10466
G1 X108.612 Y75.106 E6.18088
G1 X108.825 Y75.606 E6.28186
G1 X108.963 Y75.995 E6.35829
G1 X109.114 Y76.518 E6.45945
G1 X109.203 Y76.919 E6.53562
G1 X109.289 Y77.454 E6.63609
G1 X109.345 Y78.247 E6.78368
G1 X109.338 Y78.789 E6.88427
G1 X109.310 Y79.173 E6.95577
G1 X109.233 Y79.741 E7.06212
G1 X109.158 Y80.114 E7.13272
G1 X109.057 Y80.513 E7.20907
G1 X108.892 Y81.033 E7.31036
G1 X108.679 Y81.566 E7.41675
G1 X108.516 Y81.910 E7.48742
G1 X108.335 Y82.248 E7.55853
G1 X108.034 Y82.737 E7.66513
G1 X107.700 Y83.199 E7.77104
G1 X107.459 Y83.493 E7.84156
G1 X107.200 Y83.778 E7.91292
G1 X106.789 Y84.180 E8.01964
G1 X106.500 Y84.429 E8.09049
G1 X106.046 Y84.774 E8.19630
G1 X105.726 Y84.988 E8.26759
G1 X105.232 Y85.275 E8.37367
G1 X104.541 Y85.603 E8.51570
G1 X104.030 Y85.793 E8.61673
G1 X103.639 Y85.913 E8.69260
G1 X103.241 Y86.011 E8.76872
G1 X102.707 Y86.110 E8.86955
G1 X101.916 Y86.187 E9.01707
G1 X101.370 Y86.193 E9.11844
G1 X100.989 Y86.174 E9.18918
G1 X100.607 Y86.136 E9.26040
G1 X100.043 Y86.045 E9.36641
G1 X99.669 Y85.961 E9.43752
G1 X99.121 Y85.803 E9.54334
G1 X98.733 Y85.662 E9.61995
G1 X98.233 Y85.447 E9.72095
G1 X97.723 Y85.183 E9.82750
G1 X97.395 Y84.986 E9.89861
G1 X96.680 Y84.474 E10.06176
G1 X97.188 Y83.737 F7800.000
G1 X96.809 Y83.401 E10.15587 F540.000
G1 X96.454 Y83.037 E10.25017
G1 X96.127 Y82.649 E10.34423
G1 X95.738 Y82.097 E10.46961
G1 X95.483 Y81.659 E10.56370
G1 X95.260 Y81.202 E10.65797
G1 X95.072 Y80.730 E10.75229
G1 X94.919 Y80.248 E10.84624
G1 X94.802 Y79.754 E10.94037
G1 X94.721 Y79.253 E11.03454
G1 X94.677 Y78.748 E11.12857
G1 X94.671 Y78.239 E11.22317
G1 X94.721 Y77.564 E11.34874
G1 X94.802 Y77.063 E11.44285
G1 X94.919 Y76.571 E11.53673
G1 X95.072 Y76.087 E11.63098
G1 X95.261 Y75.615 E11.72527
G1 X95.483 Y75.160 E11.81927
G1 X95.739 Y74.721 E11.91349
G1 X96.037 Y74.289 E12.01092
G1 X96.455 Y73.780 E12.13316
G1 X96.809 Y73.417 E12.22722
G1 X97.190 Y73.080 E12.32159
G1 X97.592 Y72.775 E12.41529
G1 X98.018 Y72.498 E12.50955
G1 X98.463 Y72.253 E12.60382
G1 X98.925 Y72.041 E12.69812
G1 X99.399 Y71.865 E12.79204
G1 X99.887 Y71.723 E12.88641
G1 X100.384 Y71.618 E12.98065
G1 X100.886 Y71.550 E13.07463
G1 X101.411 Y71.518 E13.17220
G1 X102.238 Y71.550 E13.32573 F540.000
G1 X103.072 Y71.684 E13.48255
G1 X103.884 Y71.919 E13.63936
G1 X104.661 Y72.253 E13.79631
G1 X105.250 Y72.587 E13.92205
G1 X105.935 Y73.082 E14.07888
G1 X106.555 Y73.658 E14.23589
G1 X107.099 Y74.304 E14.39260
G1 X107.559 Y75.012 E14.54927
G1 X107.923 Y75.755 E14.70280
G1 X108.158 Y76.409 E14.83190
G1 X108.353 Y77.231 E14.98868
G1 X108.446 Y78.070 E15.14525
G1 X108.436 Y78.916 E15.30222
G1 X108.382 Y79.404 E15.39330
G1 X108.322 Y79.756 E15.45954
G1 X108.107 Y80.570 E15.61589
G1 X107.986 Y80.907 E15.68235
G1 X107.793 Y81.356 E15.77309
G1 X107.385 Y82.098 E15.93021
G1 X106.890 Y82.782 E16.08679
G1 X106.422 Y83.296 E16.21582
G1 X105.802 Y83.844 E16.36935
G1 X105.106 Y84.321 E16.52598
G1 X104.355 Y84.711 E16.68300
G1 X103.562 Y85.005 E16.83992
G1 X102.739 Y85.201 E16.99685
G1 X101.900 Y85.294 E17.15363
G1 X101.055 Y85.283 E17.31047
G1 X100.217 Y85.170 E17.46732
G1 X99.401 Y84.955 E17.62399
G1 X99.064 Y84.833 E17.69037
G1 X98.615 Y84.640 E17.78113
G1 X97.873 Y84.232 E17.93824
G1 X97.247 Y83.784 E18.08113
G1 X97.755 Y83.047 F7800.000
G1 X97.424 Y82.755 E18.16308 F540.000
G1 X97.116 Y82.438 E18.24509
G1 X96.832 Y82.101 E18.32701
G1 X96.493 Y81.619 E18.43623
G1 X96.270 Y81.238 E18.51817
G1 X96.077 Y80.841 E18.60017
G1 X95.912 Y80.430 E18.68219
G1 X95.779 Y80.010 E18.76409
G1 X95.677 Y79.580 E18.84604
G1 X95.607 Y79.144 E18.92801
G1 X95.569 Y78.704 E19.00993
G1 X95.564 Y78.262 E19.09205
G1 X95.591 Y77.821 E19.17394
G1 X95.650 Y77.383 E19.25591
G1 X95.742 Y76.951 E19.33789
G1 X95.913 Y76.388 E19.44714
G1 X96.077 Y75.977 E19.52915
G1 X96.270 Y75.581 E19.61106
G1 X96.493 Y75.199 E19.69304
G1 X96.747 Y74.829 E19.77640
G1 X97.116 Y74.380 E19.88427
G1 X97.425 Y74.064 E19.96620
G1 X97.756 Y73.771 E20.04824
G1 X98.107 Y73.504 E20.13004
G1 X98.477 Y73.263 E20.21204
G1 X98.864 Y73.050 E20.29404
G1 X99.402 Y72.811 E20.40329
G1 X99.820 Y72.668 E20.48535
G1 X100.247 Y72.555 E20.56725
G1 X100.681 Y72.474 E20.64913
G1 X101.121 Y72.426 E20.73126
G1 X101.570 Y72.409 E20.81465
G1 X102.297 Y72.455 E20.94982 F540.000
G1 X103.020 Y72.589 E21.08630
G1 X103.721 Y72.811 E21.22278
G1 X104.390 Y73.118 E21.35938
G1 X105.017 Y73.504 E21.49591
G1 X105.487 Y73.871 E21.60657
G1 X106.008 Y74.380 E21.74182
G1 X106.467 Y74.954 E21.87819
G1 X106.853 Y75.581 E22.01481
G1 X107.160 Y76.250 E22.15134
G1 X107.382 Y76.952 E22.28797
G1 X107.517 Y77.674 E22.42439
G1 X107.560 Y78.270 E22.53519
G1 X107.533 Y78.998 E22.67034
G1 X107.416 Y79.724 E22.80683
G1 X107.211 Y80.431 E22.94346
G1 X106.921 Y81.107 E23.07997
G1 X106.550 Y81.743 E23.21662
G1 X106.105 Y82.328 E23.35298
G1 X105.591 Y82.855 E23.48972
G1 X105.017 Y83.315 E23.62614
G1 X104.390 Y83.701 E23.76271
G1 X103.858 Y83.953 E23.87203
G1 X103.162 Y84.192 E24.00850
G1 X102.443 Y84.344 E24.14499
G1 X101.849 Y84.402 E24.25578
G1 X101.120 Y84.393 E24.39094
G1 X100.391 Y84.294 E24.52748
G1 X99.680 Y84.107 E24.66396
G1 X98.996 Y83.833 E24.80059
G1 X98.351 Y83.478 E24.93722
G1 X97.814 Y83.094 E25.05984
G1 F1800.000 E24.05984
G92 E0
G1 X101.638 Y71.914 F7800.000
G1 X109.133 Y87.374 F7800.000
G1 E1.00000 F1800.000
G1 X89.847 Y87.374 E4.57879 F540.000
G1 X89.847 Y69.445 E7.90592
G1 X115.991 Y69.445 E12.75746
G1 X128.052 Y100.865 E19.00289
G1 X116.076 Y105.462 E21.38344
G1 X109.159 Y87.444 E24.96493
G1 X108.519 Y88.267 F7800.000
G1 X88.955 Y88.267 E28.59552 F540.000
G1 X88.955 Y68.552 E32.25397
G1 X116.605 Y68.552 E37.38502
G1 X129.205 Y101.378 E43.90997
G1 X115.562 Y106.615 E46.62184
G1 X108.546 Y88.337 E50.25513
G1 X107.905 Y89.159 F7800.000
G1 X88.062 Y89.159 E53.93753 F540.000
G1 X88.062 Y67.659 E57.92729
G1 X117.218 Y67.659 E63.33782
G1 X130.359 Y101.892 E70.14230
G1 X115.049 Y107.769 E73.18548
G1 X107.932 Y89.229 E76.87058
G1 X107.845 Y88.663 F7800.000
G1 F1800.000 E75.87058
G92 E0
G1 X105.982 Y86.399 F7800.000
G1 E1.00000 F1800.000
G1 X106.330 Y86.747 E1.09137 F1080.000
G1 X107.624 Y86.747 E1.33141
G1 X106.263 Y85.385 E1.68868
G1 X106.996 Y84.825 E1.85993
G1 X123.941 Y101.771 E6.30704
G1 X124.876 Y101.412 E6.49284
G1 X107.659 Y84.195 E11.01118
G1 X108.253 Y83.495 E11.18150
G1 X125.811 Y101.053 E15.78945
G1 X126.746 Y100.694 E15.97525
G1 X108.774 Y82.723 E20.69171
G1 X109.219 Y81.874 E20.86950
G1 X126.864 Y99.519 E25.50012
G1 F1800.000 E24.50012
G92 E0
G1 X126.058 Y97.419 F7800.000
G1 E1.00000 F1800.000
G1 X109.581 Y80.942 E5.32419 F1080.000
G1 X109.835 Y79.904 E5.52267
G1 X125.252 Y95.320 E9.56850
G1 F1800.000 E8.56850
G92 E0
G1 X124.446 Y93.221 F7800.000
G1 E1.00000 F1800.000
G1 X109.959 Y78.734 E4.80181 F1080.000
G1 X109.905 Y77.386 E5.05207
G1 X123.640 Y91.121 E8.65655
G1 F1800.000 E7.65655
G92 E0
G1 X122.834 Y89.022 F7800.000
G1 E1.00000 F1800.000
G1 X109.520 Y75.708 E4.49406 F1080.000
G1 F1800.000 E3.49406
G92 E0
G1 X106.037 Y70.931 F7800.000
G1 E1.00000 F1800.000
G1 X122.028 Y86.922 E5.19674 F1080.000
G1 F1800.000 E4.19674
G92 E0
G1 X121.222 Y84.823 F7800.000
G1 E1.00000 F1800.000
G1 X106.472 Y70.072 E4.87116 F1080.000
G1 X107.765 Y70.072 E5.11120
G1 X120.416 Y82.723 E8.43139
G1 F1800.000 E7.43139
G92 E0
G1 X119.611 Y80.624 F7800.000
G1 E1.00000 F1800.000
G1 X109.059 Y70.072 E3.76922 F1080.000
G1 X110.352 Y70.072 E4.00926
G1 X118.805 Y78.524 E6.22751
G1 F1800.000 E5.22751
G92 E0
G1 X117.999 Y76.425 F7800.000
G1 E1.00000 F1800.000
G1 X111.646 Y70.072 E2.66728 F1080.000
G1 X112.939 Y70.072 E2.90732
G1 X117.193 Y74.326 E4.02364
G1 F1800.000 E3.02364
G92 E0
G1 X116.387 Y72.226 F7800.000
G1 E1.00000 F1800.000
G1 X114.233 Y70.072 E1.56534 F1080.000
G1 X115.581 Y70.127 E1.81576
G1 X115.526 Y70.072 E1.83013
G1 F1800.000 E0.83013
G92 E0
G1 X110.772 Y89.895 F7800.000
G1 E1.00000 F1800.000
G1 X123.007 Y102.130 E4.21081 F1080.000
G1 X122.072 Y102.488 E4.39661
G1 X111.578 Y91.994 E7.15062
G1 F1800.000 E6.15062
G92 E0
G1 X112.384 Y94.094 F7800.000
G1 E1.00000 F1800.000
G1 X121.137 Y102.847 E3.29721 F1080.000
G1 X120.203 Y103.206 E3.48301
G1 X113.190 Y96.193 E5.32341
G1 F1800.000 E4.32341
G92 E0
G1 X113.996 Y98.293 F7800.000
G1 E1.00000 F1800.000
G1 X119.268 Y103.565 E2.38360 F1080.000
G1 X118.333 Y103.924 E2.56940
G1 X114.802 Y100.392 E3.49619
G1 F1800.000 E2.49619
G92 E0
G1 X115.607 Y102.492 F7800.000
G1 E1.00000 F1800.000
G1 X117.398 Y104.282 E1.46999 F1080.000
G1 X116.464 Y104.641 E1.65579
G1 X116.413 Y104.591 E1.66898
G1 F1800.000 E0.66898
G92 E0
G1 X105.488 Y70.488 F7800.000
G1 E1.00000 F1800.000
G1 X104.261 Y70.252 E1.12977 F360.000
