; generated by Slic3r 1.1.7 on 2014-12-04 at 12:28:54

; perimeters extrusion width = 0.42mm
; infill extrusion width = 0.74mm
; solid infill extrusion width = 0.71mm
; top infill extrusion width = 0.71mm

G21 ; set units to millimeters
M190 S60 ; wait for bed temperature to be reached
M104 S186 ; set temperature
G28 ; home all axes
M109 S186 ; wait for temperature to be reached
G90 ; use absolute coordinates
G92 E0
M82 ; use absolute distances for extrusion
M106 S127
G1 F1860.000 E-3.00000
G92 E0
G1 Z0.200 F6000.000
G1 X58.080 Y49.908 F6000.000
G1 E3.10000 F1860.000
G1 X61.606 Y45.805 E3.20009 F1200.000
G1 X64.183 Y44.015 E3.25814
G1 X72.944 Y40.786 E3.43087
G1 X75.105 Y40.400 E3.47148
G1 X117.758 Y40.400 E4.26057
G1 X119.949 Y40.797 E4.30177
G1 X121.861 Y41.937 E4.34296 F1200.000
G1 X122.917 Y43.124 E4.37234
G1 X151.689 Y85.250 E5.31611
G1 X152.374 Y86.565 E5.34354
G1 X161.001 Y109.393 E5.79503
G1 X161.405 Y111.583 E5.83622
G1 X160.847 Y114.182 E5.88541
G1 X149.651 Y138.863 E6.38679
G1 X148.379 Y140.699 E6.42811
G1 X131.308 Y157.770 E6.87475
G1 X129.478 Y159.039 E6.91594
G1 X126.875 Y159.600 E6.96521
G1 X70.875 Y159.458 E8.00123
G1 X68.685 Y159.056 E8.04242
G1 X66.775 Y157.911 E8.08361
G1 X65.599 Y156.531 E8.11716
G1 X39.550 Y115.015 E9.02388
G1 X38.722 Y112.948 E9.06507
G1 X38.595 Y111.694 E9.08838
G1 X38.595 Y89.194 E9.50463
G1 X38.741 Y87.853 E9.52959
G1 X42.962 Y68.646 E9.89342
G1 X44.326 Y65.915 E9.94988
G1 X58.039 Y49.956 E10.33915
G1 F1860.000 E7.33915
G92 E0
G1 X63.078 Y104.476 F6000.000
G1 E3.10000 F1860.000
G1 X62.552 Y104.964 E3.11326 F1200.000
G1 X61.970 Y105.385 E3.12655
G1 X61.342 Y105.730 E3.13981
G1 X60.677 Y105.996 E3.15307
G1 X59.983 Y106.179 E3.16635
G1 X59.272 Y106.276 E3.17961
G1 X58.555 Y106.285 E3.19288
G1 X57.838 Y106.205 E3.20623
G1 X57.421 Y106.116 E3.21411
G1 X57.008 Y105.996 E3.22208
G1 X56.342 Y105.730 E3.23533
G1 X55.715 Y105.385 E3.24859
G1 X55.134 Y104.965 E3.26185
G1 X54.607 Y104.476 E3.27514
G1 X54.146 Y103.928 E3.28840
G1 X53.755 Y103.326 E3.30167
G1 X53.440 Y102.682 E3.31493
G1 X53.207 Y102.004 E3.32820
G1 X53.059 Y101.303 E3.34145
G1 X52.997 Y100.588 E3.35474
G1 X53.023 Y99.872 E3.36799
G1 X53.137 Y99.163 E3.38128
G1 X53.337 Y98.474 E3.39455
G1 X53.619 Y97.816 E3.40780
G1 X53.981 Y97.196 E3.42108
G1 X54.415 Y96.625 E3.43434
G1 X54.916 Y96.112 E3.44760
G1 X55.475 Y95.664 E3.46087
G1 X56.086 Y95.288 E3.47414
G1 X56.738 Y94.989 E3.48740
G1 X57.421 Y94.773 E3.50066
G1 X58.127 Y94.641 E3.51395
G1 X58.847 Y94.597 E3.52729
G1 X59.273 Y94.613 E3.53518 F1200.000
G1 X59.700 Y94.661 E3.54313
G1 X60.124 Y94.739 E3.55111
G1 X60.539 Y94.849 E3.55905
G1 X60.947 Y94.989 E3.56703
G1 X61.342 Y95.159 E3.57498
G1 X61.724 Y95.357 E3.58294
G1 X62.091 Y95.583 E3.59092
G1 X62.440 Y95.835 E3.59889
G1 X62.769 Y96.112 E3.60683
G1 X63.270 Y96.626 E3.62012
G1 X63.539 Y96.961 E3.62806
G1 X63.783 Y97.317 E3.63604
G1 X63.999 Y97.688 E3.64399
G1 X64.188 Y98.075 E3.65196
G1 X64.348 Y98.474 E3.65991
G1 X64.478 Y98.885 E3.66788
G1 X64.577 Y99.304 E3.67585
G1 X64.646 Y99.728 E3.68381
G1 X64.683 Y100.158 E3.69179
G1 X64.688 Y100.587 E3.69972
G1 X64.661 Y101.017 E3.70769
G1 X64.604 Y101.444 E3.71566
G1 X64.514 Y101.865 E3.72363
G1 X64.394 Y102.279 E3.73160
G1 X64.245 Y102.682 E3.73955
G1 X64.065 Y103.073 E3.74751
G1 X63.858 Y103.450 E3.75547
G1 X63.623 Y103.811 E3.76344
G1 X63.362 Y104.154 E3.77141
G1 X63.120 Y104.430 E3.77819
G1 X62.898 Y104.306 F6000.000
G1 X62.395 Y104.773 E3.79090 F1200.000
G1 X61.838 Y105.176 E3.80361
G1 X61.237 Y105.507 E3.81631
G1 X60.599 Y105.762 E3.82902
G1 X59.935 Y105.937 E3.84173
G1 X59.254 Y106.029 E3.85443
G1 X58.567 Y106.038 E3.86714
G1 X57.885 Y105.962 E3.87984
G1 X57.217 Y105.803 E3.89255
G1 X56.573 Y105.564 E3.90526
G1 X55.963 Y105.248 E3.91796
G1 X55.397 Y104.859 E3.93067
G1 X54.882 Y104.404 E3.94338
G1 X54.428 Y103.890 E3.95608
G1 X54.039 Y103.323 E3.96879
G1 X53.723 Y102.714 E3.98149
G1 X53.483 Y102.070 E3.99420
G1 X53.325 Y101.402 E4.00690
G1 X53.249 Y100.719 E4.01961
G1 X53.258 Y100.032 E4.03232
G1 X53.350 Y99.352 E4.04502
G1 X53.525 Y98.688 E4.05772
G1 X53.780 Y98.050 E4.07043
G1 X54.111 Y97.449 E4.08313
G1 X54.513 Y96.892 E4.09584
G1 X54.981 Y96.389 E4.10855
G1 X55.506 Y95.947 E4.12125
G1 X56.082 Y95.572 E4.13396
G1 X56.699 Y95.271 E4.14667
G1 X57.349 Y95.047 E4.15937
G1 X58.020 Y94.905 E4.17207
G1 X58.707 Y94.846 E4.18482
G1 X59.117 Y94.851 E4.19241 F1200.000
G1 X59.528 Y94.887 E4.20004
G1 X59.935 Y94.952 E4.20766
G1 X60.336 Y95.047 E4.21529
G1 X60.729 Y95.172 E4.22292
G1 X61.112 Y95.325 E4.23054
G1 X61.482 Y95.506 E4.23817
G1 X61.838 Y95.713 E4.24579
G1 X62.178 Y95.947 E4.25342
G1 X62.500 Y96.204 E4.26105
G1 X62.802 Y96.485 E4.26868
G1 X63.083 Y96.787 E4.27631
G1 X63.340 Y97.109 E4.28393
G1 X63.574 Y97.449 E4.29156
G1 X63.781 Y97.805 E4.29918
G1 X63.962 Y98.175 E4.30681
G1 X64.115 Y98.558 E4.31443
G1 X64.239 Y98.951 E4.32206
G1 X64.335 Y99.352 E4.32969
G1 X64.400 Y99.759 E4.33731
G1 X64.436 Y100.170 E4.34495
G1 X64.441 Y100.582 E4.35256
G1 X64.415 Y100.993 E4.36019
G1 X64.360 Y101.402 E4.36782
G1 X64.275 Y101.805 E4.37545
G1 X64.160 Y102.201 E4.38308
G1 X64.016 Y102.588 E4.39070
G1 X63.844 Y102.962 E4.39833
G1 X63.646 Y103.323 E4.40595
G1 X63.421 Y103.669 E4.41358
G1 X63.171 Y103.997 E4.42121
G1 X62.941 Y104.260 E4.42767
G1 F1860.000 E1.42767
G92 E0
G1 X58.649 Y94.440 F6000.000
G1 X65.081 Y111.347 F6000.000
G1 E3.10000 F1860.000
G1 X45.190 Y111.347 E3.46800 F1200.000
G1 X45.190 Y89.542 E3.87140
G1 X74.604 Y89.542 E4.41557
G1 X87.837 Y124.015 E5.09870
G1 X72.242 Y130.001 E5.40774
G1 X65.104 Y111.406 E5.77623
G1 X64.911 Y111.594 F6000.000
G1 X44.942 Y111.594 E6.14566 F1200.000
G1 X44.942 Y89.294 E6.55821
G1 X74.774 Y89.294 E7.11010
G1 X88.156 Y124.157 E7.80094
G1 X72.099 Y130.321 E8.11913
G1 X64.934 Y111.653 E8.48905
G1 X64.860 Y111.178 F6000.000
G1 X65.496 Y111.985 F6000.000
G1 X80.263 Y126.751 E8.87539 F1200.000
G1 X80.009 Y126.849 E8.88042
G1 X65.715 Y112.555 E9.25440
G1 X65.934 Y113.125 F6000.000
G1 X79.755 Y126.946 E9.61602 F1200.000
G1 X79.502 Y127.044 E9.62105
G1 X66.153 Y113.694 E9.97031
G1 X66.371 Y114.264 F6000.000
G1 X79.248 Y127.141 E10.30720 F1200.000
G1 X78.994 Y127.238 E10.31223
G1 X66.590 Y114.834 E10.63677
G1 X66.809 Y115.404 F6000.000
G1 X78.741 Y127.336 E10.94895 F1200.000
G1 X78.487 Y127.433 E10.95397
G1 X67.027 Y115.974 E11.25379
G1 X67.246 Y116.544 F6000.000
G1 X78.233 Y127.531 E11.54124 F1200.000
G1 X77.979 Y127.628 E11.54627
G1 X67.465 Y117.113 E11.82136
G1 X67.684 Y117.683 F6000.000
G1 X77.726 Y127.725 E12.08410 F1200.000
G1 X77.472 Y127.823 E12.08912
G1 X67.902 Y118.253 E12.33949
G1 X68.121 Y118.823 F6000.000
G1 X77.218 Y127.920 E12.57751 F1200.000
G1 X76.965 Y128.018 E12.58253
G1 X68.340 Y119.393 E12.80818
G1 X68.559 Y119.963 F6000.000
G1 X76.711 Y128.115 E13.02147 F1200.000
G1 X76.457 Y128.212 E13.02650
G1 X68.777 Y120.533 E13.22743
G1 X68.996 Y121.102 F6000.000
G1 X76.203 Y128.310 E13.41599 F1200.000
G1 X75.950 Y128.407 E13.42102
G1 X69.215 Y121.672 E13.59723
G1 X69.434 Y122.242 F6000.000
G1 X75.696 Y128.505 E13.76107 F1200.000
G1 X75.442 Y128.602 E13.76610
G1 X69.652 Y122.812 E13.91758
G1 X69.871 Y123.382 F6000.000
G1 X75.189 Y128.699 E14.05670 F1200.000
G1 X74.935 Y128.797 E14.06173
G1 X70.090 Y123.952 E14.18849
G1 X70.309 Y124.522 F6000.000
G1 X74.681 Y128.894 E14.30289 F1200.000
G1 X74.427 Y128.991 E14.30792
G1 X70.527 Y125.091 E14.40996
G1 X70.746 Y125.661 F6000.000
G1 X74.174 Y129.089 E14.49964 F1200.000
G1 X73.920 Y129.186 E14.50467
G1 X70.965 Y126.231 E14.58198
G1 X71.184 Y126.801 F6000.000
G1 X73.666 Y129.284 E14.64694 F1200.000
G1 X73.413 Y129.381 E14.65197
G1 X71.402 Y127.371 E14.70456
G1 X71.621 Y127.941 F6000.000
G1 X73.159 Y129.478 E14.74480 F1200.000
G1 X72.905 Y129.576 E14.74983
G1 X71.840 Y128.510 E14.77770
G1 X72.059 Y129.080 F6000.000
G1 X72.652 Y129.673 E14.79321 F1200.000
G1 X72.398 Y129.771 E14.79824
G1 X72.277 Y129.650 E14.80139
G1 F1860.000 E11.80139
G92 E0
G1 X87.605 Y123.912 F6000.000
G1 E3.10000 F1860.000
G1 X64.805 Y101.112 E3.69653 F1200.000
G1 X64.766 Y101.424 E3.70235
G1 X87.367 Y124.025 E4.29365
G1 X87.113 Y124.122 E4.29868
G1 X64.706 Y101.715 E4.88493
G1 X64.642 Y102.001 E4.89036
G1 X86.859 Y124.219 E5.47165
G1 X86.606 Y124.317 E5.47668
G1 X64.558 Y102.269 E6.05352
G1 X64.471 Y102.533 E6.05866
G1 X86.352 Y124.414 E6.63115
G1 X86.098 Y124.511 E6.63618
G1 X64.369 Y102.782 E7.20469
G1 X64.261 Y103.025 E7.20962
G1 X85.845 Y124.609 E7.77432
G1 X85.591 Y124.706 E7.77934
G1 X64.143 Y103.259 E8.34048
G1 X64.016 Y103.483 E8.34525
G1 X85.337 Y124.804 E8.90307
G1 X85.083 Y124.901 E8.90810
G1 X63.885 Y103.703 E9.46271
G1 X63.740 Y103.909 E9.46737
G1 X84.830 Y124.998 E10.01914
G1 X84.576 Y125.096 E10.02416
G1 X63.595 Y104.115 E10.57309
G1 X63.435 Y104.306 E10.57770
G1 X84.322 Y125.193 E11.12419
G1 X84.069 Y125.291 E11.12921
G1 X63.272 Y104.494 E11.67332
G1 X63.101 Y104.674 E11.67791
G1 X83.815 Y125.388 E12.21986
G1 X83.561 Y125.485 E12.22489
G1 X62.921 Y104.845 E12.76490
G1 X62.739 Y105.014 E12.76950
G1 X83.307 Y125.583 E13.30765
G1 X83.054 Y125.680 E13.31268
G1 X62.541 Y105.168 E13.84934
G1 X62.344 Y105.322 E13.85397
G1 X82.800 Y125.778 E14.38916
G1 X82.546 Y125.875 E14.39419
G1 X62.133 Y105.462 E14.92827
G1 X61.918 Y105.598 E14.93297
G1 X82.293 Y125.972 E15.46603
G1 X82.039 Y126.070 E15.47106
G1 X61.695 Y105.725 E16.00334
G1 X61.461 Y105.843 E16.00817
G1 X81.785 Y126.167 E16.53992
G1 X81.531 Y126.265 E16.54495
G1 X61.223 Y105.956 E17.07628
G1 X60.970 Y106.054 E17.08130
G1 X81.278 Y126.362 E17.61262
G1 X81.024 Y126.459 E17.61765
G1 X60.716 Y106.151 E18.14898
G1 X60.441 Y106.227 E18.15426
G1 X80.770 Y126.557 E18.68615
G1 X80.517 Y126.654 E18.69117
G1 X60.166 Y106.303 E19.22362
G1 X59.867 Y106.356 E19.22923
G1 X64.699 Y111.188 E19.35566
G1 X64.348 Y111.188 E19.36215
G1 X59.567 Y106.407 E19.48725
G1 X59.240 Y106.431 E19.49331
G1 X63.997 Y111.188 E19.61778
G1 X63.646 Y111.188 E19.62427
G1 X58.905 Y106.447 E19.74831
G1 X58.545 Y106.438 E19.75497
G1 X63.295 Y111.188 E19.87924
G1 X62.944 Y111.188 E19.88573
G1 X58.161 Y106.405 E20.01086
G1 X57.754 Y106.349 E20.01848
G1 X62.593 Y111.188 E20.14509
G1 X62.242 Y111.188 E20.15158
G1 X57.301 Y106.247 E20.28085
G1 X56.786 Y106.083 E20.29085
G1 X61.891 Y111.188 E20.42440
G1 X61.540 Y111.188 E20.43089
G1 X56.177 Y105.825 E20.57120
G1 X55.259 Y105.259 F6000.000
G1 X61.188 Y111.188 E20.72633 F1200.000
G1 X60.837 Y111.188 E20.73282
G1 X45.349 Y95.699 E21.13805
G1 X45.349 Y96.051 E21.14455
G1 X60.486 Y111.188 E21.54059
G1 X60.135 Y111.188 E21.54709
G1 X45.349 Y96.402 E21.93395
G1 X45.349 Y96.753 E21.94044
G1 X59.784 Y111.188 E22.31812
G1 X59.433 Y111.188 E22.32461
G1 X45.349 Y97.104 E22.69310
G1 X45.349 Y97.455 E22.69959
G1 X59.082 Y111.188 E23.05890
G1 X58.731 Y111.188 E23.06539
G1 X45.349 Y97.806 E23.41551
G1 X45.349 Y98.157 E23.42200
G1 X58.380 Y111.188 E23.76293
G1 X58.029 Y111.188 E23.76943
G1 X45.349 Y98.508 E24.10117
G1 X45.349 Y98.859 E24.10767
G1 X57.677 Y111.188 E24.43022
G1 X57.326 Y111.188 E24.43672
G1 X45.349 Y99.211 E24.75009
G1 X45.349 Y99.562 E24.75658
G1 X56.975 Y111.188 E25.06077
G1 X56.624 Y111.188 E25.06727
G1 X45.349 Y99.913 E25.36226
G1 X45.349 Y100.264 E25.36876
G1 X56.273 Y111.188 E25.65457
G1 X55.922 Y111.188 E25.66107
G1 X45.349 Y100.615 E25.93770
G1 X45.349 Y100.966 E25.94419
G1 X55.571 Y111.188 E26.21163
G1 X55.220 Y111.188 E26.21813
G1 X45.349 Y101.317 E26.47638
G1 X45.349 Y101.668 E26.48288
G1 X54.869 Y111.188 E26.73195
G1 X54.517 Y111.188 E26.73844
G1 X45.349 Y102.019 E26.97833
G1 X45.349 Y102.370 E26.98482
G1 X54.166 Y111.188 E27.21552
G1 X53.815 Y111.188 E27.22201
G1 X45.349 Y102.722 E27.44352
G1 X45.349 Y103.073 E27.45002
G1 X53.464 Y111.188 E27.66234
G1 X53.113 Y111.188 E27.66884
G1 X45.349 Y103.424 E27.87198
G1 X45.349 Y103.775 E27.87847
G1 X52.762 Y111.188 E28.07243
G1 X52.411 Y111.188 E28.07892
G1 X45.349 Y104.126 E28.26369
G1 X45.349 Y104.477 E28.27019
G1 X52.060 Y111.188 E28.44577
G1 X51.709 Y111.188 E28.45226
G1 X45.349 Y104.828 E28.61866
G1 X45.349 Y105.179 E28.62515
G1 X51.358 Y111.188 E28.78236
G1 X51.006 Y111.188 E28.78886
G1 X45.349 Y105.530 E28.93688
G1 X45.349 Y105.882 E28.94337
G1 X50.655 Y111.188 E29.08221
G1 X50.304 Y111.188 E29.08871
G1 X45.349 Y106.233 E29.21836
G1 X45.349 Y106.584 E29.22485
G1 X49.953 Y111.188 E29.34532
G1 X49.602 Y111.188 E29.35181
G1 X45.349 Y106.935 E29.46309
G1 X45.349 Y107.286 E29.46959
G1 X49.251 Y111.188 E29.57168
G1 X48.900 Y111.188 E29.57818
G1 X45.349 Y107.637 E29.67108
G1 X45.349 Y107.988 E29.67758
G1 X48.549 Y111.188 E29.76130
G1 X48.198 Y111.188 E29.76779
G1 X45.349 Y108.339 E29.84233
G1 X45.349 Y108.690 E29.84882
G1 X47.847 Y111.188 E29.91417
G1 X47.495 Y111.188 E29.92067
G1 X45.349 Y109.041 E29.97683
G1 X45.349 Y109.393 E29.98333
G1 X47.144 Y111.188 E30.03030
G1 X46.793 Y111.188 E30.03680
G1 X45.349 Y109.744 E30.07459
G1 X45.349 Y110.095 E30.08108
G1 X46.442 Y111.188 E30.10969
G1 X46.091 Y111.188 E30.11618
G1 X45.349 Y110.446 E30.13560
G1 X45.349 Y110.797 E30.14210
G1 X45.740 Y111.188 E30.15233
G1 X45.389 Y111.188 E30.15883
G1 X45.349 Y111.148 E30.15987
G1 F1860.000 E27.15987
G92 E0
G1 X54.030 Y104.030 F6000.000
G1 E3.10000 F1860.000
G1 X45.349 Y95.348 E3.32714 F1200.000
G1 X45.349 Y94.997 E3.33363
G1 X53.474 Y103.122 E3.54621
G1 X53.207 Y102.504 F6000.000
G1 X45.349 Y94.646 E3.75179 F1200.000
G1 X45.349 Y94.295 E3.75828
G1 X53.046 Y101.992 E3.95966
G1 X52.943 Y101.538 E3.96827
G1 X45.349 Y93.944 E4.16696
G1 X45.349 Y93.593 E4.17346
G1 X52.876 Y101.121 E4.37041
G1 X52.849 Y100.742 E4.37744
G1 X45.349 Y93.242 E4.57366
G1 X45.349 Y92.891 E4.58015
G1 X52.843 Y100.385 E4.77621
G1 X52.851 Y100.042 E4.78256
G1 X45.349 Y92.540 E4.97884
G1 X45.349 Y92.188 E4.98534
G1 X52.886 Y99.726 E5.18254
G1 X52.925 Y99.414 E5.18836
G1 X45.349 Y91.837 E5.38658
G1 X45.349 Y91.486 E5.39307
G1 X52.989 Y99.127 E5.59298
G1 X53.054 Y98.840 E5.59841
G1 X45.349 Y91.135 E5.80000
G1 X45.349 Y90.784 E5.80650
G1 X53.141 Y98.576 E6.01037
G1 X53.228 Y98.313 E6.01552
G1 X45.349 Y90.433 E6.22167
G1 X45.349 Y90.082 E6.22817
G1 X53.334 Y98.067 E6.43708
G1 X53.442 Y97.824 E6.44201
G1 X45.354 Y89.736 E6.65361
G1 X45.670 Y89.701 E6.65950
G1 X53.562 Y97.593 E6.86598
G1 X53.689 Y97.369 E6.87075
G1 X46.021 Y89.701 E7.07137
G1 X46.372 Y89.701 E7.07787
G1 X53.823 Y97.152 E7.27281
G1 X53.968 Y96.946 E7.27748
G1 X46.723 Y89.701 E7.46703
G1 X47.074 Y89.701 E7.47353
G1 X54.114 Y96.741 E7.65771
G1 X54.277 Y96.552 E7.66231
G1 X47.426 Y89.701 E7.84156
G1 X47.777 Y89.701 E7.84806
G1 X54.439 Y96.364 E8.02238
G1 X54.614 Y96.187 E8.02697
G1 X48.128 Y89.701 E8.19667
G1 X48.479 Y89.701 E8.20316
G1 X54.794 Y96.016 E8.36838
G1 X54.979 Y95.850 E8.37297
G1 X48.830 Y89.701 E8.53384
G1 X49.181 Y89.701 E8.54034
G1 X55.176 Y95.696 E8.69718
G1 X55.373 Y95.542 E8.70181
G1 X49.532 Y89.701 E8.85463
G1 X49.883 Y89.701 E8.86112
G1 X55.587 Y95.405 E9.01035
G1 X55.802 Y95.269 E9.01506
G1 X50.234 Y89.701 E9.16073
G1 X50.586 Y89.701 E9.16723
G1 X56.029 Y95.144 E9.30964
G1 X56.262 Y95.027 E9.31448
G1 X50.937 Y89.701 E9.45381
G1 X51.288 Y89.701 E9.46031
G1 X56.503 Y94.916 E9.59677
G1 X56.757 Y94.819 E9.60179
G1 X51.639 Y89.701 E9.73569
G1 X51.990 Y89.701 E9.74219
G1 X57.014 Y94.725 E9.87364
G1 X57.289 Y94.649 E9.87892
G1 X52.341 Y89.701 E10.00839
G1 X52.692 Y89.701 E10.01488
G1 X57.568 Y94.577 E10.14245
G1 X57.867 Y94.525 E10.14807
G1 X53.043 Y89.701 E10.27427
G1 X53.394 Y89.701 E10.28077
G1 X58.172 Y94.478 E10.40576
G1 X58.499 Y94.454 E10.41183
G1 X53.745 Y89.701 E10.53619
G1 X54.097 Y89.701 E10.54269
G1 X58.834 Y94.438 E10.66663
G1 X59.202 Y94.456 E10.67345
G1 X54.448 Y89.701 E10.79785
G1 X54.799 Y89.701 E10.80435
G1 X59.588 Y94.490 E10.92965
G1 X60.000 Y94.551 E10.93735
G1 X55.150 Y89.701 E11.06425
G1 X55.501 Y89.701 E11.07075
G1 X60.467 Y94.667 E11.20067
G1 X60.993 Y94.842 F6000.000
G1 X55.852 Y89.701 E11.33518 F1200.000
G1 X56.203 Y89.701 E11.34168
G1 X61.627 Y95.125 E11.48359
G1 X62.669 Y95.816 F6000.000
G1 X56.554 Y89.701 E11.64358 F1200.000
G1 X56.905 Y89.701 E11.65008
G1 X85.453 Y118.248 E12.39696
G1 X85.671 Y118.818 F6000.000
