; generated by Slic3r 1.1.7 on 2015-01-07 at 16:07:45

; perimeters extrusion width = 0.40mm
; infill extrusion width = 0.44mm
; solid infill extrusion width = 0.44mm
; top infill extrusion width = 0.44mm

G21 ; set units to millimeters
M190 S115 ; wait for bed temperature to be reached
M104 S220 ; set temperature
G28 ; home all axes Start of G Code Slic3r
 
M109 S220 ; wait for temperature to be reached
G90 ; use absolute coordinates
G92 E0
M82 ; use absolute distances for extrusion
M106 S127
G1 F1860.000 E-3.00000
G92 E0
G1 Z0.294 F7800.000
G1 X79.446 Y71.494 F7800.000
G1 E3.10000 F1860.000
G1 X80.476 Y70.423 E3.19247 F1800.000
G1 X81.886 Y69.176 E3.30963
G1 X83.392 Y68.075 E3.42577
G1 X84.983 Y67.126 E3.54111
G1 X86.651 Y66.335 E3.65597
G1 X88.378 Y65.711 E3.77033
G1 X90.153 Y65.257 E3.88436
G1 X91.963 Y64.975 E3.99839
G1 X93.800 Y64.868 E4.11294
G1 X95.625 Y64.937 E4.22664 F1800.000
G1 X97.450 Y65.179 E4.34120
G1 X99.175 Y65.568 E4.45133
G1 X100.508 Y65.984 E4.53821
G1 X101.910 Y66.535 E4.63196
G1 X103.707 Y67.421 E4.75669
G1 X105.329 Y68.423 E4.87541
G1 X128.274 Y85.115 E6.64163
G1 X129.933 Y86.813 E6.78941
G1 X130.939 Y88.963 E6.93718
G1 X131.195 Y90.852 E7.05582
G1 X131.195 Y128.039 E9.37069
G1 X130.797 Y130.379 E9.51846
G1 X129.650 Y132.458 E9.66624
G1 X127.882 Y134.041 E9.81401
G1 X125.690 Y134.953 E9.96179
G1 X124.100 Y135.133 E10.06138
G1 X93.780 Y135.126 E11.94879
G1 X91.903 Y135.011 E12.06587
G1 X90.058 Y134.725 E12.18207
G1 X88.262 Y134.271 E12.29738
G1 X86.527 Y133.652 E12.41205
G1 X84.860 Y132.871 E12.52663
G1 X83.284 Y131.937 E12.64066
G1 X81.806 Y130.857 E12.75460
G1 X80.439 Y129.642 E12.86848
G1 X79.188 Y128.294 E12.98295
G1 X78.070 Y126.833 E13.09748
G1 X77.125 Y125.337 E13.20763
G1 X76.476 Y124.100 E13.29458
G1 X75.881 Y122.738 E13.38708
G1 X75.269 Y120.959 E13.50420
G1 X74.827 Y119.146 E13.62035
G1 X74.636 Y117.978 E13.69406
G1 X74.560 Y117.312 E13.73577
G1 X74.465 Y115.669 E13.83821
G1 X74.467 Y84.431 E15.78273
G1 X74.500 Y83.289 E15.85384
G1 X74.552 Y82.597 E15.89707
G1 X74.689 Y81.500 E15.96589
G1 X74.811 Y80.782 E16.01123
G1 X75.243 Y79.004 E16.12513
G1 X75.845 Y77.273 E16.23921
G1 X76.610 Y75.604 E16.35346
G1 X77.532 Y74.011 E16.46806
G1 X78.552 Y72.567 E16.57811
G1 X79.408 Y71.540 E16.66135
G1 X79.846 Y71.867 F7800.000
G1 X80.845 Y70.827 E16.75113 F1800.000
G1 X82.216 Y69.613 E16.86516
G1 X83.680 Y68.540 E16.97812
G1 X85.226 Y67.616 E17.09024
G1 X86.846 Y66.847 E17.20185
G1 X88.523 Y66.239 E17.31293
G1 X90.247 Y65.796 E17.42369
G1 X92.004 Y65.521 E17.53444
G1 X93.789 Y65.416 E17.64573
G1 X95.563 Y65.480 E17.75619 F1800.000
G1 X97.336 Y65.714 E17.86756
G1 X99.019 Y66.093 E17.97492
G1 X100.316 Y66.496 E18.05947
G1 X101.676 Y67.030 E18.15043
G1 X103.426 Y67.890 E18.27183
G1 X105.007 Y68.866 E18.38747
G1 X127.952 Y85.557 E20.15369
G1 X129.534 Y87.199 E20.29561
G1 X130.457 Y89.283 E20.43753
G1 X130.647 Y90.852 E20.53586
G1 X130.647 Y128.039 E22.85073
G1 X130.250 Y130.284 E22.99265
G1 X129.108 Y132.257 E23.13457
G1 X127.358 Y133.718 E23.27649
G1 X124.100 Y134.586 E23.48634
G1 X93.805 Y134.579 E25.37222
G1 X91.977 Y134.469 E25.48617
G1 X90.183 Y134.192 E25.59919
G1 X88.437 Y133.753 E25.71128
G1 X86.750 Y133.153 E25.82271
G1 X85.131 Y132.395 E25.93401
G1 X83.599 Y131.490 E26.04477
G1 X82.163 Y130.442 E26.15543
G1 X80.834 Y129.262 E26.26606
G1 X79.617 Y127.954 E26.37728
G1 X78.528 Y126.535 E26.48862
G1 X77.606 Y125.077 E26.59600
G1 X76.974 Y123.874 E26.68060
G1 X76.396 Y122.552 E26.77041
G1 X75.798 Y120.821 E26.88441
G1 X75.367 Y119.058 E26.99737
G1 X75.176 Y117.890 E27.07106
G1 X75.105 Y117.275 E27.10957
G1 X75.012 Y115.669 E27.20971
G1 X75.014 Y84.447 E29.15328
G1 X75.047 Y83.305 E29.22439
G1 X75.095 Y82.665 E29.26436
G1 X75.231 Y81.568 E29.33317
G1 X75.345 Y80.902 E29.37523
G1 X75.763 Y79.174 E29.48586
G1 X76.346 Y77.492 E29.59668
G1 X77.088 Y75.870 E29.70769
G1 X77.983 Y74.321 E29.81909
G1 X78.976 Y72.912 E29.92637
G1 X79.808 Y71.913 E30.00727
G1 F1860.000 E27.00727
G92 E0
G1 X123.807 Y127.745 F7800.000
G1 E3.10000 F1860.000
G1 X94.107 Y127.745 E4.94878 F441.000
G1 X92.898 Y127.690 E5.02408
G1 X91.733 Y127.529 E5.09732
G1 X90.608 Y127.265 E5.16925
G1 X89.528 Y126.901 E5.24017
G1 X88.499 Y126.441 E5.31039
G1 X87.523 Y125.886 E5.38023
G1 X86.607 Y125.241 E5.45000
G1 X85.753 Y124.509 E5.51999
G1 X84.968 Y123.692 E5.59052
G1 X84.256 Y122.793 E5.66190
G1 X83.620 Y121.815 E5.73455
G1 X83.198 Y121.034 E5.78982
G1 X82.824 Y120.211 E5.84606
G1 X82.414 Y119.079 E5.92105
G1 X82.116 Y117.940 E5.99430
G1 X81.930 Y116.800 E6.06622
G1 X81.853 Y115.663 E6.13714
G1 X81.885 Y114.536 E6.20736
G1 X82.024 Y113.422 E6.27720
G1 X82.269 Y112.329 E6.34697
G1 X82.619 Y111.260 E6.41696
G1 X83.073 Y110.222 E6.48749
G1 X83.630 Y109.220 E6.55888
G1 X84.291 Y108.258 E6.63153
G1 X84.851 Y107.569 E6.68679
G1 X85.468 Y106.909 E6.74303
G1 X86.358 Y106.096 E6.81802
G1 X87.296 Y105.386 E6.89127
G1 X88.278 Y104.777 E6.96319
G1 X89.298 Y104.271 E7.03411
G1 X90.352 Y103.869 E7.10433
G1 X91.434 Y103.571 E7.17418
G1 X92.538 Y103.379 E7.24394
G1 X93.659 Y103.294 E7.31394
G1 X94.792 Y103.316 E7.38447
G1 X95.931 Y103.448 E7.45585
G1 X97.073 Y103.690 E7.52850
G1 X97.924 Y103.944 E7.58377
G1 X98.769 Y104.261 E7.63998
G1 X99.924 Y104.805 E7.71943
G1 X100.993 Y105.444 E7.79693
G1 X101.975 Y106.171 E7.87298
G1 X102.866 Y106.981 E7.94797
G1 X103.663 Y107.869 E8.02226
G1 X104.363 Y108.830 E8.09622
G1 X104.961 Y109.857 E8.17023
G1 X105.454 Y110.946 E8.24463
G1 X105.839 Y112.090 E8.31981
G1 X106.113 Y113.293 E8.39661
G1 X106.803 Y117.148 E8.64040
G1 X107.203 Y118.416 E8.72313
G1 X107.616 Y119.395 E8.78925
G1 X107.991 Y120.084 E8.83813
G1 X108.425 Y120.709 E8.88547
G1 X108.755 Y121.086 E8.91669
G1 X109.117 Y121.418 E8.94726
G1 X109.514 Y121.701 E8.97759
G1 X109.947 Y121.926 E9.00797
G1 X110.411 Y122.083 E9.03844
G1 X110.670 Y122.138 E9.05494
G1 X111.175 Y122.184 E9.08651
G1 X123.807 Y122.184 E9.87281
G1 X123.807 Y127.685 E10.21525
G1 X123.460 Y127.545 F7800.000
G1 X123.259 Y127.198 F7800.000
G1 X94.119 Y127.198 E12.02919 F630.000
G1 X92.948 Y127.145 E12.10216
G1 X91.833 Y126.991 E12.17224
G1 X90.758 Y126.739 E12.24096
G1 X89.728 Y126.391 E12.30864
G1 X88.746 Y125.952 E12.37560
G1 X87.817 Y125.423 E12.44216
G1 X86.943 Y124.809 E12.50864
G1 X86.130 Y124.111 E12.57537
G1 X85.381 Y123.332 E12.64264
G1 X84.700 Y122.474 E12.71080
G1 X84.091 Y121.535 E12.78046
G1 X83.688 Y120.790 E12.83317
G1 X83.331 Y120.005 E12.88690
G1 X82.937 Y118.916 E12.95897
G1 X82.652 Y117.827 E13.02906
G1 X82.474 Y116.737 E13.09778
G1 X82.401 Y115.652 E13.16545
G1 X82.431 Y114.577 E13.23241
G1 X82.563 Y113.516 E13.29898
G1 X82.797 Y112.474 E13.36546
G1 X83.131 Y111.455 E13.43218
G1 X83.564 Y110.465 E13.49946
G1 X84.096 Y109.508 E13.56762
G1 X84.729 Y108.586 E13.63728
G1 X85.264 Y107.929 E13.68999
G1 X85.853 Y107.298 E13.74371
G1 X86.708 Y106.517 E13.81579
G1 X87.606 Y105.838 E13.88588
G1 X88.544 Y105.256 E13.95460
G1 X89.518 Y104.773 E14.02227
G1 X90.523 Y104.390 E14.08923
G1 X91.554 Y104.106 E14.15579
G1 X92.606 Y103.923 E14.22227
G1 X93.675 Y103.842 E14.28900
G1 X94.755 Y103.863 E14.35627
G1 X95.843 Y103.988 E14.42443
G1 X96.938 Y104.221 E14.49409
G1 X97.749 Y104.463 E14.54681
G1 X98.556 Y104.765 E14.60046
G1 X99.666 Y105.289 E14.67685
G1 X100.689 Y105.899 E14.75100
G1 X101.627 Y106.594 E14.82364
G1 X102.477 Y107.367 E14.89519
G1 X103.237 Y108.214 E14.96601
G1 X103.904 Y109.129 E15.03650
G1 X104.474 Y110.108 E15.10703
G1 X104.945 Y111.146 E15.17797
G1 X105.312 Y112.239 E15.24972
G1 X105.577 Y113.402 E15.32400
G1 X106.270 Y117.280 E15.56918
G1 X106.689 Y118.605 E15.65571
G1 X107.122 Y119.632 E15.72511
G1 X107.524 Y120.372 E15.77752
G1 X107.993 Y121.047 E15.82865
G1 X108.363 Y121.469 E15.86363
G1 X108.772 Y121.844 E15.89815
G1 X109.228 Y122.169 E15.93299
G1 X109.732 Y122.431 E15.96834
G1 X110.265 Y122.612 E16.00342
G1 X110.588 Y122.680 E16.02397
G1 X111.150 Y122.731 E16.05909
G1 X123.259 Y122.731 E16.81288
G1 X123.259 Y127.138 E17.08719
G1 X122.843 Y123.108 F7800.000
G1 X122.883 Y123.148 E17.09071 F1500.000
G1 X122.883 Y123.922 E17.13889
G1 X122.069 Y123.108 E17.21056
G1 X121.295 Y123.108 E17.25874
G1 X122.883 Y124.696 E17.39855
G1 X122.883 Y125.470 E17.44673
G1 X120.520 Y123.108 E17.65468
G1 X119.746 Y123.108 E17.70286
G1 X122.883 Y126.244 E17.97895
G1 X122.686 Y126.821 E18.01691
G1 X118.972 Y123.108 E18.34380
G1 X118.198 Y123.108 E18.39199
G1 X121.912 Y126.821 E18.71888
G1 X121.138 Y126.821 E18.76706
G1 X117.424 Y123.108 E19.09396
G1 X116.650 Y123.108 E19.14214
G1 X120.364 Y126.821 E19.46903
G1 X119.590 Y126.821 E19.51722
G1 X115.876 Y123.108 E19.84411
G1 X115.102 Y123.108 E19.89229
G1 X118.815 Y126.821 E20.21919
G1 X118.041 Y126.821 E20.26737
G1 X114.328 Y123.108 E20.59426
G1 X113.554 Y123.108 E20.64245
G1 X117.267 Y126.821 E20.96934
G1 X116.493 Y126.821 E21.01752
G1 X112.780 Y123.108 E21.34442
G1 X112.006 Y123.108 E21.39260
G1 X115.719 Y126.821 E21.71949
G1 X114.945 Y126.821 E21.76768
G1 X111.232 Y123.108 E22.09457
G1 X110.369 Y123.019 E22.14859
G1 X114.171 Y126.821 E22.48332
G1 X113.397 Y126.821 E22.53151
G1 X109.106 Y122.530 E22.90929
G1 X107.333 Y120.757 F7800.000
G1 X91.177 Y104.601 E24.33161 F1500.000
G1 X90.575 Y104.773 E24.37057
G1 X112.623 Y126.821 E26.31154
G1 X111.849 Y126.821 E26.35972
G1 X90.015 Y104.987 E28.28187
G1 X89.471 Y105.217 E28.31863
G1 X111.075 Y126.821 E30.22051
G1 X110.301 Y126.821 E30.26870
G1 X88.953 Y105.474 E32.14800
G1 X88.458 Y105.752 E32.18337
G1 X109.527 Y126.821 E34.03813
G1 X108.753 Y126.821 E34.08631
G1 X87.980 Y106.049 E35.91500
G1 X87.527 Y106.370 E35.94956
G1 X107.979 Y126.821 E37.74999
G1 X107.205 Y126.821 E37.79817
G1 X87.087 Y106.703 E39.56924
G1 X86.671 Y107.061 E39.60340
G1 X106.431 Y126.821 E41.34292
G1 X105.657 Y126.821 E41.39110
G1 X86.274 Y107.439 E43.09741
G1 X85.887 Y107.826 E43.13148
G1 X104.883 Y126.821 E44.80372
G1 X104.109 Y126.821 E44.85191
G1 X85.510 Y108.223 E46.48918
G1 X85.163 Y108.650 E46.52343
G1 X103.335 Y126.821 E48.12312
G1 X102.560 Y126.821 E48.17131
G1 X84.836 Y109.097 E49.73167
G1 X84.521 Y109.555 E49.76632
G1 X101.786 Y126.821 E51.28629
G1 X101.012 Y126.821 E51.33447
G1 X84.231 Y110.040 E52.81176
G1 X83.955 Y110.538 E52.84719
G1 X100.238 Y126.821 E54.28069
G1 X99.464 Y126.821 E54.32888
G1 X83.711 Y111.068 E55.71567
G1 X83.477 Y111.608 E55.75230
G1 X98.690 Y126.821 E57.09158
G1 X97.916 Y126.821 E57.13976
G1 X83.286 Y112.191 E58.42771
G1 X83.112 Y112.791 E58.46660
G1 X97.142 Y126.821 E59.70173
G1 X96.368 Y126.821 E59.74992
G1 X82.970 Y113.423 E60.92938
G1 X82.870 Y114.098 E60.97181
G1 X95.594 Y126.821 E62.09192
G1 X94.820 Y126.821 E62.14010
G1 X82.801 Y114.803 E63.19814
G1 X82.780 Y115.556 E63.24503
G1 X94.042 Y126.817 E64.23644
G1 X93.231 Y126.781 E64.28696
G1 X82.827 Y116.376 E65.20287
G1 X82.942 Y117.265 E65.25867
G1 X92.360 Y126.683 E66.08777
G1 X91.406 Y126.504 E66.14818
G1 X83.152 Y118.249 E66.87486
G1 X83.504 Y119.375 E66.94828
G1 X90.323 Y126.194 E67.54859
G1 X89.013 Y125.659 F7800.000
G1 X84.083 Y120.728 E67.98264 F1500.000
G1 X85.688 Y123.107 F7800.000
G1 X86.589 Y124.008 E68.06194 F1500.000
G1 X91.796 Y104.446 F7800.000
G1 X106.517 Y119.167 E69.35784 F1500.000
G1 X106.093 Y117.969 F7800.000
G1 X92.456 Y104.331 E70.55838 F1500.000
G1 X93.157 Y104.259 E70.60227
G1 X105.824 Y116.926 E71.71744
G1 X105.656 Y115.984 E71.77705
G1 X93.895 Y104.223 E72.81243
G1 X94.684 Y104.238 E72.86159
G1 X105.487 Y115.041 E73.81261
G1 X105.319 Y114.099 E73.87222
G1 X95.555 Y104.334 E74.73180
G1 X96.509 Y104.515 E74.79226
G1 X105.130 Y113.136 E75.55119
G1 X104.867 Y112.099 E75.61774
G1 X97.571 Y104.803 E76.26006
G1 X98.874 Y105.332 F7800.000
G1 X104.400 Y110.858 E76.74652 F1500.000
G1 X103.417 Y109.100 F7800.000
G1 X100.672 Y106.356 E76.98809 F1500.000
G1 F1860.000 E73.98809
G92 E0
G1 X123.807 Y96.706 F7800.000
G1 E3.10000 F1860.000
G1 X94.107 Y96.706 E4.94878 F441.000
G1 X92.898 Y96.652 E5.02408
G1 X91.733 Y96.491 E5.09732
G1 X90.608 Y96.227 E5.16925
G1 X89.528 Y95.863 E5.24017
G1 X88.499 Y95.402 E5.31039
G1 X87.523 Y94.847 E5.38023
G1 X86.607 Y94.202 E5.45000
G1 X85.753 Y93.470 E5.51999
G1 X84.968 Y92.653 E5.59052
G1 X84.256 Y91.755 E5.66190
G1 X83.620 Y90.776 E5.73455
G1 X83.198 Y89.995 E5.78982
G1 X82.824 Y89.173 E5.84606
G1 X82.414 Y88.040 E5.92105
G1 X82.116 Y86.901 E5.99430
G1 X81.930 Y85.761 E6.06622
G1 X81.853 Y84.625 E6.13714
G1 X81.885 Y83.497 E6.20736
G1 X82.024 Y82.384 E6.27720
G1 X82.269 Y81.290 E6.34697
G1 X82.619 Y80.221 E6.41696
G1 X83.073 Y79.183 E6.48749
G1 X83.630 Y78.181 E6.55888
G1 X84.291 Y77.219 E6.63153
G1 X84.851 Y76.530 E6.68679
G1 X85.468 Y75.870 E6.74303
G1 X86.358 Y75.058 E6.81802
G1 X87.296 Y74.347 E6.89127
G1 X88.278 Y73.739 E6.96319
G1 X89.298 Y73.233 E7.03411
G1 X90.352 Y72.830 E7.10433
G1 X91.434 Y72.533 E7.17418
G1 X92.538 Y72.341 E7.24394
G1 X93.659 Y72.255 E7.31394
G1 X94.792 Y72.278 E7.38447
G1 X95.931 Y72.409 E7.45585
G1 X97.073 Y72.651 E7.52850
G1 X97.924 Y72.905 E7.58377
G1 X98.769 Y73.222 E7.63998
G1 X99.924 Y73.767 E7.71943
G1 X100.993 Y74.405 E7.79693
G1 X101.975 Y75.132 E7.87298
G1 X102.866 Y75.942 E7.94797
G1 X103.663 Y76.831 E8.02226
G1 X104.363 Y77.791 E8.09622
G1 X104.961 Y78.818 E8.17023
G1 X105.454 Y79.907 E8.24463
G1 X105.839 Y81.052 E8.31981
G1 X106.113 Y82.255 E8.39661
G1 X106.803 Y86.110 E8.64040
G1 X107.203 Y87.377 E8.72313
G1 X107.616 Y88.356 E8.78925
G1 X107.991 Y89.046 E8.83813
G1 X108.425 Y89.670 E8.88547
G1 X108.755 Y90.047 E8.91669
G1 X109.117 Y90.379 E8.94726
G1 X109.514 Y90.662 E8.97759
G1 X109.947 Y90.887 E9.00797
G1 X110.411 Y91.044 E9.03844
G1 X110.670 Y91.099 E9.05494
G1 X111.175 Y91.145 E9.08651
G1 X123.807 Y91.145 E9.87281
G1 X123.807 Y96.646 E10.21525
G1 X123.460 Y96.506 F7800.000
G1 X123.259 Y96.159 F7800.000
G1 X94.119 Y96.159 E12.02919 F630.000
G1 X92.948 Y96.106 E12.10216
G1 X91.833 Y95.952 E12.17224
G1 X90.758 Y95.700 E12.24096
G1 X89.728 Y95.352 E12.30864
G1 X88.746 Y94.913 E12.37560
G1 X87.817 Y94.385 E12.44216
G1 X86.943 Y93.770 E12.50864
G1 X86.130 Y93.072 E12.57537
G1 X85.381 Y92.293 E12.64264
G1 X84.700 Y91.435 E12.71080
G1 X84.091 Y90.497 E12.78046
G1 X83.688 Y89.752 E12.83317
G1 X83.331 Y88.966 E12.88690
G1 X82.937 Y87.877 E12.95897
G1 X82.652 Y86.788 E13.02906
G1 X82.474 Y85.698 E13.09778
G1 X82.401 Y84.614 E13.16545
G1 X82.431 Y83.538 E13.23241
G1 X82.563 Y82.477 E13.29898
G1 X82.797 Y81.435 E13.36546
G1 X83.131 Y80.417 E13.43218
G1 X83.564 Y79.427 E13.49946
G1 X84.096 Y78.470 E13.56762
G1 X84.729 Y77.547 E13.63728
G1 X85.264 Y76.890 E13.68999
G1 X85.853 Y76.260 E13.74371
G1 X86.708 Y75.479 E13.81579
G1 X87.606 Y74.799 E13.88588
G1 X88.544 Y74.217 E13.95460
G1 X89.518 Y73.735 E14.02227
G1 X90.523 Y73.351 E14.08923
G1 X91.554 Y73.067 E14.15579
G1 X92.606 Y72.884 E14.22227
G1 X93.675 Y72.803 E14.28900
G1 X94.755 Y72.824 E14.35627
G1 X95.843 Y72.950 E14.42443
G1 X96.938 Y73.182 E14.49409
G1 X97.749 Y73.424 E14.54681
G1 X98.556 Y73.727 E14.60046
G1 X99.666 Y74.250 E14.67685
G1 X100.689 Y74.861 E14.75100
G1 X101.627 Y75.555 E14.82364
G1 X102.477 Y76.329 E14.89519
G1 X103.237 Y77.175 E14.96601
G1 X103.904 Y78.091 E15.03650
G1 X104.474 Y79.070 E15.10703
G1 X104.945 Y80.108 E15.17797
G1 X105.312 Y81.200 E15.24972
G1 X105.577 Y82.364 E15.32400
G1 X106.270 Y86.241 E15.56918
G1 X106.689 Y87.566 E15.65571
G1 X107.122 Y88.593 E15.72511
G1 X107.524 Y89.333 E15.77752
G1 X107.993 Y90.008 E15.82865
G1 X108.363 Y90.430 E15.86363
G1 X108.772 Y90.805 E15.89815
G1 X109.228 Y91.130 E15.93299
G1 X109.732 Y91.392 E15.96834
G1 X110.265 Y91.573 E16.00342
G1 X110.588 Y91.642 E16.02397
G1 X111.150 Y91.692 E16.05909
G1 X123.259 Y91.692 E16.81288
G1 X123.259 Y96.099 E17.08719
G1 X122.843 Y92.069 F7800.000
G1 X122.883 Y92.109 E17.09071 F1500.000
G1 X122.883 Y92.883 E17.13889
G1 X122.069 Y92.069 E17.21056
G1 X121.295 Y92.069 E17.25874
G1 X122.883 Y93.657 E17.39855
G1 X122.883 Y94.431 E17.44673
G1 X120.520 Y92.069 E17.65468
G1 X119.746 Y92.069 E17.70286
G1 X122.883 Y95.205 E17.97895
G1 X122.686 Y95.782 E18.01691
G1 X118.972 Y92.069 E18.34380
G1 X118.198 Y92.069 E18.39199
G1 X121.912 Y95.782 E18.71888
G1 X121.138 Y95.782 E18.76706
