; generated by Slic3r 1.1.7 on 2015-01-07 at 16:09:46

; perimeters extrusion width = 0.40mm
; infill extrusion width = 0.44mm
; solid infill extrusion width = 0.44mm
; top infill extrusion width = 0.44mm

G21 ; set units to millimeters
M190 S115 ; wait for bed temperature to be reached
M104 S220 ; set temperature
G28 ; home all axes Start of G Code Slic3r
 
M109 S220 ; wait for temperature to be reached
G90 ; use absolute coordinates
G92 E0
M82 ; use absolute distances for extrusion
M106 S127
G1 F1860.000 E-3.00000
G92 E0
G1 Z0.294 F7800.000
G1 X51.521 Y69.236 F7800.000
G1 E3.10000 F1860.000
G1 X54.089 Y68.249 E3.27126 F1800.000
G1 X95.283 Y61.097 E5.87392
G1 X96.497 Y60.992 E5.94974
G1 X126.818 Y61.000 E7.83718
G1 X128.696 Y61.115 E7.95430 F1800.000
G1 X130.539 Y61.400 E8.07040
G1 X132.337 Y61.855 E8.18586
G1 X134.073 Y62.475 E8.30064
G1 X135.736 Y63.255 E8.41498
G1 X137.313 Y64.189 E8.52908
G1 X138.791 Y65.269 E8.64303
G1 X140.160 Y66.487 E8.75708
G1 X141.409 Y67.832 E8.87131
G1 X142.528 Y69.294 E8.98592
G1 X143.472 Y70.789 E9.09600
G1 X144.121 Y72.025 E9.18288
G1 X144.716 Y73.387 E9.27544
G1 X145.328 Y75.166 E9.39256
G1 X145.770 Y76.979 E9.50872
G1 X145.960 Y78.145 E9.58226
G1 X146.037 Y78.811 E9.62399
G1 X146.132 Y80.456 E9.72657
G1 X146.130 Y111.694 E11.67110
G1 X146.098 Y112.835 E11.74215
G1 X146.045 Y113.529 E11.78548
G1 X145.909 Y114.622 E11.85402
G1 X145.786 Y115.344 E11.89959
G1 X145.354 Y117.123 E12.01355
G1 X144.752 Y118.853 E12.12759
G1 X143.987 Y120.521 E12.24182
G1 X143.065 Y122.115 E12.35644
G1 X142.045 Y123.559 E12.46651
G1 X141.151 Y124.632 E12.55343
G1 X140.120 Y125.702 E12.64596
G1 X138.712 Y126.948 E12.76302
G1 X137.205 Y128.051 E12.87922
G1 X135.613 Y129.000 E12.99458
G1 X133.947 Y129.790 E13.10939
G1 X132.220 Y130.414 E13.22368
G1 X130.752 Y130.808 E13.31834
G1 X95.220 Y138.618 E15.58295
G1 X93.410 Y138.900 E15.69695
G1 X91.573 Y139.006 E15.81150
G1 X89.748 Y138.938 E15.92518
G1 X87.924 Y138.696 E16.03973
G1 X86.198 Y138.306 E16.14986
G1 X84.864 Y137.891 E16.23684
G1 X83.464 Y137.340 E16.33052
G1 X81.675 Y136.459 E16.45461
G1 X80.044 Y135.451 E16.57398
G1 X57.099 Y118.760 E18.34020
G1 X55.440 Y117.062 E18.48798
G1 X54.302 Y114.339 E18.67173
G1 X48.331 Y82.703 E20.67578
G1 X48.208 Y81.387 E20.75804
G1 X48.208 Y75.239 E21.14077
G1 X48.606 Y72.898 E21.28854
G1 X49.753 Y70.820 E21.43632
G1 X51.476 Y69.276 E21.58036
G1 X51.896 Y69.685 F7800.000
G1 X52.045 Y69.560 E21.59249 F1800.000
G1 X54.183 Y68.788 E21.73396
G1 X96.497 Y61.539 E24.40634
G1 X126.793 Y61.546 E26.29223
G1 X128.621 Y61.657 E26.40623 F1800.000
G1 X130.414 Y61.933 E26.51916
G1 X132.162 Y62.373 E26.63138
G1 X133.850 Y62.974 E26.74292
G1 X135.466 Y63.730 E26.85399
G1 X136.999 Y64.636 E26.96481
G1 X138.435 Y65.684 E27.07548
G1 X139.766 Y66.866 E27.18627
G1 X140.980 Y68.172 E27.29727
G1 X142.069 Y69.592 E27.40868
G1 X142.991 Y71.049 E27.51599
G1 X143.623 Y72.251 E27.60054
G1 X144.201 Y73.574 E27.69040
G1 X144.799 Y75.305 E27.80440
G1 X145.230 Y77.068 E27.91737
G1 X145.420 Y78.233 E27.99091
G1 X145.491 Y78.848 E28.02943
G1 X145.585 Y80.456 E28.12971
G1 X145.583 Y111.679 E30.07327
G1 X145.551 Y112.820 E30.14433
G1 X145.502 Y113.462 E30.18439
G1 X145.366 Y114.554 E30.25293
G1 X145.252 Y115.224 E30.29522
G1 X144.834 Y116.952 E30.40591
G1 X144.251 Y118.634 E30.51668
G1 X143.509 Y120.255 E30.62768
G1 X142.614 Y121.805 E30.73909
G1 X141.621 Y123.214 E30.84640
G1 X140.751 Y124.258 E30.93098
G1 X139.751 Y125.298 E31.02081
G1 X138.381 Y126.512 E31.13475
G1 X136.917 Y127.586 E31.24777
G1 X135.370 Y128.510 E31.35991
G1 X133.752 Y129.279 E31.47147
G1 X132.075 Y129.887 E31.58250
G1 X130.634 Y130.274 E31.67538
G1 X95.126 Y138.079 E33.93848
G1 X93.369 Y138.354 E34.04920
G1 X91.584 Y138.459 E34.16050
G1 X89.811 Y138.394 E34.27094
G1 X88.037 Y138.161 E34.38230
G1 X86.355 Y137.782 E34.48966
G1 X85.057 Y137.378 E34.57429
G1 X83.697 Y136.845 E34.66519
G1 X81.956 Y135.990 E34.78596
G1 X80.366 Y135.009 E34.90224
G1 X57.421 Y118.317 E36.66846
G1 X55.839 Y116.676 E36.81038
G1 X54.839 Y114.237 E36.97445
G1 X48.869 Y82.601 E38.97851
G1 X48.756 Y81.387 E39.05442
G1 X48.756 Y75.239 E39.43715
G1 X49.153 Y72.994 E39.57907
G1 X50.295 Y71.021 E39.72099
G1 X51.849 Y69.723 E39.84704
G1 F1860.000 E36.84704
G92 E0
G1 X55.596 Y81.094 F7800.000
G1 E3.10000 F1860.000
G1 X55.596 Y75.533 E3.44617 F441.000
G1 X85.296 Y75.533 E5.29494
G1 X86.505 Y75.587 E5.37025
G1 X87.670 Y75.748 E5.44349
G1 X88.795 Y76.012 E5.51541
G1 X89.875 Y76.376 E5.58633
G1 X90.904 Y76.837 E5.65656
G1 X91.880 Y77.391 E5.72640
G1 X92.796 Y78.036 E5.79616
G1 X93.649 Y78.769 E5.86616
G1 X94.435 Y79.586 E5.93669
G1 X95.147 Y80.484 E6.00807
G1 X95.783 Y81.463 E6.08072
G1 X96.205 Y82.244 E6.13599
G1 X96.579 Y83.066 E6.19223
G1 X96.989 Y84.199 E6.26722
G1 X97.287 Y85.337 E6.34047
G1 X97.473 Y86.478 E6.41239
G1 X97.550 Y87.614 E6.48331
G1 X97.518 Y88.742 E6.55353
G1 X97.379 Y89.855 E6.62337
G1 X97.134 Y90.949 E6.69314
G1 X96.784 Y92.017 E6.76313
G1 X96.330 Y93.055 E6.83366
G1 X95.773 Y94.058 E6.90504
G1 X95.112 Y95.020 E6.97769
G1 X94.552 Y95.709 E7.03296
G1 X93.935 Y96.369 E7.08920
G1 X93.045 Y97.181 E7.16419
G1 X92.107 Y97.892 E7.23744
G1 X91.125 Y98.500 E7.30936
G1 X90.105 Y99.006 E7.38028
G1 X89.051 Y99.408 E7.45050
G1 X87.969 Y99.706 E7.52035
G1 X86.865 Y99.898 E7.59011
G1 X85.744 Y99.984 E7.66010
G1 X84.611 Y99.961 E7.73064
G1 X83.472 Y99.830 E7.80202
G1 X82.330 Y99.588 E7.87467
G1 X81.479 Y99.334 E7.92993
G1 X80.634 Y99.017 E7.98615
G1 X79.479 Y98.472 E8.06560
G1 X78.410 Y97.834 E8.14310
G1 X77.428 Y97.107 E8.21915
G1 X76.537 Y96.296 E8.29414
G1 X75.740 Y95.408 E8.36843
G1 X75.040 Y94.448 E8.44239
G1 X74.442 Y93.421 E8.51639
G1 X73.949 Y92.332 E8.59080
G1 X73.564 Y91.187 E8.66598
G1 X73.290 Y89.984 E8.74277
G1 X72.600 Y86.129 E8.98657
G1 X72.200 Y84.862 E9.06930
G1 X71.787 Y83.883 E9.13542
G1 X71.412 Y83.193 E9.18430
G1 X70.978 Y82.568 E9.23165
G1 X70.648 Y82.192 E9.26286
G1 X70.286 Y81.859 E9.29344
G1 X69.889 Y81.577 E9.32376
G1 X69.456 Y81.352 E9.35414
G1 X68.992 Y81.194 E9.38461
G1 X68.733 Y81.139 E9.40109
G1 X68.228 Y81.094 E9.43267
G1 X55.656 Y81.094 E10.21525
G1 X55.796 Y80.747 F7800.000
G1 X56.144 Y80.546 F7800.000
G1 X56.144 Y76.080 E10.49329 F630.000
G1 X85.284 Y76.080 E12.30724
G1 X86.455 Y76.133 E12.38020
G1 X87.570 Y76.287 E12.45029
G1 X88.645 Y76.539 E12.51900
G1 X89.675 Y76.886 E12.58668
G1 X90.657 Y77.326 E12.65364
G1 X91.586 Y77.854 E12.72021
G1 X92.460 Y78.469 E12.78669
G1 X93.273 Y79.167 E12.85341
G1 X94.022 Y79.946 E12.92069
G1 X94.702 Y80.804 E12.98884
G1 X95.312 Y81.742 E13.05851
G1 X95.715 Y82.487 E13.11122
G1 X96.072 Y83.273 E13.16494
G1 X96.466 Y84.362 E13.23702
G1 X96.751 Y85.451 E13.30711
G1 X96.929 Y86.540 E13.37582
G1 X97.002 Y87.625 E13.44350
G1 X96.972 Y88.700 E13.51046
G1 X96.840 Y89.761 E13.57702
G1 X96.606 Y90.804 E13.64351
G1 X96.272 Y91.822 E13.71023
G1 X95.839 Y92.812 E13.77750
G1 X95.307 Y93.769 E13.84566
G1 X94.674 Y94.692 E13.91532
G1 X94.139 Y95.349 E13.96804
G1 X93.550 Y95.979 E14.02176
G1 X92.695 Y96.760 E14.09384
G1 X91.797 Y97.440 E14.16392
G1 X90.859 Y98.021 E14.23264
G1 X89.885 Y98.504 E14.30032
G1 X88.880 Y98.888 E14.36728
G1 X87.849 Y99.172 E14.43384
G1 X86.797 Y99.355 E14.50032
G1 X85.728 Y99.436 E14.56704
G1 X84.648 Y99.415 E14.63432
G1 X83.560 Y99.289 E14.70248
G1 X82.465 Y99.057 E14.77214
G1 X81.654 Y98.815 E14.82485
G1 X80.847 Y98.512 E14.87851
G1 X79.737 Y97.989 E14.95490
G1 X78.714 Y97.378 E15.02904
G1 X77.776 Y96.684 E15.10169
G1 X76.926 Y95.910 E15.17323
G1 X76.166 Y95.064 E15.24406
G1 X75.499 Y94.148 E15.31455
G1 X74.929 Y93.169 E15.38507
G1 X74.458 Y92.131 E15.45602
G1 X74.091 Y91.039 E15.52776
G1 X73.826 Y89.875 E15.60205
G1 X73.133 Y85.998 E15.84723
G1 X72.714 Y84.673 E15.93375
G1 X72.281 Y83.645 E16.00316
G1 X71.879 Y82.905 E16.05557
G1 X71.410 Y82.231 E16.10671
G1 X71.040 Y81.809 E16.14167
G1 X70.631 Y81.433 E16.17622
G1 X70.175 Y81.109 E16.21104
G1 X69.671 Y80.847 E16.24639
G1 X69.138 Y80.666 E16.28146
G1 X68.815 Y80.597 E16.30198
G1 X68.253 Y80.546 E16.33714
G1 X56.204 Y80.546 E17.08719
G1 X56.560 Y80.170 F7800.000
G1 X56.520 Y80.130 E17.09071 F1500.000
G1 X56.520 Y79.356 E17.13889
G1 X57.334 Y80.170 E17.21056
G1 X58.108 Y80.170 E17.25874
G1 X56.520 Y78.582 E17.39855
G1 X56.520 Y77.808 E17.44673
G1 X58.882 Y80.170 E17.65468
G1 X59.657 Y80.170 E17.70286
G1 X56.520 Y77.033 E17.97895
G1 X56.717 Y76.456 E18.01691
G1 X60.431 Y80.170 E18.34380
G1 X61.205 Y80.170 E18.39198
G1 X57.491 Y76.456 E18.71888
G1 X58.265 Y76.456 E18.76706
G1 X61.979 Y80.170 E19.09395
G1 X62.753 Y80.170 E19.14214
G1 X59.039 Y76.456 E19.46903
G1 X59.813 Y76.456 E19.51721
G1 X63.527 Y80.170 E19.84411
G1 X64.301 Y80.170 E19.89229
G1 X60.588 Y76.456 E20.21918
G1 X61.362 Y76.456 E20.26737
G1 X65.075 Y80.170 E20.59426
G1 X65.849 Y80.170 E20.64244
G1 X62.136 Y76.456 E20.96934
G1 X62.910 Y76.456 E21.01752
G1 X66.623 Y80.170 E21.34441
G1 X67.397 Y80.170 E21.39260
G1 X63.684 Y76.456 E21.71949
G1 X64.458 Y76.456 E21.76767
G1 X68.171 Y80.170 E22.09457
G1 X69.034 Y80.259 E22.14858
G1 X65.232 Y76.456 E22.48332
G1 X66.006 Y76.456 E22.53150
G1 X70.297 Y80.748 E22.90929
G1 X72.070 Y82.520 F7800.000
G1 X88.226 Y98.677 E24.33160 F1500.000
G1 X88.828 Y98.504 E24.37056
G1 X66.780 Y76.456 E26.31153
G1 X67.554 Y76.456 E26.35971
G1 X89.388 Y98.291 E28.28186
G1 X89.932 Y98.060 E28.31862
G1 X68.328 Y76.456 E30.22050
G1 X69.102 Y76.456 E30.26868
G1 X90.450 Y97.804 E32.14798
G1 X90.945 Y97.525 E32.18336
G1 X69.876 Y76.456 E34.03812
G1 X70.650 Y76.456 E34.08630
G1 X91.423 Y97.229 E35.91498
G1 X91.876 Y96.908 E35.94955
G1 X71.424 Y76.456 E37.74998
G1 X72.198 Y76.456 E37.79816
G1 X92.316 Y96.574 E39.56922
G1 X92.732 Y96.216 E39.60339
G1 X72.972 Y76.456 E41.34291
G1 X73.746 Y76.456 E41.39109
G1 X93.129 Y95.839 E43.09740
G1 X93.516 Y95.452 E43.13147
G1 X74.520 Y76.456 E44.80371
G1 X75.294 Y76.456 E44.85189
G1 X93.893 Y95.055 E46.48917
G1 X94.240 Y94.628 E46.52342
G1 X76.068 Y76.456 E48.12311
G1 X76.843 Y76.456 E48.17130
G1 X94.567 Y94.181 E49.73166
G1 X94.882 Y93.722 E49.76631
G1 X77.617 Y76.456 E51.28628
G1 X78.391 Y76.456 E51.33446
G1 X95.172 Y93.237 E52.81175
G1 X95.448 Y92.740 E52.84718
G1 X79.165 Y76.456 E54.28069
G1 X79.939 Y76.456 E54.32887
G1 X95.692 Y92.209 E55.71567
G1 X95.926 Y91.670 E55.75230
G1 X80.713 Y76.456 E57.09157
G1 X81.487 Y76.456 E57.13975
G1 X96.117 Y91.087 E58.42770
G1 X96.291 Y90.487 E58.46659
G1 X82.261 Y76.456 E59.70173
G1 X83.035 Y76.456 E59.74991
G1 X96.433 Y89.854 E60.92938
G1 X96.533 Y89.180 E60.97181
G1 X83.809 Y76.456 E62.09192
G1 X84.583 Y76.456 E62.14010
G1 X96.602 Y88.475 E63.19814
G1 X96.623 Y87.722 E63.24502
G1 X85.361 Y76.460 E64.23644
G1 X86.172 Y76.497 E64.28696
G1 X96.576 Y86.901 E65.20287
G1 X96.461 Y86.012 E65.25867
G1 X87.043 Y76.594 E66.08777
G1 X87.996 Y76.774 E66.14818
G1 X96.251 Y85.028 E66.87486
G1 X95.899 Y83.903 E66.94828
G1 X89.080 Y77.083 E67.54859
G1 X90.390 Y77.619 F7800.000
G1 X95.320 Y82.550 E67.98265 F1500.000
G1 X93.715 Y80.170 F7800.000
G1 X92.814 Y79.269 E68.06198 F1500.000
G1 X72.886 Y84.111 F7800.000
G1 X87.607 Y98.831 E69.35789 F1500.000
G1 X86.947 Y98.946 E69.39955
G1 X73.310 Y85.309 E70.60008
G1 X73.578 Y86.351 E70.66708
G1 X86.246 Y99.019 E71.78225
G1 X85.508 Y99.055 E71.82824
G1 X73.747 Y87.294 E72.86362
G1 X73.916 Y88.236 E72.92323
G1 X84.719 Y99.039 E73.87424
G1 X83.848 Y98.943 E73.92874
G1 X74.084 Y89.179 E74.78832
G1 X74.273 Y90.142 E74.84941
G1 X82.894 Y98.763 E75.60833
G1 X81.832 Y98.475 E75.67684
G1 X74.536 Y91.178 E76.31916
G1 X75.003 Y92.420 F7800.000
G1 X80.529 Y97.946 E76.80562 F1500.000
G1 X78.731 Y96.922 F7800.000
G1 X75.986 Y94.177 E77.04719 F1500.000
G1 F1860.000 E74.04719
G92 E0
G1 X61.567 Y112.729 F7800.000
G1 E3.10000 F1860.000
G1 X61.567 Y107.168 E3.44617 F441.000
G1 X91.266 Y107.168 E5.29494
G1 X92.475 Y107.223 E5.37025
G1 X93.640 Y107.384 E5.44349
G1 X94.765 Y107.648 E5.51541
G1 X95.845 Y108.012 E5.58633
G1 X96.874 Y108.473 E5.65656
G1 X97.850 Y109.027 E5.72640
G1 X98.766 Y109.672 E5.79616
G1 X99.620 Y110.404 E5.86616
G1 X100.405 Y111.221 E5.93669
G1 X101.117 Y112.120 E6.00807
G1 X101.753 Y113.098 E6.08072
G1 X102.175 Y113.879 E6.13599
G1 X102.549 Y114.702 E6.19223
G1 X102.959 Y115.835 E6.26722
G1 X103.257 Y116.973 E6.34047
G1 X103.443 Y118.113 E6.41239
G1 X103.520 Y119.250 E6.48331
G1 X103.488 Y120.378 E6.55353
G1 X103.350 Y121.491 E6.62337
G1 X103.104 Y122.585 E6.69314
G1 X102.754 Y123.653 E6.76313
G1 X102.300 Y124.691 E6.83366
G1 X101.743 Y125.693 E6.90504
G1 X101.082 Y126.656 E6.97769
G1 X100.522 Y127.344 E7.03296
G1 X99.905 Y128.004 E7.08920
G1 X99.016 Y128.817 E7.16419
G1 X98.078 Y129.527 E7.23744
G1 X97.095 Y130.136 E7.30936
G1 X96.075 Y130.642 E7.38028
G1 X95.021 Y131.044 E7.45050
G1 X93.939 Y131.342 E7.52035
G1 X92.835 Y131.534 E7.59011
G1 X91.714 Y131.619 E7.66010
G1 X90.581 Y131.597 E7.73064
G1 X89.442 Y131.466 E7.80202
G1 X88.300 Y131.223 E7.87467
G1 X87.449 Y130.969 E7.92993
G1 X86.604 Y130.652 E7.98615
G1 X85.449 Y130.108 E8.06560
G1 X84.380 Y129.470 E8.14310
G1 X83.399 Y128.743 E8.21915
G1 X82.507 Y127.932 E8.29414
G1 X81.710 Y127.044 E8.36843
G1 X81.011 Y126.084 E8.44239
G1 X80.412 Y125.056 E8.51639
G1 X79.919 Y123.968 E8.59080
G1 X79.534 Y122.823 E8.66598
G1 X79.260 Y121.620 E8.74277
G1 X78.570 Y117.765 E8.98657
G1 X78.171 Y116.497 E9.06930
G1 X77.757 Y115.519 E9.13542
G1 X77.382 Y114.829 E9.18430
G1 X76.948 Y114.204 E9.23165
G1 X76.618 Y113.827 E9.26286
G1 X76.256 Y113.495 E9.29344
G1 X75.859 Y113.213 E9.32376
G1 X75.426 Y112.988 E9.35414
G1 X74.963 Y112.830 E9.38461
G1 X74.704 Y112.775 E9.40109
G1 X74.198 Y112.729 E9.43267
G1 X61.627 Y112.729 E10.21525
G1 X61.767 Y112.383 F7800.000
G1 X62.114 Y112.182 F7800.000
G1 X62.114 Y107.715 E10.49329 F630.000
G1 X91.254 Y107.715 E12.30724
G1 X92.425 Y107.768 E12.38020
G1 X93.540 Y107.922 E12.45029
G1 X94.615 Y108.175 E12.51900
G1 X95.645 Y108.522 E12.58668
G1 X96.627 Y108.962 E12.65364
G1 X97.557 Y109.490 E12.72021
G1 X98.430 Y110.104 E12.78669
G1 X99.243 Y110.803 E12.85341
G1 X99.992 Y111.582 E12.92069
G1 X100.673 Y112.440 E12.98884
G1 X101.283 Y113.378 E13.05851
G1 X101.685 Y114.123 E13.11122
G1 X102.042 Y114.909 E13.16494
G1 X102.436 Y115.997 E13.23702
G1 X102.721 Y117.087 E13.30711
G1 X102.899 Y118.176 E13.37582
G1 X102.972 Y119.261 E13.44350
G1 X102.942 Y120.336 E13.51046
G1 X102.810 Y121.397 E13.57702
G1 X102.576 Y122.439 E13.64351
G1 X102.243 Y123.458 E13.71023
G1 X101.809 Y124.448 E13.77750
G1 X101.277 Y125.405 E13.84566
G1 X100.644 Y126.327 E13.91532
G1 X100.109 Y126.984 E13.96804
G1 X99.520 Y127.615 E14.02176
G1 X98.665 Y128.396 E14.09384
G1 X97.768 Y129.076 E14.16392
G1 X96.829 Y129.657 E14.23264
G1 X95.855 Y130.140 E14.30032
G1 X94.850 Y130.524 E14.36728
G1 X93.819 Y130.807 E14.43384
G1 X92.767 Y130.990 E14.50032
G1 X91.698 Y131.072 E14.56704
G1 X90.618 Y131.050 E14.63432
G1 X89.530 Y130.925 E14.70248
G1 X88.435 Y130.693 E14.77214
G1 X87.624 Y130.450 E14.82485
G1 X86.817 Y130.148 E14.87851
G1 X85.707 Y129.624 E14.95490
G1 X84.684 Y129.014 E15.02904
G1 X83.746 Y128.319 E15.10169
G1 X82.896 Y127.546 E15.17323
G1 X82.136 Y126.699 E15.24406
G1 X81.469 Y125.784 E15.31455
G1 X80.899 Y124.805 E15.38507
G1 X80.429 Y123.767 E15.45602
G1 X80.061 Y122.675 E15.52776
G1 X79.796 Y121.511 E15.60205
G1 X79.103 Y117.634 E15.84723
G1 X78.685 Y116.308 E15.93375
G1 X78.251 Y115.281 E16.00316
G1 X77.849 Y114.541 E16.05557
G1 X77.380 Y113.867 E16.10671
G1 X77.010 Y113.444 E16.14167
G1 X76.601 Y113.069 E16.17622
G1 X76.145 Y112.745 E16.21104
G1 X75.641 Y112.483 E16.24639
G1 X75.108 Y112.302 E16.28146
G1 X74.785 Y112.233 E16.30198
G1 X74.223 Y112.182 E16.33714
G1 X62.174 Y112.182 E17.08719
G1 X62.531 Y111.805 F7800.000
G1 X62.491 Y111.765 E17.09071 F1500.000
G1 X62.491 Y110.991 E17.13889
G1 X63.305 Y111.805 E17.21056
G1 X64.079 Y111.805 E17.25874
G1 X62.491 Y110.217 E17.39855
G1 X62.491 Y109.443 E17.44673
G1 X64.853 Y111.805 E17.65468
G1 X65.627 Y111.805 E17.70286
G1 X62.491 Y108.669 E17.97895
G1 X62.687 Y108.092 E18.01691
G1 X66.401 Y111.805 E18.34380
G1 X67.175 Y111.805 E18.39198
G1 X63.461 Y108.092 E18.71888
G1 X64.236 Y108.092 E18.76706
