; generated by Slic3r 1.1.7 on 2015-01-07 at 16:07:25

; perimeters extrusion width = 0.40mm
; infill extrusion width = 0.44mm
; solid infill extrusion width = 0.44mm
; top infill extrusion width = 0.44mm

G21 ; set units to millimeters
M190 S115 ; wait for bed temperature to be reached
M104 S220 ; set temperature
G28 ; home all axes Start of G Code Slic3r
 
M109 S220 ; wait for temperature to be reached
G90 ; use absolute coordinates
G92 E0
M82 ; use absolute distances for extrusion
M106 S127
G1 F1860.000 E-3.00000
G92 E0
G1 Z0.294 F7800.000
G1 X80.476 Y85.943 F7800.000
G1 E3.10000 F1860.000
G1 X81.886 Y84.696 E3.21716 F1800.000
G1 X83.392 Y83.594 E3.33330
G1 X84.983 Y82.645 E3.44864
G1 X86.651 Y81.855 E3.56350
G1 X88.378 Y81.230 E3.67786
G1 X90.153 Y80.776 E3.79189
G1 X91.963 Y80.494 E3.90592
G1 X93.800 Y80.388 E4.02047
G1 X95.625 Y80.456 E4.13417 F1800.000
G1 X97.450 Y80.698 E4.24874
G1 X99.175 Y81.088 E4.35886
G1 X100.508 Y81.503 E4.44574
G1 X101.910 Y82.054 E4.53950
G1 X103.707 Y82.940 E4.66422
G1 X105.329 Y83.943 E4.78294
G1 X128.274 Y100.634 E6.54916
G1 X129.933 Y102.332 E6.69694
G1 X130.939 Y104.482 E6.84471
G1 X131.195 Y106.371 E6.96335
G1 X131.195 Y112.519 E7.34609
G1 X130.797 Y114.860 E7.49386
G1 X129.650 Y116.938 E7.64164
G1 X127.882 Y118.522 E7.78941
G1 X125.690 Y119.433 E7.93718
G1 X124.100 Y119.614 E8.03677
G1 X93.770 Y119.606 E9.92477
G1 X91.903 Y119.492 E10.04126
G1 X90.058 Y119.206 E10.15746
G1 X88.262 Y118.752 E10.27277
G1 X86.516 Y118.128 E10.38820
G1 X84.860 Y117.351 E10.50203
G1 X83.284 Y116.418 E10.61606
G1 X81.806 Y115.338 E10.73000
G1 X80.431 Y114.113 E10.84464
G1 X79.188 Y112.774 E10.95834
G1 X78.070 Y111.314 E11.07288
G1 X77.125 Y109.817 E11.18303
G1 X76.476 Y108.581 E11.26997
G1 X75.881 Y107.219 E11.36247
G1 X75.269 Y105.440 E11.47960
G1 X74.827 Y103.627 E11.59574
G1 X74.636 Y102.458 E11.66945
G1 X74.560 Y101.793 E11.71116
G1 X74.467 Y99.951 E11.82596
G1 X74.500 Y98.809 E11.89708
G1 X74.552 Y98.116 E11.94031
G1 X74.689 Y97.019 E12.00912
G1 X74.811 Y96.301 E12.05446
G1 X75.243 Y94.523 E12.16836
G1 X75.845 Y92.792 E12.28245
G1 X76.610 Y91.124 E12.39670
G1 X77.532 Y89.530 E12.51130
G1 X78.556 Y88.081 E12.62180
G1 X79.446 Y87.013 E12.70832
G1 X80.435 Y85.986 E12.79705
G1 X80.845 Y86.347 F7800.000
G1 X82.216 Y85.132 E12.91108 F1800.000
G1 X83.680 Y84.059 E13.02404
G1 X85.226 Y83.135 E13.13617
G1 X86.846 Y82.366 E13.24777
G1 X88.523 Y81.758 E13.35885
G1 X90.247 Y81.315 E13.46962
G1 X92.004 Y81.040 E13.58036
G1 X93.789 Y80.935 E13.69165
G1 X95.563 Y81.000 E13.80212 F1800.000
G1 X97.336 Y81.233 E13.91349
G1 X99.019 Y81.612 E14.02084
G1 X100.316 Y82.015 E14.10539
G1 X101.676 Y82.549 E14.19636
G1 X103.426 Y83.410 E14.31775
G1 X105.007 Y84.385 E14.43340
G1 X127.952 Y101.077 E16.19962
G1 X129.534 Y102.718 E16.34153
G1 X130.457 Y104.803 E16.48345
G1 X130.647 Y106.371 E16.58179
G1 X130.647 Y112.519 E16.96452
G1 X130.250 Y114.764 E17.10644
G1 X129.108 Y116.737 E17.24836
G1 X127.358 Y118.199 E17.39028
G1 X124.100 Y119.067 E17.60014
G1 X93.795 Y119.059 E19.48659
G1 X91.977 Y118.950 E19.59996
G1 X90.183 Y118.673 E19.71298
G1 X88.437 Y118.233 E19.82507
G1 X86.739 Y117.628 E19.93725
G1 X85.131 Y116.876 E20.04780
G1 X83.599 Y115.970 E20.15856
G1 X82.163 Y114.923 E20.26922
G1 X80.825 Y113.734 E20.38060
G1 X79.617 Y112.434 E20.49106
G1 X78.528 Y111.015 E20.60240
G1 X77.606 Y109.557 E20.70978
G1 X76.974 Y108.354 E20.79439
G1 X76.396 Y107.032 E20.88420
G1 X75.798 Y105.301 E20.99819
G1 X75.367 Y103.539 E21.11116
G1 X75.176 Y102.370 E21.18485
G1 X75.105 Y101.756 E21.22336
G1 X75.014 Y99.966 E21.33491
G1 X75.047 Y98.824 E21.40601
G1 X75.095 Y98.184 E21.44598
G1 X75.231 Y97.087 E21.51479
G1 X75.345 Y96.421 E21.55686
G1 X75.763 Y94.694 E21.66748
G1 X76.346 Y93.011 E21.77831
G1 X77.088 Y91.390 E21.88932
G1 X77.983 Y89.840 E22.00072
G1 X78.981 Y88.426 E22.10845
G1 X79.846 Y87.387 E22.19264
G1 X80.804 Y86.390 E22.27868
G1 F1860.000 E19.27868
G92 E0
G1 X123.807 Y112.226 F7800.000
G1 E3.10000 F1860.000
G1 X94.107 Y112.226 E4.94878 F441.000
G1 X92.898 Y112.171 E5.02408
G1 X91.733 Y112.010 E5.09732
G1 X90.608 Y111.746 E5.16925
G1 X89.528 Y111.382 E5.24017
G1 X88.499 Y110.921 E5.31039
G1 X87.523 Y110.367 E5.38023
G1 X86.607 Y109.722 E5.45000
G1 X85.753 Y108.989 E5.51999
G1 X84.968 Y108.173 E5.59052
G1 X84.256 Y107.274 E5.66190
G1 X83.620 Y106.296 E5.73455
G1 X83.198 Y105.514 E5.78982
G1 X82.824 Y104.692 E5.84606
G1 X82.414 Y103.559 E5.92105
G1 X82.116 Y102.421 E5.99430
G1 X81.930 Y101.281 E6.06622
G1 X81.853 Y100.144 E6.13714
G1 X81.885 Y99.016 E6.20736
G1 X82.024 Y97.903 E6.27720
G1 X82.269 Y96.809 E6.34697
G1 X82.619 Y95.741 E6.41696
G1 X83.073 Y94.703 E6.48749
G1 X83.630 Y93.701 E6.55888
G1 X84.291 Y92.738 E6.63153
G1 X84.851 Y92.050 E6.68679
G1 X85.468 Y91.390 E6.74303
G1 X86.358 Y90.577 E6.81802
G1 X87.296 Y89.867 E6.89127
G1 X88.278 Y89.258 E6.96319
G1 X89.298 Y88.752 E7.03411
G1 X90.352 Y88.350 E7.10433
G1 X91.434 Y88.052 E7.17418
G1 X92.538 Y87.860 E7.24394
G1 X93.659 Y87.775 E7.31394
G1 X94.792 Y87.797 E7.38447
G1 X95.931 Y87.928 E7.45585
G1 X97.073 Y88.171 E7.52850
G1 X97.924 Y88.425 E7.58377
G1 X98.769 Y88.742 E7.63998
G1 X99.924 Y89.286 E7.71943
G1 X100.993 Y89.924 E7.79693
G1 X101.975 Y90.651 E7.87298
G1 X102.866 Y91.462 E7.94797
G1 X103.663 Y92.350 E8.02226
G1 X104.363 Y93.310 E8.09622
G1 X104.961 Y94.338 E8.17023
G1 X105.454 Y95.426 E8.24463
G1 X105.839 Y96.571 E8.31981
G1 X106.113 Y97.774 E8.39661
G1 X106.803 Y101.629 E8.64040
G1 X107.203 Y102.897 E8.72313
G1 X107.616 Y103.875 E8.78925
G1 X107.991 Y104.565 E8.83813
G1 X108.425 Y105.190 E8.88547
G1 X108.755 Y105.567 E8.91669
G1 X109.117 Y105.899 E8.94726
G1 X109.514 Y106.181 E8.97759
G1 X109.947 Y106.406 E9.00797
G1 X110.411 Y106.564 E9.03844
G1 X110.670 Y106.619 E9.05494
G1 X111.175 Y106.665 E9.08651
G1 X123.807 Y106.665 E9.87281
G1 X123.807 Y112.166 E10.21525
G1 X123.460 Y112.026 F7800.000
G1 X123.259 Y111.678 F7800.000
G1 X94.119 Y111.678 E12.02919 F630.000
G1 X92.948 Y111.625 E12.10216
G1 X91.833 Y111.472 E12.17224
G1 X90.758 Y111.219 E12.24096
G1 X89.728 Y110.872 E12.30864
G1 X88.746 Y110.432 E12.37560
G1 X87.817 Y109.904 E12.44216
G1 X86.943 Y109.289 E12.50864
G1 X86.130 Y108.591 E12.57537
G1 X85.381 Y107.812 E12.64264
G1 X84.700 Y106.954 E12.71080
G1 X84.091 Y106.016 E12.78046
G1 X83.688 Y105.271 E12.83317
G1 X83.331 Y104.485 E12.88690
G1 X82.937 Y103.397 E12.95897
G1 X82.652 Y102.307 E13.02906
G1 X82.474 Y101.218 E13.09778
G1 X82.401 Y100.133 E13.16545
G1 X82.431 Y99.058 E13.23241
G1 X82.563 Y97.997 E13.29898
G1 X82.797 Y96.955 E13.36546
G1 X83.131 Y95.936 E13.43218
G1 X83.564 Y94.946 E13.49946
G1 X84.096 Y93.989 E13.56762
G1 X84.729 Y93.066 E13.63728
G1 X85.264 Y92.410 E13.68999
G1 X85.853 Y91.779 E13.74371
G1 X86.708 Y90.998 E13.81579
G1 X87.606 Y90.318 E13.88588
G1 X88.544 Y89.737 E13.95460
G1 X89.518 Y89.254 E14.02227
G1 X90.523 Y88.870 E14.08923
G1 X91.554 Y88.587 E14.15579
G1 X92.606 Y88.404 E14.22227
G1 X93.675 Y88.322 E14.28900
G1 X94.755 Y88.344 E14.35627
G1 X95.843 Y88.469 E14.42443
G1 X96.938 Y88.701 E14.49409
G1 X97.749 Y88.943 E14.54681
G1 X98.556 Y89.246 E14.60046
G1 X99.666 Y89.770 E14.67685
G1 X100.689 Y90.380 E14.75100
G1 X101.627 Y91.075 E14.82364
G1 X102.477 Y91.848 E14.89519
G1 X103.237 Y92.695 E14.96601
G1 X103.904 Y93.610 E15.03650
G1 X104.474 Y94.589 E15.10703
G1 X104.945 Y95.627 E15.17797
G1 X105.312 Y96.719 E15.24972
G1 X105.577 Y97.883 E15.32400
G1 X106.270 Y101.760 E15.56918
G1 X106.689 Y103.086 E15.65571
G1 X107.122 Y104.113 E15.72511
G1 X107.524 Y104.853 E15.77752
G1 X107.993 Y105.527 E15.82865
G1 X108.363 Y105.950 E15.86363
G1 X108.772 Y106.325 E15.89815
G1 X109.228 Y106.649 E15.93299
G1 X109.732 Y106.911 E15.96834
G1 X110.265 Y107.092 E16.00342
G1 X110.588 Y107.161 E16.02397
G1 X111.150 Y107.212 E16.05909
G1 X123.259 Y107.212 E16.81288
G1 X123.259 Y111.618 E17.08719
G1 X122.843 Y107.589 F7800.000
G1 X122.883 Y107.629 E17.09071 F1500.000
G1 X122.883 Y108.403 E17.13889
G1 X122.069 Y107.589 E17.21056
G1 X121.295 Y107.589 E17.25874
G1 X122.883 Y109.177 E17.39855
G1 X122.883 Y109.951 E17.44673
G1 X120.520 Y107.589 E17.65468
G1 X119.746 Y107.589 E17.70286
G1 X122.883 Y110.725 E17.97895
G1 X122.686 Y111.302 E18.01691
G1 X118.972 Y107.589 E18.34380
G1 X118.198 Y107.589 E18.39199
G1 X121.912 Y111.302 E18.71888
G1 X121.138 Y111.302 E18.76706
G1 X117.424 Y107.589 E19.09396
G1 X116.650 Y107.589 E19.14214
G1 X120.364 Y111.302 E19.46903
G1 X119.590 Y111.302 E19.51722
G1 X115.876 Y107.589 E19.84411
G1 X115.102 Y107.589 E19.89229
G1 X118.815 Y111.302 E20.21919
G1 X118.041 Y111.302 E20.26737
G1 X114.328 Y107.589 E20.59426
G1 X113.554 Y107.589 E20.64245
G1 X117.267 Y111.302 E20.96934
G1 X116.493 Y111.302 E21.01752
G1 X112.780 Y107.589 E21.34442
G1 X112.006 Y107.589 E21.39260
G1 X115.719 Y111.302 E21.71949
G1 X114.945 Y111.302 E21.76768
G1 X111.232 Y107.589 E22.09457
G1 X110.369 Y107.499 E22.14859
G1 X114.171 Y111.302 E22.48332
G1 X113.397 Y111.302 E22.53151
G1 X109.106 Y107.010 E22.90929
G1 X107.333 Y105.238 F7800.000
G1 X91.177 Y89.081 E24.33161 F1500.000
G1 X90.575 Y89.254 E24.37057
G1 X112.623 Y111.302 E26.31154
G1 X111.849 Y111.302 E26.35972
G1 X90.015 Y89.468 E28.28187
G1 X89.471 Y89.698 E28.31863
G1 X111.075 Y111.302 E30.22051
G1 X110.301 Y111.302 E30.26870
G1 X88.953 Y89.954 E32.14800
G1 X88.458 Y90.233 E32.18337
G1 X109.527 Y111.302 E34.03813
G1 X108.753 Y111.302 E34.08631
G1 X87.980 Y90.529 E35.91500
G1 X87.527 Y90.850 E35.94956
G1 X107.979 Y111.302 E37.74999
G1 X107.205 Y111.302 E37.79817
G1 X87.087 Y91.184 E39.56924
G1 X86.671 Y91.542 E39.60340
G1 X106.431 Y111.302 E41.34292
G1 X105.657 Y111.302 E41.39110
G1 X86.274 Y91.919 E43.09741
G1 X85.887 Y92.306 E43.13148
G1 X104.883 Y111.302 E44.80372
G1 X104.109 Y111.302 E44.85191
G1 X85.510 Y92.704 E46.48918
G1 X85.163 Y93.130 E46.52343
G1 X103.335 Y111.302 E48.12312
G1 X102.560 Y111.302 E48.17131
G1 X84.836 Y93.577 E49.73167
G1 X84.521 Y94.036 E49.76632
G1 X101.786 Y111.302 E51.28629
G1 X101.012 Y111.302 E51.33447
G1 X84.231 Y94.521 E52.81176
G1 X83.955 Y95.018 E52.84719
G1 X100.238 Y111.302 E54.28069
G1 X99.464 Y111.302 E54.32888
G1 X83.711 Y95.549 E55.71567
G1 X83.477 Y96.089 E55.75230
G1 X98.690 Y111.302 E57.09158
G1 X97.916 Y111.302 E57.13976
G1 X83.286 Y96.672 E58.42771
G1 X83.112 Y97.272 E58.46660
G1 X97.142 Y111.302 E59.70173
G1 X96.368 Y111.302 E59.74992
G1 X82.970 Y97.904 E60.92938
G1 X82.870 Y98.578 E60.97181
G1 X95.594 Y111.302 E62.09192
G1 X94.820 Y111.302 E62.14010
G1 X82.801 Y99.283 E63.19814
G1 X82.780 Y100.036 E63.24503
G1 X94.042 Y111.298 E64.23644
G1 X93.231 Y111.261 E64.28696
G1 X82.827 Y100.857 E65.20287
G1 X82.942 Y101.746 E65.25867
G1 X92.360 Y111.164 E66.08777
G1 X91.406 Y110.984 E66.14818
G1 X83.152 Y102.730 E66.87486
G1 X83.504 Y103.856 E66.94828
G1 X90.323 Y110.675 E67.54859
G1 X89.013 Y110.139 F7800.000
G1 X84.083 Y105.209 E67.98264 F1500.000
G1 X85.688 Y107.588 F7800.000
G1 X86.589 Y108.489 E68.06194 F1500.000
G1 X91.796 Y88.927 F7800.000
G1 X106.517 Y103.647 E69.35784 F1500.000
G1 X106.093 Y102.449 F7800.000
G1 X92.456 Y88.812 E70.55838 F1500.000
G1 X93.157 Y88.739 E70.60227
G1 X105.824 Y101.407 E71.71744
G1 X105.656 Y100.464 E71.77705
G1 X93.895 Y88.703 E72.81243
G1 X94.684 Y88.719 E72.86159
G1 X105.487 Y99.522 E73.81261
G1 X105.319 Y98.579 E73.87222
G1 X95.555 Y88.815 E74.73180
G1 X96.509 Y88.995 E74.79226
G1 X105.130 Y97.616 E75.55119
G1 X104.867 Y96.580 E75.61774
G1 X97.571 Y89.283 E76.26006
G1 X98.874 Y89.813 F7800.000
G1 X104.400 Y95.338 E76.74652 F1500.000
G1 X103.417 Y93.581 F7800.000
G1 X100.672 Y90.837 E76.98809 F1500.000
M106 S185
M104 S218 ; set temperature
M140 S112 ; set bed temperature
G1 F1860.000 E73.98809
G92 E0
G1 Z0.587 F7800.000
G1 X123.900 Y112.319 F7800.000
G1 E3.10000 F1860.000
G1 X94.105 Y112.319 E4.45585 F882.000
G1 X92.890 Y112.264 E4.51119
G1 X91.716 Y112.102 E4.56512
G1 X90.582 Y111.836 E4.61810
G1 X89.494 Y111.469 E4.67035
G1 X88.456 Y111.005 E4.72209
G1 X87.473 Y110.446 E4.77356
G1 X86.549 Y109.796 E4.82497
G1 X85.689 Y109.058 E4.87655
G1 X84.898 Y108.234 E4.92851
G1 X84.180 Y107.329 E4.98110
G1 X83.539 Y106.343 E5.03458
G1 X83.114 Y105.556 E5.07530
G1 X82.737 Y104.727 E5.11673
G1 X82.324 Y103.587 E5.17191
G1 X82.024 Y102.440 E5.22585
G1 X81.837 Y101.291 E5.27883
G1 X81.759 Y100.146 E5.33108
G1 X81.791 Y99.009 E5.38282
G1 X81.931 Y97.887 E5.43429
G1 X82.178 Y96.784 E5.48570
G1 X82.531 Y95.707 E5.53727
G1 X82.989 Y94.661 E5.58924
G1 X83.551 Y93.651 E5.64183
G1 X84.216 Y92.682 E5.69531
G1 X84.781 Y91.988 E5.73603
G1 X85.402 Y91.323 E5.77746
G1 X86.298 Y90.505 E5.83264
G1 X87.242 Y89.789 E5.88658
G1 X88.232 Y89.176 E5.93956
G1 X89.261 Y88.666 E5.99181
G1 X90.323 Y88.261 E6.04355
G1 X91.414 Y87.961 E6.09502
G1 X92.527 Y87.767 E6.14643
G1 X93.657 Y87.681 E6.19800
G1 X94.799 Y87.703 E6.24997
G1 X95.947 Y87.836 E6.30255
G1 X97.096 Y88.080 E6.35604
G1 X97.954 Y88.336 E6.39676
G1 X98.806 Y88.655 E6.43817
G1 X99.968 Y89.203 E6.49663
G1 X101.045 Y89.846 E6.55370
G1 X102.034 Y90.579 E6.60973
G1 X102.932 Y91.396 E6.66497
G1 X103.736 Y92.291 E6.71972
G1 X104.441 Y93.259 E6.77422
G1 X105.044 Y94.295 E6.82876
G1 X105.542 Y95.392 E6.88358
G1 X105.930 Y96.546 E6.93897
G1 X106.205 Y97.755 E6.99542
G1 X106.894 Y101.607 E7.17346
G1 X107.291 Y102.864 E7.23346
G1 X107.700 Y103.834 E7.28139
G1 X108.071 Y104.516 E7.31668
G1 X108.499 Y105.132 E7.35081
G1 X108.822 Y105.501 E7.37316
G1 X109.176 Y105.826 E7.39502
G1 X109.563 Y106.101 E7.41662
G1 X109.984 Y106.320 E7.43821
G1 X110.435 Y106.473 E7.45990
G1 X110.684 Y106.526 E7.47145
G1 X111.179 Y106.571 E7.49409
G1 X123.900 Y106.571 E8.07297
G1 X123.900 Y112.259 E8.33182
G1 X123.554 Y112.119 F7800.000
G1 X123.500 Y111.919 F7800.000
G1 X94.114 Y111.919 E9.66905 F1260.000
G1 X92.926 Y111.866 E9.72314
G1 X91.789 Y111.709 E9.77539
G1 X90.692 Y111.451 E9.82666
G1 X89.640 Y111.096 E9.87717
G1 X88.637 Y110.648 E9.92717
G1 X87.687 Y110.108 E9.97688
G1 X86.795 Y109.480 E10.02654
G1 X85.964 Y108.767 E10.07637
G1 X85.199 Y107.971 E10.12660
G1 X84.505 Y107.095 E10.17746
G1 X83.883 Y106.139 E10.22935
G1 X83.472 Y105.378 E10.26870
G1 X83.108 Y104.576 E10.30878
G1 X82.706 Y103.468 E10.36241
G1 X82.416 Y102.357 E10.41466
G1 X82.234 Y101.245 E10.46593
G1 X82.160 Y100.138 E10.51644
G1 X82.190 Y99.040 E10.56644
G1 X82.326 Y97.955 E10.61615
G1 X82.564 Y96.891 E10.66581
G1 X82.905 Y95.850 E10.71564
G1 X83.348 Y94.839 E10.76587
G1 X83.891 Y93.862 E10.81673
G1 X84.536 Y92.922 E10.86861
G1 X85.082 Y92.251 E10.90797
G1 X85.684 Y91.608 E10.94805
G1 X86.554 Y90.813 E11.00168
G1 X87.469 Y90.119 E11.05393
G1 X88.427 Y89.526 E11.10519
G1 X89.421 Y89.033 E11.15571
G1 X90.448 Y88.641 E11.20571
G1 X91.501 Y88.351 E11.25542
G1 X92.576 Y88.164 E11.30508
G1 X93.668 Y88.081 E11.35491
G1 X94.772 Y88.103 E11.40513
G1 X95.882 Y88.231 E11.45600
G1 X96.997 Y88.468 E11.50788
G1 X97.826 Y88.715 E11.54724
G1 X98.650 Y89.024 E11.58728
G1 X99.780 Y89.557 E11.64411
G1 X100.823 Y90.179 E11.69939
G1 X101.780 Y90.888 E11.75359
G1 X102.648 Y91.678 E11.80700
G1 X103.425 Y92.543 E11.85989
G1 X104.106 Y93.478 E11.91254
G1 X104.688 Y94.478 E11.96521
G1 X105.169 Y95.539 E12.01819
G1 X105.544 Y96.654 E12.07174
G1 X105.813 Y97.835 E12.12685
G1 X106.505 Y101.702 E12.30564
G1 X106.915 Y103.002 E12.36766
G1 X107.339 Y104.008 E12.41734
G1 X107.730 Y104.726 E12.45452
G1 X108.183 Y105.379 E12.49068
G1 X108.536 Y105.781 E12.51505
G1 X108.924 Y106.137 E12.53901
G1 X109.354 Y106.443 E12.56302
G1 X109.827 Y106.689 E12.58727
G1 X110.329 Y106.860 E12.61141
G1 X110.624 Y106.922 E12.62513
G1 X111.161 Y106.971 E12.64967
G1 X123.500 Y106.971 E13.21117
G1 X123.500 Y111.859 E13.43362
G1 X123.224 Y111.603 F7800.000
G1 X123.184 Y111.643 E13.43637 F3000.000
G1 X122.576 Y111.643 E13.46595
G1 X123.224 Y110.995 E13.51053
G1 X123.224 Y110.388 E13.54010
G1 X121.969 Y111.643 E13.62651
G1 X121.361 Y111.643 E13.65609
G1 X123.224 Y109.780 E13.78432
G1 X123.224 Y109.173 E13.81390
G1 X120.753 Y111.643 E13.98396
G1 X120.146 Y111.643 E14.01353
G1 X123.224 Y108.565 E14.22542
G1 X123.224 Y107.957 E14.25500
G1 X119.538 Y111.643 E14.50871
G1 X118.931 Y111.643 E14.53829
