; generated by Slic3r 1.1.7 on 2015-02-21 at 07:22:10

; perimeters extrusion width = 0.47mm
; infill extrusion width = 0.62mm
; solid infill extrusion width = 0.62mm
; top infill extrusion width = 0.62mm

G21 ; set units to millimeters
M190 S60 ; wait for bed temperature to be reached
M104 S230 ; set temperature
G28 ; home all axes Start of G Code Slic3r
 
 
M109 S230 ; wait for temperature to be reached
G90 ; use absolute coordinates
G92 E0
M82 ; use absolute distances for extrusion
G1 F4200.000 E-3.00000
G92 E0
G1 Z0.294 F6000.000
G1 X73.697 Y73.572 F6000.000
G1 E3.00000 F4200.000
G1 X74.094 Y73.199 E3.04206 F900.000
G1 X74.511 Y72.845 E3.08429
G1 X75.248 Y72.299 E3.15511
G1 X76.093 Y71.778 E3.23175
G1 X76.911 Y71.366 E3.30250
G1 X77.835 Y70.997 E3.37934
G1 X78.355 Y70.830 E3.42151
G1 X78.882 Y70.688 E3.46368
G1 X79.416 Y70.573 E3.50585
G1 X79.954 Y70.484 E3.54797
G1 X80.770 Y70.400 E3.61129
G1 X81.500 Y70.376 E3.66772
G1 X118.587 Y70.376 E6.53170
G1 X119.132 Y70.394 E6.57379 F900.000
G1 X119.677 Y70.438 E6.61603
G1 X120.218 Y70.509 E6.65815
G1 X120.756 Y70.607 E6.70036
G1 X121.288 Y70.731 E6.74251
G1 X121.813 Y70.880 E6.78467
G1 X122.683 Y71.192 E6.85602
G1 X123.579 Y71.603 E6.93220
G1 X124.061 Y71.866 E6.97456
G1 X124.606 Y72.202 E7.02402
G1 X124.978 Y72.457 E7.05887
G1 X125.492 Y72.848 E7.10868
G1 X125.905 Y73.198 E7.15051
G1 X126.305 Y73.573 E7.19287
G1 X126.617 Y73.893 E7.22735
G1 X127.042 Y74.374 E7.27695
G1 X127.645 Y75.166 E7.35383
G1 X127.945 Y75.622 E7.39598
G1 X128.219 Y76.088 E7.43767
G1 X128.475 Y76.577 E7.48031
G1 X128.705 Y77.072 E7.52248
G1 X128.946 Y77.676 E7.57273
G1 X129.120 Y78.189 E7.61454
G1 X129.269 Y78.711 E7.65642
G1 X129.394 Y79.249 E7.69914
G1 X129.475 Y79.684 E7.73330
G1 X129.562 Y80.321 E7.78294
G1 X129.600 Y80.771 E7.81782
G1 X129.624 Y81.415 E7.86752
G1 X129.624 Y118.587 E10.73808
G1 X129.606 Y119.133 E10.78025
G1 X129.562 Y119.678 E10.82243
G1 X129.491 Y120.216 E10.86439
G1 X129.393 Y120.756 E10.90674
G1 X129.197 Y121.554 E10.97018
G1 X129.035 Y122.072 E11.01215
G1 X128.848 Y122.583 E11.05418
G1 X128.519 Y123.335 E11.11754
G1 X128.136 Y124.059 E11.18077
G1 X127.700 Y124.753 E11.24404
G1 X127.383 Y125.197 E11.28617
G1 X127.043 Y125.624 E11.32835
G1 X126.427 Y126.305 E11.39925
G1 X125.700 Y126.980 E11.47589
G1 X125.056 Y127.487 E11.53911
G1 X124.378 Y127.945 E11.60235
G1 X123.667 Y128.352 E11.66560
G1 X123.177 Y128.593 E11.70779
G1 X122.676 Y128.811 E11.74992
G1 X121.906 Y129.090 E11.81317
G1 X121.118 Y129.312 E11.87642
G1 X120.219 Y129.491 E11.94722
G1 X119.231 Y129.600 E12.02395
G1 X118.500 Y129.624 E12.08044
G1 X81.413 Y129.624 E14.94440
G1 X80.490 Y129.578 E15.01570
G1 X79.781 Y129.491 E15.07087
G1 X79.244 Y129.393 E15.11305
G1 X78.713 Y129.269 E15.15516
G1 X78.187 Y129.119 E15.19737
G1 X77.677 Y128.947 E15.23898
G1 X77.162 Y128.744 E15.28170
G1 X76.665 Y128.518 E15.32386
G1 X76.179 Y128.269 E15.36604
G1 X75.706 Y127.996 E15.40819
G1 X75.247 Y127.701 E15.45035
G1 X74.803 Y127.383 E15.49254
G1 X74.376 Y127.044 E15.53464
G1 X73.965 Y126.683 E15.57684
G1 X73.575 Y126.307 E15.61873
G1 X73.199 Y125.906 E15.66115
G1 X72.846 Y125.489 E15.70333
G1 X72.355 Y124.834 E15.76654
G1 X71.863 Y124.057 E15.83758
G1 X71.407 Y123.177 E15.91412
G1 X71.090 Y122.422 E15.97735
G1 X70.830 Y121.645 E16.04059
G1 X70.627 Y120.852 E16.10381
G1 X70.469 Y119.939 E16.17538
G1 X70.393 Y119.125 E16.23847
G1 X70.376 Y118.500 E16.28679
G1 X70.376 Y81.412 E19.15077
G1 X70.394 Y80.868 E19.19285
G1 X70.438 Y80.323 E19.23502
G1 X70.509 Y79.782 E19.27721
G1 X70.605 Y79.252 E19.31880
G1 X70.731 Y78.712 E19.36156
G1 X70.880 Y78.187 E19.40372
G1 X71.056 Y77.670 E19.44590
G1 X71.256 Y77.162 E19.48805
G1 X71.482 Y76.665 E19.53024
G1 X71.731 Y76.179 E19.57243
G1 X72.004 Y75.706 E19.61455
G1 X72.300 Y75.247 E19.65674
G1 X72.618 Y74.803 E19.69893
G1 X72.956 Y74.376 E19.74101
G1 X73.647 Y73.622 E19.81997
G1 X74.089 Y73.974 F6000.000
G1 X74.467 Y73.620 E19.85991 F900.000
G1 X74.862 Y73.284 E19.90000
G1 X75.565 Y72.763 E19.96761
G1 X76.364 Y72.271 E20.04001
G1 X77.145 Y71.878 E20.10756
G1 X78.018 Y71.529 E20.18014
G1 X78.511 Y71.370 E20.22018
G1 X79.012 Y71.235 E20.26022
G1 X79.519 Y71.125 E20.30026
G1 X80.030 Y71.041 E20.34025
G1 X80.804 Y70.961 E20.40037
G1 X81.500 Y70.938 E20.45415
G1 X118.581 Y70.938 E23.31758
G1 X119.098 Y70.955 E23.35755 F900.000
G1 X119.616 Y70.997 E23.39766
G1 X120.129 Y71.064 E23.43765
G1 X120.640 Y71.157 E23.47773
G1 X121.144 Y71.274 E23.51774
G1 X121.643 Y71.416 E23.55777
G1 X122.473 Y71.714 E23.62587
G1 X123.320 Y72.102 E23.69785
G1 X123.778 Y72.351 E23.73808
G1 X124.300 Y72.673 E23.78540
G1 X125.140 Y73.286 E23.86575
G1 X125.532 Y73.619 E23.90547
G1 X125.912 Y73.975 E23.94568
G1 X126.612 Y74.736 E24.02550
G1 X127.181 Y75.484 E24.09812
G1 X127.466 Y75.917 E24.13814
G1 X127.727 Y76.359 E24.17774
G1 X127.970 Y76.823 E24.21821
G1 X128.188 Y77.294 E24.25825
G1 X128.419 Y77.871 E24.30631
G1 X128.584 Y78.359 E24.34602
G1 X128.725 Y78.854 E24.38579
G1 X128.844 Y79.365 E24.42634
G1 X129.003 Y80.383 E24.50590
G1 X129.062 Y81.421 E24.58617
G1 X129.062 Y118.580 E27.45569
G1 X129.045 Y119.099 E27.49573
G1 X129.003 Y119.616 E27.53578
G1 X128.936 Y120.127 E27.57563
G1 X128.843 Y120.639 E27.61583
G1 X128.657 Y121.397 E27.67607
G1 X128.503 Y121.890 E27.71591
G1 X128.326 Y122.375 E27.75582
G1 X128.013 Y123.088 E27.81597
G1 X127.650 Y123.776 E27.87601
G1 X127.237 Y124.435 E27.93608
G1 X126.935 Y124.856 E27.97608
G1 X126.613 Y125.263 E28.01612
G1 X126.025 Y125.912 E28.08381
G1 X125.338 Y126.550 E28.15621
G1 X124.727 Y127.031 E28.21624
G1 X124.083 Y127.466 E28.27628
G1 X123.408 Y127.853 E28.33633
G1 X122.943 Y128.082 E28.37639
G1 X122.468 Y128.289 E28.41639
G1 X121.737 Y128.554 E28.47645
G1 X120.988 Y128.765 E28.53650
G1 X120.130 Y128.936 E28.60409
G1 X119.197 Y129.039 E28.67657
G1 X118.500 Y129.062 E28.73040
G1 X81.420 Y129.062 E31.59383
G1 X80.643 Y129.027 E31.65387
G1 X80.127 Y128.972 E31.69390
G1 X79.615 Y128.892 E31.73392
G1 X79.108 Y128.788 E31.77394
G1 X78.606 Y128.658 E31.81400
G1 X78.111 Y128.503 E31.85404
G1 X77.624 Y128.325 E31.89408
G1 X77.147 Y128.123 E31.93407
G1 X76.677 Y127.897 E31.97432
G1 X76.224 Y127.650 E32.01417
G1 X75.782 Y127.380 E32.05419
G1 X75.353 Y127.089 E32.09422
G1 X74.939 Y126.777 E32.13424
G1 X74.540 Y126.445 E32.17431
G1 X74.088 Y126.025 E32.22198
G1 X73.727 Y125.651 E32.26207
G1 X73.383 Y125.258 E32.30247
G1 X72.819 Y124.516 E32.37442
G1 X72.400 Y123.861 E32.43449
G1 X72.030 Y123.177 E32.49451
G1 X71.711 Y122.467 E32.55458
G1 X71.446 Y121.737 E32.61461
G1 X71.299 Y121.240 E32.65463
G1 X71.177 Y120.736 E32.69466
G1 X71.026 Y119.864 E32.76296
G1 X70.955 Y119.092 E32.82287
G1 X70.938 Y118.500 E32.86858
G1 X70.938 Y81.419 E35.73203
G1 X70.955 Y80.902 E35.77199
G1 X70.997 Y80.385 E35.81203
G1 X71.064 Y79.871 E35.85209
G1 X71.155 Y79.368 E35.89159
G1 X71.274 Y78.856 E35.93217
G1 X71.416 Y78.357 E35.97220
G1 X71.583 Y77.866 E36.01225
G1 X71.773 Y77.384 E36.05227
G1 X71.987 Y76.911 E36.09233
G1 X72.224 Y76.450 E36.13238
G1 X72.482 Y76.001 E36.17238
G1 X72.763 Y75.565 E36.21243
G1 X73.065 Y75.143 E36.25249
G1 X73.387 Y74.738 E36.29244
G1 X74.040 Y74.024 E36.36714
G1 F4200.000 E33.36714
G92 E0
G1 X121.121 Y121.121 F6000.000
G1 E3.00000 F4200.000
G1 X120.851 Y121.365 E3.02809 F441.000
G1 X120.559 Y121.582 E3.05618
G1 X120.247 Y121.769 E3.08427
G1 X119.918 Y121.924 E3.11235
G1 X119.576 Y122.047 E3.14044
G1 X119.223 Y122.135 E3.16852
G1 X118.863 Y122.188 E3.19662
G1 X118.591 Y122.205 E3.21768
G1 X81.318 Y122.202 E6.09597
G1 X80.956 Y122.166 E6.12405
G1 X80.600 Y122.095 E6.15213
G1 X80.337 Y122.019 E6.17321
G1 X79.998 Y121.888 E6.20129
G1 X79.753 Y121.769 E6.22236
G1 X79.441 Y121.582 E6.25045
G1 X79.149 Y121.365 E6.27855
G1 X78.879 Y121.121 E6.30663
G1 X78.635 Y120.851 E6.33470
G1 X78.418 Y120.559 E6.36280
G1 X78.231 Y120.247 E6.39089
G1 X78.112 Y120.002 E6.41196
G1 X77.981 Y119.663 E6.44004
G1 X77.905 Y119.400 E6.46112
G1 X77.834 Y119.044 E6.48921
G1 X77.798 Y118.682 E6.51727
G1 X77.795 Y81.409 E9.39557
G1 X77.812 Y81.137 E9.41664
G1 X77.865 Y80.777 E9.44473
G1 X77.953 Y80.424 E9.47280
G1 X78.076 Y80.082 E9.50089
G1 X78.231 Y79.753 E9.52900
G1 X78.418 Y79.441 E9.55707
G1 X78.635 Y79.149 E9.58516
G1 X78.879 Y78.879 E9.61325
G1 X79.149 Y78.635 E9.64133
G1 X79.441 Y78.418 E9.66942
G1 X79.753 Y78.231 E9.69750
G1 X79.998 Y78.112 E9.71858
G1 X80.337 Y77.981 E9.74667
G1 X80.688 Y77.884 E9.77474
G1 X81.046 Y77.822 E9.80284
G1 X81.409 Y77.795 E9.83093
G1 X118.591 Y77.795 E12.70218
G1 X118.863 Y77.812 E12.72326 F441.000
G1 X119.223 Y77.865 E12.75135
G1 X119.576 Y77.953 E12.77942
G1 X119.918 Y78.076 E12.80752
G1 X120.247 Y78.231 E12.83561
G1 X120.559 Y78.418 E12.86369
G1 X120.851 Y78.635 E12.89178
G1 X121.121 Y78.879 E12.91986
G1 X121.365 Y79.149 E12.94795
G1 X121.582 Y79.441 E12.97604
G1 X121.769 Y79.753 E13.00413
G1 X121.888 Y79.998 E13.02519
G1 X121.990 Y80.251 E13.04626
G1 X122.095 Y80.599 E13.07435
G1 X122.166 Y80.956 E13.10244
G1 X122.202 Y81.318 E13.13053
G1 X122.205 Y118.591 E16.00882
G1 X122.188 Y118.863 E16.02987
G1 X122.135 Y119.223 E16.05797
G1 X122.047 Y119.576 E16.08605
G1 X121.924 Y119.918 E16.11414
G1 X121.769 Y120.247 E16.14222
G1 X121.582 Y120.559 E16.17031
G1 X121.365 Y120.851 E16.19841
G1 X121.170 Y121.070 E16.22105
G1 X118.825 Y77.936 F6000.000
G1 X120.723 Y120.723 F6000.000
G1 X120.495 Y120.930 E16.24487 F630.000
G1 X120.247 Y121.114 E16.26871
G1 X119.774 Y121.374 E16.31037
G1 X119.486 Y121.485 E16.33418
G1 X119.189 Y121.568 E16.35802
G1 X118.885 Y121.620 E16.38185
G1 X118.577 Y121.643 E16.40567
G1 X81.505 Y121.644 E19.26844
G1 X81.192 Y121.629 E19.29266
G1 X80.887 Y121.584 E19.31649
G1 X80.587 Y121.509 E19.34032
G1 X80.226 Y121.374 E19.37009
G1 X79.950 Y121.236 E19.39392
G1 X79.627 Y121.025 E19.42369
G1 X79.389 Y120.830 E19.44752
G1 X79.170 Y120.611 E19.47135
G1 X78.844 Y120.182 E19.51302
G1 X78.595 Y119.703 E19.55466
G1 X78.491 Y119.413 E19.57851
G1 X78.416 Y119.113 E19.60233
G1 X78.357 Y118.577 E19.64400
G1 X78.360 Y81.346 E22.51908
G1 X78.390 Y81.039 E22.54291
G1 X78.450 Y80.736 E22.56674
G1 X78.540 Y80.441 E22.59055
G1 X78.658 Y80.156 E22.61438
G1 X78.803 Y79.884 E22.63820
G1 X78.975 Y79.627 E22.66202
G1 X79.332 Y79.223 E22.70370
G1 X79.566 Y79.021 E22.72752
G1 X79.818 Y78.844 E22.75134
G1 X80.086 Y78.692 E22.77517
G1 X80.369 Y78.567 E22.79901
G1 X80.662 Y78.470 E22.82285
G1 X80.962 Y78.402 E22.84665
G1 X81.506 Y78.356 E22.88874
G1 X118.577 Y78.357 E25.75148 F630.000
G1 X118.885 Y78.380 E25.77531
G1 X119.189 Y78.432 E25.79914
G1 X119.559 Y78.540 E25.82891
G1 X119.844 Y78.658 E25.85274
G1 X120.116 Y78.803 E25.87657
G1 X120.373 Y78.975 E25.90039
G1 X120.611 Y79.170 E25.92422
G1 X120.830 Y79.389 E25.94805
G1 X121.025 Y79.627 E25.97187
G1 X121.197 Y79.884 E25.99569
G1 X121.433 Y80.368 E26.03736
G1 X121.584 Y80.887 E26.07901
G1 X121.643 Y81.423 E26.12068
G1 X121.644 Y118.495 E28.98345
G1 X121.629 Y118.808 E29.00767
G1 X121.584 Y119.113 E29.03151
G1 X121.509 Y119.413 E29.05533
G1 X121.405 Y119.703 E29.07916
G1 X121.273 Y119.982 E29.10297
G1 X121.114 Y120.247 E29.12681
G1 X120.772 Y120.673 E29.16898
G1 X112.978 Y112.978 F6000.000
G1 X112.706 Y113.213 E29.19674 F441.000
G1 X112.506 Y113.346 E29.21526
G1 X112.185 Y113.508 E29.24303
G1 X111.959 Y113.589 E29.26154
G1 X111.715 Y113.649 E29.28102
G1 X111.370 Y113.691 E29.30783
G1 X111.010 Y113.682 E29.33560
G1 X110.773 Y113.647 E29.35412
G1 X110.427 Y113.551 E29.38188
G1 X110.205 Y113.459 E29.40041
G1 X109.994 Y113.346 E29.41893
G1 X109.700 Y113.139 E29.44669
G1 X109.522 Y112.978 E29.46521
G1 X109.287 Y112.706 E29.49297
G1 X109.154 Y112.506 E29.51150
G1 X108.992 Y112.185 E29.53927
G1 X108.879 Y111.844 E29.56703
G1 X108.833 Y111.609 E29.58554
G1 X108.806 Y111.250 E29.61331
G1 X108.818 Y111.010 E29.63183
G1 X108.856 Y110.761 E29.65129
G1 X108.949 Y110.427 E29.67810
G1 X109.095 Y110.098 E29.70587
G1 X109.218 Y109.892 E29.72440
G1 X109.361 Y109.700 E29.74292
G1 X109.609 Y109.439 E29.77068
G1 X109.804 Y109.280 E29.79015
G1 X110.098 Y109.095 E29.81697
G1 X110.315 Y108.992 E29.83549
G1 X110.656 Y108.879 E29.86326
G1 X111.142 Y108.809 E29.90119
G1 X111.490 Y108.818 E29.92801 F441.000
G1 X111.844 Y108.879 E29.95577
G1 X112.185 Y108.992 E29.98354
G1 X112.506 Y109.154 E30.01129
G1 X112.800 Y109.361 E30.03907
G1 X113.061 Y109.609 E30.06684
G1 X113.282 Y109.892 E30.09459
G1 X113.459 Y110.205 E30.12236
G1 X113.589 Y110.541 E30.15012
G1 X113.667 Y110.891 E30.17789
G1 X113.694 Y111.250 E30.20566
G1 X113.667 Y111.609 E30.23343
G1 X113.589 Y111.959 E30.26119
G1 X113.459 Y112.295 E30.28896
G1 X113.282 Y112.608 E30.31672
G1 X113.027 Y112.927 E30.34829
G1 F4200.000 E27.34829
G92 E0
G1 X111.089 Y108.466 F6000.000
G1 X113.366 Y113.385 F6000.000
G1 E3.00000 F4200.000
G1 X113.041 Y113.665 E3.03308 F630.000
G1 X112.796 Y113.828 E3.05586
G1 X112.535 Y113.968 E3.07866
G1 X112.123 Y114.127 E3.11278
G1 X111.811 Y114.203 E3.13759
G1 X111.398 Y114.253 E3.16973
G1 X110.955 Y114.242 E3.20389
G1 X110.663 Y114.198 E3.22668
G1 X110.237 Y114.080 E3.26082
G1 X109.965 Y113.968 E3.28361
G1 X109.704 Y113.828 E3.30641
G1 X109.343 Y113.574 E3.34054
G1 X109.124 Y113.376 E3.36333
G1 X108.835 Y113.041 E3.39747
G1 X108.671 Y112.795 E3.42028
G1 X108.473 Y112.400 E3.45444
G1 X108.334 Y111.980 E3.48860
G1 X108.276 Y111.691 E3.51135
G1 X108.244 Y111.250 E3.54552
G1 X108.258 Y110.955 E3.56829
G1 X108.307 Y110.638 E3.59306
G1 X108.419 Y110.238 E3.62520
G1 X108.599 Y109.833 E3.65936
G1 X108.751 Y109.580 E3.68217
G1 X108.926 Y109.343 E3.70495
G1 X109.231 Y109.023 E3.73909
G1 X109.481 Y108.820 E3.76389
G1 X109.833 Y108.599 E3.79604
G1 X110.100 Y108.473 E3.81883
G1 X110.520 Y108.334 E3.85299
G1 X110.956 Y108.258 E3.88715
G1 X111.276 Y108.244 E3.91193
G1 X111.691 Y108.276 E3.94404 F630.000
G1 X112.123 Y108.373 E3.97824
G1 X112.535 Y108.532 E4.01234
G1 X112.920 Y108.751 E4.04652
G1 X113.269 Y109.023 E4.08067
G1 X113.574 Y109.343 E4.11482
G1 X113.828 Y109.704 E4.14897
G1 X114.027 Y110.100 E4.18313
G1 X114.166 Y110.519 E4.21729
G1 X114.242 Y110.955 E4.25145
G1 X114.253 Y111.397 E4.28560
G1 X114.198 Y111.836 E4.31976
G1 X114.080 Y112.263 E4.35391
G1 X113.901 Y112.667 E4.38807
G1 X113.665 Y113.041 E4.42223
G1 X113.415 Y113.335 E4.45201
G1 F4200.000 E1.45201
G92 E0
G1 X111.489 Y91.182 F6000.000
G1 E3.00000 F4200.000
G1 X111.010 Y91.182 E3.03699 F441.000
G1 X110.540 Y91.089 E3.07399
G1 X110.098 Y90.905 E3.11097
G1 X109.700 Y90.639 E3.14797
G1 X109.361 Y90.300 E3.18497
G1 X109.095 Y89.902 E3.22196
G1 X108.949 Y89.573 E3.24972
G1 X108.879 Y89.344 E3.26825
G1 X108.809 Y88.870 E3.30524
G1 X108.833 Y88.391 E3.34223
G1 X108.949 Y87.927 E3.37922
G1 X109.154 Y87.494 E3.41622
G1 X109.439 Y87.109 E3.45321
G1 X109.794 Y86.787 E3.49021
G1 X110.205 Y86.541 E3.52720
G1 X110.656 Y86.379 E3.56421
G1 X111.142 Y86.309 E3.60214
G1 X111.609 Y86.333 E3.63818 F441.000
G1 X112.073 Y86.449 E3.67517
G1 X112.506 Y86.654 E3.71217
G1 X112.891 Y86.939 E3.74917
G1 X113.213 Y87.294 E3.78616
G1 X113.411 Y87.609 E3.81488
G1 X113.589 Y88.041 E3.85091
G1 X113.682 Y88.510 E3.88792
G1 X113.682 Y88.990 E3.92491
G1 X113.589 Y89.459 E3.96191
G1 X113.405 Y89.902 E3.99890
G1 X113.139 Y90.300 E4.03589
G1 X112.800 Y90.639 E4.07289
G1 X112.402 Y90.905 E4.10989
G1 X111.959 Y91.089 E4.14688
G1 X111.559 Y91.173 E4.17845
G1 F4200.000 E1.17845
G92 E0
G1 X111.132 Y85.842 F6000.000
G1 X111.530 Y91.743 F6000.000
G1 E3.00000 F4200.000
G1 X111.103 Y91.753 E3.03302 F630.000
G1 X110.809 Y91.724 E3.05581
G1 X110.520 Y91.666 E3.07860
G1 X110.238 Y91.581 E3.10137
G1 X109.965 Y91.468 E3.12416
G1 X109.705 Y91.328 E3.14695
G1 X109.459 Y91.165 E3.16973
G1 X109.231 Y90.978 E3.19250
G1 X109.023 Y90.769 E3.21529
G1 X108.835 Y90.541 E3.23808
G1 X108.671 Y90.295 E3.26088
G1 X108.533 Y90.035 E3.28363
G1 X108.420 Y89.763 E3.30641
G1 X108.334 Y89.480 E3.32923
G1 X108.276 Y89.191 E3.35199
G1 X108.247 Y88.898 E3.37476
G1 X108.249 Y88.577 E3.39954
G1 X108.302 Y88.164 E3.43167
G1 X108.373 Y87.877 E3.45451
G1 X108.473 Y87.599 E3.47729
G1 X108.599 Y87.333 E3.50003
G1 X108.751 Y87.080 E3.52284
G1 X108.926 Y86.843 E3.54562
G1 X109.125 Y86.624 E3.56841
