; generated by Slic3r 1.1.7 on 2014-12-23 at 11:06:26

; perimeters extrusion width = 0.42mm
; infill extrusion width = 0.74mm
; solid infill extrusion width = 0.71mm
; top infill extrusion width = 0.71mm
; support material extrusion width = 0.42mm

G21 ; set units to millimeters
M190 S105 ; wait for bed temperature to be reached
M104 S220 ; set temperature
G28 ; home all axes Start of G Code Slic3r
 
M109 S220 ; wait for temperature to be reached
G90 ; use absolute coordinates
G92 E0
M82 ; use absolute distances for extrusion
M106 S127
G1 F1860.000 E-3.00000
G92 E0
G1 Z0.200 F6000.000
G1 X70.607 Y59.353 F6000.000
G1 E3.10000 F1860.000
G1 X72.886 Y57.580 E3.15529 F1200.000
G1 X73.064 Y57.495 E3.15907
G1 X74.950 Y56.915 E3.19686
G1 X76.010 Y56.831 E3.21722
G1 X113.899 Y56.867 E3.94285
G1 X116.432 Y57.590 E3.99329 F1200.000
G1 X116.576 Y57.664 E3.99639
G1 X118.326 Y58.959 E4.03808
G1 X118.428 Y59.064 E4.04089
G1 X119.334 Y60.226 E4.06911
G1 X120.231 Y62.453 E4.11510
G1 X120.274 Y62.660 E4.11914
G1 X120.408 Y64.000 E4.14494
G1 X120.408 Y136.000 E5.52382
G1 X120.274 Y137.340 E5.54961
G1 X120.231 Y137.547 E5.55367
G1 X119.334 Y139.774 E5.59964
G1 X118.428 Y140.936 E5.62786
G1 X118.326 Y141.041 E5.63067
G1 X116.575 Y142.336 E5.67237
G1 X116.432 Y142.410 E5.67547
G1 X113.545 Y143.153 E5.73256
G1 X74.990 Y143.091 E6.47093
G1 X73.064 Y142.505 E6.50947
G1 X72.883 Y142.419 E6.51332
G1 X70.593 Y140.631 E6.56896
G1 X70.091 Y139.959 E6.58503
G1 X69.175 Y138.005 E6.62634
G1 X69.020 Y137.340 E6.63942
G1 X68.911 Y136.460 E6.65641
G1 X68.895 Y136.000 E6.66522
G1 X68.906 Y63.613 E8.05152
G1 X69.004 Y62.750 E8.06815
G1 X69.177 Y61.988 E8.08313
G1 X70.091 Y60.042 E8.12429
G1 X70.567 Y59.401 E8.13958
G1 X70.797 Y59.511 F6000.000
G1 X72.992 Y57.803 E8.19284 F1200.000
G1 X73.170 Y57.718 E8.19662
G1 X74.987 Y57.159 E8.23302
G1 X76.010 Y57.078 E8.25267
G1 X113.877 Y57.113 E8.97788
G1 X116.319 Y57.810 E9.02651 F1200.000
G1 X116.463 Y57.884 E9.02960
G1 X118.149 Y59.131 E9.06977
G1 X118.251 Y59.236 E9.07257
G1 X119.125 Y60.357 E9.09980
G1 X119.989 Y62.503 E9.14410
G1 X120.031 Y62.709 E9.14813
G1 X120.161 Y64.000 E9.17298
G1 X120.161 Y136.000 E10.55186
G1 X120.031 Y137.291 E10.57671
G1 X119.989 Y137.497 E10.58074
G1 X119.125 Y139.643 E10.62504
G1 X118.251 Y140.764 E10.65227
G1 X118.149 Y140.869 E10.65507
G1 X116.462 Y142.116 E10.69524
G1 X116.319 Y142.190 E10.69834
G1 X113.538 Y142.906 E10.75334
G1 X75.027 Y142.847 E11.49085
G1 X73.171 Y142.282 E11.52801
G1 X72.990 Y142.196 E11.53186
G1 X70.784 Y140.473 E11.58546
G1 X70.295 Y139.819 E11.60109
G1 X69.413 Y137.937 E11.64089
G1 X69.263 Y137.296 E11.65350
G1 X69.158 Y136.446 E11.66992
G1 X69.143 Y136.000 E11.67846
G1 X69.153 Y63.627 E13.06449
G1 X69.247 Y62.794 E13.08055
G1 X69.415 Y62.056 E13.09504
G1 X70.295 Y60.181 E13.13470
G1 X70.757 Y59.559 E13.14954
G1 X70.987 Y59.669 F6000.000
G1 X73.099 Y58.026 E13.20077 F1200.000
G1 X73.277 Y57.941 E13.20455
G1 X75.024 Y57.403 E13.23957
G1 X76.010 Y57.326 E13.25850
G1 X113.856 Y57.359 E13.98329
G1 X116.206 Y58.030 E14.03010 F1200.000
G1 X116.350 Y58.104 E14.03319
G1 X117.972 Y59.303 E14.07183
G1 X118.074 Y59.409 E14.07464
G1 X118.916 Y60.489 E14.10087
G1 X119.747 Y62.553 E14.14349
G1 X119.789 Y62.758 E14.14750
G1 X119.914 Y64.000 E14.17140
G1 X119.914 Y136.000 E15.55029
G1 X119.789 Y137.242 E15.57419
G1 X119.747 Y137.447 E15.57820
G1 X118.916 Y139.511 E15.62081
G1 X118.074 Y140.591 E15.64705
G1 X117.971 Y140.697 E15.64986
G1 X116.349 Y141.896 E15.68850
G1 X116.206 Y141.970 E15.69159
G1 X113.530 Y142.659 E15.74449
G1 X75.065 Y142.603 E16.48116
G1 X73.277 Y142.059 E16.51694
G1 X73.096 Y141.973 E16.52078
G1 X70.974 Y140.316 E16.57234
G1 X70.499 Y139.680 E16.58754
G1 X69.651 Y137.870 E16.62582
G1 X69.507 Y137.252 E16.63797
G1 X69.404 Y136.431 E16.65381
G1 X69.390 Y136.000 E16.66208
G1 X69.400 Y63.641 E18.04783
G1 X69.491 Y62.837 E18.06333
G1 X69.653 Y62.124 E18.07734
G1 X70.499 Y60.321 E18.11549
G1 X70.947 Y59.718 E18.12988
G1 F1860.000 E15.12988
G92 E0
G1 X88.252 Y118.385 F6000.000
G1 E3.10000 F1860.000
G1 X87.812 Y118.827 E3.11195 F1200.000
G1 X87.557 Y119.031 E3.11820
G1 X86.992 Y119.387 E3.13100
G1 X86.362 Y119.677 E3.14427
G1 X86.025 Y119.796 E3.15112
G1 X85.324 Y119.974 E3.16497
G1 X84.596 Y120.075 E3.17905
G1 X83.855 Y120.095 E3.19324
G1 X83.117 Y120.036 E3.20742
G1 X82.400 Y119.897 E3.22141
G1 X81.719 Y119.681 E3.23509
G1 X81.403 Y119.549 E3.24165
G1 X81.089 Y119.393 E3.24837
G1 X80.522 Y119.038 E3.26119
G1 X80.034 Y118.620 E3.27348
G1 X79.829 Y118.397 E3.27929
G1 X79.634 Y118.147 E3.28535
G1 X79.338 Y117.631 E3.29675
G1 X79.235 Y117.366 E3.30218
G1 X79.154 Y117.078 E3.30791
G1 X79.110 Y116.805 E3.31323
G1 X79.091 Y116.509 E3.31890
G1 X79.106 Y116.241 E3.32403
G1 X79.153 Y115.931 E3.33005
G1 X79.239 Y115.625 E3.33613
G1 X79.335 Y115.376 E3.34124
G1 X79.630 Y114.859 E3.35264
G1 X79.834 Y114.598 E3.35899
G1 X80.030 Y114.385 E3.36453
G1 X80.517 Y113.966 E3.37684
G1 X80.809 Y113.770 E3.38357
G1 X81.408 Y113.449 E3.39659
G1 X82.033 Y113.209 E3.40940
G1 X82.395 Y113.104 E3.41662
G1 X83.112 Y112.965 E3.43061
G1 X83.850 Y112.905 E3.44479
G1 X84.564 Y112.924 E3.45847
G1 X84.970 Y112.967 E3.46630 F1200.000
G1 X85.687 Y113.108 E3.48027
G1 X86.367 Y113.325 E3.49395
G1 X86.975 Y113.604 E3.50676
G1 X87.542 Y113.959 E3.51957
G1 X87.807 Y114.169 E3.52605
G1 X88.252 Y114.615 E3.53812
G1 X88.446 Y114.870 E3.54426
G1 X88.728 Y115.364 E3.55515
G1 X88.841 Y115.650 E3.56105
G1 X88.919 Y115.944 E3.56687
G1 X88.963 Y116.214 E3.57210
G1 X88.978 Y116.514 E3.57786
G1 X88.963 Y116.786 E3.58308
G1 X88.919 Y117.056 E3.58831
G1 X88.841 Y117.350 E3.59413
G1 X88.739 Y117.611 E3.59951
G1 X88.599 Y117.887 E3.60543
G1 X88.291 Y118.335 E3.61585
G1 X88.063 Y118.225 F6000.000
G1 X87.647 Y118.643 E3.62713 F1200.000
G1 X87.411 Y118.831 E3.63292
G1 X86.874 Y119.170 E3.64507
G1 X86.273 Y119.446 E3.65773
G1 X85.946 Y119.561 E3.66437
G1 X85.273 Y119.732 E3.67767
G1 X84.572 Y119.829 E3.69123
G1 X83.858 Y119.848 E3.70490
G1 X83.147 Y119.790 E3.71856
G1 X82.457 Y119.656 E3.73202
G1 X81.804 Y119.449 E3.74515
G1 X81.506 Y119.324 E3.75133
G1 X81.203 Y119.174 E3.75782
G1 X80.665 Y118.836 E3.76999
G1 X80.206 Y118.442 E3.78156
G1 X79.834 Y118.001 E3.79261
G1 X79.562 Y117.524 E3.80313
G1 X79.470 Y117.289 E3.80796
G1 X79.395 Y117.020 E3.81331
G1 X79.338 Y116.503 E3.82328
G1 X79.352 Y116.261 E3.82790
G1 X79.395 Y115.983 E3.83330
G1 X79.471 Y115.709 E3.83875
G1 X79.561 Y115.478 E3.84349
G1 X79.833 Y115.001 E3.85401
G1 X80.020 Y114.761 E3.85983
G1 X80.411 Y114.369 E3.87044
G1 X80.664 Y114.165 E3.87665
G1 X81.201 Y113.827 E3.88882
G1 X81.803 Y113.552 E3.90149
G1 X82.456 Y113.344 E3.91462
G1 X82.810 Y113.266 E3.92156
G1 X83.511 Y113.171 E3.93510
G1 X84.200 Y113.152 E3.94830
G1 X84.570 Y113.171 E3.95540 F1200.000
G1 X85.272 Y113.268 E3.96897
G1 X85.945 Y113.439 E3.98227
G1 X86.576 Y113.681 E3.99521
G1 X86.875 Y113.831 E4.00163
G1 X87.412 Y114.170 E4.01379
G1 X87.859 Y114.554 E4.02508
G1 X88.063 Y114.775 E4.03082
G1 X88.240 Y115.007 E4.03642
G1 X88.384 Y115.235 E4.04159
G1 X88.511 Y115.484 E4.04695
G1 X88.606 Y115.728 E4.05195
G1 X88.676 Y115.990 E4.05714
G1 X88.717 Y116.240 E4.06200
G1 X88.731 Y116.493 E4.06685
G1 X88.717 Y116.760 E4.07197
G1 X88.676 Y117.010 E4.07683
G1 X88.606 Y117.272 E4.08202
G1 X88.511 Y117.516 E4.08702
G1 X88.384 Y117.765 E4.09237
G1 X88.101 Y118.175 E4.10193
G1 F1860.000 E1.10193
G92 E0
G1 X84.122 Y112.790 F6000.000
G1 X85.662 Y128.101 F6000.000
G1 E3.10000 F1860.000
G1 X86.020 Y128.203 E3.10713 F1200.000
G1 X86.679 Y128.456 E3.12065
G1 X87.278 Y128.780 E3.13369
G1 X87.807 Y129.169 E3.14626
G1 X88.252 Y129.615 E3.15834
G1 X88.432 Y129.849 E3.16398
G1 X88.599 Y130.113 E3.16997
G1 X88.740 Y130.389 E3.17590
G1 X88.841 Y130.650 E3.18127
G1 X88.919 Y130.944 E3.18710
G1 X88.963 Y131.214 E3.19232
G1 X88.978 Y131.514 E3.19809
G1 X88.963 Y131.786 E3.20331
G1 X88.919 Y132.056 E3.20854
G1 X88.841 Y132.350 E3.21436
G1 X88.728 Y132.636 E3.22025
G1 X88.446 Y133.130 E3.23115
G1 X88.252 Y133.385 E3.23728
G1 X88.044 Y133.612 E3.24318
G1 X87.557 Y134.031 E3.25548
G1 X86.992 Y134.387 E3.26829
G1 X86.684 Y134.542 E3.27487
G1 X86.025 Y134.796 E3.28841
G1 X85.682 Y134.894 E3.29523
G1 X84.966 Y135.034 E3.30921
G1 X84.596 Y135.075 E3.31634
G1 X83.855 Y135.095 E3.33053
G1 X83.117 Y135.036 E3.34471
G1 X82.400 Y134.897 E3.35870
G1 X81.719 Y134.681 E3.37238
G1 X81.403 Y134.549 E3.37893
G1 X81.089 Y134.393 E3.38565
G1 X80.522 Y134.038 E3.39847
G1 X80.034 Y133.620 E3.41076
G1 X79.829 Y133.397 E3.41658
G1 X79.634 Y133.147 E3.42263
G1 X79.338 Y132.631 E3.43404
G1 X79.235 Y132.366 E3.43947
G1 X79.154 Y132.078 E3.44520
G1 X79.110 Y131.805 E3.45051
G1 X79.091 Y131.509 E3.45619
G1 X79.106 Y131.241 E3.46132
G1 X79.153 Y130.931 E3.46733
G1 X79.238 Y130.625 E3.47341
G1 X79.335 Y130.376 E3.47853
G1 X79.630 Y129.859 E3.48993
G1 X79.802 Y129.636 E3.49533
G1 X80.030 Y129.385 E3.50182
G1 X80.280 Y129.155 E3.50831
G1 X80.517 Y128.966 E3.51413
G1 X81.084 Y128.609 E3.52695
G1 X81.714 Y128.321 E3.54023
G1 X82.066 Y128.198 E3.54737
G1 X82.734 Y128.029 E3.56057
G1 X83.494 Y127.924 E3.57525
G1 X84.213 Y127.905 E3.58903
G1 X84.564 Y127.924 E3.59577
G1 X84.970 Y127.967 E3.60359 F1200.000
G1 X85.600 Y128.088 E3.61587
G1 X85.604 Y128.342 F6000.000
G1 X85.945 Y128.439 E3.62265 F1200.000
G1 X86.576 Y128.681 E3.63559
G1 X87.146 Y128.989 E3.64800
G1 X87.646 Y129.356 E3.65988
G1 X88.063 Y129.775 E3.67119
G1 X88.232 Y129.995 E3.67652
G1 X88.384 Y130.235 E3.68196
G1 X88.511 Y130.484 E3.68732
G1 X88.606 Y130.728 E3.69232
G1 X88.676 Y130.990 E3.69751
G1 X88.717 Y131.240 E3.70237
G1 X88.731 Y131.507 E3.70749
G1 X88.717 Y131.760 E3.71234
G1 X88.676 Y132.010 E3.71720
G1 X88.606 Y132.272 E3.72239
G1 X88.506 Y132.528 E3.72766
G1 X88.240 Y132.993 E3.73791
G1 X88.063 Y133.225 E3.74351
G1 X87.868 Y133.437 E3.74901
G1 X87.411 Y133.831 E3.76058
G1 X86.874 Y134.170 E3.77273
G1 X86.577 Y134.318 E3.77909
G1 X85.946 Y134.561 E3.79203
G1 X85.621 Y134.654 E3.79851
G1 X84.932 Y134.789 E3.81196
G1 X84.572 Y134.829 E3.81889
G1 X83.858 Y134.848 E3.83257
G1 X83.147 Y134.790 E3.84623
G1 X82.457 Y134.656 E3.85969
G1 X81.804 Y134.449 E3.87281
G1 X81.506 Y134.324 E3.87900
G1 X81.203 Y134.174 E3.88548
G1 X80.665 Y133.836 E3.89765
G1 X80.206 Y133.442 E3.90923
G1 X79.834 Y133.001 E3.92027
G1 X79.562 Y132.524 E3.93080
G1 X79.470 Y132.289 E3.93563
G1 X79.395 Y132.020 E3.94098
G1 X79.356 Y131.778 E3.94567
G1 X79.338 Y131.503 E3.95096
G1 X79.357 Y131.220 E3.95639
G1 X79.395 Y130.983 E3.96098
G1 X79.458 Y130.748 E3.96563
G1 X79.561 Y130.478 E3.97117
G1 X79.833 Y130.001 E3.98169
G1 X80.205 Y129.559 E3.99275
G1 X80.664 Y129.165 E4.00432
G1 X80.910 Y128.999 E4.01002
G1 X81.201 Y128.827 E4.01650
G1 X81.508 Y128.675 E4.02304
G1 X82.111 Y128.444 E4.03543
G1 X82.456 Y128.344 E4.04230
G1 X83.146 Y128.210 E4.05576
G1 X83.511 Y128.171 E4.06278
G1 X84.200 Y128.152 E4.07599
G1 X84.914 Y128.209 E4.08970 F1200.000
G1 X85.543 Y128.328 E4.10197
G1 X84.019 Y127.773 F6000.000
G1 F1860.000 E1.10197
G92 E0
G1 X75.984 Y136.070 F6000.000
G1 E3.10000 F1860.000
G1 X75.984 Y111.930 E3.56232 F1200.000
G1 X113.298 Y111.930 E4.27693
G1 X113.319 Y112.035 E4.27897
G1 X113.319 Y115.737 E4.34988
G1 X113.303 Y115.824 E4.35157
G1 X103.883 Y117.923 E4.53642
G1 X103.680 Y117.982 E4.54046
G1 X103.369 Y118.100 E4.54682
G1 X102.868 Y118.372 E4.55774
G1 X102.634 Y118.546 E4.56332
G1 X102.438 Y118.734 E4.56853
G1 X102.214 Y119.042 E4.57582
G1 X102.105 Y119.279 E4.58082
G1 X102.042 Y119.518 E4.58554
G1 X102.022 Y119.741 E4.58983
G1 X102.022 Y128.259 E4.75296
G1 X102.040 Y128.482 E4.75726
G1 X102.107 Y128.727 E4.76211
G1 X102.221 Y128.972 E4.76728
G1 X102.388 Y129.210 E4.77285
G1 X102.607 Y129.434 E4.77885
G1 X102.880 Y129.638 E4.78539
G1 X103.195 Y129.815 E4.79230
G1 X103.543 Y129.971 E4.79961
G1 X103.914 Y130.083 E4.80703
G1 X113.303 Y132.176 E4.99126
G1 X113.319 Y132.263 E4.99295
G1 X113.319 Y135.965 E5.06386
G1 X113.298 Y136.070 E5.06590
G1 X76.047 Y136.070 E5.77930
G1 F1860.000 E2.77930
G92 E0
G1 X76.003 Y111.673 F6000.000
G1 E3.10000 F1860.000
G1 X113.319 Y111.682 E3.81464 F1200.000
G1 X113.434 Y111.741 E3.81712
G1 X113.535 Y111.856 E3.82004
G1 X113.567 Y112.010 E3.82306
G1 X113.567 Y115.760 E3.89488
G1 X113.540 Y115.902 E3.89765
G1 X113.460 Y116.009 E3.90020
G1 X113.364 Y116.064 E3.90232
G1 X103.757 Y118.217 E4.09087
G1 X103.473 Y118.325 E4.09668
G1 X102.998 Y118.583 E4.10703
G1 X102.790 Y118.738 E4.11201
G1 X102.620 Y118.903 E4.11655
G1 X102.430 Y119.163 E4.12273
G1 X102.338 Y119.363 E4.12692
G1 X102.287 Y119.559 E4.13082
G1 X102.270 Y119.752 E4.13452
G1 X102.270 Y128.248 E4.29723
G1 X102.284 Y128.438 E4.30088
G1 X102.339 Y128.640 E4.30489
G1 X102.435 Y128.846 E4.30925
G1 X102.579 Y129.051 E4.31405
G1 X102.773 Y129.249 E4.31934
G1 X103.018 Y129.431 E4.32519
G1 X103.305 Y129.592 E4.33150
G1 X103.627 Y129.737 E4.33825
G1 X103.979 Y129.844 E4.34530
G1 X113.364 Y131.936 E4.52945
G1 X113.460 Y131.991 E4.53157
G1 X113.540 Y132.098 E4.53412
G1 X113.567 Y132.240 E4.53690
G1 X113.567 Y135.990 E4.60871
G1 X113.517 Y136.173 E4.61234
G1 X113.434 Y136.259 E4.61463
G1 X113.325 Y136.314 E4.61697
G1 X76.002 Y136.327 E5.33174
G1 X75.853 Y136.255 E5.33491
G1 X75.751 Y136.116 E5.33822
G1 X75.737 Y135.997 E5.34051
G1 X75.737 Y112.003 E5.80002
G1 X75.751 Y111.885 E5.80231
G1 X75.816 Y111.789 E5.80451
G1 X75.853 Y111.745 E5.80562
G1 X75.946 Y111.700 E5.80760
G1 X76.264 Y112.002 F6000.000
G1 F1860.000 E2.80760
G92 E0
G1 X79.073 Y117.377 F6000.000
G1 E3.10000 F1860.000
G1 X76.143 Y114.448 E3.17934 F1200.000
G1 X76.143 Y114.096 E3.18607
G1 X78.968 Y116.920 E3.26255
G1 X78.933 Y116.534 E3.26998
G1 X76.143 Y113.745 E3.34552
G1 X76.143 Y113.394 E3.35225
G1 X78.951 Y116.201 E3.42828
G1 X78.997 Y115.896 E3.43419
G1 X76.143 Y113.043 E3.51147
G1 X76.143 Y112.692 E3.51820
G1 X79.074 Y115.622 E3.59757
G1 X79.169 Y115.366 E3.60281
G1 X76.143 Y112.340 E3.68474
G1 X76.243 Y112.089 E3.68992
G1 X79.283 Y115.129 E3.77226
G1 X79.413 Y114.908 E3.77718
G1 X76.594 Y112.089 E3.85352
G1 X76.946 Y112.089 E3.86024
G1 X79.554 Y114.698 E3.93090
G1 X79.708 Y114.500 E3.93569
G1 X77.297 Y112.089 E4.00100
G1 X77.648 Y112.089 E4.00772
G1 X79.883 Y114.323 E4.06824
G1 X80.058 Y114.148 E4.07300
G1 X77.999 Y112.089 E4.12875
G1 X78.350 Y112.089 E4.13548
G1 X80.243 Y113.982 E4.18675
G1 X80.439 Y113.827 E4.19154
G1 X78.702 Y112.089 E4.23860
G1 X79.053 Y112.089 E4.24533
G1 X80.655 Y113.691 E4.28872
G1 X80.871 Y113.555 E4.29360
G1 X79.404 Y112.089 E4.33332
G1 X79.755 Y112.089 E4.34005
G1 X81.093 Y113.427 E4.37628
G1 X81.329 Y113.312 E4.38131
G1 X80.106 Y112.089 E4.41442
G1 X80.458 Y112.089 E4.42115
G1 X81.583 Y113.214 E4.45162
G1 X81.836 Y113.116 E4.45682
G1 X80.809 Y112.089 E4.48465
G1 X81.160 Y112.089 E4.49138
G1 X82.096 Y113.024 E4.51671
G1 X82.369 Y112.947 E4.52216
G1 X81.511 Y112.089 E4.54541
G1 X81.863 Y112.089 E4.55213
G1 X82.664 Y112.890 E4.57383
G1 X82.958 Y112.833 E4.57956
G1 X82.214 Y112.089 E4.59971
G1 X82.565 Y112.089 E4.60643
G1 X83.264 Y112.788 E4.62538
G1 X83.589 Y112.762 E4.63162
G1 X82.916 Y112.089 E4.64985
G1 X83.267 Y112.089 E4.65658
G1 X83.931 Y112.753 E4.67456
G1 X84.280 Y112.750 E4.68124
G1 X83.619 Y112.089 E4.69915
G1 X83.970 Y112.089 E4.70588
G1 X84.663 Y112.782 E4.72464
G1 X85.053 Y112.821 E4.73215
G1 X84.321 Y112.089 E4.75197
G1 X84.672 Y112.089 E4.75870
G1 X85.489 Y112.906 E4.78082
G1 X85.953 Y113.019 E4.78996
G1 X85.023 Y112.089 E4.81514
G1 X85.375 Y112.089 E4.82186
G1 X86.504 Y113.219 E4.85246
G1 X87.184 Y113.547 F6000.000
G1 X85.726 Y112.089 E4.89195 F1200.000
G1 X86.077 Y112.089 E4.89868
G1 X101.863 Y127.875 E5.32623
G1 X101.863 Y127.524 E5.33295
G1 X86.428 Y112.089 E5.75099
G1 X86.779 Y112.089 E5.75772
G1 X101.863 Y127.173 E6.16625
G1 X101.863 Y126.822 E6.17297
G1 X87.131 Y112.089 E6.57199
G1 X87.482 Y112.089 E6.57871
G1 X101.863 Y126.470 E6.96821
G1 X101.863 Y126.119 E6.97494
G1 X87.833 Y112.089 E7.35493
G1 X88.184 Y112.089 E7.36166
G1 X101.863 Y125.768 E7.73213
G1 X101.863 Y125.417 E7.73886
G1 X88.535 Y112.089 E8.09983
G1 X88.887 Y112.089 E8.10655
G1 X101.863 Y125.066 E8.45801
G1 X101.863 Y124.714 E8.46473
