; generated by Slic3r 1.1.7 on 2014-12-30 at 19:57:58

; perimeters extrusion width = 0.40mm
; infill extrusion width = 0.44mm
; solid infill extrusion width = 0.44mm
; top infill extrusion width = 0.44mm

G21 ; set units to millimeters
M190 S110 ; wait for bed temperature to be reached
M104 S220 ; set temperature
G28 ; home all axes Start of G Code Slic3r
 
M109 S220 ; wait for temperature to be reached
G90 ; use absolute coordinates
G92 E0
M82 ; use absolute distances for extrusion
M106 S127
G1 F1860.000 E-3.00000
G92 E0
G1 Z0.294 F7800.000
G1 X48.167 Y56.527 F7800.000
G1 E3.10000 F1860.000
G1 X48.962 Y55.863 E3.16446 F1800.000
G1 X49.810 Y55.275 E3.22867
G1 X50.714 Y54.762 E3.29339
G1 X51.659 Y54.331 E3.35807
G1 X52.640 Y53.987 E3.42274
G1 X53.637 Y53.733 E3.48682
G1 X54.665 Y53.568 E3.55162
G1 X55.702 Y53.496 E3.61630
G1 X146.708 Y53.158 E9.28138
G1 X147.762 Y53.244 E9.34723
G1 X148.832 Y53.437 E9.41490 F1800.000
G1 X149.865 Y53.731 E9.48177
G1 X150.849 Y54.119 E9.54759
G1 X151.827 Y54.620 E9.61604
G1 X152.714 Y55.191 E9.68167
G1 X153.555 Y55.856 E9.74843
G1 X154.331 Y56.605 E9.81553
G1 X155.030 Y57.428 E9.88277
G1 X155.630 Y58.290 E9.94814
G1 X156.170 Y59.259 E10.01720
G1 X156.588 Y60.223 E10.08258
G1 X156.922 Y61.254 E10.15007
G1 X157.152 Y62.317 E10.21776
G1 X157.273 Y63.364 E10.28336
G1 X157.301 Y64.098 E10.32910
G1 X157.292 Y114.454 E13.46373
G1 X157.206 Y115.509 E13.52956
G1 X157.018 Y116.560 E13.59605
G1 X156.715 Y117.621 E13.66473
G1 X156.331 Y118.595 E13.72991
G1 X155.830 Y119.574 E13.79838
G1 X143.076 Y140.174 E15.30656
G1 X140.592 Y142.582 E15.52192
G1 X134.592 Y146.046 E15.95320
G1 X132.366 Y146.872 E16.10097
G1 X130.847 Y146.993 E16.19585
G1 X93.384 Y145.949 E18.52877
G1 X90.976 Y145.455 E18.68180
G1 X54.513 Y130.971 E21.12413
G1 X48.513 Y127.507 E21.55540
G1 X46.684 Y125.993 E21.70318
G1 X45.458 Y123.960 E21.85095
G1 X44.972 Y121.670 E21.99669
G1 X43.047 Y76.564 E24.80709
G1 X43.104 Y75.684 E24.86197
G1 X44.464 Y63.755 E25.60932
G1 X44.631 Y62.722 E25.67449
G1 X44.885 Y61.730 E25.73821
G1 X45.231 Y60.749 E25.80298
G1 X45.712 Y59.713 E25.87408
G1 X46.175 Y58.907 E25.93193
G1 X46.768 Y58.053 E25.99668
G1 X47.431 Y57.261 E26.06095
G1 X48.125 Y56.569 E26.12194
G1 X48.529 Y56.937 F7800.000
G1 X49.286 Y56.304 E26.18336 F1800.000
G1 X50.093 Y55.743 E26.24456
G1 X50.954 Y55.253 E26.30622
G1 X51.855 Y54.842 E26.36784
G1 X52.789 Y54.513 E26.42946
G1 X53.739 Y54.271 E26.49054
G1 X54.718 Y54.113 E26.55227
G1 X55.706 Y54.043 E26.61390
G1 X146.680 Y53.705 E32.27701
G1 X147.682 Y53.785 E32.33960
G1 X148.699 Y53.968 E32.40388 F1800.000
G1 X149.680 Y54.246 E32.46739
G1 X150.616 Y54.614 E32.52995
G1 X151.545 Y55.089 E32.59493
G1 X152.388 Y55.631 E32.65731
G1 X153.188 Y56.262 E32.72074
G1 X153.925 Y56.973 E32.78448
G1 X154.591 Y57.754 E32.84835
G1 X155.161 Y58.573 E32.91050
G1 X155.675 Y59.492 E32.97605
G1 X156.073 Y60.408 E33.03819
G1 X156.391 Y61.387 E33.10230
G1 X156.610 Y62.397 E33.16659
G1 X156.726 Y63.391 E33.22893
G1 X156.754 Y64.098 E33.27297
G1 X156.745 Y114.427 E36.40588
G1 X156.665 Y115.429 E36.46846
G1 X156.487 Y116.428 E36.53163
G1 X156.200 Y117.436 E36.59684
G1 X155.836 Y118.362 E36.65880
G1 X155.361 Y119.292 E36.72380
G1 X142.611 Y139.885 E38.23155
G1 X140.318 Y142.108 E38.43029
G1 X134.318 Y145.572 E38.86157
G1 X132.175 Y146.351 E39.00349
G1 X130.862 Y146.446 E39.08545
G1 X93.400 Y145.402 E41.41838
G1 X91.177 Y144.946 E41.55960
G1 X54.786 Y130.497 E43.99693
G1 X48.786 Y127.033 E44.42820
G1 X47.040 Y125.567 E44.57012
G1 X45.903 Y123.591 E44.71204
G1 X45.519 Y121.646 E44.83543
G1 X43.593 Y76.589 E47.64279
G1 X43.647 Y75.746 E47.69537
G1 X45.006 Y63.828 E48.44206
G1 X45.165 Y62.843 E48.50414
G1 X45.406 Y61.898 E48.56488
G1 X45.735 Y60.963 E48.62659
G1 X46.194 Y59.971 E48.69458
G1 X46.633 Y59.207 E48.74946
G1 X47.197 Y58.392 E48.81115
G1 X47.829 Y57.638 E48.87239
G1 X48.487 Y56.979 E48.93033
G1 F1860.000 E45.93033
G92 E0
G1 X149.492 Y115.777 F7800.000
G1 E3.10000 F1860.000
G1 X149.312 Y116.076 E3.12174 F441.000
G1 X149.104 Y116.357 E3.14351
G1 X148.869 Y116.616 E3.16524
G1 X148.611 Y116.850 E3.18698
G1 X148.330 Y117.058 E3.20874
G1 X148.030 Y117.238 E3.23048
G1 X147.714 Y117.387 E3.25221
G1 X147.385 Y117.505 E3.27399
G1 X147.046 Y117.590 E3.29573
G1 X146.701 Y117.641 E3.31747
G1 X146.352 Y117.659 E3.33925
G1 X146.002 Y117.641 E3.36101
G1 X145.657 Y117.590 E3.38276
G1 X145.318 Y117.505 E3.40450
G1 X144.989 Y117.387 E3.42626
G1 X144.673 Y117.238 E3.44800
G1 X144.374 Y117.058 E3.46974
G1 X144.093 Y116.850 E3.49151
G1 X143.834 Y116.616 E3.51324
G1 X143.600 Y116.357 E3.53498
G1 X143.392 Y116.076 E3.55673
G1 X143.211 Y115.777 E3.57848
G1 X143.063 Y115.461 E3.60021
G1 X142.944 Y115.132 E3.62198
G1 X142.859 Y114.793 E3.64373
G1 X142.809 Y114.447 E3.66547
G1 X142.791 Y114.091 E3.68768
G1 X142.791 Y64.106 E6.79924
G1 X142.809 Y63.749 E6.82146
G1 X142.860 Y63.403 E6.84322
G1 X142.944 Y63.065 E6.86494
G1 X143.063 Y62.735 E6.88672
G1 X143.211 Y62.420 E6.90845
G1 X143.392 Y62.120 E6.93019
G1 X143.600 Y61.839 E6.95196
G1 X143.834 Y61.581 E6.97370
G1 X144.093 Y61.346 E6.99543
G1 X144.374 Y61.138 E7.01720
G1 X144.673 Y60.958 E7.03893
G1 X144.989 Y60.809 E7.06066
G1 X145.318 Y60.691 E7.08244
G1 X145.657 Y60.606 E7.10418
G1 X146.002 Y60.555 E7.12592
G1 X146.352 Y60.538 E7.14769
G1 X146.701 Y60.555 E7.16946
G1 X147.047 Y60.606 E7.19122 F441.000
G1 X147.385 Y60.691 E7.21295
G1 X147.714 Y60.809 E7.23472
G1 X148.030 Y60.958 E7.25646
G1 X148.330 Y61.138 E7.27820
G1 X148.611 Y61.346 E7.29996
G1 X148.869 Y61.581 E7.32170
G1 X149.104 Y61.839 E7.34343
G1 X149.312 Y62.120 E7.36520
G1 X149.492 Y62.420 E7.38693
G1 X149.641 Y62.735 E7.40866
G1 X149.759 Y63.065 E7.43044
G1 X149.844 Y63.403 E7.45218
G1 X149.895 Y63.749 E7.47393
G1 X149.913 Y64.106 E7.49616
G1 X149.913 Y114.091 E10.60769
G1 X149.895 Y114.447 E10.62991
G1 X149.844 Y114.793 E10.65167
G1 X149.759 Y115.132 E10.67340
G1 X149.641 Y115.461 E10.69517
G1 X149.517 Y115.723 E10.71317
G1 F1860.000 E7.71317
G92 E0
G1 X146.989 Y60.753 F7800.000
G1 X149.365 Y112.071 F7800.000
G1 E3.10000 F1860.000
G1 X149.060 Y112.168 E3.11997 F630.000
G1 X148.825 Y111.867 E3.14372
G1 X148.470 Y111.524 E3.17443
G1 X148.057 Y111.233 E3.20586
G1 X147.594 Y111.008 E3.23789
G1 X147.427 Y110.944 E3.24907
G1 X146.938 Y110.814 E3.28058
G1 X146.437 Y110.767 E3.31188
G1 X146.249 Y110.767 E3.32356
G1 X145.772 Y110.814 E3.35343
G1 X145.271 Y110.946 E3.38568
G1 X145.086 Y111.017 E3.39801
G1 X144.644 Y111.235 E3.42869
G1 X144.235 Y111.522 E3.45979
G1 X143.866 Y111.881 E3.49184
G1 X143.650 Y112.166 E3.51409
G1 X143.338 Y112.072 E3.53436
G1 X143.338 Y66.120 E6.39483
G1 X143.644 Y66.024 E6.41480
G1 X143.815 Y66.261 E6.43303
G1 X144.162 Y66.610 E6.46367
G1 X144.316 Y66.734 E6.47595
G1 X144.727 Y67.009 E6.50679
G1 X145.183 Y67.221 E6.53807
G1 X145.675 Y67.360 E6.56988
G1 X145.858 Y67.394 E6.58149
G1 X146.342 Y67.433 E6.61168
G1 X146.937 Y67.377 E6.64888
G1 X147.519 Y67.221 E6.68640
G1 X147.977 Y67.009 E6.71782
G1 X148.407 Y66.719 E6.75009
G1 X148.546 Y66.606 E6.76125
G1 X148.884 Y66.266 E6.79112
G1 X149.067 Y66.026 E6.80988
G1 X149.365 Y66.126 E6.82949
G1 X149.365 Y112.011 E9.68579
G1 X148.667 Y112.561 F7800.000
G1 X148.766 Y112.709 E9.69687 F441.000
G1 X148.991 Y113.213 E9.73122
G1 X149.099 Y113.635 E9.75830
G1 X149.135 Y114.115 E9.78830
G1 X149.086 Y114.625 E9.82016
G1 X148.973 Y115.039 E9.84688
G1 X148.732 Y115.544 E9.88173
G1 X148.474 Y115.902 E9.90917
G1 X148.176 Y116.202 E9.93550
G1 X147.716 Y116.527 E9.97057
G1 X147.324 Y116.709 E9.99749
G1 X146.783 Y116.849 E10.03230
G1 X146.348 Y116.884 E10.05942
G1 X145.866 Y116.839 E10.08958
G1 X145.379 Y116.708 E10.12095
G1 X144.944 Y116.500 E10.15098
G1 X144.529 Y116.203 E10.18276
G1 X144.228 Y115.900 E10.20936
G1 X143.974 Y115.548 E10.23635
G1 X143.729 Y115.037 E10.27165
G1 X143.617 Y114.627 E10.29811
G1 X143.567 Y114.065 E10.33320
G1 X143.605 Y113.634 E10.36016
G1 X143.710 Y113.220 E10.38673
G1 X143.941 Y112.702 E10.42207
G1 X144.183 Y112.352 E10.44855
G1 X144.579 Y111.950 E10.48364
G1 X144.931 Y111.702 E10.51045
G1 X145.440 Y111.467 E10.54537
G1 X145.862 Y111.355 E10.57256
G1 X146.284 Y111.315 E10.59894
G1 X146.726 Y111.342 E10.62651
G1 X146.843 Y111.355 E10.63384 F441.000
G1 X147.261 Y111.466 E10.66078
G1 X147.772 Y111.702 E10.69577
G1 X148.156 Y111.978 E10.72522
G1 X148.432 Y112.249 E10.74931
G1 X148.633 Y112.512 E10.76990
G1 X146.693 Y111.229 F7800.000
G1 X146.348 Y66.884 F7800.000
G1 X145.866 Y66.839 E10.80006 F441.000
G1 X145.379 Y66.708 E10.83143
G1 X144.944 Y66.500 E10.86146
G1 X144.529 Y66.203 E10.89324
G1 X144.308 Y65.983 E10.91267
G1 X144.208 Y65.875 E10.92181
G1 X143.974 Y65.548 E10.94682
G1 X143.729 Y65.037 E10.98212
G1 X143.617 Y64.627 E11.00858
G1 X143.567 Y64.065 E11.04368
G1 X143.614 Y63.593 E11.07319
G1 X143.710 Y63.220 E11.09718
G1 X143.886 Y62.812 E11.12481
G1 X143.941 Y62.702 E11.13253
G1 X144.183 Y62.352 E11.15900
G1 X144.579 Y61.950 E11.19410
G1 X144.931 Y61.702 E11.22090
G1 X145.440 Y61.467 E11.25582
G1 X145.862 Y61.355 E11.28302
G1 X146.284 Y61.315 E11.30940
G1 X146.726 Y61.342 E11.33697
G1 X146.843 Y61.355 E11.34430 F441.000
G1 X147.261 Y61.466 E11.37123
G1 X147.664 Y61.644 E11.39862
G1 X148.125 Y61.951 E11.43312
G1 X148.432 Y62.249 E11.45975
G1 X148.766 Y62.709 E11.49515
G1 X148.949 Y63.094 E11.52164
G1 X149.099 Y63.635 E11.55659
G1 X149.135 Y64.115 E11.58659
G1 X149.086 Y64.625 E11.61845
G1 X148.973 Y65.039 E11.64516
G1 X148.732 Y65.544 E11.68002
G1 X148.474 Y65.902 E11.70745
G1 X148.176 Y66.202 E11.73379
G1 X147.716 Y66.527 E11.76886
G1 X147.324 Y66.709 E11.79577
G1 X146.913 Y66.825 E11.82238
G1 X146.408 Y66.880 E11.85397
G1 F1860.000 E8.85397
G92 E0
G1 X146.734 Y61.224 F7800.000
G1 X148.955 Y66.761 F7800.000
G1 E3.10000 F1860.000
G1 X148.989 Y66.795 E3.10301 F1500.000
G1 X148.514 Y67.101 E3.13814
G1 X148.989 Y67.575 E3.17989
G1 X148.989 Y68.355 E3.22844
G1 X148.032 Y67.398 E3.31265
G1 X147.476 Y67.623 E3.34996
G1 X148.989 Y69.135 E3.48310
G1 X148.989 Y69.915 E3.53164
G1 X146.839 Y67.765 E3.72092
G1 X146.084 Y67.790 E3.76794
G1 X148.989 Y70.695 E4.02367
G1 X148.989 Y71.475 E4.07222
G1 X145.104 Y67.590 E4.41422
G1 X143.715 Y67.760 E4.50135
G1 X148.989 Y73.035 E4.96565
G1 X148.989 Y72.255 E5.01420
G1 X143.715 Y66.980 E5.47850
G1 X143.715 Y68.540 E5.57560
G1 X148.989 Y73.814 E6.03990
G1 X148.989 Y74.594 E6.08845
G1 X143.715 Y69.320 E6.55275
G1 X143.715 Y70.100 E6.60130
G1 X148.989 Y75.374 E7.06560
G1 X148.989 Y76.154 E7.11415
G1 X143.715 Y70.880 E7.57846
G1 X143.715 Y71.660 E7.62701
G1 X148.989 Y76.934 E8.09131
G1 X148.989 Y77.714 E8.13986
G1 X143.715 Y72.440 E8.60416
G1 X143.715 Y73.220 E8.65271
G1 X148.989 Y78.494 E9.11701
G1 X148.989 Y79.274 E9.16556
G1 X143.715 Y74.000 E9.62986
G1 X143.715 Y74.780 E9.67841
G1 X148.989 Y80.054 E10.14271
G1 X148.989 Y80.834 E10.19126
G1 X143.715 Y75.560 E10.65556
G1 X143.715 Y76.339 E10.70411
G1 X148.989 Y81.614 E11.16841
G1 X148.989 Y82.394 E11.21696
G1 X143.715 Y77.119 E11.68127
G1 X143.715 Y77.899 E11.72982
G1 X148.989 Y83.173 E12.19412
G1 X148.989 Y83.953 E12.24267
G1 X143.715 Y78.679 E12.70697
G1 X143.715 Y79.459 E12.75552
G1 X148.989 Y84.733 E13.21982
G1 X148.989 Y85.513 E13.26837
G1 X143.715 Y80.239 E13.73267
G1 X143.715 Y81.019 E13.78122
G1 X148.989 Y86.293 E14.24552
G1 X148.989 Y87.073 E14.29407
G1 X143.715 Y81.799 E14.75837
G1 X143.715 Y82.579 E14.80692
G1 X148.989 Y87.853 E15.27122
G1 X148.989 Y88.633 E15.31977
G1 X143.715 Y83.359 E15.78408
G1 X143.715 Y84.139 E15.83262
G1 X148.989 Y89.413 E16.29693
G1 X148.989 Y90.193 E16.34548
G1 X143.715 Y84.919 E16.80978
G1 X143.715 Y85.698 E16.85833
G1 X148.989 Y90.973 E17.32263
G1 X148.989 Y91.752 E17.37118
G1 X143.715 Y86.478 E17.83548
G1 X143.715 Y87.258 E17.88403
G1 X148.989 Y92.532 E18.34833
G1 X148.989 Y93.312 E18.39688
G1 X143.715 Y88.038 E18.86118
G1 X143.715 Y88.818 E18.90973
G1 X148.989 Y94.092 E19.37403
G1 X148.989 Y94.872 E19.42258
G1 X143.715 Y89.598 E19.88689
G1 X143.715 Y90.378 E19.93543
G1 X148.989 Y95.652 E20.39974
G1 X148.989 Y96.432 E20.44829
G1 X143.715 Y91.158 E20.91259
G1 X143.715 Y91.938 E20.96114
G1 X148.989 Y97.212 E21.42544
G1 X148.989 Y97.992 E21.47399
G1 X143.715 Y92.718 E21.93829
G1 X143.715 Y93.498 E21.98684
G1 X148.989 Y98.772 E22.45114
G1 X148.989 Y99.552 E22.49969
G1 X143.715 Y94.277 E22.96399
G1 X143.715 Y95.057 E23.01254
G1 X148.989 Y100.332 E23.47684
G1 X148.989 Y101.111 E23.52539
G1 X143.715 Y95.837 E23.98970
G1 X143.715 Y96.617 E24.03824
G1 X148.989 Y101.891 E24.50255
G1 X148.989 Y102.671 E24.55110
G1 X143.715 Y97.397 E25.01540
G1 X143.715 Y98.177 E25.06395
G1 X148.989 Y103.451 E25.52825
G1 X148.989 Y104.231 E25.57680
G1 X143.715 Y98.957 E26.04110
G1 X143.715 Y99.737 E26.08965
G1 X148.989 Y105.011 E26.55395
G1 X148.989 Y105.791 E26.60250
G1 X143.715 Y100.517 E27.06680
G1 X143.715 Y101.297 E27.11535
G1 X148.989 Y106.571 E27.57965
G1 X148.989 Y107.351 E27.62820
G1 X143.715 Y102.077 E28.09251
G1 X143.715 Y102.857 E28.14105
G1 X148.989 Y108.131 E28.60536
G1 X148.989 Y108.911 E28.65391
G1 X143.715 Y103.636 E29.11821
G1 X143.715 Y104.416 E29.16676
G1 X148.989 Y109.691 E29.63106
G1 X148.989 Y110.470 E29.67961
G1 X143.715 Y105.196 E30.14391
G1 X143.715 Y105.976 E30.19246
G1 X148.989 Y111.250 E30.65676
G1 X147.543 Y110.585 F7800.000
G1 X143.715 Y106.756 E30.99382 F1500.000
G1 X143.715 Y107.536 E31.04237
G1 X146.581 Y110.403 E31.29473
G1 X145.828 Y110.430 E31.34161
G1 X143.715 Y108.316 E31.52770
G1 X143.715 Y109.096 E31.57625
G1 X145.195 Y110.576 E31.70658
G1 X144.650 Y110.812 E31.74351
G1 X143.715 Y109.876 E31.82589
G1 X143.715 Y110.656 E31.87444
G1 X144.168 Y111.109 E31.91435
G1 X143.749 Y111.470 E31.94878
G1 X143.715 Y111.436 E31.95178
G1 X149.295 Y65.814 F7800.000
G1 X149.428 Y65.208 E31.97413 F600.000
G1 X149.511 Y64.589 E31.99662
G1 F1860.000 E28.99662
G92 E0
G1 X143.406 Y65.812 F7800.000
G1 E3.10000 F1860.000
G1 X143.275 Y65.204 E3.12238 F600.000
G1 X143.191 Y64.590 E3.14470
G1 X149.295 Y112.380 F7800.000
G1 X149.414 Y112.913 E3.16435 F600.000
G1 X149.508 Y113.614 E3.18982
G1 F1860.000 E0.18982
G92 E0
G1 X143.407 Y112.379 F7800.000
G1 E3.10000 F1860.000
G1 X143.288 Y112.921 E3.12000 F600.000
G1 X143.192 Y113.619 E3.14538
G1 F1860.000 E0.14538
G92 E0
G1 X121.663 Y117.743 F7800.000
G1 E3.10000 F1860.000
G1 X121.703 Y118.352 E3.13797 F441.000
G1 X121.666 Y118.942 E3.17477
G1 X121.555 Y119.522 E3.21151
G1 X121.373 Y120.085 E3.24836
G1 X121.121 Y120.619 E3.28511
G1 X120.804 Y121.118 E3.32191
G1 X120.428 Y121.574 E3.35870
G1 X119.997 Y121.978 E3.39550
G1 X119.519 Y122.325 E3.43229
G1 X119.001 Y122.610 E3.46904
G1 X118.451 Y122.827 E3.50584
G1 X117.879 Y122.974 E3.54262
G1 X117.293 Y123.048 E3.57941
G1 X116.702 Y123.048 E3.61619
G1 X116.115 Y122.974 E3.65299
G1 X115.543 Y122.827 E3.68977
G1 X114.993 Y122.610 E3.72656
G1 X114.476 Y122.325 E3.76332
G1 X113.998 Y121.978 E3.80010
G1 X113.567 Y121.574 E3.83690
G1 X113.190 Y121.118 E3.87369
G1 X112.873 Y120.619 E3.91049
G1 X112.622 Y120.085 E3.94725
G1 X112.439 Y119.522 E3.98409
G1 X112.328 Y118.942 E4.02083
G1 X112.291 Y118.352 E4.05764
G1 X112.328 Y117.762 E4.09444
G1 X112.439 Y117.182 E4.13118
G1 X112.622 Y116.619 E4.16803
G1 X112.873 Y116.085 E4.20478
G1 X113.190 Y115.586 E4.24158
G1 X113.567 Y115.130 E4.27837
G1 X113.998 Y114.726 E4.31517
G1 X114.476 Y114.378 E4.35195
G1 X114.993 Y114.094 E4.38871
G1 X115.543 Y113.877 E4.42550
G1 X116.115 Y113.730 E4.46229
G1 X116.702 Y113.656 E4.49908
G1 X117.293 Y113.656 E4.53586
G1 X117.852 Y113.726 E4.57093
G1 X118.451 Y113.877 E4.60942 F441.000
G1 X119.001 Y114.094 E4.64622
G1 X119.519 Y114.378 E4.68297
G1 X119.997 Y114.726 E4.71975
G1 X120.428 Y115.130 E4.75656
G1 X120.804 Y115.586 E4.79335
G1 X121.121 Y116.085 E4.83014
G1 X121.373 Y116.619 E4.86690
G1 X121.555 Y117.182 E4.90375
G1 X121.651 Y117.684 E4.93558
G1 X118.218 Y113.887 F7800.000
G1 X121.122 Y117.831 F7800.000
G1 X121.155 Y118.352 E4.96810 F630.000
G1 X121.122 Y118.873 E5.00061
G1 X121.024 Y119.385 E5.03306
G1 X120.863 Y119.883 E5.06564
G1 X120.641 Y120.355 E5.09809
G1 X120.361 Y120.796 E5.13060
G1 X120.028 Y121.198 E5.16312
G1 X119.647 Y121.556 E5.19563
