; generated by Slic3r 1.1.7 on 2014-12-28 at 19:44:51

; perimeters extrusion width = 0.40mm
; infill extrusion width = 0.44mm
; solid infill extrusion width = 0.44mm
; top infill extrusion width = 0.44mm

G21 ; set units to millimeters
M190 S110 ; wait for bed temperature to be reached
M104 S220 ; set temperature
G28 ; home all axes Start of G Code Slic3r
 
M109 S220 ; wait for temperature to be reached
G90 ; use absolute coordinates
G92 E0
M82 ; use absolute distances for extrusion
M106 S203
G1 F1860.000 E-3.00000
G92 E0
G1 Z0.294 F7800.000
G1 X91.672 Y93.355 F7800.000
G1 E3.10000 F1860.000
G1 X93.684 Y91.473 E3.27152 F1800.000
G1 X94.568 Y91.007 E3.33370
G1 X106.438 Y85.860 E4.13905
G1 X107.106 Y85.616 E4.18333
G1 X107.750 Y85.413 E4.22541
G1 X108.311 Y85.261 E4.26158
G1 X108.996 Y85.106 E4.30527
G1 X109.625 Y84.993 E4.34506
G1 X110.272 Y84.905 E4.38570
G1 X110.905 Y84.846 E4.42530
G1 X111.557 Y84.813 E4.46590
G1 X112.191 Y84.808 E4.50539
G1 X112.826 Y84.829 E4.54492
G1 X113.476 Y84.878 E4.58554 F1800.000
G1 X114.096 Y84.951 E4.62440
G1 X114.737 Y85.055 E4.66479
G1 X115.385 Y85.188 E4.70596
G1 X115.977 Y85.336 E4.74396
G1 X116.615 Y85.524 E4.78537
G1 X117.213 Y85.728 E4.82472
G1 X117.817 Y85.965 E4.86507
G1 X118.423 Y86.231 E4.90630
G1 X119.003 Y86.517 E4.94652
G1 X119.515 Y86.795 E4.98280
G1 X120.103 Y87.148 E5.02548
G1 X120.653 Y87.511 E5.06652
G1 X121.178 Y87.892 E5.10688
G1 X121.603 Y88.226 E5.14053
G1 X122.172 Y88.715 E5.18723
G1 X122.623 Y89.139 E5.22578
G1 X123.083 Y89.608 E5.26670
G1 X123.427 Y89.986 E5.29849
G1 X123.932 Y90.595 E5.34776
G1 X124.262 Y91.029 E5.38163
G1 X124.677 Y91.627 E5.42699
G1 X125.018 Y92.168 E5.46677
G1 X125.332 Y92.714 E5.50601
G1 X125.640 Y93.309 E5.54770
G1 X125.902 Y93.873 E5.58643
G1 X126.144 Y94.452 E5.62548
G1 X126.377 Y95.088 E5.66762
G1 X126.564 Y95.675 E5.70600
G1 X126.741 Y96.322 E5.74777
G1 X126.880 Y96.932 E5.78670
G1 X126.998 Y97.576 E5.82745
G1 X127.089 Y98.224 E5.86819
G1 X127.147 Y98.823 E5.90562
G1 X127.184 Y99.492 E5.94734
G1 X127.192 Y100.112 E5.98593
G1 X127.180 Y100.640 E6.01884
G1 X127.127 Y101.412 E6.06699
G1 X127.052 Y102.062 E6.10773
G1 X126.950 Y102.708 E6.14843
G1 X126.837 Y103.269 E6.18407
G1 X126.667 Y103.963 E6.22857
G1 X126.523 Y104.462 E6.26088
G1 X126.283 Y105.179 E6.30794
G1 X126.046 Y105.790 E6.34872
G1 X125.797 Y106.360 E6.38746
G1 X125.504 Y106.963 E6.42918
G1 X125.203 Y107.516 E6.46840
G1 X124.875 Y108.065 E6.50818
G1 X124.519 Y108.607 E6.54858
G1 X124.155 Y109.114 E6.58738
G1 X123.742 Y109.642 E6.62914
G1 X123.351 Y110.099 E6.66658
G1 X122.882 Y110.602 E6.70939
G1 X122.441 Y111.036 E6.74792
G1 X121.944 Y111.487 E6.78967
G1 X121.496 Y111.859 E6.82593
G1 X120.951 Y112.277 E6.86868
G1 X120.552 Y112.559 E6.89911
G1 X119.878 Y112.990 E6.94890
G1 X119.361 Y113.291 E6.98611
G1 X118.753 Y113.610 E7.02887
G1 X118.154 Y113.891 E7.07008
G1 X117.586 Y114.129 E7.10838
G1 X116.962 Y114.361 E7.14986
G1 X116.361 Y114.554 E7.18914
G1 X115.740 Y114.726 E7.22922
G1 X115.097 Y114.875 E7.27034
G1 X114.488 Y114.988 E7.30889
G1 X113.840 Y115.082 E7.34963
G1 X113.191 Y115.147 E7.39028
G1 X112.030 Y115.194 E7.46258
G1 X111.271 Y115.176 E7.50984
G1 X110.705 Y115.139 E7.54513
G1 X109.988 Y115.060 E7.59006
G1 X109.356 Y114.962 E7.62988
G1 X108.311 Y114.739 E7.69636
G1 X107.061 Y114.370 E7.77750
G1 X105.864 Y113.901 E7.85757
G1 X93.884 Y108.647 E8.67186
G1 X93.356 Y108.317 E8.71061
G1 X91.440 Y106.288 E8.88432
G1 X91.363 Y106.160 E8.89359
G1 X90.574 Y104.168 E9.02700
G1 X90.430 Y103.204 E9.08767
G1 X90.407 Y102.652 E9.12208
G1 X90.470 Y96.446 E9.50838
G1 X90.488 Y96.314 E9.51668
G1 X91.317 Y93.919 E9.67445
G1 X91.639 Y93.405 E9.71222
G1 F1860.000 E6.71222
G92 E0
G1 X97.248 Y102.713 F7800.000
G1 E3.10000 F1860.000
G1 X97.248 Y97.287 E3.43773 F441.000
G1 X102.557 Y97.277 E3.76819
G1 X103.093 Y97.212 E3.80184
G1 X103.567 Y97.070 E3.83265
G1 X104.046 Y96.821 E3.86620
G1 X104.211 Y96.700 E3.87896
G1 X104.368 Y96.553 E3.89237
G1 X104.584 Y96.247 E3.91568
G1 X104.680 Y95.974 E3.93368
G1 X105.105 Y95.282 E3.98423
G1 X105.310 Y94.995 E4.00623
G1 X105.759 Y94.447 E4.05030
G1 X106.251 Y93.938 E4.09433
G1 X106.512 Y93.701 E4.11633
G1 X106.784 Y93.474 E4.13837
G1 X107.355 Y93.057 E4.18238
G1 X107.960 Y92.688 E4.22646
G1 X108.593 Y92.372 E4.27050
G1 X109.250 Y92.112 E4.31455
G1 X109.586 Y92.003 E4.33654
G1 X110.272 Y91.827 E4.38059
G1 X110.970 Y91.710 E4.42465
G1 X111.675 Y91.653 E4.46869
G1 X112.029 Y91.647 E4.49070
G1 X112.735 Y91.679 E4.53473
G1 X113.087 Y91.717 E4.55674
G1 X113.785 Y91.839 E4.60084
G1 X114.469 Y92.020 E4.64487
G1 X114.804 Y92.131 E4.66684
G1 X115.460 Y92.397 E4.71092
G1 X116.090 Y92.717 E4.75495
G1 X116.693 Y93.089 E4.79902
G1 X116.980 Y93.294 E4.82098
G1 X117.530 Y93.740 E4.86504
G1 X118.040 Y94.230 E4.90912
G1 X118.507 Y94.762 E4.95311
G1 X118.926 Y95.332 E4.99717
G1 X119.296 Y95.935 E5.04124
G1 X119.614 Y96.566 E5.08523
G1 X119.878 Y97.223 E5.12929
G1 X120.084 Y97.900 E5.17333
G1 X120.233 Y98.592 E5.21739
G1 X120.285 Y98.941 E5.23936
G1 X120.345 Y99.646 E5.28344
G1 X120.345 Y100.354 E5.32747
G1 X120.285 Y101.059 E5.37155
G1 X120.166 Y101.756 E5.41559
G1 X119.988 Y102.440 E5.45958
G1 X119.753 Y103.108 E5.50362
G1 X119.462 Y103.753 E5.54769
G1 X119.117 Y104.371 E5.59171
G1 X118.926 Y104.668 E5.61374
G1 X118.507 Y105.239 E5.65780
G1 X118.040 Y105.770 E5.70179
G1 X117.530 Y106.261 E5.74587
G1 X116.980 Y106.706 E5.78994
G1 X116.692 Y106.911 E5.81190
G1 X116.090 Y107.283 E5.85596
G1 X115.460 Y107.603 E5.89999
G1 X114.803 Y107.869 E5.94408
G1 X114.128 Y108.078 E5.98807
G1 X113.785 Y108.161 E6.01008
G1 X113.087 Y108.283 E6.05418
G1 X112.735 Y108.321 E6.07618
G1 X112.029 Y108.353 E6.12021
G1 X111.675 Y108.347 E6.14222
G1 X110.970 Y108.290 E6.18626
G1 X110.272 Y108.173 E6.23032
G1 X109.586 Y107.997 E6.27438
G1 X109.250 Y107.888 E6.29636
G1 X108.593 Y107.628 E6.34041
G1 X107.960 Y107.312 E6.38445
G1 X107.653 Y107.134 E6.40650
G1 X107.355 Y106.944 E6.42854
G1 X106.784 Y106.526 E6.47256
G1 X106.251 Y106.062 E6.51658
G1 X105.999 Y105.812 E6.53861
G1 X105.759 Y105.553 E6.56063
G1 X105.310 Y105.005 E6.60470
G1 X104.912 Y104.421 E6.64872
G1 X104.680 Y104.026 E6.67724
G1 X104.596 Y103.775 E6.69368
G1 X104.410 Y103.497 E6.71454
G1 X104.247 Y103.331 E6.72904
G1 X104.067 Y103.194 E6.74312
G1 X103.666 Y102.975 E6.77158
G1 X103.161 Y102.804 E6.80472
G1 X102.973 Y102.766 E6.81666
G1 X102.586 Y102.725 E6.84092
G1 X97.308 Y102.713 E7.16945
G1 X97.448 Y102.367 F7800.000
G1 X97.795 Y102.167 F7800.000
G1 X97.795 Y97.833 E7.43924 F630.000
G1 X102.578 Y97.824 E7.73698
G1 X103.000 Y97.786 E7.76332
G1 X103.208 Y97.748 E7.77649
G1 X103.773 Y97.577 E7.81323
G1 X104.347 Y97.278 E7.85352
G1 X104.560 Y97.123 E7.86991
G1 X104.771 Y96.924 E7.88797
G1 X104.926 Y96.733 E7.90332
G1 X105.066 Y96.508 E7.91979
G1 X105.196 Y96.171 E7.94227
G1 X105.376 Y95.868 E7.96419
G1 X105.748 Y95.323 E8.00531
G1 X105.952 Y95.063 E8.02586
G1 X106.168 Y94.811 E8.04651
G1 X106.627 Y94.335 E8.08768
G1 X107.126 Y93.901 E8.12881
G1 X107.659 Y93.512 E8.16992
G1 X108.224 Y93.168 E8.21112
G1 X108.816 Y92.872 E8.25229
G1 X109.431 Y92.628 E8.29346
G1 X109.744 Y92.527 E8.31398
G1 X110.385 Y92.362 E8.35519
G1 X111.037 Y92.253 E8.39632
G1 X111.696 Y92.200 E8.43747
G1 X112.026 Y92.194 E8.45804
G1 X112.687 Y92.224 E8.49923
G1 X113.342 Y92.311 E8.54036
G1 X113.988 Y92.451 E8.58151
G1 X114.619 Y92.646 E8.62263
G1 X115.233 Y92.895 E8.66386
G1 X115.530 Y93.038 E8.68437
G1 X116.107 Y93.363 E8.72559
G1 X116.653 Y93.733 E8.76665
G1 X117.168 Y94.150 E8.80786
G1 X117.645 Y94.609 E8.84907
G1 X118.080 Y95.104 E8.89014
G1 X118.472 Y95.637 E8.93133
G1 X118.651 Y95.916 E8.95191
G1 X118.973 Y96.493 E8.99306
G1 X119.245 Y97.096 E9.03426
G1 X119.465 Y97.720 E9.07541
G1 X119.631 Y98.359 E9.11651
G1 X119.742 Y99.010 E9.15762
G1 X119.798 Y99.670 E9.19885
G1 X119.798 Y100.331 E9.24000
G1 X119.742 Y100.990 E9.28122
G1 X119.694 Y101.316 E9.30169
G1 X119.555 Y101.963 E9.34289
G1 X119.361 Y102.595 E9.38406
G1 X119.115 Y103.209 E9.42523
G1 X118.818 Y103.798 E9.46629
G1 X118.472 Y104.363 E9.50751
G1 X118.080 Y104.896 E9.54870
G1 X117.645 Y105.391 E9.58977
G1 X117.168 Y105.850 E9.63098
G1 X116.653 Y106.267 E9.67220
G1 X116.385 Y106.458 E9.69266
G1 X115.822 Y106.806 E9.73388
G1 X115.233 Y107.105 E9.77498
G1 X114.619 Y107.354 E9.81622
G1 X113.988 Y107.549 E9.85733
G1 X113.668 Y107.626 E9.87785
G1 X113.015 Y107.740 E9.91912
G1 X112.687 Y107.776 E9.93962
G1 X112.026 Y107.806 E9.98082
G1 X111.696 Y107.800 E10.00138
G1 X111.037 Y107.747 E10.04253
G1 X110.386 Y107.638 E10.08366
G1 X109.744 Y107.473 E10.12488
G1 X109.431 Y107.372 E10.14539
G1 X108.816 Y107.128 E10.18655
G1 X108.224 Y106.832 E10.22773
G1 X107.938 Y106.666 E10.24833
G1 X107.659 Y106.488 E10.26893
G1 X107.126 Y106.099 E10.31006
G1 X106.627 Y105.665 E10.35118
G1 X106.393 Y105.432 E10.37176
G1 X106.167 Y105.189 E10.39237
G1 X105.748 Y104.677 E10.43355
G1 X105.376 Y104.132 E10.47466
G1 X105.196 Y103.830 E10.49654
G1 X105.092 Y103.539 E10.51576
G1 X104.823 Y103.135 E10.54599
G1 X104.489 Y102.822 E10.57450
G1 X104.224 Y102.646 E10.59429
G1 X103.884 Y102.472 E10.61804
G1 X103.497 Y102.327 E10.64380
G1 X103.289 Y102.271 E10.65718
G1 X103.069 Y102.226 E10.67119
G1 X102.619 Y102.178 E10.69937
G1 X97.855 Y102.167 E10.99588
G1 X106.646 Y100.663 F7800.000
G1 X106.605 Y100.000 E11.03724 F441.000
G1 X106.663 Y99.056 E11.09615
G1 X106.698 Y99.056 E11.09832
G1 X106.768 Y98.684 E11.12183
G1 X106.969 Y98.052 E11.16315
G1 X107.247 Y97.448 E11.20453
G1 X107.596 Y96.883 E11.24586
G1 X108.013 Y96.366 E11.28722
G1 X108.490 Y95.903 E11.32857
G1 X109.020 Y95.504 E11.36989
G1 X109.595 Y95.172 E11.41123
G1 X110.206 Y94.913 E11.45257
G1 X110.845 Y94.731 E11.49392
G1 X111.501 Y94.629 E11.53522
G1 X112.124 Y94.609 E11.57401
G1 X112.826 Y94.669 E11.61791 F441.000
G1 X113.476 Y94.812 E11.65930
G1 X114.102 Y95.032 E11.70061
G1 X114.696 Y95.328 E11.74196
G1 X115.249 Y95.695 E11.78328
G1 X115.754 Y96.128 E11.82465
G1 X116.201 Y96.618 E11.86598
G1 X116.585 Y97.160 E11.90730
G1 X116.899 Y97.745 E11.94864
G1 X117.139 Y98.365 E11.99002
G1 X117.301 Y99.009 E12.03136
G1 X117.383 Y99.668 E12.07269
G1 X117.383 Y100.332 E12.11403
G1 X117.301 Y100.991 E12.15536
G1 X117.139 Y101.635 E12.19671
G1 X116.899 Y102.255 E12.23808
G1 X116.585 Y102.840 E12.27942
G1 X116.201 Y103.382 E12.32075
G1 X115.754 Y103.872 E12.36208
G1 X115.249 Y104.305 E12.40344
G1 X114.696 Y104.672 E12.44477
G1 X114.102 Y104.968 E12.48612
G1 X113.476 Y105.188 E12.52743
G1 X112.826 Y105.331 E12.56881
G1 X112.171 Y105.392 E12.60975
G1 X111.499 Y105.371 E12.65165
G1 X110.845 Y105.269 E12.69282
G1 X110.206 Y105.088 E12.73417
G1 X109.595 Y104.828 E12.77551
G1 X109.055 Y104.517 E12.81429
G1 X108.490 Y104.097 E12.85816
G1 X108.013 Y103.634 E12.89950
G1 X107.596 Y103.117 E12.94086
G1 X107.247 Y102.552 E12.98219
G1 X106.969 Y101.948 E13.02357
G1 X106.768 Y101.316 E13.06490
G1 X106.657 Y100.722 E13.10248
G1 F1860.000 E10.10248
G92 E0
G1 X112.235 Y94.225 F7800.000
G1 X106.108 Y100.764 F7800.000
G1 E3.10000 F1860.000
G1 X106.056 Y100.000 E3.14764 F630.000
G1 X106.149 Y98.508 E3.24067
G1 X106.249 Y98.508 E3.24690
G1 X106.457 Y97.854 E3.28966
G1 X106.764 Y97.189 E3.33524
G1 X107.148 Y96.566 E3.38077
G1 X107.608 Y95.996 E3.42636
G1 X108.133 Y95.487 E3.47191
G1 X108.717 Y95.047 E3.51742
G1 X109.350 Y94.681 E3.56295
G1 X110.024 Y94.395 E3.60848
G1 X110.728 Y94.195 E3.65406
G1 X111.450 Y94.083 E3.69954
G1 X112.182 Y94.060 E3.74510
G1 X112.836 Y94.121 E3.78600
G1 X113.626 Y94.285 E3.83622 F630.000
G1 X114.315 Y94.527 E3.88172
G1 X114.971 Y94.854 E3.92730
G1 X115.580 Y95.258 E3.97283
G1 X116.136 Y95.734 E4.01839
G1 X116.628 Y96.275 E4.06390
G1 X117.051 Y96.871 E4.10942
G1 X117.397 Y97.516 E4.15497
G1 X117.662 Y98.199 E4.20056
G1 X117.840 Y98.908 E4.24611
G1 X117.930 Y99.634 E4.29163
G1 X117.930 Y100.366 E4.33717
G1 X117.840 Y101.092 E4.38270
G1 X117.662 Y101.801 E4.42825
G1 X117.397 Y102.484 E4.47383
G1 X117.051 Y103.129 E4.51938
G1 X116.628 Y103.725 E4.56491
G1 X116.136 Y104.266 E4.61042
G1 X115.580 Y104.742 E4.65597
G1 X114.971 Y105.146 E4.70151
G1 X114.315 Y105.473 E4.74709
G1 X113.626 Y105.715 E4.79259
G1 X112.911 Y105.872 E4.83815
G1 X112.200 Y105.938 E4.88256
G1 X111.444 Y105.916 E4.92967
G1 X110.728 Y105.805 E4.97478
G1 X110.024 Y105.605 E5.02034
G1 X109.350 Y105.319 E5.06587
G1 X108.717 Y104.953 E5.11141
G1 X108.133 Y104.513 E5.15693
G1 X107.608 Y104.004 E5.20246
G1 X107.148 Y103.434 E5.24805
G1 X106.764 Y102.811 E5.29359
G1 X106.457 Y102.146 E5.33916
G1 X106.236 Y101.449 E5.38470
G1 X106.119 Y100.823 E5.42438
G1 X105.876 Y101.560 F7800.000
G1 X102.517 Y98.201 E5.72008 F1500.000
G1 X103.232 Y98.126 E5.76482
G1 X105.717 Y100.612 E5.98363
G1 X105.692 Y99.797 E6.03438
G1 X103.844 Y97.949 E6.19704
G1 X104.373 Y97.689 E6.23375
G1 X105.738 Y99.054 E6.35387
G1 X105.784 Y98.310 E6.40023
G1 X104.845 Y97.372 E6.48287
G1 X105.225 Y96.962 E6.51765
G1 X106.075 Y97.812 E6.59250
G1 X106.315 Y97.262 E6.62984
G1 X105.495 Y96.442 E6.70204
G1 X105.783 Y95.940 E6.73804
G1 X106.592 Y96.750 E6.80927
G1 X106.903 Y96.271 E6.84481
G1 X106.107 Y95.475 E6.91482
G1 X106.466 Y95.044 E6.94971
G1 X107.255 Y95.833 E7.01919
G1 X107.646 Y95.435 E7.05395
G1 X106.854 Y94.643 E7.12365
G1 X107.273 Y94.273 E7.15846
G1 X108.066 Y95.066 E7.22829
G1 X108.517 Y94.727 E7.26339
G1 X107.722 Y93.932 E7.33337
G1 X108.202 Y93.622 E7.36892
G1 X109.018 Y94.438 E7.44074
G1 X109.554 Y94.185 E7.47768
G1 X108.713 Y93.344 E7.55171
G1 X109.260 Y93.101 E7.58894
G1 X110.132 Y93.973 E7.66569
G1 X110.757 Y93.809 E7.70595
G1 X109.840 Y92.892 E7.78673
G1 X110.468 Y92.730 E7.82710
G1 X111.444 Y93.706 E7.91305
G1 X112.211 Y93.684 E7.96084
G1 X111.149 Y92.622 E8.05438
G1 X111.890 Y92.573 E8.10060
G1 X113.100 Y93.784 E8.20715
G1 X114.190 Y94.084 E8.27752
G1 X112.718 Y92.612 E8.40707
G1 X113.654 Y92.758 E8.46601
G1 X116.123 Y95.227 E8.68335
G1 X116.804 Y95.908 F7800.000
G1 X119.234 Y98.339 E8.89729 F1500.000
G1 X119.387 Y99.281 E8.95674
G1 X117.915 Y97.809 E9.08639
G1 X118.219 Y98.902 E9.15706
G1 X119.422 Y100.105 E9.26295
G1 X119.376 Y100.849 E9.30936
G1 X118.307 Y99.779 E9.40353
G1 X118.287 Y100.549 E9.45146
G1 X119.263 Y101.526 E9.53744
G1 X119.102 Y102.154 E9.57782
G1 X118.191 Y101.243 E9.65808
G1 X118.032 Y101.874 E9.69858
G1 X118.903 Y102.744 E9.77523
G1 X118.658 Y103.289 E9.81242
G1 X117.816 Y102.447 E9.88660
G1 X117.559 Y102.979 E9.92341
G1 X118.379 Y103.799 E9.99558
G1 X118.067 Y104.277 E10.03110
G1 X117.266 Y103.476 E10.10160
G1 X116.939 Y103.938 E10.13685
G1 X117.727 Y104.727 E10.20624
G1 X117.343 Y105.132 E10.24101
G1 X116.565 Y104.354 E10.30949
G1 X116.161 Y104.740 E10.34425
G1 X116.948 Y105.527 E10.41351
G1 X116.521 Y105.889 E10.44838
G1 X115.728 Y105.096 E10.51821
G1 X115.253 Y105.411 E10.55366
G1 X116.059 Y106.217 E10.62459
G1 X115.566 Y106.513 E10.66039
G1 X114.737 Y105.684 E10.73341
G1 X114.182 Y105.919 E10.77090
G1 X115.040 Y106.777 E10.84642
G1 X114.477 Y107.003 E10.88420
G1 X113.584 Y106.110 E10.96284
G1 X112.933 Y106.249 E11.00426
G1 X113.873 Y107.189 E11.08704
G1 X113.217 Y107.322 E11.12871
G1 X112.210 Y106.316 E11.21734
G1 X111.395 Y106.289 E11.26814
G1 X112.511 Y107.406 E11.36643
G1 X111.739 Y107.424 E11.41451
G1 X110.427 Y106.111 E11.53005
G1 X109.848 Y107.111 F7800.000
G1 X100.941 Y98.204 E12.31419 F1500.000
G1 X100.153 Y98.205 E12.36324
G1 X104.130 Y102.183 E12.71341
G1 X102.997 Y101.839 E12.78711
G1 X99.365 Y98.207 E13.10691
G1 X98.577 Y98.208 E13.15597
G1 X102.169 Y101.800 E13.47218
G1 X101.377 Y101.798 E13.52144
G1 X98.172 Y98.593 E13.80361
G1 X98.172 Y99.383 E13.85275
G1 X100.586 Y101.797 E14.06526
G1 X99.795 Y101.795 E14.11452
G1 X98.172 Y100.172 E14.25736
G1 X98.172 Y100.962 E14.30651
G1 X99.003 Y101.793 E14.37969
G1 X98.212 Y101.791 E14.42895
G1 X98.172 Y101.751 E14.43248
G1 X101.729 Y98.202 F7800.000
G1 X106.359 Y102.832 E14.84005 F1500.000
G1 X105.505 Y103.558 F7800.000
G1 X108.498 Y106.551 E15.10352 F1500.000
G1 X109.184 Y105.658 F7800.000
G1 X110.862 Y107.336 E15.25125 F1500.000
G1 F1860.000 E12.25125
G92 E0
G1 X118.874 Y97.189 F7800.000
G1 E3.10000 F1860.000
G1 X114.818 Y93.133 E3.45701 F1500.000
