; generated by Slic3r 1.1.7 on 2014-12-31 at 16:19:25

; perimeters extrusion width = 0.40mm
; infill extrusion width = 0.44mm
; solid infill extrusion width = 0.44mm
; top infill extrusion width = 0.44mm

G21 ; set units to millimeters
M190 S110 ; wait for bed temperature to be reached
M104 S220 ; set temperature
G28 ; home all axes Start of G Code Slic3r
 
M109 S220 ; wait for temperature to be reached
G90 ; use absolute coordinates
G92 E0
M82 ; use absolute distances for extrusion
M106 S127
G1 F1860.000 E-3.00000
G92 E0
G1 Z0.294 F7800.000
G1 X44.656 Y76.131 F7800.000
G1 E3.10000 F1860.000
G1 X141.738 Y19.186 E10.10616 F1800.000
G1 X143.035 Y18.684 E10.19273
G1 X143.185 Y18.642 E10.20246
G1 X144.388 Y18.428 E10.27848
G1 X145.097 Y18.391 E10.32269
G1 X151.304 Y18.386 E10.70909
G1 X161.246 Y18.426 E11.32793
G1 X162.712 Y18.709 E11.42092 F1800.000
G1 X164.068 Y19.260 E11.51198
G1 X164.226 Y19.344 E11.52317
G1 X165.325 Y20.085 E11.60567
G1 X166.386 Y21.129 E11.69831
G1 X167.208 Y22.335 E11.78917
G1 X167.307 Y22.519 E11.80214
G1 X167.818 Y23.778 E11.88674
G1 X168.108 Y25.208 E11.97759
G1 X168.151 Y26.000 E12.02694
G1 X168.118 Y174.692 E21.28285
G1 X167.818 Y176.222 E21.37992
G1 X167.306 Y177.482 E21.46460
G1 X167.209 Y177.665 E21.47749
G1 X166.385 Y178.871 E21.56838
G1 X165.403 Y179.851 E21.65477
G1 X164.226 Y180.656 E21.74353
G1 X164.068 Y180.740 E21.75466
G1 X162.712 Y181.291 E21.84577
G1 X161.346 Y181.564 E21.93247
G1 X160.548 Y181.609 E21.98222
G1 X147.725 Y181.614 E22.78047
G1 X144.479 Y181.580 E22.98252
G1 X143.109 Y181.337 E23.06917
G1 X141.806 Y180.848 E23.15578
G1 X141.263 Y180.559 E23.19404
G1 X34.707 Y117.940 E30.88766
G1 X34.623 Y117.872 E30.89438
G1 X33.548 Y116.789 E30.98935
G1 X32.713 Y115.517 E31.08406
G1 X32.167 Y114.168 E31.17467
G1 X31.882 Y112.685 E31.26867
G1 X31.849 Y112.000 E31.31137
G1 X31.879 Y87.346 E32.84609
G1 X31.894 Y87.197 E32.85540
G1 X32.168 Y85.826 E32.94240
G1 X32.695 Y84.518 E33.03020
G1 X32.764 Y84.386 E33.03949
G1 X33.615 Y83.129 E33.13394
G1 X34.624 Y82.127 E33.22245
G1 X35.582 Y81.454 E33.29537
G1 X44.604 Y76.161 E33.94649
G1 X44.933 Y76.603 F7800.000
G1 X141.978 Y19.677 E40.95008 F1800.000
G1 X143.312 Y19.175 E41.03877
G1 X144.437 Y18.973 E41.10995
G1 X145.099 Y18.938 E41.15120
G1 X151.304 Y18.933 E41.53747
G1 X161.191 Y18.970 E42.15295
G1 X162.553 Y19.233 E42.23926 F1800.000
G1 X163.811 Y19.743 E42.32377
G1 X163.964 Y19.825 E42.33459
G1 X164.978 Y20.508 E42.41072
G1 X165.963 Y21.477 E42.49670
G1 X166.727 Y22.596 E42.58103
G1 X166.822 Y22.772 E42.59349
G1 X167.293 Y23.934 E42.67157
G1 X167.563 Y25.262 E42.75589
G1 X167.604 Y26.000 E42.80192
G1 X167.573 Y174.638 E52.05451
G1 X167.293 Y176.066 E52.14506
G1 X166.821 Y177.229 E52.22320
G1 X166.727 Y177.404 E52.23559
G1 X165.963 Y178.523 E52.31994
G1 X165.056 Y179.428 E52.39967
G1 X163.964 Y180.175 E52.48206
G1 X163.812 Y180.257 E52.49282
G1 X162.552 Y180.767 E52.57739
G1 X161.292 Y181.019 E52.65740
G1 X160.548 Y181.062 E52.70380
G1 X147.726 Y181.067 E53.50195
G1 X144.529 Y181.035 E53.70100
G1 X143.255 Y180.809 E53.78149
G1 X142.047 Y180.356 E53.86186
G1 X141.540 Y180.088 E53.89754
G1 X35.051 Y117.515 E61.58606
G1 X34.968 Y117.447 E61.59275
G1 X33.971 Y116.442 E61.68088
G1 X33.197 Y115.261 E61.76876
G1 X32.690 Y114.009 E61.85287
G1 X32.427 Y112.635 E61.93995
G1 X32.396 Y112.000 E61.97951
G1 X32.424 Y87.396 E63.51108
G1 X32.438 Y87.251 E63.52016
G1 X32.692 Y85.986 E63.60045
G1 X33.180 Y84.771 E63.68196
G1 X33.248 Y84.643 E63.69102
G1 X34.037 Y83.477 E63.77867
G1 X34.968 Y82.552 E63.86035
G1 X35.859 Y81.926 E63.92813
G1 X44.881 Y76.633 E64.57925
G1 F1860.000 E61.57925
G92 E0
G1 X149.983 Y116.269 F7800.000
G1 E3.10000 F1860.000
G1 X160.529 Y116.283 E3.75646 F441.000
G1 X160.743 Y116.304 E3.76985
G1 X160.763 Y116.519 E3.78329
G1 X160.763 Y173.985 E7.36051
G1 X160.746 Y174.166 E7.37180
G1 X160.528 Y174.221 E7.38582
G1 X152.167 Y174.225 E7.90626
G1 X152.593 Y173.508 E7.95820
G1 X152.787 Y173.025 E7.99058
G1 X152.906 Y172.520 E8.02292
G1 X152.946 Y172.000 E8.05537
G1 X152.906 Y171.481 E8.08780
G1 X152.787 Y170.975 E8.12014
G1 X152.593 Y170.492 E8.15256
G1 X152.328 Y170.045 E8.18488
G1 X151.997 Y169.644 E8.21726
G1 X151.586 Y169.283 E8.25133
G1 X151.172 Y169.016 E8.28195
G1 X150.696 Y168.802 E8.31444
G1 X150.196 Y168.664 E8.34674
G1 X149.677 Y168.604 E8.37925
G1 X149.159 Y168.624 E8.41154
G1 X148.648 Y168.724 E8.44395
G1 X148.158 Y168.899 E8.47633
G1 X147.701 Y169.148 E8.50870
G1 X147.289 Y169.463 E8.54105
G1 X146.927 Y169.839 E8.57352
G1 X146.628 Y170.263 E8.60583
G1 X146.398 Y170.729 E8.63818
G1 X146.240 Y171.225 E8.67058
G1 X146.160 Y171.738 E8.70287
G1 X146.160 Y172.262 E8.73549
G1 X146.240 Y172.774 E8.76776
G1 X146.398 Y173.271 E8.80020
G1 X146.627 Y173.734 E8.83238
G1 X146.962 Y174.224 E8.86930
G1 X145.132 Y174.221 E8.98321
G1 X145.040 Y174.213 E8.98896
G1 X144.958 Y174.153 E8.99525
G1 X144.918 Y174.092 E8.99979
G1 X122.104 Y131.197 E12.02415
G1 X121.537 Y130.172 E12.09705
G1 X120.936 Y129.165 E12.17006
G1 X120.302 Y128.178 E12.24305
G1 X119.636 Y127.212 E12.31610
G1 X118.940 Y126.269 E12.38910
G1 X118.212 Y125.349 E12.46212
G1 X117.455 Y124.453 E12.53514
G1 X116.668 Y123.582 E12.60817
G1 X115.854 Y122.739 E12.68118
G1 X115.012 Y121.921 E12.75423
G1 X114.144 Y121.132 E12.82723
G1 X113.250 Y120.372 E12.90025
G1 X112.332 Y119.642 E12.97331
G1 X111.391 Y118.942 E13.04630
G1 X110.427 Y118.273 E13.11934
G1 X109.442 Y117.636 E13.19236
G1 X108.436 Y117.032 E13.26538
G1 X107.411 Y116.462 E13.33839
G1 X106.369 Y115.925 E13.41139
G1 X105.309 Y115.422 E13.48442
G1 X104.233 Y114.955 E13.55745
G1 X103.142 Y114.523 E13.63050
G1 X102.037 Y114.127 E13.70352
G1 X100.921 Y113.767 E13.77654
G1 X99.793 Y113.445 E13.84954
G1 X98.656 Y113.159 E13.92256
G1 X97.231 Y112.860 E14.01320
G1 X96.355 Y112.700 E14.06861
G1 X95.194 Y112.528 E14.14164
G1 X94.029 Y112.394 E14.21464
G1 X92.860 Y112.298 E14.28766
G1 X91.689 Y112.240 E14.36069
G1 X90.518 Y112.221 E14.43357
G1 X46.435 Y112.221 E17.17769
G1 X46.384 Y111.842 E17.20150
G1 X46.907 Y111.698 E17.23524
G1 X47.418 Y111.461 E17.27036
G1 X47.817 Y111.203 E17.29992
G1 X48.206 Y110.856 E17.33234
G1 X48.537 Y110.454 E17.36477
G1 X48.802 Y110.008 E17.39706
G1 X48.997 Y109.525 E17.42948
G1 X49.116 Y109.018 E17.46194
G1 X49.155 Y108.500 E17.49426
G1 X49.116 Y107.982 E17.52657
G1 X48.997 Y107.474 E17.55904
G1 X48.803 Y106.992 E17.59144
G1 X48.536 Y106.545 E17.62383
G1 X48.206 Y106.144 E17.65617
G1 X47.817 Y105.797 E17.68859
G1 X47.381 Y105.516 E17.72088
G1 X46.907 Y105.302 E17.75329
G1 X46.405 Y105.164 E17.78568
G1 X45.887 Y105.104 E17.81812
G1 X45.330 Y105.132 E17.85285
G1 X44.857 Y105.224 E17.88287
G1 X44.368 Y105.399 E17.91519
G1 X43.911 Y105.648 E17.94756
G1 X43.497 Y105.964 E17.97997
G1 X43.137 Y106.338 E18.01233
G1 X42.837 Y106.764 E18.04471
G1 X42.606 Y107.230 E18.07712
G1 X42.450 Y107.726 E18.10947
G1 X42.370 Y108.238 E18.14174
G1 X42.370 Y108.762 E18.17437
G1 X42.450 Y109.275 E18.20669
G1 X42.606 Y109.770 E18.23898
G1 X42.838 Y110.236 E18.27140
G1 X43.136 Y110.662 E18.30377
G1 X43.497 Y111.036 E18.33611
G1 X43.911 Y111.352 E18.36855
G1 X44.367 Y111.600 E18.40088
G1 X44.857 Y111.776 E18.43325
G1 X45.108 Y111.825 E18.44918
G1 X45.070 Y112.221 E18.47393
G1 X39.472 Y112.221 E18.82237
G1 X39.394 Y112.213 E18.82726
G1 X39.252 Y112.137 E18.83730
G1 X39.237 Y111.986 E18.84674
G1 X39.237 Y88.014 E20.33902
G1 X39.283 Y87.826 E20.35105
G1 X39.472 Y87.779 E20.36322
G1 X45.080 Y87.779 E20.71230
G1 X45.131 Y88.158 E20.73611
G1 X44.609 Y88.302 E20.76981
G1 X44.098 Y88.539 E20.80492
G1 X43.698 Y88.797 E20.83455
G1 X43.310 Y89.144 E20.86692
G1 X42.979 Y89.545 E20.89932
G1 X42.713 Y89.992 E20.93168
G1 X42.519 Y90.475 E20.96406
G1 X42.400 Y90.980 E20.99640
G1 X42.360 Y91.500 E21.02885
G1 X42.400 Y92.020 E21.06128
G1 X42.537 Y92.571 E21.09663
G1 X42.713 Y93.008 E21.12601
G1 X42.978 Y93.455 E21.15833
G1 X43.310 Y93.856 E21.19075
G1 X43.698 Y94.202 E21.22311
G1 X44.135 Y94.485 E21.25550
G1 X44.609 Y94.698 E21.28787
G1 X45.110 Y94.836 E21.32020
G1 X45.620 Y94.895 E21.35216
G1 X46.147 Y94.876 E21.38499
G1 X46.658 Y94.776 E21.41740
G1 X47.148 Y94.601 E21.44978
G1 X47.605 Y94.352 E21.48216
G1 X48.019 Y94.036 E21.51457
G1 X48.360 Y93.683 E21.54514
G1 X48.678 Y93.236 E21.57929
G1 X48.909 Y92.771 E21.61163
G1 X49.066 Y92.275 E21.64401
G1 X49.146 Y91.759 E21.67650
G1 X49.146 Y91.241 E21.70876
G1 X49.066 Y90.726 E21.74121
G1 X48.909 Y90.229 E21.77363
G1 X48.678 Y89.764 E21.80598
G1 X48.360 Y89.317 E21.84012
G1 X48.019 Y88.964 E21.87069
G1 X47.605 Y88.648 E21.90311
G1 X47.148 Y88.399 E21.93546
G1 X46.658 Y88.224 E21.96787
G1 X46.407 Y88.175 E21.98379
G1 X46.445 Y87.779 E22.00854
G1 X90.518 Y87.779 E24.75202
G1 X91.689 Y87.760 E24.82490
G1 X92.860 Y87.702 E24.89793
G1 X94.029 Y87.606 E24.97095
G1 X94.913 Y87.504 E25.02634
G1 X96.355 Y87.300 E25.11698
G1 X97.509 Y87.089 E25.19001
G1 X98.656 Y86.841 E25.26303
G1 X99.793 Y86.555 E25.33605
G1 X100.921 Y86.233 E25.40906
G1 X102.037 Y85.873 E25.48207
G1 X103.142 Y85.477 E25.55509
G1 X104.233 Y85.045 E25.62815
G1 X105.309 Y84.578 E25.70117
G1 X106.369 Y84.075 E25.77421
G1 X107.411 Y83.538 E25.84720
G1 X108.436 Y82.968 E25.92021
G1 X109.442 Y82.364 E25.99324
G1 X110.427 Y81.727 E26.06626
G1 X111.391 Y81.058 E26.13929
G1 X112.332 Y80.358 E26.21229
G1 X113.250 Y79.628 E26.28535
G1 X114.144 Y78.868 E26.35837
G1 X115.012 Y78.079 E26.43136
G1 X115.854 Y77.261 E26.50442
G1 X116.668 Y76.418 E26.57743
G1 X117.455 Y75.547 E26.65046
G1 X118.212 Y74.651 E26.72347
G1 X118.940 Y73.731 E26.79649
G1 X119.636 Y72.788 E26.86950
G1 X120.302 Y71.822 E26.94255
G1 X120.936 Y70.835 E27.01554
G1 X121.537 Y69.828 E27.08855
G1 X122.104 Y68.803 E27.16144
G1 X144.958 Y25.847 E30.19033
G1 X145.040 Y25.787 E30.19661
G1 X145.132 Y25.779 E30.20241
G1 X146.874 Y25.774 E30.31081
G1 X146.447 Y26.492 E30.36281
G1 X146.253 Y26.975 E30.39519
G1 X146.134 Y27.480 E30.42753
G1 X146.094 Y28.000 E30.45997
G1 X146.134 Y28.519 E30.49240
G1 X146.253 Y29.025 E30.52475
G1 X146.447 Y29.508 E30.55716
G1 X146.712 Y29.955 E30.58948
G1 X147.044 Y30.356 E30.62190
G1 X147.432 Y30.703 E30.65427
G1 X147.869 Y30.985 E30.68666
G1 X148.343 Y31.198 E30.71902
G1 X148.845 Y31.336 E30.75142
G1 X149.386 Y31.395 E30.78531
G1 X149.881 Y31.376 E30.81614
G1 X150.392 Y31.276 E30.84855
G1 X150.882 Y31.101 E30.88092
G1 X151.340 Y30.852 E30.91337
G1 X151.753 Y30.536 E30.94572
G1 X152.114 Y30.161 E30.97814
G1 X152.412 Y29.737 E31.01043
G1 X152.643 Y29.271 E31.04280
G1 X152.800 Y28.775 E31.07518
G1 X152.880 Y28.259 E31.10767
G1 X152.880 Y27.741 E31.13993
G1 X152.800 Y27.226 E31.17238
G1 X152.643 Y26.729 E31.20480
G1 X152.413 Y26.265 E31.23706
G1 X152.077 Y25.774 E31.27406
G1 X160.528 Y25.779 E31.80009
G1 X160.746 Y25.834 E31.81409
G1 X160.763 Y26.015 E31.82539
G1 X160.763 Y72.325 E34.70815
G1 X160.746 Y72.506 E34.71945
G1 X160.529 Y72.561 E34.73336
G1 X149.983 Y72.566 E35.38985
G1 X149.983 Y77.791 E35.71510
G1 X149.510 Y77.410 E35.75289
G1 X149.065 Y77.145 E35.78514
G1 X148.583 Y76.950 E35.81754
G1 X148.077 Y76.832 E35.84988
G1 X147.558 Y76.792 E35.88227
G1 X147.038 Y76.832 E35.91471
G1 X146.532 Y76.950 E35.94709
G1 X146.050 Y77.145 E35.97941
G1 X145.603 Y77.411 E36.01183
G1 X145.178 Y77.768 E36.04636
G1 X144.855 Y78.131 E36.07660
G1 X144.572 Y78.568 E36.10901
G1 X144.359 Y79.042 E36.14135
G1 X144.221 Y79.543 E36.17373
G1 X144.162 Y80.059 E36.20604
G1 X144.182 Y80.580 E36.23849
G1 X144.281 Y81.090 E36.27087
G1 X144.457 Y81.579 E36.30320
G1 X144.706 Y82.037 E36.33567
G1 X145.021 Y82.450 E36.36802
G1 X145.395 Y82.810 E36.40030
G1 X145.821 Y83.110 E36.43275
G1 X146.287 Y83.341 E36.46509
G1 X146.782 Y83.498 E36.49744
G1 X147.292 Y83.577 E36.52954
G1 X147.824 Y83.576 E36.56265
G1 X148.333 Y83.498 E36.59471
G1 X148.828 Y83.341 E36.62707
G1 X149.293 Y83.110 E36.65939
G1 X149.983 Y82.626 E36.71188
G1 X149.983 Y110.494 E38.44666
G1 X149.511 Y110.113 E38.48443
G1 X149.065 Y109.849 E38.51670
G1 X148.583 Y109.654 E38.54903
G1 X148.076 Y109.535 E38.58149
G1 X147.557 Y109.495 E38.61386
G1 X147.040 Y109.535 E38.64617
G1 X146.532 Y109.654 E38.67863
G1 X146.050 Y109.849 E38.71100
G1 X145.603 Y110.114 E38.74332
G1 X145.200 Y110.446 E38.77583
G1 X144.855 Y110.834 E38.80816
G1 X144.573 Y111.270 E38.84051
G1 X144.360 Y111.745 E38.87291
G1 X144.221 Y112.246 E38.90527
G1 X144.162 Y112.763 E38.93763
G1 X144.182 Y113.283 E38.97003
G1 X144.281 Y113.793 E39.00238
G1 X144.457 Y114.283 E39.03479
G1 X144.706 Y114.741 E39.06722
G1 X145.022 Y115.155 E39.09965
G1 X145.395 Y115.514 E39.13190
G1 X145.821 Y115.814 E39.16435
G1 X146.289 Y116.045 E39.19682
G1 X146.783 Y116.202 E39.22912
G1 X147.292 Y116.280 E39.26114
G1 X147.818 Y116.281 E39.29387
G1 X148.332 Y116.202 E39.32628
G1 X148.826 Y116.045 E39.35854
G1 X149.294 Y115.814 E39.39104
G1 X149.983 Y115.330 E39.44345
G1 X149.983 Y116.209 E39.49820
G1 X149.983 Y116.669 F7800.000
G1 X149.436 Y116.815 F7800.000
G1 X160.216 Y116.831 E40.16926 F630.000
G1 X160.216 Y173.674 E43.70771
G1 X153.114 Y173.678 E44.14981
G1 X153.311 Y173.191 E44.18252
G1 X153.448 Y172.605 E44.21997
G1 X153.495 Y172.000 E44.25776
G1 X153.448 Y171.395 E44.29553
G1 X153.277 Y170.725 E44.33857
G1 X153.084 Y170.247 E44.37066
G1 X152.777 Y169.730 E44.40809
G1 X152.393 Y169.263 E44.44574
G1 X151.940 Y168.861 E44.48341
G1 X151.435 Y168.534 E44.52087
G1 X150.881 Y168.285 E44.55866
G1 X150.301 Y168.125 E44.59614
G1 X149.697 Y168.056 E44.63401
G1 X149.017 Y168.094 E44.67638
G1 X148.501 Y168.195 E44.70909
G1 X147.934 Y168.398 E44.74663
G1 X147.344 Y168.733 E44.78884
G1 X146.924 Y169.053 E44.82171
G1 X146.502 Y169.492 E44.85961
G1 X146.156 Y169.983 E44.89697
G1 X145.889 Y170.523 E44.93452
G1 X145.705 Y171.100 E44.97222
G1 X145.613 Y171.693 E45.00953
G1 X145.613 Y172.307 E45.04778
G1 X145.705 Y172.899 E45.08505
G1 X145.951 Y173.672 E45.13556
G1 X145.315 Y173.673 E45.17516
G1 X122.585 Y130.936 E48.18841
G1 X122.011 Y129.899 E48.26213
G1 X121.402 Y128.877 E48.33626
G1 X120.758 Y127.875 E48.41037
G1 X120.081 Y126.894 E48.48454
G1 X119.374 Y125.936 E48.55864
G1 X118.635 Y125.002 E48.63281
G1 X117.867 Y124.093 E48.70691
G1 X117.068 Y123.209 E48.78108
G1 X116.241 Y122.352 E48.85519
G1 X115.386 Y121.522 E48.92936
G1 X114.505 Y120.722 E49.00348
G1 X113.598 Y119.950 E49.07762
G1 X112.666 Y119.208 E49.15179
G1 X111.710 Y118.497 E49.22592
G1 X110.732 Y117.818 E49.30005
G1 X109.731 Y117.172 E49.37419
G1 X108.710 Y116.558 E49.44835
G1 X107.670 Y115.979 E49.52247
G1 X106.612 Y115.434 E49.59656
G1 X105.535 Y114.924 E49.67073
G1 X104.443 Y114.449 E49.74487
G1 X103.335 Y114.011 E49.81904
G1 X102.214 Y113.609 E49.89318
G1 X101.080 Y113.244 E49.96731
G1 X99.935 Y112.916 E50.04143
G1 X98.780 Y112.626 E50.11557
G1 X97.329 Y112.321 E50.20788
G1 X96.444 Y112.160 E50.26386
G1 X95.266 Y111.986 E50.33799
G1 X94.083 Y111.849 E50.41211
G1 X92.896 Y111.752 E50.48626
G1 X91.707 Y111.693 E50.56040
G1 X90.522 Y111.674 E50.63412
G1 X48.111 Y111.674 E53.27421
G1 X48.602 Y111.237 E53.31511
G1 X48.987 Y110.768 E53.35291
G1 X49.294 Y110.253 E53.39020
G1 X49.521 Y109.691 E53.42793
G1 X49.658 Y109.100 E53.46575
G1 X49.704 Y108.500 E53.50318
G1 X49.658 Y107.900 E53.54063
G1 X49.521 Y107.309 E53.57843
G1 X49.294 Y106.747 E53.61613
G1 X48.985 Y106.228 E53.65371
G1 X48.602 Y105.763 E53.69123
G1 X48.149 Y105.361 E53.72891
G1 X47.644 Y105.034 E53.76636
G1 X47.092 Y104.786 E53.80404
G1 X46.510 Y104.625 E53.84165
G1 X45.906 Y104.556 E53.87946
G1 X45.306 Y104.579 E53.91684
G1 X44.710 Y104.695 E53.95466
G1 X44.143 Y104.899 E53.99213
G1 X43.613 Y105.187 E54.02971
G1 X43.132 Y105.554 E54.06735
G1 X42.713 Y105.989 E54.10495
G1 X42.366 Y106.483 E54.14257
G1 X42.097 Y107.026 E54.18027
G1 X41.915 Y107.601 E54.21783
G1 X41.823 Y108.193 E54.25508
G1 X41.823 Y108.807 E54.29336
G1 X41.916 Y109.401 E54.33078
G1 X42.097 Y109.974 E54.36817
G1 X42.366 Y110.517 E54.40589
G1 X42.713 Y111.011 E54.44348
G1 X43.352 Y111.674 E54.50076
G1 X39.784 Y111.674 E54.72283
G1 X39.784 Y88.326 E56.17619
G1 X43.404 Y88.326 E56.40152
G1 X42.914 Y88.763 E56.44240
G1 X42.530 Y89.230 E56.48001
G1 X42.222 Y89.748 E56.51755
G1 X41.995 Y90.309 E56.55520
