; generated by Slic3r 1.1.7 on 2015-01-04 at 14:42:51

; perimeters extrusion width = 0.40mm
; infill extrusion width = 0.44mm
; solid infill extrusion width = 0.44mm
; top infill extrusion width = 0.44mm

G21 ; set units to millimeters
M190 S110 ; wait for bed temperature to be reached
M104 S220 ; set temperature
G28 ; home all axes Start of G Code Slic3r
 
M109 S220 ; wait for temperature to be reached
G90 ; use absolute coordinates
G92 E0
M82 ; use absolute distances for extrusion
M106 S127
G1 F1860.000 E-3.00000
G92 E0
G1 Z0.294 F7800.000
G1 X49.937 Y41.901 F7800.000
G1 E3.10000 F1860.000
G1 X51.284 Y40.630 E3.21529 F1800.000
G1 X53.401 Y39.102 E3.37779
G1 X55.031 Y38.223 E3.49308
G1 X57.471 Y37.295 E3.65558
G1 X59.273 Y36.868 E3.77086
G1 X62.153 Y36.580 E3.95104
G1 X87.333 Y35.096 E5.52116
G1 X138.498 Y39.195 E8.71632
G1 X141.075 Y39.611 E8.87883 F1800.000
G1 X142.849 Y40.142 E8.99411
G1 X145.231 Y41.211 E9.15662
G1 X146.807 Y42.184 E9.27189
G1 X148.830 Y43.833 E9.43440
G1 X150.101 Y45.180 E9.54969
G1 X151.629 Y47.297 E9.71220
G1 X152.508 Y48.927 E9.82748
G1 X153.436 Y51.367 E9.98998
G1 X153.863 Y53.169 E10.10526
G1 X154.163 Y56.321 E10.30234
G1 X154.789 Y83.538 E11.99706
G1 X153.790 Y119.110 E14.21222
G1 X153.374 Y121.687 E14.37473
G1 X152.843 Y123.461 E14.49000
G1 X151.774 Y125.843 E14.65252
G1 X150.801 Y127.419 E14.76780
G1 X149.152 Y129.442 E14.93030
G1 X148.199 Y130.408 E15.01476
G1 X124.238 Y150.385 E16.95670
G1 X122.121 Y151.913 E17.11920
G1 X120.491 Y152.792 E17.23448
G1 X117.776 Y153.818 E17.41517
G1 X86.403 Y164.296 E19.47415
G1 X84.876 Y164.624 E19.57139
G1 X82.279 Y164.889 E19.73390
G1 X80.428 Y164.835 E19.84918
G1 X77.850 Y164.419 E20.01168
G1 X76.076 Y163.888 E20.12696
G1 X73.695 Y162.819 E20.28946
G1 X72.119 Y161.846 E20.40475
G1 X70.095 Y160.197 E20.56725
G1 X68.824 Y158.850 E20.68253
G1 X67.408 Y156.889 E20.83311
G1 X66.720 Y155.788 E20.91391
G1 X55.373 Y133.312 E22.48122
G1 X54.190 Y130.061 E22.69659
G1 X47.898 Y104.443 E24.33866
G1 X47.621 Y101.711 E24.50958
G1 X45.657 Y77.824 E26.00158
G1 X45.210 Y53.495 E27.51625
G1 X45.299 Y52.234 E27.59499
G1 X45.715 Y49.656 E27.75749
G1 X46.247 Y47.882 E27.87278
G1 X47.316 Y45.501 E28.03528
G1 X48.288 Y43.925 E28.15056
G1 X49.899 Y41.947 E28.30932
G1 X50.361 Y42.247 F7800.000
G1 X51.605 Y41.074 E28.41572 F1800.000
G1 X53.721 Y39.546 E28.57822
G1 X55.226 Y38.735 E28.68462
G1 X57.666 Y37.807 E28.84712
G1 X59.329 Y37.413 E28.95351
G1 X62.187 Y37.126 E29.13233
G1 X87.289 Y35.642 E30.69765
G1 X138.411 Y39.735 E33.89007
G1 X140.988 Y40.151 E34.05258 F1800.000
G1 X142.625 Y40.641 E34.15897
G1 X145.007 Y41.711 E34.32147
G1 X146.461 Y42.608 E34.42786
G1 X148.485 Y44.257 E34.59036
G1 X149.658 Y45.500 E34.69677
G1 X151.186 Y47.617 E34.85928
G1 X151.997 Y49.121 E34.96566
G1 X152.925 Y51.561 E35.12816
G1 X153.319 Y53.224 E35.23455
G1 X153.616 Y56.333 E35.42896
G1 X154.242 Y83.524 E37.12199
G1 X153.250 Y119.023 E39.33261
G1 X152.834 Y121.600 E39.49512
G1 X152.344 Y123.237 E39.60150
G1 X151.275 Y125.619 E39.76402
G1 X150.377 Y127.073 E39.87040
G1 X148.728 Y129.097 E40.03290
G1 X147.848 Y129.987 E40.11085
G1 X123.918 Y149.941 E42.05040
G1 X121.801 Y151.469 E42.21290
G1 X120.297 Y152.280 E42.31929
G1 X117.603 Y153.299 E42.49857
G1 X86.230 Y163.777 E44.55755
G1 X84.820 Y164.080 E44.64730
G1 X82.223 Y164.345 E44.80980
G1 X80.515 Y164.295 E44.91619
G1 X77.938 Y163.879 E45.07869
G1 X76.300 Y163.388 E45.18508
G1 X73.919 Y162.319 E45.34758
G1 X72.464 Y161.422 E45.45398
G1 X70.440 Y159.773 E45.61648
G1 X69.268 Y158.530 E45.72287
G1 X67.852 Y156.568 E45.87344
G1 X67.208 Y155.541 E45.94893
G1 X55.884 Y133.118 E47.51266
G1 X54.721 Y129.929 E47.72395
G1 X48.442 Y104.387 E49.36120
G1 X48.166 Y101.666 E49.53147
G1 X46.204 Y77.813 E51.02128
G1 X45.757 Y53.485 E52.53596
G1 X45.839 Y52.321 E52.60862
G1 X46.256 Y49.744 E52.77112
G1 X46.746 Y48.106 E52.87751
G1 X47.815 Y45.725 E53.04002
G1 X48.712 Y44.270 E53.14640
G1 X50.323 Y42.293 E53.30517
G1 F1860.000 E50.30517
G92 E0
G1 X130.249 Y98.259 F7800.000
G1 E3.10000 F1860.000
G1 X94.662 Y98.259 E5.31528 F441.000
G1 X94.662 Y107.846 E5.91209
G1 X97.749 Y107.846 E6.10428
G1 X97.749 Y105.346 E6.25990
G1 X99.662 Y105.346 E6.37896
G1 X99.662 Y109.759 E6.65364
G1 X94.662 Y109.759 E6.96488
G1 X94.662 Y132.259 E8.36549
G1 X92.749 Y132.259 E8.48454
G1 X92.749 Y84.759 E11.44137
G1 X87.749 Y84.759 E11.75262
G1 X87.749 Y82.846 E11.87168
G1 X94.662 Y82.846 E12.30198
G1 X94.662 Y83.478 E12.34135
G1 X116.949 Y96.346 E13.94333
G1 X132.162 Y96.346 E14.89031
G1 X132.162 Y103.259 E15.32062
G1 X130.249 Y103.259 E15.43968
G1 X130.249 Y98.319 E15.74719
G1 X130.249 Y97.859 F7800.000
G1 X130.796 Y97.711 F7800.000
G1 X94.114 Y97.711 E18.03059 F630.000
G1 X94.114 Y108.393 E18.69552
G1 X98.296 Y108.393 E18.95583
G1 X98.296 Y105.893 E19.11145
G1 X99.114 Y105.893 E19.16239
G1 X99.114 Y109.211 E19.36895
G1 X94.114 Y109.211 E19.68019
G1 X94.114 Y131.711 E21.08079
G1 X93.296 Y131.711 E21.13173
G1 X93.296 Y84.211 E24.08856
G1 X88.296 Y84.211 E24.39980
G1 X88.296 Y83.393 E24.45074
G1 X94.114 Y83.393 E24.81292
G1 X94.114 Y83.794 E24.83789
G1 X116.802 Y96.893 E26.46867
G1 X131.614 Y96.893 E27.39072
G1 X131.614 Y102.711 E27.75290
G1 X130.796 Y102.711 E27.80383
G1 X130.796 Y97.771 E28.11134
G1 X112.241 Y95.837 F7800.000
G1 X112.105 Y96.346 E28.14416 F441.000
G1 X94.662 Y96.346 E29.22999
G1 X94.662 Y85.687 E29.89351
G1 X112.189 Y95.807 E31.15339
G1 X112.617 Y95.973 F7800.000
G1 X112.879 Y95.573 F7800.000
G1 X112.525 Y96.893 E31.23849 F630.000
G1 X94.114 Y96.893 E32.38452
G1 X94.114 Y84.739 E33.14109
G1 X112.827 Y95.543 E34.48611
G1 X112.842 Y97.335 F7800.000
G1 X112.806 Y97.298 E34.48931 F1500.000
G1 X112.980 Y96.651 E34.53101
G1 X113.663 Y97.335 E34.59118
G1 X114.483 Y97.335 E34.64225
G1 X113.153 Y96.004 E34.75939
G1 X113.336 Y95.367 E34.80065
G1 X115.304 Y97.335 E34.97386
G1 X115.275 Y96.485 E35.02678
G1 X115.183 Y96.393 E35.03484
G1 X115.934 Y96.708 F7800.000
G1 X116.116 Y97.148 E35.05199 F600.000
G1 X116.792 Y97.329 E35.07719
G1 F1860.000 E32.07719
G92 E0
G1 X118.249 Y80.259 F7800.000
G1 E3.10000 F1860.000
G1 X82.662 Y80.259 E5.31528 F441.000
G1 X82.662 Y89.846 E5.91209
G1 X85.749 Y89.846 E6.10428
G1 X85.749 Y87.346 E6.25990
G1 X87.662 Y87.346 E6.37896
G1 X87.662 Y91.759 E6.65364
G1 X82.662 Y91.759 E6.96488
G1 X82.662 Y114.259 E8.36549
G1 X80.749 Y114.259 E8.48454
G1 X80.749 Y66.759 E11.44137
G1 X75.749 Y66.759 E11.75262
G1 X75.749 Y64.846 E11.87168
G1 X82.662 Y64.846 E12.30198
G1 X82.662 Y65.478 E12.34135
G1 X104.949 Y78.346 E13.94333
G1 X120.162 Y78.346 E14.89031
G1 X120.162 Y85.259 E15.32062
G1 X118.249 Y85.259 E15.43968
G1 X118.249 Y80.319 E15.74719
G1 X118.249 Y79.859 F7800.000
G1 X118.796 Y79.711 F7800.000
G1 X82.114 Y79.711 E18.03059 F630.000
G1 X82.114 Y90.393 E18.69552
G1 X86.296 Y90.393 E18.95583
G1 X86.296 Y87.893 E19.11145
G1 X87.114 Y87.893 E19.16239
G1 X87.114 Y91.211 E19.36895
G1 X82.114 Y91.211 E19.68019
G1 X82.114 Y113.711 E21.08079
G1 X81.296 Y113.711 E21.13173
G1 X81.296 Y66.211 E24.08856
G1 X76.296 Y66.211 E24.39980
G1 X76.296 Y65.393 E24.45074
G1 X82.114 Y65.393 E24.81292
G1 X82.114 Y65.794 E24.83789
G1 X104.802 Y78.893 E26.46867
G1 X119.614 Y78.893 E27.39072
G1 X119.614 Y84.711 E27.75290
G1 X118.796 Y84.711 E27.80383
G1 X118.796 Y79.771 E28.11134
G1 X100.241 Y77.837 F7800.000
G1 X100.105 Y78.346 E28.14416 F441.000
G1 X82.662 Y78.346 E29.22999
G1 X82.662 Y67.687 E29.89351
G1 X100.189 Y77.807 E31.15339
G1 X100.617 Y77.973 F7800.000
G1 X100.878 Y77.573 F7800.000
G1 X100.525 Y78.893 E31.23848 F630.000
G1 X82.114 Y78.893 E32.38451
G1 X82.114 Y66.739 E33.14108
G1 X100.827 Y77.543 E34.48609
G1 X103.934 Y78.708 F7800.000
G1 X104.116 Y79.148 E34.50324 F600.000
G1 X104.792 Y79.329 E34.52844
G1 X103.183 Y78.394 F7800.000
G1 X103.275 Y78.485 E34.53651 F1500.000
G1 X103.304 Y79.335 E34.58942
G1 X101.336 Y77.367 E34.76263
G1 X101.153 Y78.004 E34.80390
G1 X102.483 Y79.335 E34.92103
G1 X101.663 Y79.335 E34.97211
G1 X100.979 Y78.651 E35.03228
G1 X100.806 Y79.298 E35.07398
G1 X100.842 Y79.335 E35.07718
G1 F1860.000 E32.07718
G92 E0
G1 X130.133 Y110.627 F7800.000
G1 E3.10000 F1860.000
G1 X132.187 Y109.145 E3.25769 F441.000
G1 X134.554 Y108.244 E3.41537
G1 X137.074 Y107.987 E3.57306
G1 X139.424 Y108.366 E3.72123
G1 X139.575 Y108.391 E3.73075 F441.000
G1 X141.886 Y109.428 E3.88844
G1 X143.850 Y111.028 E4.04613
G1 X145.333 Y113.082 E4.20382
G1 X146.233 Y115.450 E4.36151
G1 X146.491 Y117.970 E4.51920
G1 X146.087 Y120.471 E4.67688
G1 X145.112 Y122.642 E4.82505
G1 X145.049 Y122.782 E4.83458
G1 X143.449 Y124.746 E4.99226
G1 X141.395 Y126.228 E5.14995
G1 X139.028 Y127.129 E5.30764
G1 X136.508 Y127.386 E5.46533
G1 X134.007 Y126.982 E5.62302
G1 X131.696 Y125.945 E5.78071
G1 X129.732 Y124.345 E5.93840
G1 X128.249 Y122.291 E6.09608
G1 X127.349 Y119.923 E6.25377
G1 X127.091 Y117.403 E6.41146
G1 X127.495 Y114.902 E6.56915
G1 X128.533 Y112.591 E6.72684
G1 X130.095 Y110.674 E6.88079
G1 X139.503 Y108.498 F7800.000
G1 X130.511 Y111.029 F7800.000
G1 X132.449 Y109.631 E7.02951 F630.000
G1 X134.682 Y108.781 E7.17823
G1 X136.978 Y108.547 E7.32191
G1 X137.058 Y108.539 E7.32695 F630.000
G1 X139.417 Y108.920 E7.47567
G1 X141.596 Y109.898 E7.62439
G1 X143.449 Y111.407 E7.77312
G1 X144.847 Y113.344 E7.92184
G1 X145.696 Y115.577 E8.07055
G1 X145.939 Y117.954 E8.21928
G1 X145.558 Y120.312 E8.36799
G1 X144.613 Y122.418 E8.51168
G1 X144.580 Y122.492 E8.51672
G1 X143.071 Y124.344 E8.66543
G1 X141.134 Y125.743 E8.81415
G1 X138.900 Y126.592 E8.96288
G1 X136.524 Y126.835 E9.11160
G1 X134.165 Y126.454 E9.26031
G1 X131.986 Y125.475 E9.40904
G1 X130.133 Y123.966 E9.55776
G1 X128.735 Y122.029 E9.70648
G1 X127.886 Y119.796 E9.85520
G1 X127.643 Y117.419 E10.00392
G1 X128.024 Y115.061 E10.15264
G1 X129.002 Y112.881 E10.30136
G1 X130.474 Y111.075 E10.44634
G1 X134.268 Y114.850 F7800.000
G1 X135.088 Y114.294 E10.50804 F441.000
G1 X136.024 Y113.969 E10.56972
G1 X136.900 Y113.905 E10.62436
G1 X137.013 Y113.897 E10.63141 F441.000
G1 X137.986 Y114.083 E10.69310
G1 X138.878 Y114.515 E10.75480
G1 X139.628 Y115.164 E10.81648
G1 X140.184 Y115.984 E10.87817
G1 X140.509 Y116.920 E10.93986
G1 X140.581 Y117.908 E11.00155
G1 X140.394 Y118.882 E11.06324
G1 X139.962 Y119.773 E11.12493
G1 X139.314 Y120.523 E11.18662
G1 X138.494 Y121.079 E11.24831
G1 X137.558 Y121.405 E11.31000
G1 X137.445 Y121.413 E11.31705
G1 X136.569 Y121.476 E11.37169
G1 X135.596 Y121.290 E11.43338
G1 X134.704 Y120.858 E11.49507
G1 X133.955 Y120.210 E11.55676
G1 X133.398 Y119.389 E11.61845
G1 X133.073 Y118.453 E11.68014
G1 X133.001 Y117.465 E11.74183
G1 X133.188 Y116.492 E11.80352
G1 X133.620 Y115.600 E11.86521
G1 X134.229 Y114.895 E11.92316
G1 X136.935 Y113.797 F7800.000
G1 X133.961 Y114.397 F7800.000
G1 X134.841 Y113.800 E11.98934 F630.000
G1 X135.913 Y113.428 E12.06000
G1 X137.045 Y113.346 E12.13065
G1 X137.227 Y113.381 E12.14218
G1 X138.160 Y113.559 E12.20131 F630.000
G1 X139.181 Y114.054 E12.27197
G1 X140.040 Y114.797 E12.34263
G1 X140.677 Y115.736 E12.41329
G1 X140.738 Y115.911 E12.42482
G1 X141.050 Y116.808 E12.48395
G1 X141.132 Y117.940 E12.55461
G1 X140.918 Y119.055 E12.62527
G1 X140.423 Y120.077 E12.69592
G1 X139.681 Y120.935 E12.76658
G1 X138.742 Y121.573 E12.83724
G1 X137.669 Y121.945 E12.90790
G1 X136.537 Y122.027 E12.97856
G1 X136.355 Y121.992 E12.99009
G1 X135.422 Y121.814 E13.04921
G1 X134.401 Y121.319 E13.11987
G1 X133.542 Y120.576 E13.19053
G1 X132.905 Y119.637 E13.26119
G1 X132.533 Y118.565 E13.33185
G1 X132.450 Y117.433 E13.40250
G1 X132.664 Y116.318 E13.47316
G1 X133.159 Y115.296 E13.54382
G1 X133.911 Y114.431 E13.61521
G1 X139.135 Y109.256 F7800.000
G1 X145.193 Y115.313 E14.14849 F1500.000
G1 X145.393 Y116.311 E14.21183
G1 X138.183 Y109.102 E14.84649
G1 X137.232 Y108.948 E14.90652
G1 X145.483 Y117.200 E15.63296
G1 X145.541 Y118.056 E15.68635
G1 X136.463 Y108.978 E16.48549
G1 X135.739 Y109.052 E16.53081
G1 X145.430 Y118.743 E17.38395
G1 X145.319 Y119.430 E17.42728
G1 X135.015 Y109.126 E18.33440
G1 X134.387 Y109.296 E18.37490
G1 X138.299 Y113.208 E18.71930
G1 X137.305 Y113.012 E18.78240
G1 X133.809 Y109.516 E19.09016
G1 X133.231 Y109.736 E19.12867
G1 X136.502 Y113.008 E19.41667
G1 X135.774 Y113.078 E19.46220
G1 X132.652 Y109.956 E19.73700
G1 X132.184 Y110.286 E19.77266
G1 X135.181 Y113.283 E20.03652
G1 X134.605 Y113.505 E20.07496
G1 X131.721 Y110.621 E20.32889
G1 X131.257 Y110.955 E20.36448
G1 X134.129 Y113.828 E20.61734
G1 X133.654 Y114.150 E20.65311
G1 X130.805 Y111.301 E20.90392
G1 X130.430 Y111.725 E20.93912
G1 X133.283 Y114.577 E21.19022
G1 X132.912 Y115.005 E21.22544
G1 X130.072 Y112.165 E21.47550
G1 X129.714 Y112.605 E21.51082
G1 X132.631 Y115.522 E21.76764
G1 X132.370 Y116.060 E21.80484
G1 X129.355 Y113.044 E22.07028
G1 X129.099 Y113.586 E22.10759
G1 X132.208 Y116.695 E22.38131
G1 X132.080 Y117.365 E22.42376
G1 X128.852 Y114.137 E22.70795
G1 X128.604 Y114.688 E22.74554
G1 X132.129 Y118.213 E23.05586
G1 X132.374 Y119.255 E23.12251
G1 X128.374 Y115.256 E23.47461
G1 X128.263 Y115.943 E23.51794
G1 X138.567 Y126.247 E24.42507
G1 X139.195 Y126.077 E24.46556
G1 X135.283 Y122.165 E24.80996
G1 X136.277 Y122.361 E24.87307
G1 X139.773 Y125.857 E25.18082
G1 X140.352 Y125.637 E25.21933
G1 X137.080 Y122.366 E25.50733
G1 X137.808 Y122.296 E25.55287
G1 X140.930 Y125.417 E25.82767
G1 X141.398 Y125.087 E25.86332
G1 X138.401 Y122.090 E26.12719
G1 X138.977 Y121.868 E26.16563
G1 X141.862 Y124.752 E26.41955
G1 X142.325 Y124.418 E26.45514
G1 X139.453 Y121.545 E26.70801
G1 X139.928 Y121.223 E26.74378
G1 X142.777 Y124.072 E26.99459
G1 X143.152 Y123.648 E27.02979
G1 X140.299 Y120.796 E27.28089
G1 X140.670 Y120.368 E27.31612
G1 X143.510 Y123.208 E27.56618
G1 X143.869 Y122.769 E27.60150
G1 X140.951 Y119.851 E27.85833
G1 X141.212 Y119.314 E27.89552
G1 X144.227 Y122.329 E28.16096
G1 X144.483 Y121.787 E28.19827
G1 X141.374 Y118.678 E28.47199
G1 X141.502 Y118.008 E28.51444
G1 X144.731 Y121.236 E28.79863
G1 X144.978 Y120.685 E28.83622
G1 X141.453 Y117.160 E29.14655
G1 X141.208 Y116.118 E29.21320
G1 X145.208 Y120.117 E29.56529
G1 X144.703 Y114.025 F7800.000
G1 X140.494 Y109.816 E29.93587 F1500.000
G1 X143.018 Y111.542 F7800.000
G1 X143.246 Y111.770 E29.95594 F1500.000
G1 X137.843 Y126.321 F7800.000
G1 X128.152 Y116.630 E30.80908 F1500.000
G1 X128.041 Y117.317 E30.85241
G1 X137.119 Y126.395 E31.65156
G1 X136.351 Y126.425 E31.69943
G1 X128.099 Y118.173 E32.42587
G1 X128.189 Y119.062 E32.48149
G1 X135.399 Y126.271 E33.11615
G1 X134.447 Y126.118 E33.17617
G1 X128.389 Y120.060 E33.70947
G1 X128.879 Y121.348 F7800.000
G1 X133.089 Y125.557 E34.08006 F1500.000
G1 X130.564 Y123.831 F7800.000
G1 X130.336 Y123.603 E34.10013 F1500.000
G1 F1860.000 E31.10013
G92 E0
G1 X107.263 Y104.699 F7800.000
G1 E3.10000 F1860.000
G1 X108.590 Y103.742 E3.20184 F441.000
G1 X110.957 Y102.841 E3.35953
G1 X113.477 Y102.584 E3.51722
G1 X115.827 Y102.963 E3.66538
G1 X115.978 Y102.988 E3.67491 F441.000
G1 X118.289 Y104.025 E3.83259
G1 X120.253 Y105.625 E3.99028
G1 X121.736 Y107.679 E4.14797
G1 X122.636 Y110.047 E4.30566
G1 X122.894 Y112.567 E4.46335
G1 X122.490 Y115.068 E4.62104
G1 X121.515 Y117.239 E4.76920
G1 X121.452 Y117.379 E4.77873
G1 X119.852 Y119.343 E4.93642
G1 X117.798 Y120.825 E5.09410
G1 X115.431 Y121.726 E5.25179
G1 X112.911 Y121.983 E5.40948
G1 X110.410 Y121.579 E5.56717
G1 X108.099 Y120.542 E5.72486
G1 X106.135 Y118.942 E5.88255
G1 X104.652 Y116.888 E6.04024
G1 X103.752 Y114.520 E6.19792
G1 X103.494 Y112.000 E6.35561
G1 X103.898 Y109.499 E6.51330
G1 X104.936 Y107.188 E6.67099
G1 X106.536 Y105.224 E6.82868
G1 X107.215 Y104.734 E6.88079
G1 X115.900 Y103.098 F7800.000
G1 X107.583 Y105.143 F7800.000
G1 X108.852 Y104.228 E6.97815 F630.000
G1 X111.085 Y103.378 E7.12687
G1 X113.381 Y103.144 E7.27055
G1 X113.461 Y103.136 E7.27559 F630.000
G1 X115.820 Y103.517 E7.42431
G1 X117.999 Y104.495 E7.57303
G1 X119.852 Y106.004 E7.72175
G1 X121.250 Y107.941 E7.87047
G1 X122.099 Y110.174 E8.01919
G1 X122.342 Y112.551 E8.16791
G1 X121.961 Y114.909 E8.31663
G1 X120.983 Y117.089 E8.46535
G1 X119.474 Y118.941 E8.61407
G1 X117.537 Y120.340 E8.76279
G1 X115.303 Y121.189 E8.91151
