; generated by Slic3r 1.1.7 on 2014-12-06 at 10:39:50

; perimeters extrusion width = 0.42mm
; infill extrusion width = 0.74mm
; solid infill extrusion width = 0.71mm
; top infill extrusion width = 0.71mm

G21 ; set units to millimeters
M190 S60 ; wait for bed temperature to be reached
M104 S186 ; set temperature
G28 ; home all axes
M109 S186 ; wait for temperature to be reached
G90 ; use absolute coordinates
G92 E0
M82 ; use absolute distances for extrusion
M106 S127
G1 F1860.000 E-3.00000
G92 E0
G1 Z0.200 F6000.000
G1 X71.568 Y81.005 F6000.000
G1 E3.10000 F1860.000
G1 X72.450 Y80.347 E3.12036 F1200.000
G1 X72.984 Y80.018 E3.13194
G1 X99.388 Y64.778 E3.69597
G1 X99.936 Y64.493 E3.70740
G1 X100.746 Y64.155 E3.72362
G1 X101.630 Y63.881 E3.74075
G1 X102.122 Y63.770 E3.75008
G1 X102.900 Y63.644 E3.76467
G1 X103.818 Y63.581 E3.78169
G1 X104.064 Y63.582 E3.78623
G1 X104.758 Y63.610 E3.79909 F1200.000
G1 X106.892 Y63.836 E3.83879
G1 X109.397 Y64.263 E3.88581
G1 X111.577 Y64.784 E3.92726
G1 X113.724 Y65.441 E3.96879
G1 X116.094 Y66.337 E4.01567
G1 X118.127 Y67.262 E4.05700
G1 X120.382 Y68.475 E4.10437
G1 X122.273 Y69.655 E4.14560
G1 X124.104 Y70.961 E4.18721
G1 X126.072 Y72.572 E4.23427
G1 X127.703 Y74.093 E4.27552
G1 X129.428 Y75.929 E4.32213
G1 X130.859 Y77.663 E4.36372
G1 X132.129 Y79.406 E4.40362
G1 X132.349 Y79.745 E4.41110
G1 X132.767 Y80.475 E4.42666
G1 X133.131 Y81.273 E4.44288
G1 X133.404 Y82.048 E4.45809
G1 X133.586 Y82.752 E4.47154
G1 X133.698 Y83.347 E4.48273
G1 X133.795 Y84.246 E4.49947
G1 X134.494 Y99.951 E4.79030
G1 X134.484 Y100.494 E4.80034
G1 X133.782 Y115.955 E5.08667
G1 X133.668 Y116.843 E5.10324
G1 X133.473 Y117.707 E5.11961
G1 X133.213 Y118.509 E5.13523
G1 X132.956 Y119.131 E5.14767
G1 X132.622 Y119.798 E5.16147
G1 X132.133 Y120.587 E5.17865
G1 X130.656 Y122.594 E5.22474
G1 X129.250 Y124.274 E5.26526
G1 X127.717 Y125.893 E5.30652
G1 X126.053 Y127.444 E5.34860
G1 X124.104 Y129.038 E5.39519
G1 X122.288 Y130.334 E5.43646
G1 X120.396 Y131.516 E5.47772
G1 X120.049 Y131.715 E5.48513
G1 X118.142 Y132.730 E5.52509
G1 X115.850 Y133.761 E5.57159
G1 X113.644 Y134.583 E5.61514
G1 X111.584 Y135.213 E5.65500
G1 X109.416 Y135.732 E5.69624
G1 X106.909 Y136.161 E5.74329
G1 X104.770 Y136.388 E5.78309
G1 X104.414 Y136.409 E5.78969
G1 X103.523 Y136.407 E5.80617
G1 X102.645 Y136.322 E5.82249
G1 X101.843 Y136.172 E5.83758
G1 X101.473 Y136.075 E5.84467
G1 X100.544 Y135.765 E5.86278
G1 X99.740 Y135.409 E5.87905
G1 X99.204 Y135.119 E5.89032
G1 X72.802 Y119.872 E6.45435
G1 X72.300 Y119.552 E6.46537
G1 X71.993 Y119.329 E6.47239
G1 X71.577 Y119.002 E6.48218
G1 X70.934 Y118.408 E6.49839
G1 X70.365 Y117.777 E6.51410
G1 X69.954 Y117.243 E6.52657
G1 X69.543 Y116.620 E6.54036
G1 X69.105 Y115.804 E6.55750
G1 X68.105 Y113.519 E6.60365
G1 X67.353 Y111.464 E6.64413
G1 X66.717 Y109.323 E6.68546
G1 X66.205 Y107.107 E6.72752
G1 X65.800 Y104.625 E6.77405
G1 X65.584 Y102.393 E6.81554
G1 X65.507 Y99.843 E6.86273
G1 X65.584 Y97.613 E6.90402
G1 X65.837 Y95.113 E6.95049
G1 X66.228 Y92.792 E6.99404
G1 X66.712 Y90.694 E7.03388
G1 X67.347 Y88.555 E7.07516
G1 X68.235 Y86.154 E7.12252
G1 X69.103 Y84.200 E7.16207
G1 X69.284 Y83.844 E7.16947
G1 X69.692 Y83.141 E7.18450
G1 X70.232 Y82.383 E7.20172
G1 X70.675 Y81.862 E7.21437
G1 X71.022 Y81.505 E7.22357
G1 X71.521 Y81.047 E7.23611
G1 X71.726 Y81.195 F6000.000
G1 X72.584 Y80.555 E7.25591 F1200.000
G1 X73.107 Y80.233 E7.26727
G1 X99.505 Y64.996 E7.83115
G1 X100.042 Y64.716 E7.84236
G1 X100.832 Y64.387 E7.85818
G1 X101.694 Y64.119 E7.87488
G1 X102.167 Y64.013 E7.88386
G1 X102.927 Y63.890 E7.89810
G1 X103.822 Y63.828 E7.91470
G1 X104.058 Y63.829 E7.91907
G1 X104.738 Y63.856 E7.93165 F1200.000
G1 X106.863 Y64.081 E7.97119
G1 X109.345 Y64.505 E8.01777
G1 X111.513 Y65.023 E8.05901
G1 X113.648 Y65.676 E8.10032
G1 X115.997 Y66.564 E8.14676
G1 X118.019 Y67.485 E8.18787
G1 X120.253 Y68.686 E8.23480
G1 X122.135 Y69.859 E8.27582
G1 X123.955 Y71.158 E8.31720
G1 X125.906 Y72.755 E8.36382
G1 X127.528 Y74.267 E8.40486
G1 X129.238 Y76.088 E8.45106
G1 X130.661 Y77.811 E8.49241
G1 X131.926 Y79.547 E8.53215
G1 X132.138 Y79.873 E8.53935
G1 X132.546 Y80.585 E8.55453
G1 X132.901 Y81.364 E8.57035
G1 X133.168 Y82.121 E8.58520
G1 X133.346 Y82.809 E8.59835
G1 X133.453 Y83.381 E8.60912
G1 X133.548 Y84.258 E8.62544
G1 X134.247 Y99.951 E8.91606
G1 X134.237 Y100.483 E8.92589
G1 X133.536 Y115.935 E9.21206
G1 X133.425 Y116.801 E9.22822
G1 X133.234 Y117.643 E9.24419
G1 X132.980 Y118.427 E9.25943
G1 X132.732 Y119.025 E9.27140
G1 X132.406 Y119.677 E9.28489
G1 X131.930 Y120.446 E9.30163
G1 X130.466 Y122.436 E9.34733
G1 X129.067 Y124.108 E9.38766
G1 X127.542 Y125.718 E9.42870
G1 X125.888 Y127.261 E9.47054
G1 X123.955 Y128.841 E9.51671
G1 X122.150 Y130.130 E9.55776
G1 X120.268 Y131.305 E9.59880
G1 X119.933 Y131.497 E9.60595
G1 X118.035 Y132.507 E9.64573
G1 X115.762 Y133.530 E9.69182
G1 X113.572 Y134.347 E9.73508
G1 X111.520 Y134.974 E9.77476
G1 X109.364 Y135.490 E9.81578
G1 X106.880 Y135.916 E9.86241
G1 X104.749 Y136.142 E9.90205
G1 X104.407 Y136.162 E9.90840
G1 X103.538 Y136.160 E9.92446
G1 X102.682 Y136.078 E9.94038
G1 X101.899 Y135.931 E9.95512
G1 X101.543 Y135.837 E9.96193
G1 X100.637 Y135.537 E9.97958
G1 X99.854 Y135.189 E9.99544
G1 X99.328 Y134.905 E10.00650
G1 X72.933 Y119.662 E10.57039
G1 X72.440 Y119.348 E10.58120
G1 X72.145 Y119.133 E10.58795
G1 X71.735 Y118.812 E10.59758
G1 X71.108 Y118.232 E10.61339
G1 X70.553 Y117.616 E10.62872
G1 X70.158 Y117.102 E10.64072
G1 X69.756 Y116.494 E10.65420
G1 X69.329 Y115.698 E10.67091
G1 X68.337 Y113.434 E10.71665
G1 X67.589 Y111.388 E10.75695
G1 X66.955 Y109.258 E10.79805
G1 X66.447 Y107.055 E10.83988
G1 X66.046 Y104.595 E10.88599
G1 X65.831 Y102.375 E10.92726
G1 X65.755 Y99.849 E10.97401
G1 X65.831 Y97.630 E11.01508
G1 X66.081 Y95.153 E11.06115
G1 X66.468 Y92.847 E11.10440
G1 X66.951 Y90.758 E11.14406
G1 X67.582 Y88.631 E11.18512
G1 X68.462 Y86.252 E11.23204
G1 X69.327 Y84.305 E11.27145
G1 X69.501 Y83.962 E11.27857
G1 X69.899 Y83.276 E11.29324
G1 X70.425 Y82.537 E11.31003
G1 X70.859 Y82.027 E11.32241
G1 X71.192 Y81.684 E11.33126
G1 X71.679 Y81.236 E11.34350
G1 F1860.000 E8.34350
G92 E0
G1 X96.804 Y102.246 F6000.000
G1 E3.10000 F1860.000
G1 X83.562 Y109.891 E3.38287 F1200.000
G1 X83.314 Y110.001 E3.38789
G1 X83.040 Y110.060 E3.39308
G1 X82.900 Y110.068 E3.39567
G1 X82.621 Y110.039 E3.40086
G1 X82.354 Y109.954 E3.40603
G1 X82.229 Y109.891 E3.40863
G1 X82.111 Y109.815 E3.41122
G1 X81.902 Y109.629 E3.41640
G1 X81.812 Y109.521 E3.41901
G1 X81.672 Y109.284 E3.42410
G1 X81.003 Y107.650 E3.45676
G1 X80.476 Y106.010 E3.48862
G1 X80.078 Y104.337 E3.52045
G1 X79.804 Y102.595 E3.55306
G1 X79.669 Y100.841 E3.58561
G1 X79.670 Y99.118 E3.61749
G1 X79.804 Y97.404 E3.64929
G1 X80.078 Y95.661 E3.68193
G1 X80.476 Y93.990 E3.71371
G1 X81.003 Y92.350 E3.74559
G1 X81.735 Y90.595 E3.78075
G1 X81.901 Y90.370 E3.78594
G1 X82.111 Y90.184 E3.79112
G1 X82.229 Y90.108 E3.79372
G1 X82.486 Y89.996 E3.79890
G1 X82.760 Y89.939 E3.80408
G1 X83.040 Y89.939 E3.80927
G1 X83.314 Y89.998 E3.81445
G1 X83.562 Y90.108 E3.81947
G1 X96.804 Y97.753 E4.10233
G1 X96.631 Y98.249 E4.11205
G1 X96.476 Y98.826 E4.12309
G1 X96.384 Y99.409 E4.13402
G1 X96.353 Y100.000 E4.14496
G1 X96.384 Y100.590 E4.15590
G1 X96.476 Y101.174 E4.16683
G1 X96.631 Y101.750 E4.17787
G1 X96.783 Y102.187 E4.18642
G1 X96.503 Y102.134 F6000.000
G1 X83.444 Y109.674 E4.46539 F1200.000
G1 X83.237 Y109.766 E4.46957
G1 X82.899 Y109.820 E4.47590
G1 X82.671 Y109.797 E4.48014
G1 X82.352 Y109.676 E4.48647
G1 X82.084 Y109.462 E4.49280
G1 X81.896 Y109.178 E4.49910
G1 X81.237 Y107.569 E4.53126
G1 X80.708 Y105.916 E4.56338
G1 X80.320 Y104.285 E4.59440
G1 X80.054 Y102.599 E4.62598
G1 X79.917 Y100.868 E4.65809
G1 X79.917 Y99.131 E4.69024
G1 X80.050 Y97.430 E4.72179
G1 X80.314 Y95.744 E4.75337
G1 X80.715 Y94.055 E4.78549
G1 X81.247 Y92.401 E4.81763
G1 X81.896 Y90.821 E4.84922
G1 X82.011 Y90.625 E4.85343
G1 X82.166 Y90.457 E4.85766
G1 X82.352 Y90.323 E4.86190
G1 X82.561 Y90.231 E4.86612
G1 X82.785 Y90.185 E4.87036
G1 X83.014 Y90.186 E4.87459
G1 X83.237 Y90.233 E4.87882
G1 X83.444 Y90.326 E4.88300
G1 X96.503 Y97.865 E5.16197
G1 X96.394 Y98.176 E5.16807
G1 X96.234 Y98.774 E5.17952
G1 X96.138 Y99.383 E5.19093
G1 X96.105 Y100.000 E5.20234
G1 X96.138 Y100.616 E5.21376
G1 X96.234 Y101.225 E5.22517
G1 X96.394 Y101.823 E5.23662
G1 X96.482 Y102.075 E5.24156
G1 X96.690 Y102.510 F6000.000
G1 F1860.000 E2.24156
G92 E0
G1 X102.653 Y94.376 F6000.000
G1 E3.10000 F1860.000
G1 X102.653 Y79.086 E3.38287 F1200.000
G1 X102.681 Y78.816 E3.38789
G1 X102.717 Y78.681 E3.39047
G1 X102.831 Y78.425 E3.39567
G1 X102.995 Y78.197 E3.40085
G1 X103.202 Y78.009 E3.40603
G1 X103.319 Y77.932 E3.40862
G1 X103.444 Y77.867 E3.41122
G1 X103.710 Y77.779 E3.41640
G1 X103.848 Y77.756 E3.41901
G1 X104.124 Y77.753 E3.42409
G1 X105.873 Y77.991 E3.45676
G1 X107.557 Y78.354 E3.48862
G1 X109.205 Y78.846 E3.52044
G1 X110.850 Y79.479 E3.55306
G1 X112.437 Y80.240 E3.58561
G1 X113.929 Y81.102 E3.61749
G1 X115.346 Y82.075 E3.64928
G1 X116.718 Y83.184 E3.68193
G1 X117.967 Y84.364 E3.71371
G1 X119.123 Y85.641 E3.74559
G1 X120.277 Y87.152 E3.78075
G1 X120.389 Y87.409 E3.78594
G1 X120.445 Y87.683 E3.79112
G1 X120.452 Y87.823 E3.79372
G1 X120.421 Y88.102 E3.79890
G1 X120.333 Y88.368 E3.80408
G1 X120.192 Y88.610 E3.80927
G1 X120.005 Y88.818 E3.81445
G1 X119.785 Y88.978 E3.81947
G1 X106.544 Y96.622 E4.10233
G1 X106.201 Y96.225 E4.11205
G1 X105.779 Y95.803 E4.12309
G1 X105.319 Y95.431 E4.13402
G1 X104.824 Y95.109 E4.14496
G1 X104.297 Y94.841 E4.15590
G1 X103.745 Y94.629 E4.16683
G1 X103.169 Y94.474 E4.17787
G1 X102.715 Y94.388 E4.18642
G1 X102.900 Y94.172 F6000.000
G1 X102.900 Y79.092 E4.46539 F1200.000
G1 X102.924 Y78.868 E4.46957
G1 X103.046 Y78.548 E4.47590
G1 X103.180 Y78.362 E4.48014
G1 X103.444 Y78.146 E4.48646
G1 X103.763 Y78.021 E4.49279
G1 X104.103 Y78.000 E4.49910
G1 X105.826 Y78.233 E4.53126
G1 X107.522 Y78.602 E4.56338
G1 X109.129 Y79.081 E4.59439
G1 X110.722 Y79.694 E4.62597
G1 X112.289 Y80.441 E4.65809
G1 X113.794 Y81.310 E4.69024
G1 X115.200 Y82.275 E4.72179
G1 X116.529 Y83.347 E4.75337
G1 X117.791 Y84.538 E4.78549
G1 X118.957 Y85.827 E4.81763
G1 X120.001 Y87.178 E4.84922
G1 X120.113 Y87.376 E4.85343
G1 X120.182 Y87.594 E4.85766
G1 X120.204 Y87.822 E4.86190
G1 X120.179 Y88.049 E4.86612
G1 X120.107 Y88.266 E4.87035
G1 X119.992 Y88.464 E4.87459
G1 X119.839 Y88.634 E4.87881
G1 X119.656 Y88.767 E4.88300
G1 X106.597 Y96.306 E5.16197
G1 X106.382 Y96.056 E5.16807
G1 X105.944 Y95.619 E5.17951
G1 X105.465 Y95.231 E5.19093
G1 X104.947 Y94.895 E5.20234
G1 X104.398 Y94.615 E5.21376
G1 X103.822 Y94.393 E5.22517
G1 X103.224 Y94.233 E5.23662
G1 X102.962 Y94.183 E5.24155
G1 X102.481 Y94.145 F6000.000
G1 X102.657 Y95.708 F6000.000
G1 X102.904 Y95.747 E5.24618 F1200.000
G1 X103.343 Y95.865 E5.25460
G1 X103.768 Y96.028 E5.26302
G1 X104.174 Y96.234 E5.27144
G1 X104.555 Y96.482 E5.27986
G1 X104.909 Y96.769 E5.28828
G1 X105.231 Y97.090 E5.29670
G1 X105.517 Y97.444 E5.30512
G1 X105.765 Y97.826 E5.31354
G1 X105.972 Y98.231 E5.32196
G1 X106.143 Y98.687 E5.33097
G1 X106.253 Y99.096 E5.33879
G1 X106.324 Y99.545 E5.34721
G1 X106.348 Y100.000 E5.35563
G1 X106.324 Y100.454 E5.36405
G1 X106.253 Y100.904 E5.37247
G1 X106.135 Y101.343 E5.38089
G1 X105.972 Y101.768 E5.38931
G1 X105.765 Y102.173 E5.39772
G1 X105.517 Y102.555 E5.40614
G1 X105.231 Y102.909 E5.41456
G1 X104.909 Y103.231 E5.42298
G1 X104.555 Y103.517 E5.43140
G1 X104.174 Y103.765 E5.43982
G1 X103.768 Y103.971 E5.44824
G1 X103.344 Y104.134 E5.45666
G1 X102.904 Y104.252 E5.46508
G1 X102.454 Y104.323 E5.47350
G1 X102.000 Y104.347 E5.48192
G1 X101.546 Y104.323 E5.49033
G1 X101.096 Y104.252 E5.49875
G1 X100.657 Y104.134 E5.50717
G1 X100.232 Y103.971 E5.51559
G1 X99.826 Y103.765 E5.52401
G1 X99.445 Y103.517 E5.53243
G1 X99.091 Y103.231 E5.54085
G1 X98.769 Y102.909 E5.54927
G1 X98.483 Y102.555 E5.55769
G1 X98.220 Y102.145 E5.56670
G1 X98.028 Y101.768 E5.57452
G1 X97.865 Y101.343 E5.58294
G1 X97.747 Y100.904 E5.59136
G1 X97.676 Y100.454 E5.59978
G1 X97.652 Y100.000 E5.60820
G1 X97.676 Y99.545 E5.61662
G1 X97.747 Y99.096 E5.62504
G1 X97.865 Y98.656 E5.63346
G1 X98.028 Y98.231 E5.64188
G1 X98.235 Y97.826 E5.65029
G1 X98.483 Y97.444 E5.65871
G1 X98.769 Y97.090 E5.66713
G1 X99.091 Y96.769 E5.67555
G1 X99.444 Y96.482 E5.68397
G1 X99.826 Y96.234 E5.69239
G1 X100.232 Y96.028 E5.70081
G1 X100.656 Y95.865 E5.70923
G1 X101.096 Y95.747 E5.71765
G1 X101.546 Y95.676 E5.72607
G1 X102.032 Y95.654 E5.73508
G1 X102.594 Y95.698 E5.74551 F1200.000
G1 X102.618 Y95.952 F6000.000
G1 X102.852 Y95.989 E5.74990 F1200.000
G1 X103.267 Y96.100 E5.75784
G1 X103.668 Y96.254 E5.76578
G1 X104.050 Y96.449 E5.77372
G1 X104.410 Y96.683 E5.78166
G1 X104.744 Y96.953 E5.78960
G1 X105.047 Y97.256 E5.79754
G1 X105.317 Y97.590 E5.80548
G1 X105.551 Y97.950 E5.81342
G1 X105.746 Y98.332 E5.82136
G1 X105.904 Y98.751 E5.82965
G1 X106.011 Y99.147 E5.83724
G1 X106.078 Y99.571 E5.84518
G1 X106.100 Y100.000 E5.85312
G1 X106.078 Y100.428 E5.86106
G1 X106.011 Y100.852 E5.86900
G1 X105.899 Y101.267 E5.87694
G1 X105.746 Y101.667 E5.88488
G1 X105.551 Y102.050 E5.89282
G1 X105.317 Y102.410 E5.90076
G1 X105.047 Y102.743 E5.90870
G1 X104.744 Y103.047 E5.91664
G1 X104.410 Y103.317 E5.92458
G1 X104.050 Y103.550 E5.93252
G1 X103.668 Y103.745 E5.94046
G1 X103.267 Y103.899 E5.94840
G1 X102.852 Y104.010 E5.95633
G1 X102.429 Y104.077 E5.96427
G1 X102.000 Y104.100 E5.97221
G1 X101.571 Y104.077 E5.98015
G1 X101.148 Y104.010 E5.98809
G1 X100.733 Y103.899 E5.99603
G1 X100.332 Y103.745 E6.00397
G1 X99.950 Y103.550 E6.01191
G1 X99.590 Y103.317 E6.01985
G1 X99.256 Y103.047 E6.02779
G1 X98.953 Y102.743 E6.03573
G1 X98.683 Y102.410 E6.04367
G1 X98.449 Y102.050 E6.05161
G1 X98.254 Y101.667 E6.05955
G1 X98.101 Y101.267 E6.06749
G1 X97.989 Y100.852 E6.07543
G1 X97.922 Y100.428 E6.08337
G1 X97.900 Y100.000 E6.09131
G1 X97.922 Y99.571 E6.09925
G1 X97.989 Y99.147 E6.10719
G1 X98.107 Y98.715 E6.11548
G1 X98.254 Y98.332 E6.12307
G1 X98.449 Y97.950 E6.13101
G1 X98.683 Y97.590 E6.13895
G1 X98.953 Y97.256 E6.14689
G1 X99.256 Y96.953 E6.15483
G1 X99.590 Y96.683 E6.16277
G1 X99.950 Y96.449 E6.17071
G1 X100.332 Y96.254 E6.17865
G1 X100.733 Y96.100 E6.18658
G1 X101.148 Y95.989 E6.19452
G1 X101.591 Y95.921 E6.20282
G1 X102.000 Y95.899 E6.21040 F1200.000
G1 X102.556 Y95.942 E6.22072
G1 X101.367 Y95.577 F6000.000
G1 F1860.000 E3.22072
G92 E0
G1 X106.544 Y103.377 F6000.000
G1 E3.10000 F1860.000
G1 X119.785 Y111.022 E3.38287 F1200.000
G1 X120.004 Y111.181 E3.38789
G1 X120.103 Y111.280 E3.39047
G1 X120.269 Y111.507 E3.39566
G1 X120.384 Y111.763 E3.40086
G1 X120.443 Y112.036 E3.40603
G1 X120.452 Y112.176 E3.40862
G1 X120.445 Y112.316 E3.41122
G1 X120.389 Y112.590 E3.41640
G1 X120.339 Y112.722 E3.41901
G1 X120.204 Y112.962 E3.42410
G1 X119.123 Y114.358 E3.45677
G1 X117.967 Y115.634 E3.48862
G1 X116.717 Y116.816 E3.52044
G1 X115.346 Y117.924 E3.55306
G1 X113.894 Y118.918 E3.58561
G1 X112.401 Y119.779 E3.61749
G1 X110.850 Y120.520 E3.64928
G1 X109.204 Y121.154 E3.68193
G1 X107.558 Y121.645 E3.71370
G1 X105.873 Y122.008 E3.74559
G1 X103.988 Y122.252 E3.78075
G1 X103.710 Y122.220 E3.78594
G1 X103.444 Y122.132 E3.79112
G1 X103.319 Y122.067 E3.79372
G1 X103.094 Y121.901 E3.79890
G1 X102.907 Y121.692 E3.80408
G1 X102.768 Y121.449 E3.80927
G1 X102.681 Y121.183 E3.81445
G1 X102.653 Y120.913 E3.81947
G1 X102.653 Y105.623 E4.10233
G1 X103.169 Y105.525 E4.11205
G1 X103.745 Y105.370 E4.12309
G1 X104.297 Y105.158 E4.13402
G1 X104.824 Y104.890 E4.14496
G1 X105.319 Y104.568 E4.15590
G1 X105.779 Y104.196 E4.16683
G1 X106.201 Y103.774 E4.17787
G1 X106.503 Y103.424 E4.18642
G1 X106.597 Y103.693 F6000.000
G1 X119.656 Y111.233 E4.46539 F1200.000
G1 X119.839 Y111.365 E4.46957
G1 X120.055 Y111.631 E4.47590
G1 X120.149 Y111.840 E4.48014
G1 X120.204 Y112.177 E4.48647
G1 X120.153 Y112.516 E4.49280
G1 X120.001 Y112.821 E4.49910
G1 X118.937 Y114.196 E4.53126
G1 X117.770 Y115.481 E4.56338
G1 X116.552 Y116.633 E4.59440
G1 X115.224 Y117.706 E4.62597
G1 X113.794 Y118.690 E4.65809
G1 X112.289 Y119.558 E4.69024
