; generated by Slic3r 1.1.7 on 2015-05-07 at 15:04:21

; perimeters extrusion width = 0.40mm
; infill extrusion width = 0.42mm
; solid infill extrusion width = 0.42mm
; top infill extrusion width = 0.42mm
; support material extrusion width = 0.40mm

G21 ; set units to millimeters
M190 S60 ; wait for bed temperature to be reached
M104 S215 ; set temperature
M106 S255; Turn on Fan fully
G28 ; home all axes Start of G Code Slic3r
G1 Z20
M280 P0 S10 
G1 Z22
G29 ; AutoBed leveing
G1 X208 Y20 F4000
G1 Z4
 
  
M109 S215 ; wait for temperature to be reached
G90 ; use absolute coordinates
G92 E0
M82 ; use absolute distances for extrusion
G1 F1980.000 E-4.00000
G92 E0
G1 Z0.300 F6000.000
G1 X61.610 Y66.906 F6000.000
G1 E4.00000 F1980.000
G1 X82.579 Y47.597 E5.22546 F1650.000
G1 X84.512 Y46.357 E5.32419
G1 X87.079 Y45.841 E5.43676
G1 X117.991 Y45.866 E6.76572
G1 X130.702 Y46.967 E7.31425 F1650.000
G1 X131.531 Y47.058 E7.35012
G1 X132.485 Y47.207 E7.39159
G1 X133.150 Y47.336 E7.42074
G1 X133.962 Y47.526 E7.45660
G1 X134.753 Y47.745 E7.49186
G1 X135.540 Y47.997 E7.52739
G1 X136.315 Y48.280 E7.56289
G1 X137.082 Y48.595 E7.59852
G1 X137.834 Y48.941 E7.63410
G1 X138.570 Y49.315 E7.66961
G1 X139.412 Y49.791 E7.71117
G1 X139.994 Y50.149 E7.74056
G1 X140.679 Y50.608 E7.77601
G1 X141.349 Y51.097 E7.81165
G1 X142.103 Y51.700 E7.85319
G1 X142.622 Y52.148 E7.88266
G1 X143.224 Y52.709 E7.91801
G1 X143.903 Y53.401 E7.95973
G1 X144.364 Y53.907 E7.98912
G1 X144.896 Y54.538 E8.02460
G1 X145.487 Y55.306 E8.06626
G1 X145.884 Y55.864 E8.09570
G1 X146.335 Y56.552 E8.13111
G1 X146.830 Y57.386 E8.17278
G1 X147.156 Y57.985 E8.20210
G1 X147.524 Y58.725 E8.23761
G1 X147.916 Y59.612 E8.27930
G1 X148.168 Y60.247 E8.30870
G1 X148.444 Y61.026 E8.34423
G1 X148.726 Y61.952 E8.38583
G1 X148.901 Y62.612 E8.41521
G1 X149.081 Y63.419 E8.45076
G1 X149.229 Y64.231 E8.48622
G1 X149.361 Y65.190 E8.52786
G1 X149.438 Y66.013 E8.56337
G1 X149.477 Y66.696 E8.59278
G1 X149.494 Y67.473 E8.62620
G1 X149.905 Y123.462 E11.03335
G1 X149.892 Y124.398 E11.07359
G1 X149.851 Y125.337 E11.11399
G1 X149.781 Y126.270 E11.15422
G1 X149.682 Y127.203 E11.19454
G1 X149.555 Y128.132 E11.23487
G1 X149.400 Y129.056 E11.27514
G1 X149.196 Y130.065 E11.31941
G1 X149.005 Y130.888 E11.35573
G1 X148.766 Y131.793 E11.39597
G1 X148.499 Y132.693 E11.43632
G1 X148.204 Y133.583 E11.47662
G1 X147.883 Y134.462 E11.51687
G1 X147.535 Y135.333 E11.55718
G1 X147.160 Y136.192 E11.59748
G1 X146.759 Y137.040 E11.63779
G1 X146.333 Y137.875 E11.67809
G1 X145.882 Y138.695 E11.71834
G1 X145.404 Y139.503 E11.75870
G1 X144.904 Y140.294 E11.79893
G1 X144.378 Y141.072 E11.83929
G1 X143.830 Y141.831 E11.87955
G1 X143.258 Y142.574 E11.91988
G1 X142.664 Y143.299 E11.96015
G1 X142.048 Y144.005 E12.00045
G1 X141.411 Y144.692 E12.04074
G1 X140.753 Y145.360 E12.08102
G1 X140.075 Y146.007 E12.12134
G1 X139.378 Y146.632 E12.16159
G1 X138.661 Y147.238 E12.20192
G1 X137.926 Y147.819 E12.24220
G1 X137.175 Y148.379 E12.28249
G1 X136.405 Y148.915 E12.32282
G1 X135.621 Y149.427 E12.36307
G1 X134.821 Y149.916 E12.40339
G1 X134.006 Y150.379 E12.44367
G1 X133.177 Y150.818 E12.48402
G1 X132.336 Y151.231 E12.52429
G1 X131.483 Y151.617 E12.56455
G1 X130.617 Y151.978 E12.60488
G1 X129.743 Y152.312 E12.64511
G1 X128.784 Y152.642 E12.68869
G1 X127.961 Y152.899 E12.72579
G1 X127.059 Y153.151 E12.76606
G1 X126.148 Y153.376 E12.80636
G1 X125.160 Y153.586 E12.84981
G1 X124.310 Y153.741 E12.88695
G1 X123.384 Y153.881 E12.92722
G1 X122.453 Y153.993 E12.96753
G1 X121.448 Y154.081 E13.01090
G1 X120.583 Y154.131 E13.04813
G1 X119.647 Y154.157 E13.08841
G1 X118.717 Y154.155 E13.12837
G1 X56.594 Y152.802 E15.79981
G1 X54.341 Y152.356 E15.89854
G1 X52.375 Y151.169 E15.99728
G1 X50.930 Y149.384 E16.09601
G1 X50.095 Y146.161 E16.23916
G1 X50.095 Y97.161 E18.34576
G1 X50.443 Y95.041 E18.43811
G1 X58.612 Y70.780 E19.53867
G1 X60.408 Y68.013 E19.68047
G1 X61.566 Y66.947 E19.74818
G1 F1980.000 E15.74818
G92 E0
G1 X61.828 Y67.142 F6000.000
G1 E4.00000 F1980.000
G1 X82.797 Y47.834 E5.22546 F1650.000
G1 X84.687 Y46.632 E5.32176
G1 X87.079 Y46.162 E5.42655
G1 X117.963 Y46.186 E6.75431
G1 X130.673 Y47.287 E7.30280 F1650.000
G1 X131.490 Y47.377 E7.33810
G1 X132.424 Y47.522 E7.37875
G1 X133.083 Y47.651 E7.40763
G1 X133.883 Y47.838 E7.44292
G1 X134.661 Y48.053 E7.47764
G1 X135.436 Y48.301 E7.51262
G1 X136.199 Y48.580 E7.54756
G1 X136.954 Y48.890 E7.58264
G1 X137.694 Y49.230 E7.61766
G1 X138.419 Y49.598 E7.65261
G1 X139.244 Y50.065 E7.69335
G1 X139.820 Y50.420 E7.72246
G1 X140.495 Y50.872 E7.75736
G1 X141.154 Y51.352 E7.79245
G1 X141.894 Y51.944 E7.83316
G1 X142.408 Y52.388 E7.86235
G1 X143.000 Y52.940 E7.89715
G1 X143.666 Y53.618 E7.93803
G1 X144.122 Y54.119 E7.96715
G1 X144.646 Y54.740 E8.00208
G1 X145.225 Y55.492 E8.04290
G1 X145.618 Y56.045 E8.07207
G1 X146.063 Y56.723 E8.10694
G1 X146.548 Y57.540 E8.14777
G1 X146.871 Y58.133 E8.17681
G1 X147.233 Y58.862 E8.21178
G1 X147.617 Y59.731 E8.25263
G1 X147.867 Y60.360 E8.28176
G1 X148.139 Y61.127 E8.31673
G1 X148.416 Y62.034 E8.35750
G1 X148.588 Y62.689 E8.38661
G1 X148.766 Y63.483 E8.42160
G1 X148.912 Y64.282 E8.45651
G1 X149.041 Y65.222 E8.49732
G1 X149.117 Y66.032 E8.53228
G1 X149.156 Y66.709 E8.56141
G1 X149.173 Y67.475 E8.59438
G1 X149.583 Y123.462 E11.00143
G1 X149.571 Y124.388 E11.04125
G1 X149.530 Y125.317 E11.08122
G1 X149.452 Y126.331 E11.12495
G1 X149.363 Y127.164 E11.16093
G1 X149.237 Y128.083 E11.20083
G1 X149.084 Y128.997 E11.24068
G1 X148.903 Y129.905 E11.28049
G1 X148.693 Y130.810 E11.32042
G1 X148.456 Y131.706 E11.36024
G1 X148.192 Y132.596 E11.40016
G1 X147.901 Y133.477 E11.44004
G1 X147.583 Y134.347 E11.47987
G1 X147.239 Y135.208 E11.51975
G1 X146.868 Y136.058 E11.55963
G1 X146.471 Y136.897 E11.59951
G1 X146.049 Y137.723 E11.63939
G1 X145.603 Y138.535 E11.67922
G1 X145.130 Y139.335 E11.71915
G1 X144.635 Y140.117 E11.75897
G1 X144.115 Y140.887 E11.79890
G1 X143.573 Y141.638 E11.83873
G1 X143.007 Y142.373 E11.87864
G1 X142.367 Y143.152 E11.92195
G1 X141.810 Y143.790 E11.95837
G1 X141.179 Y144.470 E11.99823
G1 X140.528 Y145.130 E12.03809
G1 X139.857 Y145.770 E12.07798
G1 X139.168 Y146.389 E12.11781
G1 X138.458 Y146.988 E12.15772
G1 X137.732 Y147.564 E12.19757
G1 X136.988 Y148.117 E12.23744
G1 X136.226 Y148.648 E12.27734
G1 X135.451 Y149.155 E12.31718
G1 X134.658 Y149.638 E12.35707
G1 X133.853 Y150.097 E12.39692
G1 X133.032 Y150.531 E12.43685
G1 X132.200 Y150.939 E12.47670
G1 X131.356 Y151.322 E12.51653
G1 X130.499 Y151.679 E12.55644
G1 X129.634 Y152.009 E12.59625
G1 X128.688 Y152.335 E12.63926
G1 X127.871 Y152.590 E12.67607
G1 X126.978 Y152.840 E12.71592
G1 X126.008 Y153.078 E12.75884
G1 X125.171 Y153.257 E12.79566
G1 X124.258 Y153.424 E12.83554
G1 X123.273 Y153.571 E12.87838
G1 X122.421 Y153.673 E12.91527
G1 X121.497 Y153.756 E12.95517
G1 X120.504 Y153.812 E12.99791
G1 X119.644 Y153.836 E13.03488
G1 X118.724 Y153.834 E13.07444
G1 X56.601 Y152.481 E15.74588
G1 X54.405 Y152.036 E15.84218
G1 X52.503 Y150.854 E15.93847
G1 X51.132 Y149.082 E16.03477
G1 X50.417 Y146.161 E16.16407
G1 X50.417 Y97.161 E18.27067
G1 X50.747 Y95.144 E18.35855
G1 X58.917 Y70.883 E19.45911
G1 X60.625 Y68.250 E19.59405
G1 X61.784 Y67.183 E19.66177
G1 F1980.000 E15.66177
G92 E0
G1 X94.260 Y141.407 F6000.000
G1 E4.00000 F1980.000
G1 X94.249 Y142.238 E4.03575 F900.000
G1 X94.211 Y142.496 E4.04696
G1 X94.148 Y142.749 E4.05818
G1 X94.061 Y142.995 E4.06939
G1 X93.949 Y143.231 E4.08060
G1 X93.816 Y143.455 E4.09181
G1 X93.660 Y143.664 E4.10303
G1 X93.485 Y143.857 E4.11423
G1 X93.292 Y144.032 E4.12543
G1 X93.083 Y144.188 E4.13664
G1 X92.859 Y144.321 E4.14785
G1 X92.623 Y144.433 E4.15907
G1 X92.377 Y144.520 E4.17028
G1 X92.124 Y144.583 E4.18150
G1 X91.866 Y144.621 E4.19271
G1 X63.221 Y144.621 E5.42419
G1 X62.837 Y144.581 E5.44078
G1 X62.152 Y144.439 E5.47089
G1 X61.806 Y144.330 E5.48647
G1 X61.447 Y144.188 E5.50305
G1 X60.825 Y143.866 E5.53317
G1 X60.503 Y143.655 E5.54975
G1 X60.215 Y143.435 E5.56532
G1 X59.703 Y142.957 E5.59543
G1 X59.449 Y142.666 E5.61202
G1 X59.231 Y142.377 E5.62760
G1 X58.867 Y141.778 E5.65772
G1 X58.701 Y141.430 E5.67430
G1 X58.467 Y140.770 E5.70441
G1 X58.380 Y140.419 E5.71998
G1 X58.315 Y140.038 E5.73657
G1 X58.267 Y139.344 E5.76650
G1 X58.267 Y103.978 E7.28693
G1 X58.318 Y103.260 E7.31787
G1 X58.467 Y102.551 E7.34901
G1 X58.711 Y101.870 E7.38012
G1 X59.045 Y101.228 E7.41125
G1 X59.449 Y100.655 E7.44137
G1 X59.703 Y100.365 E7.45795
G1 X60.215 Y99.887 E7.48807
G1 X60.805 Y99.468 E7.51919
G1 X61.141 Y99.279 E7.53578
G1 X61.784 Y99.000 E7.56589
G1 X62.152 Y98.883 E7.58248
G1 X62.838 Y98.740 E7.61260
G1 X63.198 Y98.703 E7.62816
G1 X63.567 Y98.689 E7.64407
G1 X82.474 Y98.681 E8.45692
G1 X82.824 Y98.615 E8.47222
G1 X82.993 Y98.559 E8.47988
G1 X83.312 Y98.400 E8.49519
G1 X83.596 Y98.186 E8.51049
G1 X83.836 Y97.922 E8.52581
G1 X84.023 Y97.620 E8.54111
G1 X84.152 Y97.288 E8.55641
G1 X84.217 Y96.938 E8.57172
G1 X84.226 Y85.372 E9.06897
G1 X66.436 Y85.372 E9.83379
G1 X66.436 Y74.429 E10.30424
G1 X84.226 Y74.429 E11.06906
G1 X84.226 Y60.464 E11.66944
G1 X87.664 Y60.464 E11.81725
G1 X87.789 Y60.456 E11.82263
G1 X88.007 Y60.403 E11.83226
G1 X88.205 Y60.298 E11.84190
G1 X88.293 Y60.229 E11.84673
G1 X88.442 Y60.061 E11.85636
G1 X88.500 Y59.965 E11.86118
G1 X88.580 Y59.756 E11.87082
G1 X88.600 Y59.646 E11.87564
G1 X88.619 Y56.828 E11.99676
G1 X88.657 Y56.546 E12.00902
G1 X88.721 Y56.268 E12.02128
G1 X88.821 Y55.970 E12.03478
G1 X88.938 Y55.710 E12.04704
G1 X89.222 Y55.250 E12.07028
G1 X89.423 Y55.009 E12.08377
G1 X89.822 Y54.644 E12.10702
G1 X90.081 Y54.467 E12.12053
G1 X90.565 Y54.226 E12.14376
G1 X90.863 Y54.126 E12.15726
G1 X91.394 Y54.027 E12.18051
G1 X91.688 Y54.012 E12.19316
G1 X112.808 Y54.012 E13.10112
G1 X113.102 Y54.027 E13.11377
G1 X113.633 Y54.126 E13.13702
G1 X113.931 Y54.226 E13.15052
G1 X114.415 Y54.467 E13.17375
G1 X114.651 Y54.627 E13.18602
G1 X114.892 Y54.827 E13.19951
G1 X115.093 Y55.030 E13.21178
G1 X115.419 Y55.461 E13.23501
G1 X115.559 Y55.710 E13.24727
G1 X115.686 Y55.997 E13.26077
G1 X115.833 Y56.517 E13.28401
G1 X115.874 Y56.799 E13.29627
G1 X115.888 Y57.078 E13.30827
G1 X115.889 Y60.464 E13.45382
G1 X118.576 Y60.464 E13.56935
G1 X119.068 Y59.792 E13.60516
G1 X119.775 Y58.974 E13.65163
G1 X120.536 Y58.232 E13.69731
G1 X121.386 Y57.536 E13.74454
G1 X122.263 Y56.937 E13.79022
G1 X123.205 Y56.407 E13.83669
G1 X124.189 Y55.959 E13.88314
G1 X125.208 Y55.599 E13.92961
G1 X125.745 Y55.448 E13.95362
G1 X126.785 Y55.228 E13.99929
G1 X127.857 Y55.095 E14.04576
G1 X128.415 Y55.063 E14.06976
G1 X129.477 Y55.071 E14.11545
G1 X130.553 Y55.172 E14.16191
G1 X131.104 Y55.260 E14.18591
G1 X132.141 Y55.497 E14.23160
G1 X133.170 Y55.827 E14.27806
G1 X134.166 Y56.244 E14.32452
G1 X135.123 Y56.747 E14.37098
G1 X135.599 Y57.038 E14.39498
G1 X136.468 Y57.651 E14.44067
G1 X137.294 Y58.347 E14.48713
G1 X138.057 Y59.113 E14.53359
G1 X138.751 Y59.941 E14.58005
G1 X139.370 Y60.826 E14.62650
G1 X139.659 Y61.304 E14.65051
G1 X140.150 Y62.247 E14.69620
G1 X140.565 Y63.245 E14.74266
G1 X140.891 Y64.275 E14.78911
G1 X141.128 Y65.329 E14.83557
G1 X141.272 Y66.400 E14.88203
G1 X141.310 Y66.957 E14.90604
G1 X141.313 Y68.020 E14.95173
G1 X141.280 Y68.560 E14.97496
G1 X141.221 Y69.115 E14.99897
G1 X141.041 Y70.162 E15.04466
G1 X140.911 Y70.705 E15.06866
G1 X140.596 Y71.720 E15.11435
G1 X140.397 Y72.242 E15.13835
G1 X139.954 Y73.208 E15.18404
G1 X139.688 Y73.699 E15.20805
G1 X139.123 Y74.599 E15.25373
G1 X138.796 Y75.052 E15.27774
G1 X138.120 Y75.871 E15.32343
G1 X137.737 Y76.278 E15.34744
G1 X136.960 Y77.002 E15.39312
G1 X136.109 Y77.669 E15.43958
G1 X135.647 Y77.983 E15.46359
G1 X134.733 Y78.524 E15.50928
G1 X134.251 Y78.768 E15.53251
G1 X133.742 Y78.999 E15.55651
G1 X132.748 Y79.374 E15.60220
G1 X132.213 Y79.536 E15.62621
G1 X131.179 Y79.779 E15.67190
G1 X130.110 Y79.934 E15.71835
G1 X129.553 Y79.978 E15.74236
G1 X128.490 Y79.993 E15.78804
G1 X127.950 Y79.965 E15.81128
G1 X126.877 Y79.841 E15.85774
G1 X126.328 Y79.740 E15.88175
G1 X125.297 Y79.481 E15.92743
G1 X124.766 Y79.310 E15.95144
G1 X123.777 Y78.919 E15.99713
G1 X123.054 Y78.566 E16.03173
G1 X123.054 Y101.371 E17.01216
G1 X124.055 Y101.563 E17.05598
G1 X124.755 Y101.727 E17.08689
G1 X126.153 Y102.128 E17.14943
G1 X127.507 Y102.613 E17.21124
G1 X128.827 Y103.183 E17.27305
G1 X130.108 Y103.836 E17.33486
G1 X130.732 Y104.193 E17.36577
G1 X131.930 Y104.957 E17.42684
G1 X133.104 Y105.815 E17.48938
G1 X134.208 Y106.736 E17.55120
G1 X135.250 Y107.727 E17.61300
G1 X135.747 Y108.246 E17.64391
G1 X136.679 Y109.318 E17.70498
G1 X137.561 Y110.475 E17.76753
G1 X138.358 Y111.672 E17.82934
G1 X139.076 Y112.917 E17.89114
G1 X139.405 Y113.557 E17.92206
G1 X139.994 Y114.849 E17.98313
G1 X140.512 Y116.209 E18.04567
G1 X140.935 Y117.583 E18.10748
G1 X141.267 Y118.964 E18.16855
G1 X141.404 Y119.687 E18.20020
G1 X141.604 Y121.111 E18.26200
G1 X141.711 Y122.527 E18.32308
G1 X141.732 Y123.263 E18.35472
G1 X141.702 Y124.701 E18.41653
G1 X141.582 Y126.116 E18.47760
G1 X141.485 Y126.846 E18.50925
G1 X141.231 Y128.243 E18.57032
G1 X141.064 Y128.960 E18.60196
G1 X140.671 Y130.343 E18.66377
G1 X140.197 Y131.682 E18.72484
G1 X139.919 Y132.364 E18.75649
G1 X139.311 Y133.666 E18.81830
G1 X138.629 Y134.913 E18.87937
G1 X138.246 Y135.541 E18.91102
G1 X137.438 Y136.730 E18.97282
G1 X136.567 Y137.852 E19.03390
G1 X136.088 Y138.411 E19.06554
G1 X135.101 Y139.457 E19.12735
G1 X134.062 Y140.426 E19.18842
G1 X133.500 Y140.902 E19.22007
G1 X132.360 Y141.777 E19.28188
G1 X131.180 Y142.568 E19.34295
G1 X130.549 Y142.948 E19.37459
G1 X129.284 Y143.630 E19.43640
G1 X127.993 Y144.223 E19.49747
G1 X127.310 Y144.498 E19.52912
G1 X125.952 Y144.969 E19.59093
G1 X124.583 Y145.349 E19.65200
G1 X123.865 Y145.512 E19.68364
G1 X122.449 Y145.761 E19.74545
G1 X121.038 Y145.918 E19.80652
G1 X120.303 Y145.964 E19.83817
G1 X118.883 Y145.985 E19.89924
G1 X118.147 Y145.961 E19.93089
G1 X116.731 Y145.845 E19.99196
G1 X116.001 Y145.751 E20.02360
G1 X114.603 Y145.500 E20.08467
G1 X113.885 Y145.336 E20.11632
G1 X112.517 Y144.952 E20.17739
G1 X111.819 Y144.720 E20.20903
G1 X110.494 Y144.207 E20.27011
G1 X109.821 Y143.909 E20.30175
G1 X108.552 Y143.272 E20.36283
G1 X107.910 Y142.911 E20.39447
G1 X106.708 Y142.155 E20.45554
G1 X105.666 Y141.407 E20.51067
G1 X94.320 Y141.407 E20.99844
G1 F1980.000 E16.99844
G92 E0
G1 X93.939 Y141.085 F6000.000
G1 E4.00000 F1980.000
G1 X93.939 Y141.988 E4.03882 F720.000
G1 X93.895 Y142.436 E4.05817
G1 X93.763 Y142.874 E4.07782
G1 X93.548 Y143.277 E4.09746
G1 X93.258 Y143.630 E4.11710
G1 X93.088 Y143.783 E4.12693
G1 X92.722 Y144.029 E4.14590
G1 X92.286 Y144.212 E4.16621
G1 X91.838 Y144.300 E4.18586
G1 X63.238 Y144.300 E5.41543
G1 X62.887 Y144.264 E5.43060
G1 X62.233 Y144.128 E5.45929
G1 X61.580 Y143.896 E5.48908
G1 X60.988 Y143.589 E5.51778
G1 X60.693 Y143.395 E5.53294
G1 X60.422 Y143.189 E5.54757
G1 X59.934 Y142.734 E5.57627
G1 X59.497 Y142.196 E5.60605
G1 X59.150 Y141.626 E5.63476
G1 X58.998 Y141.307 E5.64992
G1 X58.775 Y140.678 E5.67862
G1 X58.691 Y140.335 E5.69379
G1 X58.634 Y140.000 E5.70842
G1 X58.588 Y139.335 E5.73706
G1 X58.588 Y103.986 E7.25677
G1 X58.636 Y103.309 E7.28595
G1 X58.775 Y102.644 E7.31520
G1 X59.003 Y102.003 E7.34443
G1 X59.317 Y101.400 E7.37367
G1 X59.702 Y100.854 E7.40237
G1 X59.934 Y100.588 E7.41754
G1 X60.422 Y100.133 E7.44624
G1 X60.703 Y99.919 E7.46141
G1 X61.273 Y99.573 E7.49011
G1 X61.592 Y99.421 E7.50528
G1 X62.221 Y99.197 E7.53398
G1 X62.564 Y99.114 E7.54915
G1 X63.225 Y99.023 E7.57785
G1 X63.570 Y99.011 E7.59269
G1 X82.504 Y99.001 E8.40669
G1 X82.912 Y98.925 E8.42456
G1 X83.109 Y98.859 E8.43349
G1 X83.481 Y98.674 E8.45135
G1 X83.813 Y98.423 E8.46920
G1 X84.093 Y98.116 E8.48708
G1 X84.311 Y97.763 E8.50493
G1 X84.462 Y97.376 E8.52278
G1 X84.538 Y96.968 E8.54064
G1 X84.547 Y85.050 E9.05299
G1 X66.758 Y85.050 E9.81781
G1 X66.758 Y74.750 E10.26063
G1 X84.547 Y74.750 E11.02545
G1 X84.547 Y60.785 E11.62582
G1 X87.828 Y60.776 E11.76685
G1 X87.977 Y60.749 E11.77335
G1 X88.259 Y60.642 E11.78632
G1 X88.507 Y60.470 E11.79930
G1 X88.707 Y60.244 E11.81227
G1 X88.785 Y60.115 E11.81877
