; generated by Slic3r 1.1.7 on 2015-03-15 at 19:09:55

; perimeters extrusion width = 0.40mm
; infill extrusion width = 0.56mm
; solid infill extrusion width = 0.56mm
; top infill extrusion width = 0.56mm
; support material extrusion width = 0.40mm

G21 ; set units to millimeters
M190 S60 ; wait for bed temperature to be reached
M104 S215 ; set temperature
M106 S255; Turn on Fan fully
G28 ; home all axes Start of G Code Slic3r
 
  
M109 S215 ; wait for temperature to be reached
G90 ; use absolute coordinates
G92 E0
M82 ; use absolute distances for extrusion
G1 F1980.000 E-4.00000
G92 E0
G1 Z0.240 F6000.000
G1 X48.350 Y75.212 F6000.000
G1 E4.00000 F1980.000
G1 X48.712 Y74.989 E4.01164 F1650.000
G1 X49.122 Y74.768 E4.02441
G1 X49.762 Y74.486 E4.04353
G1 X50.250 Y74.317 E4.05767
G1 X51.003 Y74.129 E4.07891
G1 X51.438 Y74.058 E4.09100
G1 X52.278 Y73.995 E4.11404
G1 X147.786 Y73.997 E6.72843
G1 X148.614 Y74.065 E6.75117 F1650.000
G1 X149.374 Y74.213 E6.77237
G1 X149.944 Y74.379 E6.78861
G1 X150.607 Y74.640 E6.80812
G1 X151.355 Y75.028 E6.83119
G1 X151.872 Y75.363 E6.84804
G1 X152.392 Y75.770 E6.86612
G1 X152.839 Y76.182 E6.88276
G1 X153.303 Y76.690 E6.90161
G1 X153.666 Y77.159 E6.91783
G1 X154.057 Y77.767 E6.93761
G1 X154.421 Y78.472 E6.95933
G1 X154.719 Y79.226 E6.98153
G1 X154.908 Y79.875 E7.00004
G1 X155.005 Y80.320 E7.01250
G1 X155.078 Y80.775 E7.02511
G1 X155.133 Y81.345 E7.04078
G1 X155.149 Y81.848 E7.05457
G1 X155.149 Y85.911 E7.16578
G1 X154.752 Y88.156 E7.22819
G1 X153.609 Y90.129 E7.29061
G1 X151.859 Y91.591 E7.35302
G1 X148.600 Y92.460 E7.44535
G1 X51.400 Y92.460 E10.10604
G1 X49.155 Y92.063 E10.16846
G1 X47.182 Y90.920 E10.23087
G1 X45.720 Y89.170 E10.29329
G1 X44.851 Y85.911 E10.38561
G1 X44.854 Y81.662 E10.50191
G1 X44.868 Y81.338 E10.51078
G1 X44.927 Y80.738 E10.52729
G1 X45.005 Y80.266 E10.54039
G1 X45.120 Y79.766 E10.55444
G1 X45.250 Y79.322 E10.56711
G1 X45.541 Y78.555 E10.58955
G1 X45.754 Y78.112 E10.60301
G1 X46.043 Y77.599 E10.61912
G1 X46.467 Y76.979 E10.63968
G1 X46.819 Y76.546 E10.65497
G1 X47.342 Y76.007 E10.67552
G1 X47.769 Y75.636 E10.69100
G1 X48.301 Y75.247 E10.70905
G1 F1980.000 E6.70905
G92 E0
G1 X48.500 Y75.442 F6000.000
G1 E4.00000 F1980.000
G1 X48.849 Y75.226 E4.01122 F1650.000
G1 X49.244 Y75.014 E4.02350
G1 X49.861 Y74.742 E4.04196
G1 X50.329 Y74.580 E4.05554
G1 X51.054 Y74.398 E4.07599
G1 X51.474 Y74.330 E4.08762
G1 X52.283 Y74.269 E4.10984
G1 X147.778 Y74.271 E6.72387
G1 X148.576 Y74.336 E6.74576 F1650.000
G1 X149.307 Y74.479 E6.76617
G1 X149.857 Y74.639 E6.78184
G1 X150.494 Y74.890 E6.80058
G1 X151.215 Y75.263 E6.82281
G1 X151.713 Y75.587 E6.83907
G1 X152.214 Y75.978 E6.85645
G1 X152.645 Y76.376 E6.87253
G1 X153.192 Y76.988 E6.89499
G1 X153.596 Y77.544 E6.91381
G1 X153.987 Y78.208 E6.93490
G1 X154.235 Y78.728 E6.95068
G1 X154.460 Y79.314 E6.96785
G1 X154.664 Y80.033 E6.98831
G1 X154.806 Y80.809 E7.00990
G1 X154.859 Y81.363 E7.02514
G1 X154.874 Y81.848 E7.03842
G1 X154.874 Y85.911 E7.14964
G1 X154.478 Y88.107 E7.21072
G1 X153.337 Y90.025 E7.27180
G1 X151.598 Y91.423 E7.33289
G1 X148.600 Y92.185 E7.41756
G1 X51.400 Y92.185 E10.07825
G1 X49.204 Y91.788 E10.13934
G1 X47.286 Y90.648 E10.20042
G1 X45.888 Y88.909 E10.26150
G1 X45.126 Y85.911 E10.34618
G1 X45.142 Y81.357 E10.47084
G1 X45.198 Y80.777 E10.48679
G1 X45.274 Y80.320 E10.49946
G1 X45.494 Y79.458 E10.52383
G1 X45.670 Y78.961 E10.53823
G1 X45.997 Y78.239 E10.55994
G1 X46.277 Y77.742 E10.57555
G1 X46.685 Y77.146 E10.59533
G1 X47.026 Y76.727 E10.61013
G1 X47.528 Y76.208 E10.62989
G1 X47.941 Y75.849 E10.64486
G1 X48.451 Y75.476 E10.66215
G1 F1980.000 E6.66215
G92 E0
G1 X148.206 Y85.517 F6000.000
G1 E4.00000 F1980.000
G1 X51.794 Y85.517 E6.63910 F900.000
G1 X51.803 Y81.701 E6.74355
G1 X51.887 Y81.374 E6.75280
G1 X52.019 Y81.148 E6.75997
G1 X52.205 Y80.989 E6.76666
G1 X52.299 Y80.951 E6.76944
G1 X52.404 Y80.937 E6.77233
G1 X147.621 Y80.938 E9.37875
G1 X147.730 Y80.960 E9.38179
G1 X147.826 Y81.007 E9.38473
G1 X147.989 Y81.159 E9.39081
G1 X148.120 Y81.391 E9.39811
G1 X148.190 Y81.650 E9.40548
G1 X148.206 Y81.852 E9.41101
G1 X148.206 Y85.457 E9.50967
G1 F1980.000 E5.50967
G92 E0
G1 X148.480 Y85.791 F6000.000
G1 E4.00000 F1980.000
G1 X51.520 Y85.791 E6.65412 F720.000
G1 X51.520 Y81.850 E6.76201
G1 X51.543 Y81.578 E6.76947
G1 X51.581 Y81.417 E6.77398
G1 X51.664 Y81.200 E6.78037
G1 X51.844 Y80.931 E6.78923
G1 X51.960 Y80.823 E6.79357
G1 X52.119 Y80.725 E6.79867
G1 X52.258 Y80.678 E6.80268
G1 X52.401 Y80.663 E6.80662
G1 X147.637 Y80.664 E9.41354
G1 X147.785 Y80.689 E9.41766
G1 X147.936 Y80.753 E9.42216
G1 X148.052 Y80.832 E9.42598
G1 X148.168 Y80.944 E9.43039
G1 X148.278 Y81.095 E9.43552
G1 X148.365 Y81.265 E9.44075
G1 X148.462 Y81.609 E9.45052
G1 X148.480 Y81.849 E9.45712
G1 X148.480 Y85.731 E9.56337
G1 F1980.000 E5.56337
G92 E0
G1 X148.134 Y85.591 F6000.000
G1 X147.685 Y81.137 F6000.000
G1 E4.00000 F1980.000
G1 X147.884 Y81.336 E4.00770 F900.000
G1 X148.027 Y81.868 E4.02277
G1 X147.275 Y81.116 E4.05187
G1 X146.886 Y81.116 E4.06251
G1 X148.027 Y82.256 E4.10665
G1 X148.027 Y82.645 E4.11729
G1 X146.498 Y81.116 E4.17648
G1 X146.109 Y81.116 E4.18712
G1 X148.027 Y83.033 E4.26135
G1 X148.027 Y83.422 E4.27199
G1 X145.721 Y81.116 E4.36126
G1 X145.332 Y81.116 E4.37190
G1 X148.027 Y83.811 E4.47622
G1 X148.027 Y84.199 E4.48686
G1 X144.943 Y81.116 E4.60622
G1 X144.555 Y81.116 E4.61686
G1 X148.027 Y84.588 E4.75127
G1 X148.027 Y84.976 E4.76190
G1 X144.166 Y81.116 E4.91136
G1 X143.778 Y81.116 E4.92199
G1 X147.993 Y85.331 E5.08518
G1 X147.611 Y85.338 E5.09565
G1 X143.389 Y81.116 E5.25909
G1 X143.000 Y81.116 E5.26972
G1 X147.222 Y85.338 E5.43316
G1 X146.834 Y85.338 E5.44380
G1 X142.612 Y81.116 E5.60723
G1 X142.223 Y81.116 E5.61787
G1 X146.445 Y85.338 E5.78131
G1 X146.056 Y85.338 E5.79194
G1 X141.835 Y81.116 E5.95538
G1 X141.446 Y81.116 E5.96602
G1 X145.668 Y85.338 E6.12945
G1 X145.279 Y85.338 E6.14009
G1 X141.057 Y81.116 E6.30352
G1 X140.669 Y81.116 E6.31416
G1 X144.891 Y85.338 E6.47760
G1 X144.502 Y85.338 E6.48824
G1 X140.280 Y81.116 E6.65167
G1 X139.892 Y81.116 E6.66231
G1 X144.113 Y85.338 E6.82574
G1 X143.725 Y85.338 E6.83638
G1 X139.503 Y81.116 E6.99982
G1 X139.114 Y81.116 E7.01045
G1 X143.336 Y85.338 E7.17389
G1 X142.948 Y85.338 E7.18453
G1 X138.726 Y81.116 E7.34796
G1 X138.337 Y81.116 E7.35860
G1 X142.559 Y85.338 E7.52203
G1 X142.170 Y85.338 E7.53267
G1 X137.949 Y81.116 E7.69611
G1 X137.560 Y81.116 E7.70674
G1 X141.782 Y85.338 E7.87018
G1 X141.393 Y85.338 E7.88082
G1 X137.171 Y81.116 E8.04425
G1 X136.783 Y81.116 E8.05489
G1 X141.005 Y85.338 E8.21832
G1 X140.616 Y85.338 E8.22896
G1 X136.394 Y81.116 E8.39240
G1 X136.005 Y81.116 E8.40303
G1 X140.227 Y85.338 E8.56647
G1 X139.839 Y85.338 E8.57711
G1 X135.617 Y81.116 E8.74054
G1 X135.228 Y81.116 E8.75118
G1 X139.450 Y85.338 E8.91461
G1 X139.061 Y85.338 E8.92525
G1 X134.840 Y81.116 E9.08869
G1 X134.451 Y81.116 E9.09932
G1 X138.673 Y85.338 E9.26276
G1 X138.284 Y85.338 E9.27340
G1 X134.062 Y81.116 E9.43683
G1 X133.674 Y81.116 E9.44747
G1 X137.896 Y85.338 E9.61090
G1 X137.507 Y85.338 E9.62154
G1 X133.285 Y81.116 E9.78498
G1 X132.897 Y81.116 E9.79561
G1 X137.118 Y85.338 E9.95905
G1 X136.730 Y85.338 E9.96968
G1 X132.508 Y81.116 E10.13312
G1 X132.119 Y81.116 E10.14376
G1 X136.341 Y85.338 E10.30719
G1 X135.953 Y85.338 E10.31783
G1 X131.731 Y81.116 E10.48126
G1 X131.342 Y81.116 E10.49190
G1 X135.564 Y85.338 E10.65533
G1 X135.175 Y85.338 E10.66597
G1 X130.954 Y81.116 E10.82941
G1 X130.565 Y81.116 E10.84004
G1 X134.787 Y85.338 E11.00348
G1 X134.398 Y85.338 E11.01412
G1 X130.176 Y81.116 E11.17755
G1 X129.788 Y81.116 E11.18819
G1 X134.010 Y85.338 E11.35162
G1 X133.621 Y85.338 E11.36226
G1 X129.399 Y81.116 E11.52569
G1 X129.011 Y81.116 E11.53633
G1 X133.232 Y85.338 E11.69976
G1 X132.844 Y85.338 E11.71040
G1 X128.622 Y81.116 E11.87384
G1 X128.233 Y81.116 E11.88447
G1 X132.455 Y85.338 E12.04791
G1 X132.067 Y85.338 E12.05854
G1 X127.845 Y81.116 E12.22198
G1 X127.456 Y81.116 E12.23262
G1 X131.678 Y85.338 E12.39605
G1 X131.289 Y85.338 E12.40669
G1 X127.068 Y81.116 E12.57012
G1 X126.679 Y81.116 E12.58076
G1 X130.901 Y85.338 E12.74419
G1 X130.512 Y85.338 E12.75483
G1 X126.290 Y81.116 E12.91826
G1 X125.902 Y81.116 E12.92890
G1 X130.124 Y85.338 E13.09233
G1 X129.735 Y85.338 E13.10297
G1 X125.513 Y81.116 E13.26640
G1 X125.125 Y81.116 E13.27704
G1 X129.346 Y85.338 E13.44048
G1 X128.958 Y85.338 E13.45111
G1 X124.736 Y81.116 E13.61455
G1 X124.347 Y81.116 E13.62518
G1 X128.569 Y85.338 E13.78862
G1 X128.181 Y85.338 E13.79925
G1 X123.959 Y81.116 E13.96269
G1 X123.570 Y81.116 E13.97333
G1 X127.792 Y85.338 E14.13676
G1 X127.403 Y85.338 E14.14740
G1 X123.182 Y81.116 E14.31083
G1 X122.793 Y81.116 E14.32147
G1 X127.015 Y85.338 E14.48490
G1 X126.626 Y85.338 E14.49554
G1 X122.404 Y81.116 E14.65897
G1 X122.016 Y81.116 E14.66961
G1 X126.237 Y85.338 E14.83304
G1 X125.849 Y85.338 E14.84368
G1 X121.627 Y81.116 E15.00711
G1 X121.238 Y81.116 E15.01775
G1 X125.460 Y85.338 E15.18118
G1 X125.072 Y85.338 E15.19182
G1 X120.850 Y81.116 E15.35525
G1 X120.461 Y81.116 E15.36589
G1 X124.683 Y85.338 E15.52932
G1 X124.294 Y85.338 E15.53996
G1 X120.073 Y81.116 E15.70339
G1 X119.684 Y81.116 E15.71403
G1 X123.906 Y85.338 E15.87746
G1 X123.517 Y85.338 E15.88810
G1 X119.295 Y81.116 E16.05153
G1 X118.907 Y81.116 E16.06217
G1 X123.129 Y85.338 E16.22560
G1 X122.740 Y85.338 E16.23624
G1 X118.518 Y81.116 E16.39967
G1 X118.130 Y81.116 E16.41031
G1 X122.351 Y85.338 E16.57374
G1 X121.963 Y85.338 E16.58438
G1 X117.741 Y81.116 E16.74781
G1 X117.352 Y81.116 E16.75845
G1 X121.574 Y85.338 E16.92188
G1 X121.186 Y85.338 E16.93252
G1 X116.964 Y81.116 E17.09595
G1 X116.575 Y81.116 E17.10659
G1 X120.797 Y85.338 E17.27002
G1 X120.408 Y85.338 E17.28066
G1 X116.187 Y81.116 E17.44409
G1 X115.798 Y81.116 E17.45473
G1 X120.020 Y85.338 E17.61816
G1 X119.631 Y85.338 E17.62880
G1 X115.409 Y81.116 E17.79223
G1 X115.021 Y81.116 E17.80287
G1 X119.243 Y85.338 E17.96630
G1 X118.854 Y85.338 E17.97694
G1 X114.632 Y81.116 E18.14037
G1 X114.244 Y81.116 E18.15101
G1 X118.465 Y85.338 E18.31444
G1 X118.077 Y85.338 E18.32508
G1 X113.855 Y81.116 E18.48851
G1 X113.466 Y81.116 E18.49915
G1 X117.688 Y85.338 E18.66258
G1 X117.300 Y85.338 E18.67322
G1 X113.078 Y81.116 E18.83665
G1 X112.689 Y81.116 E18.84729
G1 X116.911 Y85.338 E19.01072
G1 X116.522 Y85.338 E19.02135
G1 X112.301 Y81.116 E19.18479
G1 X111.912 Y81.116 E19.19542
G1 X116.134 Y85.338 E19.35886
G1 X115.745 Y85.338 E19.36949
G1 X111.523 Y81.116 E19.53292
G1 X111.135 Y81.116 E19.54356
G1 X115.357 Y85.338 E19.70699
G1 X114.968 Y85.338 E19.71763
G1 X110.746 Y81.116 E19.88106
G1 X110.358 Y81.116 E19.89170
G1 X114.579 Y85.338 E20.05513
G1 X114.191 Y85.338 E20.06577
G1 X109.969 Y81.116 E20.22920
G1 X109.580 Y81.116 E20.23984
G1 X113.802 Y85.338 E20.40327
G1 X113.413 Y85.338 E20.41391
G1 X109.192 Y81.116 E20.57734
G1 X108.803 Y81.116 E20.58798
G1 X113.025 Y85.338 E20.75141
G1 X112.636 Y85.338 E20.76204
G1 X108.415 Y81.116 E20.92548
G1 X108.026 Y81.116 E20.93611
G1 X112.248 Y85.338 E21.09954
G1 X111.859 Y85.338 E21.11018
G1 X107.637 Y81.116 E21.27361
G1 X107.249 Y81.116 E21.28425
G1 X111.470 Y85.338 E21.44768
G1 X111.082 Y85.338 E21.45832
G1 X106.860 Y81.116 E21.62175
G1 X106.471 Y81.116 E21.63239
G1 X110.693 Y85.338 E21.79582
G1 X110.305 Y85.338 E21.80646
G1 X106.083 Y81.116 E21.96989
G1 X105.694 Y81.116 E21.98052
G1 X109.916 Y85.338 E22.14395
G1 X109.527 Y85.338 E22.15459
G1 X105.306 Y81.116 E22.31802
G1 X104.917 Y81.116 E22.32866
G1 X109.139 Y85.338 E22.49209
G1 X108.750 Y85.338 E22.50273
G1 X104.528 Y81.116 E22.66616
G1 X104.140 Y81.116 E22.67680
G1 X108.362 Y85.338 E22.84023
G1 X107.973 Y85.338 E22.85086
G1 X103.751 Y81.116 E23.01430
G1 X103.363 Y81.116 E23.02493
G1 X107.584 Y85.338 E23.18836
G1 X107.196 Y85.338 E23.19900
G1 X102.974 Y81.116 E23.36243
G1 X102.585 Y81.116 E23.37307
G1 X106.807 Y85.338 E23.53650
G1 X106.419 Y85.338 E23.54714
G1 X102.197 Y81.116 E23.71057
G1 X101.808 Y81.116 E23.72120
G1 X106.030 Y85.338 E23.88463
G1 X105.641 Y85.338 E23.89527
G1 X101.420 Y81.116 E24.05870
G1 X101.031 Y81.116 E24.06934
G1 X105.253 Y85.338 E24.23277
G1 X104.864 Y85.338 E24.24341
G1 X100.642 Y81.116 E24.40684
G1 X100.254 Y81.116 E24.41748
G1 X104.476 Y85.338 E24.58091
G1 X104.087 Y85.338 E24.59154
G1 X99.865 Y81.116 E24.75497
G1 X99.477 Y81.116 E24.76561
G1 X103.698 Y85.338 E24.92904
G1 X103.310 Y85.338 E24.93968
G1 X99.088 Y81.116 E25.10311
G1 X98.699 Y81.116 E25.11375
G1 X102.921 Y85.338 E25.27718
G1 X102.532 Y85.338 E25.28781
G1 X98.311 Y81.116 E25.45124
G1 X97.922 Y81.116 E25.46188
G1 X102.144 Y85.338 E25.62531
G1 X101.755 Y85.338 E25.63595
G1 X97.534 Y81.116 E25.79938
G1 X97.145 Y81.116 E25.81001
G1 X101.367 Y85.338 E25.97344
G1 X100.978 Y85.338 E25.98408
G1 X96.756 Y81.116 E26.14751
G1 X96.368 Y81.116 E26.15815
G1 X100.589 Y85.338 E26.32158
G1 X100.201 Y85.338 E26.33222
G1 X95.979 Y81.116 E26.49565
G1 X95.591 Y81.116 E26.50628
G1 X99.812 Y85.338 E26.66971
G1 X99.424 Y85.338 E26.68035
G1 X95.202 Y81.116 E26.84378
G1 X94.813 Y81.116 E26.85442
G1 X99.035 Y85.338 E27.01785
G1 X98.646 Y85.338 E27.02848
G1 X94.425 Y81.116 E27.19191
G1 X94.036 Y81.116 E27.20255
G1 X98.258 Y85.338 E27.36598
G1 X97.869 Y85.338 E27.37662
G1 X93.648 Y81.116 E27.54005
G1 X93.259 Y81.116 E27.55068
G1 X97.481 Y85.338 E27.71411
G1 X97.092 Y85.338 E27.72475
G1 X92.870 Y81.116 E27.88818
G1 X92.482 Y81.116 E27.89882
G1 X96.703 Y85.338 E28.06225
G1 X96.315 Y85.338 E28.07288
G1 X92.093 Y81.116 E28.23631
G1 X91.704 Y81.116 E28.24695
G1 X95.926 Y85.338 E28.41038
G1 X95.538 Y85.338 E28.42102
G1 X91.316 Y81.116 E28.58444
G1 X90.927 Y81.116 E28.59508
G1 X95.149 Y85.338 E28.75851
G1 X94.760 Y85.338 E28.76915
G1 X90.539 Y81.116 E28.93258
G1 X90.150 Y81.116 E28.94321
G1 X94.372 Y85.338 E29.10664
G1 X93.983 Y85.338 E29.11728
G1 X89.761 Y81.116 E29.28071
G1 X89.373 Y81.116 E29.29135
G1 X93.595 Y85.338 E29.45478
G1 X93.206 Y85.338 E29.46541
G1 X88.984 Y81.116 E29.62884
G1 X88.596 Y81.116 E29.63948
G1 X92.817 Y85.338 E29.80291
G1 X92.429 Y85.338 E29.81354
G1 X88.207 Y81.116 E29.97697
G1 X87.818 Y81.116 E29.98761
G1 X92.040 Y85.338 E30.15104
G1 X91.652 Y85.338 E30.16168
G1 X87.430 Y81.116 E30.32510
G1 X87.041 Y81.116 E30.33574
G1 X91.263 Y85.338 E30.49917
G1 X90.874 Y85.338 E30.50981
G1 X86.653 Y81.116 E30.67324
G1 X86.264 Y81.116 E30.68387
G1 X90.486 Y85.338 E30.84730
G1 X90.097 Y85.338 E30.85794
G1 X85.875 Y81.116 E31.02137
G1 X85.487 Y81.116 E31.03200
G1 X89.708 Y85.338 E31.19543
G1 X89.320 Y85.338 E31.20607
G1 X85.098 Y81.116 E31.36950
G1 X84.710 Y81.116 E31.38014
G1 X88.931 Y85.338 E31.54356
G1 X88.543 Y85.338 E31.55420
G1 X84.321 Y81.116 E31.71763
G1 X83.932 Y81.116 E31.72827
G1 X88.154 Y85.338 E31.89169
G1 X87.765 Y85.338 E31.90233
G1 X83.544 Y81.116 E32.06576
G1 X83.155 Y81.116 E32.07640
G1 X87.377 Y85.338 E32.23982
G1 X86.988 Y85.338 E32.25046
G1 X82.767 Y81.116 E32.41389
G1 X82.378 Y81.116 E32.42453
G1 X86.600 Y85.338 E32.58796
G1 X86.211 Y85.338 E32.59859
G1 X81.989 Y81.116 E32.76202
G1 X81.601 Y81.116 E32.77266
G1 X85.822 Y85.338 E32.93609
G1 X85.434 Y85.338 E32.94672
G1 X81.212 Y81.116 E33.11015
G1 X80.824 Y81.116 E33.12079
G1 X85.045 Y85.338 E33.28422
G1 X84.657 Y85.338 E33.29485
G1 X80.435 Y81.116 E33.45828
G1 X80.046 Y81.116 E33.46892
G1 X84.268 Y85.338 E33.63234
G1 X83.879 Y85.338 E33.64298
G1 X79.658 Y81.116 E33.80641
G1 X79.269 Y81.116 E33.81705
G1 X83.491 Y85.338 E33.98047
G1 X83.102 Y85.338 E33.99111
G1 X78.881 Y81.116 E34.15454
G1 X78.492 Y81.116 E34.16518
G1 X82.714 Y85.338 E34.32860
G1 X82.325 Y85.338 E34.33924
G1 X78.103 Y81.116 E34.50267
G1 X77.715 Y81.116 E34.51331
G1 X81.936 Y85.338 E34.67673
G1 X81.548 Y85.338 E34.68737
G1 X77.326 Y81.116 E34.85080
G1 X76.938 Y81.116 E34.86143
G1 X81.159 Y85.338 E35.02486
G1 X80.771 Y85.338 E35.03550
G1 X76.549 Y81.116 E35.19893
G1 X76.160 Y81.116 E35.20956
G1 X80.382 Y85.338 E35.37299
G1 X79.993 Y85.338 E35.38363
G1 X75.772 Y81.116 E35.54705
G1 X75.383 Y81.116 E35.55769
G1 X79.605 Y85.338 E35.72112
G1 X79.216 Y85.338 E35.73176
G1 X74.994 Y81.116 E35.89518
G1 X74.606 Y81.116 E35.90582
G1 X78.827 Y85.338 E36.06925
