; generated by Slic3r 1.1.7 on 2015-03-15 at 19:12:46

; perimeters extrusion width = 0.40mm
; infill extrusion width = 0.56mm
; solid infill extrusion width = 0.56mm
; top infill extrusion width = 0.56mm
; support material extrusion width = 0.40mm

G21 ; set units to millimeters
M190 S60 ; wait for bed temperature to be reached
M104 S215 ; set temperature
M106 S255; Turn on Fan fully
G28 ; home all axes Start of G Code Slic3r
 
  
M109 S215 ; wait for temperature to be reached
G90 ; use absolute coordinates
G92 E0
M82 ; use absolute distances for extrusion
M106 S252
G1 F1980.000 E-4.00000
G92 E0
G1 Z0.240 F6000.000
G1 X57.018 Y101.166 F6000.000
G1 E4.00000 F1980.000
G1 X59.063 Y100.158 E4.06241 F1650.000
G1 X60.893 Y99.897 E4.11302
G1 X139.053 Y99.897 E6.25252
G1 X141.298 Y100.294 E6.31493
G1 X143.683 Y101.815 E6.39237 F1650.000
G1 X144.990 Y103.683 E6.45479
G1 X145.577 Y105.886 E6.51720
G1 X145.374 Y108.157 E6.57962
G1 X144.404 Y110.221 E6.64203
G1 X142.785 Y111.826 E6.70445
G1 X140.714 Y112.780 E6.76686
G1 X139.418 Y112.984 E6.80276
G1 X136.547 Y113.095 E6.88140
G1 X134.106 Y113.136 E6.94825
G1 X65.627 Y113.134 E8.82273
G1 X63.126 Y113.086 E8.89122
G1 X60.509 Y112.983 E8.96289
G1 X58.291 Y112.455 E9.02531
G1 X56.388 Y111.199 E9.08772
G1 X55.032 Y109.366 E9.15014
G1 X54.386 Y107.179 E9.21255
G1 X54.528 Y104.904 E9.27496
G1 X55.443 Y102.815 E9.33738
G1 X56.976 Y101.210 E9.39815
G1 F1980.000 E5.39815
G92 E0
G1 X57.240 Y101.400 F6000.000
G1 E4.00000 F1980.000
G1 X57.454 Y101.197 E4.00808 F1650.000
G1 X59.508 Y100.326 E4.06916
G1 X60.893 Y100.171 E4.10730
G1 X139.053 Y100.171 E6.24680
G1 X141.249 Y100.568 E6.30788
G1 X143.489 Y102.009 E6.38080 F1650.000
G1 X144.761 Y103.842 E6.44189
G1 X145.312 Y106.005 E6.50297
G1 X145.070 Y108.223 E6.56405
G1 X144.067 Y110.216 E6.62514
G1 X142.430 Y111.733 E6.68622
G1 X139.403 Y112.710 E6.77330
G1 X136.542 Y112.821 E6.85167
G1 X134.105 Y112.862 E6.91838
G1 X65.631 Y112.860 E8.79275
G1 X63.134 Y112.812 E8.86110
G1 X60.526 Y112.709 E8.93257
G1 X58.357 Y112.184 E8.99366
G1 X56.509 Y110.933 E9.05474
G1 X55.215 Y109.115 E9.11582
G1 X54.640 Y106.959 E9.17691
G1 X54.855 Y104.738 E9.23799
G1 X55.835 Y102.733 E9.29907
G1 X57.196 Y101.442 E9.35044
G1 F1980.000 E5.35044
G92 E0
G1 X137.617 Y106.475 F6000.000
G1 E4.00000 F1980.000
G1 X133.704 Y106.517 E4.10711 F720.000
G1 X131.768 Y106.514 E4.16012
G1 X128.735 Y106.475 E4.24315
G1 F1980.000 E0.24315
G92 E0
G1 X71.239 Y106.475 F6000.000
G1 E4.00000 F1980.000
G1 X67.650 Y106.516 E4.09823 F720.000
G1 X65.544 Y106.515 E4.15588
G1 X62.366 Y106.475 E4.24289
M106 S255
M104 S210 ; set temperature
M140 S57 ; set bed temperature
G1 F1980.000 E0.24289
G92 E0
G1 Z0.480 F6000.000
G1 X75.714 Y106.208 F6000.000
G1 E4.00000 F1980.000
G1 X72.731 Y106.301 E4.11913 F600.000
G1 X70.716 Y106.343 E4.19956
G1 X67.117 Y106.374 E4.34324
G1 X62.339 Y106.332 E4.53391
G1 X57.897 Y106.207 E4.71130
G1 F1980.000 E0.71130
G92 E0
G1 X142.093 Y106.207 F6000.000
G1 E4.00000 F1980.000
G1 X138.831 Y106.309 E4.13023 F600.000
G1 X137.006 Y106.343 E4.20310
G1 X133.037 Y106.373 E4.36150
G1 X129.444 Y106.345 E4.50494
G1 X127.175 Y106.300 E4.59551
G1 X124.270 Y106.207 E4.71151
G1 F1980.000 E0.71151
G92 E0
G1 Z0.720 F6000.000
G1 X78.976 Y105.921 F6000.000
G1 E4.00000 F1980.000
G1 X75.632 Y106.068 E4.13363 F600.000
G1 X72.878 Y106.154 E4.24358
G1 X68.945 Y106.222 E4.40058
G1 X66.583 Y106.232 E4.49487
G1 X63.899 Y106.214 E4.60200
G1 X60.473 Y106.147 E4.73873
G1 X57.414 Y106.046 E4.86089
G1 X54.638 Y105.921 E4.97183
G1 F1980.000 E0.97183
G92 E0
G1 X145.376 Y105.921 F6000.000
G1 E4.00000 F1980.000
G1 X141.221 Y106.098 E4.16598 F600.000
G1 X138.952 Y106.163 E4.25656
G1 X136.665 Y106.207 E4.34786
G1 X132.370 Y106.230 E4.51928
G1 X129.715 Y106.207 E4.62525
G1 X127.315 Y106.160 E4.72106
G1 X124.922 Y106.089 E4.81661
G1 X121.036 Y105.921 E4.97188
G1 F1980.000 E0.97188
G92 E0
G1 Z0.960 F6000.000
G1 X141.590 Y106.095 F6000.000
G1 E4.00000 F1980.000
G1 X139.506 Y106.221 E4.08332 F600.000
G1 X126.894 Y106.221 E4.58667
G1 X124.803 Y106.095 E4.67029
G1 X124.815 Y105.787 E4.68258
G1 X141.578 Y105.787 E5.35163
G1 X141.588 Y106.035 E5.36154
G1 F1980.000 E1.36154
G92 E0
G1 X141.233 Y105.914 F6000.000
G1 X124.609 Y105.933 F6000.000
G1 E4.00000 F1980.000
G1 X121.193 Y105.786 E4.13646 F600.000
G1 X118.484 Y105.634 E4.24476
G1 F1980.000 E0.24476
G92 E0
G1 X147.939 Y105.634 F6000.000
G1 E4.00000 F1980.000
G1 X145.302 Y105.781 E4.10540 F600.000
G1 X141.784 Y105.933 E4.24595
G1 F1980.000 E0.24595
G92 E0
G1 X75.151 Y106.097 F6000.000
G1 E4.00000 F1980.000
G1 X73.147 Y106.221 E4.08013 F600.000
G1 X60.536 Y106.221 E4.58345
G1 X58.464 Y106.096 E4.66634
G1 X58.475 Y105.787 E4.67866
G1 X75.141 Y105.787 E5.34386
G1 X75.149 Y106.037 E5.35383
G1 F1980.000 E1.35383
G92 E0
G1 X74.795 Y105.915 F6000.000
G1 X81.531 Y105.634 F6000.000
G1 E4.00000 F1980.000
G1 X78.057 Y105.823 E4.13887 F600.000
G1 X75.346 Y105.937 E4.24715
G1 F1980.000 E0.24715
G92 E0
G1 X58.269 Y105.934 F6000.000
G1 E4.00000 F1980.000
G1 X54.931 Y105.793 E4.13335 F600.000
G1 X52.061 Y105.634 E4.24809
G1 F1980.000 E0.24809
G92 E0
G1 Z1.200 F6000.000
G1 X121.419 Y105.806 F6000.000
G1 E4.00000 F1980.000
G1 X121.433 Y105.501 E4.01217 F600.000
G1 X144.955 Y105.501 E4.95097
G1 X144.970 Y105.806 E4.96314
G1 X143.625 Y105.935 E5.01706
G1 X122.757 Y105.935 E5.84996
G1 X121.478 Y105.812 E5.90123
G1 F1980.000 E1.90123
G92 E0
G1 X121.588 Y105.552 F6000.000
G1 X148.719 Y105.548 F6000.000
G1 E4.00000 F1980.000
G1 X148.417 Y105.499 E4.01223 F600.000
G1 X148.074 Y105.484 E4.02591
G1 X145.162 Y105.644 E4.14231
G1 F1980.000 E0.14231
G92 E0
G1 X121.226 Y105.644 F6000.000
G1 E4.00000 F1980.000
G1 X117.907 Y105.457 E4.13270 F600.000
G1 X116.327 Y105.348 E4.19591
G1 F1980.000 E0.19591
G92 E0
G1 X78.608 Y105.805 F6000.000
G1 E4.00000 F1980.000
G1 X77.187 Y105.935 E4.05698 F600.000
G1 X56.417 Y105.935 E4.88595
G1 X55.008 Y105.806 E4.94241
G1 X55.023 Y105.501 E4.95457
G1 X78.593 Y105.501 E5.89529
G1 X78.605 Y105.745 E5.90503
G1 F1980.000 E1.90503
G92 E0
G1 X78.247 Y105.632 F6000.000
G1 X51.282 Y105.549 F6000.000
G1 E4.00000 F1980.000
G1 X51.610 Y105.496 E4.01326 F600.000
G1 X51.925 Y105.484 E4.02584
G1 X54.816 Y105.646 E4.14141
G1 F1980.000 E0.14141
G92 E0
G1 X83.681 Y105.348 F6000.000
G1 E4.00000 F1980.000
G1 X81.285 Y105.506 E4.09583 F600.000
G1 X78.800 Y105.643 E4.19517
G1 F1980.000 E0.19517
G92 E0
G1 Z1.440 F6000.000
G1 X118.781 Y105.517 F6000.000
G1 E4.00000 F1980.000
G1 X118.799 Y105.215 E4.01205 F600.000
G1 X147.624 Y105.215 E5.16254
G1 X147.642 Y105.517 E5.17460
G1 X146.488 Y105.649 E5.22097
G1 X119.920 Y105.649 E6.28134
G1 X118.841 Y105.524 E6.32469
G1 F1980.000 E2.32469
G92 E0
G1 X118.952 Y105.268 F6000.000
G1 X118.590 Y105.355 F6000.000
G1 E4.00000 F1980.000
G1 X114.420 Y105.061 E4.16687 F600.000
G1 F1980.000 E0.16687
G92 E0
G1 X81.225 Y105.516 F6000.000
G1 E4.00000 F1980.000
G1 X80.100 Y105.649 E4.04522 F600.000
G1 X53.545 Y105.649 E5.10508
G1 X52.359 Y105.517 E5.15269
G1 X52.376 Y105.215 E5.16477
G1 X81.206 Y105.215 E6.31545
G1 X81.221 Y105.456 E6.32507
G1 F1980.000 E2.32507
G92 E0
G1 X80.860 Y105.351 F6000.000
G1 X52.181 Y105.015 F6000.000
G1 E4.00000 F1980.000
G1 X51.855 Y105.340 E4.01837 F600.000
G1 X51.434 Y105.385 E4.03527
G1 X50.890 Y105.531 E4.05774
G1 F1980.000 E0.05774
G92 E0
G1 X149.098 Y105.525 F6000.000
G1 E4.00000 F1980.000
G1 X148.597 Y105.391 E4.02069 F600.000
G1 X148.146 Y105.340 E4.03883
G1 X147.820 Y105.015 E4.05720
G1 F1980.000 E0.05720
G92 E0
G1 X85.347 Y105.080 F6000.000
G1 E4.00000 F1980.000
G1 X81.415 Y105.353 E4.15732 F600.000
G1 F1980.000 E0.15732
G92 E0
G1 Z1.680 F6000.000
G1 X83.434 Y105.227 F6000.000
G1 E4.00000 F1980.000
G1 X82.453 Y105.363 E4.03956 F600.000
G1 X52.397 Y105.363 E5.23916
G1 X52.208 Y105.385 E5.24673
G1 X51.981 Y105.470 E5.25643
G1 X51.338 Y105.388 E5.28230
G1 X51.291 Y105.165 E5.29138
G1 X51.638 Y104.990 E5.30687
G1 X51.853 Y104.939 E5.31569
G1 X52.003 Y104.929 E5.32171
G1 X83.414 Y104.929 E6.57538
G1 X83.430 Y105.168 E6.58492
G1 F1980.000 E2.58492
G92 E0
G1 X83.068 Y105.068 F6000.000
G1 X87.314 Y104.775 F6000.000
G1 E4.00000 F1980.000
G1 X83.624 Y105.064 E4.14771 F600.000
G1 F1980.000 E0.14771
G92 E0
G1 X116.572 Y105.228 F6000.000
G1 E4.00000 F1980.000
G1 X116.593 Y104.929 E4.01193 F600.000
G1 X148.140 Y104.938 E5.27106
G1 X148.322 Y104.978 E5.27850
G1 X148.529 Y105.061 E5.28741
G1 X148.994 Y105.344 E5.30915
G1 X148.022 Y105.470 E5.34829
G1 X147.827 Y105.394 E5.35662
G1 X147.603 Y105.363 E5.36564
G1 X117.568 Y105.363 E6.56443
G1 X116.632 Y105.236 E6.60214
G1 F1980.000 E2.60214
G92 E0
G1 X116.745 Y104.983 F6000.000
G1 X116.383 Y105.065 F6000.000
G1 E4.00000 F1980.000
G1 X112.679 Y104.775 E4.14829 F600.000
G1 F1980.000 E0.14829
G92 E0
G1 Z1.920 F6000.000
G1 X114.627 Y104.938 F6000.000
G1 E4.00000 F1980.000
G1 X114.650 Y104.643 E4.01182 F600.000
G1 X148.140 Y104.652 E5.34848
G1 X148.395 Y104.716 E5.35895
G1 X148.672 Y104.858 E5.37137
G1 X148.871 Y105.013 E5.38147
G1 X149.169 Y105.321 E5.39856
G1 X148.332 Y105.431 E5.43226
G1 X148.147 Y105.267 E5.44211
G1 X147.979 Y105.165 E5.44995
G1 X147.771 Y105.095 E5.45872
G1 X147.603 Y105.077 E5.46545
G1 X115.519 Y105.077 E6.74601
G1 X114.686 Y104.948 E6.77964
G1 F1980.000 E2.77964
G92 E0
G1 X114.801 Y104.699 F6000.000
G1 X114.439 Y104.775 F6000.000
G1 E4.00000 F1980.000
G1 X111.085 Y104.489 E4.13436 F600.000
G1 F1980.000 E0.13436
G92 E0
G1 X85.390 Y104.937 F6000.000
G1 E4.00000 F1980.000
G1 X84.475 Y105.077 E4.03696 F600.000
G1 X52.396 Y105.077 E5.31728
G1 X52.205 Y105.100 E5.32499
G1 X52.000 Y105.175 E5.33368
G1 X51.816 Y105.294 E5.34243
G1 X51.668 Y105.431 E5.35049
G1 X50.831 Y105.321 E5.38416
G1 X51.179 Y104.970 E5.40388
G1 X51.426 Y104.799 E5.41587
G1 X51.706 Y104.683 E5.42796
G1 X52.003 Y104.643 E5.43994
G1 X85.366 Y104.643 E6.77153
G1 X85.385 Y104.878 E6.78091
G1 F1980.000 E2.78091
G92 E0
G1 X85.021 Y104.783 F6000.000
G1 X88.925 Y104.488 F6000.000
G1 E4.00000 F1980.000
G1 X85.578 Y104.774 E4.13408 F600.000
G1 F1980.000 E0.13408
G92 E0
G1 Z2.160 F6000.000
G1 X87.149 Y104.651 F6000.000
G1 E4.00000 F1980.000
G1 X86.285 Y104.791 E4.03491 F623.809
G1 X52.397 Y104.791 E5.38748
G1 X52.155 Y104.827 E5.39723
G1 X51.900 Y104.947 E5.40847
G1 X51.667 Y105.151 E5.42084
G1 X51.482 Y105.407 E5.43342
G1 X50.659 Y105.298 E5.46658
G1 X50.980 Y104.877 E5.48771
G1 X51.269 Y104.614 E5.50330
G1 X51.426 Y104.513 E5.51076
G1 X51.622 Y104.424 E5.51934
G1 X51.781 Y104.379 E5.52595
G1 X52.003 Y104.357 E5.53486
G1 X87.125 Y104.357 E6.93664
G1 X87.144 Y104.592 E6.94603
G1 F1980.000 E2.94603
G92 E0
G1 X86.779 Y104.500 F6000.000
G1 X90.381 Y104.202 F6000.000
G1 E4.00000 F1980.000
G1 X87.336 Y104.487 E4.12206 F623.809
G1 F1980.000 E0.12206
G92 E0
G1 X51.808 Y104.666 F6000.000
G1 E4.00000 F1980.000
G1 X51.547 Y104.815 E4.00730 F600.000
G1 X51.314 Y105.033 E4.01503
G1 X51.014 Y105.139 E4.02273
G1 F1980.000 E0.02273
G92 E0
G1 X112.864 Y104.649 F6000.000
G1 E4.00000 F1980.000
G1 X112.890 Y104.357 E4.01171 F623.809
G1 X147.997 Y104.357 E5.41290
G1 X148.211 Y104.378 E5.42148
G1 X148.529 Y104.489 E5.43494
G1 X148.796 Y104.663 E5.44767
G1 X149.092 Y104.962 E5.46446
G1 X149.332 Y105.299 E5.48098
G1 X148.519 Y105.407 E5.51371
G1 X148.334 Y105.152 E5.52627
G1 X148.091 Y104.942 E5.53911
G1 X147.827 Y104.822 E5.55068
G1 X147.603 Y104.791 E5.55969
G1 X113.690 Y104.791 E6.91326
G1 X112.923 Y104.660 E6.94430
G1 F1980.000 E2.94430
G92 E0
G1 X113.039 Y104.414 F6000.000
G1 X112.678 Y104.486 F6000.000
G1 E4.00000 F1980.000
G1 X109.624 Y104.202 E4.12239 F623.809
G1 F1980.000 E0.12239
G92 E0
G1 X148.192 Y104.661 F6000.000
G1 E4.00000 F1980.000
G1 X148.473 Y104.830 E4.00793 F600.000
G1 X148.686 Y105.033 E4.01507
G1 X148.980 Y105.137 E4.02262
G1 F1980.000 E0.02262
G92 E0
G1 Z2.400 F6000.000
G1 X88.737 Y104.362 F6000.000
G1 E4.00000 F1980.000
G1 X87.951 Y104.505 E4.03188 F654.792
G1 X52.397 Y104.505 E5.45094
G1 X52.242 Y104.520 E5.45715
G1 X52.101 Y104.559 E5.46297
G1 X51.949 Y104.631 E5.46967
G1 X51.815 Y104.723 E5.47617
G1 X51.666 Y104.866 E5.48441
G1 X51.538 Y105.032 E5.49279
G1 X51.354 Y105.390 E5.50885
G1 X50.540 Y105.281 E5.54161
G1 X50.807 Y104.811 E5.56318
G1 X50.980 Y104.592 E5.57433
G1 X51.179 Y104.397 E5.58544
G1 X51.343 Y104.276 E5.59359
G1 X51.558 Y104.162 E5.60328
G1 X51.782 Y104.093 E5.61263
G1 X52.003 Y104.071 E5.62152
G1 X88.711 Y104.071 E7.08659
G1 X88.732 Y104.303 E7.09587
G1 F1980.000 E3.09587
G92 E0
G1 X88.365 Y104.216 F6000.000
G1 X91.770 Y103.916 F6000.000
G1 E4.00000 F1980.000
G1 X89.222 Y104.172 E4.10218 F654.792
G1 X88.893 Y103.871 E4.11997
G1 F1980.000 E0.11997
G92 E0
G1 X51.808 Y104.379 F6000.000
G1 E4.00000 F1980.000
G1 X51.581 Y104.505 E4.00630 F600.000
G1 X51.398 Y104.658 E4.01208
G1 X51.243 Y104.833 E4.01775
G1 X51.034 Y105.145 E4.02686
G1 F1980.000 E0.02686
G92 E0
G1 X111.246 Y104.363 F6000.000
G1 E4.00000 F1980.000
G1 X111.272 Y104.071 E4.01170 F654.792
G1 X147.997 Y104.071 E5.47748
G1 X148.211 Y104.092 E5.48608
G1 X148.529 Y104.203 E5.49951
G1 X148.711 Y104.313 E5.50800
G1 X148.873 Y104.443 E5.51632
G1 X149.165 Y104.772 E5.53384
G1 X149.469 Y105.280 E5.55749
G1 X148.647 Y105.390 E5.59058
G1 X148.443 Y105.005 E5.60796
G1 X148.203 Y104.738 E5.62232
G1 X147.934 Y104.573 E5.63489
G1 X147.770 Y104.523 E5.64172
G1 X147.603 Y104.505 E5.64843
G1 X112.051 Y104.505 E7.06742
G1 X111.305 Y104.374 E7.09764
G1 F1980.000 E3.09764
G92 E0
G1 X111.421 Y104.128 F6000.000
G1 X111.060 Y104.198 F6000.000
G1 E4.00000 F1980.000
G1 X108.221 Y103.916 E4.11387 F654.792
G1 F1980.000 E0.11387
G92 E0
G1 X148.192 Y104.375 F6000.000
G1 E4.00000 F1980.000
G1 X148.408 Y104.497 E4.00601 F600.000
G1 X148.593 Y104.648 E4.01180
G1 X148.757 Y104.833 E4.01779
G1 X148.965 Y105.146 E4.02688
G1 F1980.000 E0.02688
G92 E0
G1 Z2.640 F6000.000
G1 X90.236 Y104.073 F6000.000
G1 E4.00000 F1980.000
G1 X89.514 Y104.219 E4.02942 F684.243
G1 X52.397 Y104.219 E5.51086
G1 X52.212 Y104.241 E5.51828
G1 X52.053 Y104.293 E5.52496
G1 X51.873 Y104.394 E5.53322
G1 X51.714 Y104.529 E5.54153
G1 X51.576 Y104.692 E5.55004
G1 X51.449 Y104.896 E5.55964
G1 X51.340 Y105.145 E5.57048
G1 X51.266 Y105.378 E5.58026
G1 X50.427 Y105.265 E5.61404
G1 X50.577 Y104.923 E5.62895
G1 X50.726 Y104.649 E5.64143
G1 X50.891 Y104.411 E5.65297
G1 X51.101 Y104.181 E5.66542
G1 X51.343 Y103.990 E5.67770
G1 X51.558 Y103.876 E5.68741
G1 X51.782 Y103.807 E5.69678
G1 X52.003 Y103.785 E5.70565
G1 X90.208 Y103.785 E7.23046
G1 X90.230 Y104.014 E7.23962
G1 F1980.000 E3.23962
G92 E0
G1 X89.862 Y103.933 F6000.000
G1 X93.090 Y103.630 F6000.000
G1 E4.00000 F1980.000
G1 X90.421 Y103.909 E4.10709 F684.243
G1 F1980.000 E0.10709
G92 E0
G1 X51.806 Y104.090 F6000.000
G1 E4.00000 F1980.000
G1 X51.545 Y104.244 E4.00735 F600.000
G1 X51.308 Y104.466 E4.01522
G1 X51.112 Y104.738 E4.02335
G1 X50.914 Y105.129 E4.03397
G1 F1980.000 E0.03397
G92 E0
G1 X109.771 Y104.074 F6000.000
G1 E4.00000 F1980.000
G1 X109.799 Y103.785 E4.01159 F684.243
G1 X147.997 Y103.785 E5.53615
G1 X148.211 Y103.806 E5.54476
G1 X148.399 Y103.860 E5.55256
G1 X148.600 Y103.955 E5.56145
G1 X148.798 Y104.093 E5.57107
G1 X149.009 Y104.294 E5.58269
G1 X149.297 Y104.688 E5.60218
G1 X149.574 Y105.265 E5.62775
G1 X148.736 Y105.378 E5.66152
G1 X148.578 Y104.950 E5.67972
G1 X148.444 Y104.720 E5.69037
G1 X148.331 Y104.577 E5.69763
G1 X148.202 Y104.452 E5.70480
G1 X148.033 Y104.335 E5.71301
G1 X147.827 Y104.250 E5.72191
G1 X147.655 Y104.221 E5.72885
G1 X110.512 Y104.219 E7.21131
G1 X109.830 Y104.086 E7.23907
G1 F1980.000 E3.23907
G92 E0
G1 X109.947 Y103.843 F6000.000
G1 X109.586 Y103.910 F6000.000
G1 E4.00000 F1980.000
G1 X106.911 Y103.630 E4.10734 F684.243
G1 F1980.000 E0.10734
G92 E0
G1 X148.192 Y104.089 F6000.000
G1 E4.00000 F1980.000
G1 X148.477 Y104.262 E4.00807 F600.000
G1 X148.701 Y104.478 E4.01562
G1 X148.909 Y104.774 E4.02439
G1 X149.084 Y105.130 E4.03399
G1 F1980.000 E0.03399
G92 E0
G1 Z2.880 F6000.000
G1 X108.361 Y103.785 F6000.000
G1 E4.00000 F1980.000
G1 X108.391 Y103.499 E4.01148 F709.223
G1 X147.997 Y103.499 E5.59222
G1 X148.244 Y103.527 E5.60213
G1 X148.457 Y103.597 E5.61111
G1 X148.670 Y103.713 E5.62078
