; generated by Slic3r 1.1.7 on 2014-12-09 at 22:47:57

; perimeters extrusion width = 0.42mm
; infill extrusion width = 0.74mm
; solid infill extrusion width = 0.71mm
; top infill extrusion width = 0.71mm
; support material extrusion width = 0.42mm

G21 ; set units to millimeters
M190 S65 ; wait for bed temperature to be reached
M104 S186 ; set temperature
G28 ; home all axes
M109 S186 ; wait for temperature to be reached
G90 ; use absolute coordinates
G92 E0
M82 ; use absolute distances for extrusion
G1 F1860.000 E-3.00000
G92 E0
G1 Z0.200 F6000.000
G1 X69.026 Y76.530 F6000.000
G1 E3.10000 F1860.000
G1 X69.373 Y76.241 E3.10835 F1200.000
G1 X70.107 Y75.717 E3.12503
G1 X70.890 Y75.267 E3.14174
G1 X71.711 Y74.897 E3.15841
G1 X72.135 Y74.742 E3.16676
G1 X73.002 Y74.496 E3.18344
G1 X97.692 Y70.083 E3.64744
G1 X98.875 Y69.978 E3.66941
G1 X106.893 Y69.978 E3.81775
G1 X119.393 Y70.011 E4.04900 F1200.000
G1 X121.671 Y70.414 E4.09180
G1 X123.679 Y71.564 E4.13461
G1 X125.180 Y73.325 E4.17741
G1 X125.758 Y74.583 E4.20302
G1 X133.758 Y98.110 E4.66275
G1 X134.117 Y100.280 E4.70345
G1 X134.117 Y120.280 E5.07345
G1 X133.720 Y122.560 E5.11626
G1 X132.575 Y124.571 E5.15906
G1 X130.818 Y126.076 E5.20187
G1 X129.742 Y126.593 E5.22395
G1 X121.742 Y129.593 E5.38202
G1 X119.375 Y130.022 E5.42653
G1 X98.875 Y130.022 E5.80578
G1 X97.692 Y129.917 E5.82775
G1 X73.120 Y125.531 E6.28953
G1 X72.249 Y125.296 E6.30622
G1 X71.708 Y125.102 E6.31685
G1 X70.996 Y124.787 E6.33125
G1 X70.486 Y124.514 E6.34195
G1 X70.102 Y124.280 E6.35027
G1 X69.468 Y123.833 E6.36463
G1 X68.781 Y123.248 E6.38131
G1 X68.376 Y122.843 E6.39191
G1 X67.866 Y122.252 E6.40635
G1 X67.342 Y121.518 E6.42303
G1 X67.047 Y121.024 E6.43368
G1 X66.697 Y120.330 E6.44807
G1 X66.367 Y119.490 E6.46475
G1 X66.121 Y118.623 E6.48144
G1 X65.961 Y117.735 E6.49812
G1 X65.903 Y117.146 E6.50907
G1 X65.883 Y116.550 E6.52010
G1 X65.885 Y83.284 E7.13552
G1 X65.946 Y82.384 E7.15221
G1 X66.009 Y81.938 E7.16055
G1 X66.121 Y81.377 E7.17113
G1 X66.367 Y80.510 E7.18782
G1 X66.698 Y79.668 E7.20454
G1 X67.049 Y78.972 E7.21896
G1 X67.278 Y78.584 E7.22731
G1 X67.596 Y78.108 E7.23790
G1 X68.163 Y77.392 E7.25479
G1 X68.694 Y76.835 E7.26903
G1 X68.979 Y76.572 E7.27620
G1 X69.188 Y76.717 F6000.000
G1 X69.525 Y76.436 E7.28433 F1200.000
G1 X70.239 Y75.926 E7.30056
G1 X71.001 Y75.488 E7.31682
G1 X71.800 Y75.127 E7.33304
G1 X72.212 Y74.977 E7.34117
G1 X73.056 Y74.737 E7.35740
G1 X97.735 Y70.326 E7.82120
G1 X98.875 Y70.225 E7.84236
G1 X106.892 Y70.225 E7.99068
G1 X119.392 Y70.259 E8.22194 F1200.000
G1 X121.627 Y70.661 E8.26394
G1 X123.586 Y71.809 E8.30595
G1 X125.031 Y73.561 E8.34796
G1 X125.524 Y74.662 E8.37028
G1 X133.524 Y98.190 E8.83002
G1 X133.869 Y100.280 E8.86922
G1 X133.869 Y120.280 E9.23923
G1 X133.473 Y122.516 E9.28124
G1 X132.330 Y124.478 E9.32324
G1 X129.655 Y126.361 E9.38376
G1 X121.655 Y129.361 E9.54183
G1 X119.375 Y129.775 E9.58470
G1 X98.875 Y129.775 E9.96395
G1 X97.735 Y129.674 E9.98512
G1 X73.174 Y125.289 E10.44670
G1 X72.326 Y125.061 E10.46293
G1 X71.797 Y124.871 E10.47334
G1 X71.108 Y124.566 E10.48729
G1 X70.609 Y124.299 E10.49776
G1 X70.235 Y124.071 E10.50586
G1 X69.620 Y123.638 E10.51977
G1 X68.952 Y123.069 E10.53601
G1 X68.555 Y122.673 E10.54638
G1 X68.061 Y122.100 E10.56037
G1 X67.551 Y121.386 E10.57661
G1 X67.262 Y120.903 E10.58703
G1 X66.923 Y120.229 E10.60097
G1 X66.602 Y119.413 E10.61721
G1 X66.362 Y118.569 E10.63344
G1 X66.206 Y117.705 E10.64968
G1 X66.150 Y117.129 E10.66039
G1 X66.131 Y116.550 E10.67110
G1 X66.133 Y83.291 E11.28641
G1 X66.191 Y82.415 E11.30265
G1 X66.253 Y81.981 E11.31076
G1 X66.362 Y81.431 E11.32111
G1 X66.602 Y80.587 E11.33735
G1 X66.924 Y79.769 E11.35362
G1 X67.264 Y79.094 E11.36760
G1 X67.487 Y78.716 E11.37572
G1 X67.798 Y78.250 E11.38609
G1 X68.350 Y77.554 E11.40252
G1 X68.864 Y77.014 E11.41632
G1 X69.141 Y76.759 E11.42327
G1 X69.349 Y76.904 F6000.000
G1 X69.677 Y76.631 E11.43117 F1200.000
G1 X70.371 Y76.135 E11.44696
G1 X71.112 Y75.709 E11.46276
G1 X71.889 Y75.358 E11.47854
G1 X72.290 Y75.211 E11.48644
G1 X73.111 Y74.978 E11.50222
G1 X73.501 Y74.897 E11.50959
G1 X98.875 Y70.472 E11.98610
G1 X106.892 Y70.472 E12.13441
G1 X119.392 Y70.506 E12.36567 F1200.000
G1 X121.582 Y70.908 E12.40686
G1 X123.491 Y72.053 E12.44805
G1 X125.290 Y74.742 E12.50789
G1 X133.290 Y98.269 E12.96763
G1 X133.622 Y100.280 E13.00534
G1 X133.622 Y120.280 E13.37534
G1 X133.225 Y122.471 E13.41654
G1 X132.085 Y124.384 E13.45773
G1 X129.569 Y126.130 E13.51440
G1 X121.569 Y129.130 E13.67246
G1 X119.375 Y129.528 E13.71371
G1 X97.779 Y129.431 E14.11325
G1 X73.228 Y125.048 E14.57462
G1 X72.814 Y124.948 E14.58251
G1 X72.002 Y124.686 E14.59829
G1 X71.494 Y124.475 E14.60846
G1 X70.841 Y124.146 E14.62199
G1 X70.367 Y123.862 E14.63221
G1 X69.772 Y123.443 E14.64567
G1 X69.440 Y123.174 E14.65358
G1 X68.818 Y122.590 E14.66936
G1 X68.529 Y122.276 E14.67726
G1 X68.000 Y121.607 E14.69305
G1 X67.538 Y120.889 E14.70884
G1 X67.149 Y120.129 E14.72462
G1 X66.836 Y119.335 E14.74041
G1 X66.603 Y118.514 E14.75620
G1 X66.451 Y117.675 E14.77198
G1 X66.396 Y117.111 E14.78246
G1 X66.378 Y116.550 E14.79285
G1 X66.380 Y83.297 E15.40804
G1 X66.437 Y82.445 E15.42383
G1 X66.519 Y81.894 E15.43414
G1 X66.603 Y81.486 E15.44185
G1 X66.836 Y80.665 E15.45764
G1 X67.150 Y79.869 E15.47346
G1 X67.479 Y79.216 E15.48699
G1 X67.696 Y78.848 E15.49489
G1 X68.000 Y78.393 E15.50503
G1 X68.536 Y77.716 E15.52100
G1 X69.035 Y77.193 E15.53436
G1 X69.302 Y76.947 E15.54109
G1 F1860.000 E12.54109
G92 E0
G1 X82.542 Y88.236 F6000.000
G1 E3.10000 F1860.000
G1 X81.634 Y88.323 E3.11687 F1200.000
G1 X81.527 Y88.650 E3.12324
G1 X81.344 Y89.095 E3.13215
G1 X81.309 Y89.098 E3.13280
G1 X81.085 Y89.494 E3.14122
G1 X80.869 Y89.799 E3.14813
G1 X80.628 Y90.079 E3.15495
G1 X80.365 Y90.329 E3.16168
G1 X80.081 Y90.549 E3.16831
G1 X79.780 Y90.734 E3.17486
G1 X79.463 Y90.883 E3.18134
G1 X79.217 Y90.970 E3.18616
G1 X78.711 Y91.077 E3.19573
G1 X78.197 Y91.092 E3.20525
G1 X77.940 Y91.065 E3.21002
G1 X77.603 Y90.994 E3.21639
G1 X77.355 Y90.914 E3.22121
G1 X77.035 Y90.774 E3.22767
G1 X76.729 Y90.598 E3.23420
G1 X76.441 Y90.387 E3.24081
G1 X76.108 Y90.079 E3.24920
G1 X75.812 Y89.725 E3.25774
G1 X75.525 Y89.308 E3.26711
G1 X75.327 Y88.902 E3.27546
G1 X74.948 Y88.822 E3.28262
G1 X74.802 Y88.475 E3.28958
G1 X74.676 Y88.093 E3.29703
G1 X74.588 Y87.701 E3.30446
G1 X74.547 Y87.402 E3.31004
G1 X74.529 Y87.100 E3.31563
G1 X74.539 Y86.699 E3.32306
G1 X74.572 Y86.398 E3.32865
G1 X74.651 Y86.005 E3.33608
G1 X74.767 Y85.620 E3.34352
G1 X74.921 Y85.248 E3.35095
G1 X75.111 Y84.893 E3.35840
G1 X75.334 Y84.559 E3.36584
G1 X75.589 Y84.249 E3.37327
G1 X75.873 Y83.964 E3.38071
G1 X76.184 Y83.709 E3.38815
G1 X76.518 Y83.486 E3.39559
G1 X76.873 Y83.296 E3.40303
G1 X77.245 Y83.142 E3.41047
G1 X77.630 Y83.026 E3.41791
G1 X78.030 Y82.946 E3.42547
G1 X78.525 Y82.904 E3.43464
G1 X78.926 Y82.914 E3.44208
G1 X79.326 Y82.963 E3.44952
G1 X79.718 Y83.051 E3.45695
G1 X80.100 Y83.177 E3.46440
G1 X80.467 Y83.340 E3.47183
G1 X80.817 Y83.539 E3.47928
G1 X81.146 Y83.770 E3.48671
G1 X81.450 Y84.032 E3.49415
G1 X81.728 Y84.324 E3.50159
G1 X81.975 Y84.641 E3.50903
G1 X82.190 Y84.981 E3.51647
G1 X82.371 Y85.340 E3.52391
G1 X82.515 Y85.715 E3.53135
G1 X82.623 Y86.102 E3.53878
G1 X82.691 Y86.498 E3.54622
G1 X82.721 Y86.900 E3.55366
G1 X82.711 Y87.301 E3.56110
G1 X82.662 Y87.700 E3.56854
G1 X82.557 Y88.174 E3.57752
G1 X82.343 Y88.007 F6000.000
G1 X81.439 Y88.093 E3.59431 F1200.000
G1 X81.330 Y88.467 E3.60151
G1 X81.174 Y88.862 E3.60937
G1 X81.147 Y88.864 E3.60988
G1 X80.969 Y89.209 E3.61706
G1 X80.778 Y89.507 E3.62360
G1 X80.507 Y89.846 E3.63162
G1 X80.267 Y90.086 E3.63791
G1 X80.008 Y90.297 E3.64409
G1 X79.733 Y90.477 E3.65016
G1 X79.444 Y90.622 E3.65615
G1 X79.221 Y90.709 E3.66059
G1 X78.992 Y90.775 E3.66499
G1 X78.685 Y90.831 E3.67075
G1 X78.212 Y90.845 E3.67952
G1 X77.977 Y90.821 E3.68388
G1 X77.668 Y90.755 E3.68972
G1 X77.367 Y90.653 E3.69562
G1 X77.075 Y90.516 E3.70158
G1 X76.796 Y90.345 E3.70763
G1 X76.533 Y90.142 E3.71378
G1 X76.229 Y89.846 E3.72163
G1 X75.959 Y89.507 E3.72965
G1 X75.692 Y89.092 E3.73878
G1 X75.504 Y88.687 E3.74703
G1 X75.125 Y88.607 E3.75419
G1 X74.914 Y88.027 E3.76561
G1 X74.832 Y87.658 E3.77260
G1 X74.794 Y87.377 E3.77784
G1 X74.776 Y87.094 E3.78309
G1 X74.785 Y86.717 E3.79007
G1 X74.832 Y86.342 E3.79706
G1 X74.890 Y86.065 E3.80231
G1 X75.000 Y85.703 E3.80930
G1 X75.145 Y85.354 E3.81629
G1 X75.323 Y85.021 E3.82328
G1 X75.533 Y84.707 E3.83027
G1 X75.772 Y84.415 E3.83725
G1 X76.039 Y84.147 E3.84425
G1 X76.332 Y83.908 E3.85124
G1 X76.646 Y83.698 E3.85822
G1 X76.979 Y83.520 E3.86522
G1 X77.328 Y83.375 E3.87221
G1 X77.690 Y83.265 E3.87920
G1 X78.060 Y83.192 E3.88618
G1 X78.436 Y83.155 E3.89317
G1 X78.814 Y83.155 E3.90016
G1 X79.190 Y83.192 E3.90715
G1 X79.560 Y83.265 E3.91414
G1 X79.922 Y83.375 E3.92113
G1 X80.271 Y83.520 E3.92812
G1 X80.604 Y83.698 E3.93511
G1 X80.918 Y83.908 E3.94210
G1 X81.211 Y84.147 E3.94909
G1 X81.478 Y84.414 E3.95608
G1 X81.717 Y84.707 E3.96307
G1 X81.927 Y85.021 E3.97006
G1 X82.105 Y85.354 E3.97705
G1 X82.250 Y85.703 E3.98404
G1 X82.360 Y86.065 E3.99103
G1 X82.433 Y86.435 E3.99802
G1 X82.470 Y86.811 E4.00501
G1 X82.470 Y87.189 E4.01200
G1 X82.433 Y87.565 E4.01899
G1 X82.357 Y87.945 E4.02617
G1 X82.341 Y88.427 F6000.000
G1 F1860.000 E1.02617
G92 E0
G1 X82.491 Y111.498 F6000.000
G1 E3.10000 F1860.000
G1 X82.686 Y112.310 E3.11545 F1200.000
G1 X82.640 Y112.314 E3.11631
G1 X82.640 Y112.494 E3.11963
G1 X82.706 Y112.500 E3.12086
G1 X82.721 Y113.100 E3.13197
G1 X82.678 Y113.601 E3.14128
G1 X82.574 Y114.093 E3.15057
G1 X82.408 Y114.574 E3.15999
G1 X82.139 Y115.107 E3.17102
G1 X81.855 Y115.521 E3.18031
G1 X81.522 Y115.897 E3.18961
G1 X81.140 Y116.234 E3.19903
G1 X80.645 Y116.565 E3.21006
G1 X80.193 Y116.785 E3.21935
G1 X79.718 Y116.949 E3.22865
G1 X79.226 Y117.053 E3.23795
G1 X78.726 Y117.096 E3.24724
G1 X78.223 Y117.078 E3.25654
G1 X77.727 Y116.998 E3.26583
G1 X77.245 Y116.858 E3.27513
G1 X76.783 Y116.660 E3.28443
G1 X76.349 Y116.407 E3.29372
G1 X75.949 Y116.102 E3.30302
G1 X75.523 Y115.676 E3.31417
G1 X75.218 Y115.276 E3.32347
G1 X74.965 Y114.842 E3.33277
G1 X74.767 Y114.380 E3.34206
G1 X74.627 Y113.898 E3.35136
G1 X74.547 Y113.402 E3.36065
G1 X74.529 Y112.899 E3.36995
G1 X74.572 Y112.398 E3.37925
G1 X74.676 Y111.907 E3.38854
G1 X74.840 Y111.432 E3.39784
G1 X75.086 Y110.925 E3.40827
G1 X75.447 Y110.847 E3.41509
G1 X75.526 Y110.690 E3.41836
G1 X75.757 Y110.350 E3.42595
G1 X76.108 Y109.921 E3.43621
G1 X76.511 Y109.557 E3.44626
G1 X76.880 Y109.309 E3.45449
G1 X77.356 Y109.086 E3.46420
G1 X77.771 Y108.965 E3.47220
G1 X78.197 Y108.908 E3.48015
G1 X78.626 Y108.914 E3.48809
G1 X79.050 Y108.985 E3.49605
G1 X79.543 Y109.151 E3.50567
G1 X79.933 Y109.355 E3.51380
G1 X80.365 Y109.671 E3.52371
G1 X80.691 Y109.988 E3.53213
G1 X81.033 Y110.427 E3.54243
G1 X81.274 Y110.834 E3.55117
G1 X81.494 Y111.326 E3.56114
G1 X81.528 Y111.329 E3.56178
G1 X81.554 Y111.412 E3.56339
G1 X82.428 Y111.492 E3.57964
G1 X81.498 Y112.177 F6000.000
G1 X81.556 Y112.636 E3.58818 F1200.000
G1 X82.467 Y112.725 E3.60511
G1 X82.465 Y113.283 E3.61544
G1 X82.381 Y113.844 E3.62592
G1 X82.250 Y114.297 E3.63466
G1 X82.020 Y114.815 E3.64514
G1 X81.773 Y115.217 E3.65387
G1 X81.478 Y115.585 E3.66261
G1 X81.140 Y115.915 E3.67134
G1 X80.764 Y116.201 E3.68008
G1 X80.356 Y116.439 E3.68881
G1 X79.922 Y116.625 E3.69755
G1 X79.469 Y116.756 E3.70628
G1 X79.002 Y116.831 E3.71502
G1 X78.531 Y116.849 E3.72375
G1 X77.967 Y116.793 E3.73423
G1 X77.417 Y116.656 E3.74471
G1 X76.979 Y116.480 E3.75345
G1 X76.486 Y116.201 E3.76393
G1 X76.110 Y115.915 E3.77266
G1 X75.710 Y115.515 E3.78314
G1 X75.424 Y115.139 E3.79188
G1 X75.186 Y114.731 E3.80061
G1 X74.969 Y114.208 E3.81109
G1 X74.832 Y113.658 E3.82157
G1 X74.780 Y113.189 E3.83031
G1 X74.794 Y112.623 E3.84079
G1 X74.869 Y112.156 E3.84952
G1 X75.033 Y111.614 E3.86000
G1 X75.252 Y111.142 E3.86963
G1 X75.610 Y111.065 E3.87641
G1 X75.909 Y110.565 E3.88718
G1 X76.230 Y110.154 E3.89683
G1 X76.597 Y109.804 E3.90621
G1 X77.007 Y109.522 E3.91543
G1 X77.441 Y109.318 E3.92430
G1 X77.899 Y109.192 E3.93309
G1 X78.290 Y109.151 E3.94036
G1 X78.760 Y109.179 E3.94906
G1 X79.145 Y109.267 E3.95637
G1 X79.590 Y109.446 E3.96525
G1 X79.944 Y109.657 E3.97287
G1 X80.329 Y109.971 E3.98206
G1 X80.622 Y110.288 E3.99005
G1 X80.924 Y110.714 E3.99971
G1 X81.134 Y111.109 E4.00799
G1 X81.312 Y111.557 E4.01690
G1 X81.340 Y111.560 E4.01742
G1 X81.366 Y111.643 E4.01904
G1 X82.296 Y111.728 E4.03631
G1 X82.383 Y112.091 E4.04322
G1 X81.561 Y112.171 E4.05850
G1 X81.749 Y112.514 F6000.000
G1 F1860.000 E1.05850
G92 E0
G1 X84.278 Y112.177 F6000.000
G1 E3.10000 F1860.000
G1 X84.278 Y116.546 E3.18081 F1200.000
G1 X84.237 Y116.960 E3.18852
G1 X84.187 Y117.160 E3.19234
G1 X84.076 Y117.449 E3.19806
G1 X83.979 Y117.631 E3.20188
G1 X83.800 Y117.884 E3.20760
G1 X83.509 Y118.175 E3.21522
G1 X83.256 Y118.354 E3.22095
G1 X83.074 Y118.451 E3.22477
G1 X82.785 Y118.562 E3.23049
G1 X82.585 Y118.612 E3.23431
G1 X82.171 Y118.653 E3.24201
G1 X75.079 Y118.653 E3.37321
G1 X74.766 Y118.630 E3.37901
G1 X74.465 Y118.562 E3.38473
G1 X74.176 Y118.451 E3.39045
G1 X73.907 Y118.298 E3.39618
G1 X73.741 Y118.175 E3.40000
G1 X73.517 Y117.962 E3.40572
G1 X73.327 Y117.718 E3.41144
G1 X73.174 Y117.449 E3.41717
G1 X73.063 Y117.160 E3.42289
G1 X72.995 Y116.859 E3.42861
G1 X72.972 Y116.546 E3.43441
G1 X72.975 Y83.347 E4.04860
G1 X73.035 Y82.939 E4.05623
G1 X73.174 Y82.551 E4.06385
G1 X73.386 Y82.197 E4.07148
G1 X73.663 Y81.892 E4.07910
G1 X73.994 Y81.646 E4.08673
G1 X74.367 Y81.470 E4.09436
G1 X74.766 Y81.370 E4.10198
G1 X75.079 Y81.347 E4.10778
G1 X82.171 Y81.347 E4.23898 F1200.000
G1 X82.483 Y81.370 E4.24478
G1 X82.785 Y81.438 E4.25050
G1 X82.980 Y81.507 E4.25432
G1 X83.256 Y81.646 E4.26004
G1 X83.509 Y81.825 E4.26577
G1 X83.733 Y82.038 E4.27149
G1 X83.923 Y82.282 E4.27721
G1 X84.076 Y82.551 E4.28294
G1 X84.187 Y82.840 E4.28866
G1 X84.255 Y83.141 E4.29438
G1 X84.278 Y83.454 E4.30018
G1 X84.278 Y112.114 E4.83041
G1 X84.525 Y112.177 F6000.000
G1 X84.525 Y116.549 E4.91128 F1200.000
G1 X84.514 Y116.780 E4.91557
G1 X84.455 Y117.121 E4.92196
G1 X84.346 Y117.449 E4.92836
G1 X84.248 Y117.658 E4.93262
G1 X84.129 Y117.856 E4.93689
G1 X83.916 Y118.128 E4.94329
G1 X83.666 Y118.367 E4.94968
G1 X83.481 Y118.504 E4.95395
G1 X83.180 Y118.674 E4.96035
G1 X82.967 Y118.763 E4.96461
G1 X82.520 Y118.875 E4.97313
G1 X82.174 Y118.900 E4.97955
G1 X75.076 Y118.900 E5.11086
G1 X74.617 Y118.855 E5.11941
G1 X74.176 Y118.721 E5.12793
G1 X73.867 Y118.566 E5.13432
G1 X73.584 Y118.367 E5.14072
G1 X73.334 Y118.128 E5.14712
G1 X73.059 Y117.758 E5.15564
G1 X72.904 Y117.449 E5.16204
G1 X72.770 Y117.008 E5.17056
G1 X72.728 Y116.665 E5.17695
G1 X72.725 Y83.451 E5.79142
G1 X72.736 Y83.220 E5.79571
G1 X72.795 Y82.879 E5.80211
G1 X72.904 Y82.551 E5.80850
G1 X73.059 Y82.242 E5.81490
G1 X73.258 Y81.959 E5.82130
G1 X73.497 Y81.709 E5.82769
G1 X73.675 Y81.562 E5.83196
G1 X73.967 Y81.378 E5.83836
G1 X74.283 Y81.237 E5.84475
G1 X74.617 Y81.145 E5.85115
G1 X75.076 Y81.100 E5.85970
G1 X82.290 Y81.103 E5.99316
G1 X82.746 Y81.170 E6.00168 F1200.000
G1 X83.180 Y81.326 E6.01020
G1 X83.575 Y81.562 E6.01872
G1 X83.837 Y81.788 E6.02512
G1 X84.129 Y82.144 E6.03364
G1 X84.299 Y82.445 E6.04004
G1 X84.455 Y82.879 E6.04856
G1 X84.522 Y83.335 E6.05708
G1 X84.525 Y112.114 E6.58952
G1 F1860.000 E3.58952
G92 E0
G1 X82.683 Y81.251 F6000.000
G1 X83.341 Y81.897 F6000.000
G1 E3.10000 F1860.000
G1 X83.677 Y82.233 E3.10881 F1200.000
G1 X84.044 Y82.951 F6000.000
G1 X82.665 Y81.572 E3.14488 F1200.000
G1 X82.251 Y81.508 E3.15264
G1 X84.116 Y83.374 E3.20144
G1 X84.116 Y83.725 E3.20794
G1 X81.898 Y81.506 E3.26598
G1 X81.546 Y81.506 E3.27247
G1 X84.116 Y84.076 E3.33970
G1 X84.116 Y84.427 E3.34620
G1 X81.195 Y81.506 E3.42261
G1 X80.844 Y81.506 E3.42911
G1 X84.116 Y84.778 E3.51470
G1 X84.116 Y85.129 E3.52120
G1 X80.493 Y81.506 E3.61598
G1 X80.142 Y81.506 E3.62248
G1 X84.116 Y85.480 E3.72645
G1 X84.116 Y85.831 E3.73295
G1 X79.791 Y81.506 E3.84610
G1 X79.440 Y81.506 E3.85260
G1 X84.116 Y86.183 E3.97494
G1 X84.116 Y86.534 E3.98143
