; generated by Slic3r 1.1.7 on 2014-12-09 at 22:44:21

; perimeters extrusion width = 0.42mm
; infill extrusion width = 0.74mm
; solid infill extrusion width = 0.71mm
; top infill extrusion width = 0.71mm
; support material extrusion width = 0.42mm

G21 ; set units to millimeters
M190 S65 ; wait for bed temperature to be reached
M104 S186 ; set temperature
G28 ; home all axes
M109 S186 ; wait for temperature to be reached
G90 ; use absolute coordinates
G92 E0
M82 ; use absolute distances for extrusion
G1 F1860.000 E-3.00000
G92 E0
G1 Z0.200 F6000.000
G1 X77.401 Y89.530 F6000.000
G1 E3.10000 F1860.000
G1 X78.109 Y88.970 E3.11669 F1200.000
G1 X78.598 Y88.644 E3.12756
G1 X79.265 Y88.267 E3.14173
G1 X80.086 Y87.897 E3.15840
G1 X80.941 Y87.608 E3.17509
G1 X81.497 Y87.469 E3.18571
G1 X82.265 Y87.336 E3.20012
G1 X82.850 Y87.278 E3.21099
G1 X83.450 Y87.258 E3.22210
G1 X116.716 Y87.260 E3.83752
G1 X117.616 Y87.321 E3.85421 F1200.000
G1 X118.505 Y87.469 E3.87090
G1 X119.376 Y87.704 E3.88758
G1 X120.220 Y88.023 E3.90427
G1 X121.028 Y88.424 E3.92096
G1 X121.793 Y88.901 E3.93763
G1 X122.508 Y89.451 E3.95432
G1 X123.165 Y90.069 E3.97101
G1 X123.759 Y90.748 E3.98770
G1 X124.283 Y91.482 E4.00439
G1 X124.733 Y92.264 E4.02107
G1 X125.103 Y93.086 E4.03776
G1 X125.392 Y93.941 E4.05445
G1 X125.595 Y94.820 E4.07114
G1 X125.681 Y95.398 E4.08195
G1 X125.740 Y96.291 E4.09851
G1 X125.740 Y103.715 E4.23586
G1 X125.720 Y104.166 E4.24421
G1 X125.616 Y105.062 E4.26089
G1 X125.424 Y105.943 E4.27758
G1 X125.257 Y106.494 E4.28824
G1 X125.101 Y106.921 E4.29664
G1 X124.729 Y107.743 E4.31332
G1 X124.512 Y108.141 E4.32172
G1 X124.099 Y108.793 E4.33600
G1 X123.549 Y109.508 E4.35269
G1 X123.248 Y109.844 E4.36103
G1 X122.599 Y110.470 E4.37772
G1 X122.252 Y110.759 E4.38606
G1 X121.518 Y111.283 E4.40274
G1 X121.022 Y111.580 E4.41344
G1 X120.330 Y111.928 E4.42778
G1 X119.795 Y112.149 E4.43849
G1 X119.370 Y112.298 E4.44681
G1 X118.936 Y112.426 E4.45519
G1 X118.180 Y112.595 E4.46951
G1 X117.735 Y112.664 E4.47785
G1 X117.146 Y112.722 E4.48880
G1 X116.550 Y112.742 E4.49983
G1 X83.284 Y112.740 E5.11525
G1 X82.834 Y112.720 E5.12359
G1 X82.243 Y112.662 E5.13457
G1 X81.495 Y112.531 E5.14863
G1 X81.057 Y112.424 E5.15697
G1 X80.506 Y112.257 E5.16763
G1 X80.079 Y112.101 E5.17603
G1 X79.372 Y111.787 E5.19034
G1 X78.864 Y111.515 E5.20101
G1 X78.207 Y111.099 E5.21538
G1 X77.843 Y110.833 E5.22373
G1 X77.156 Y110.248 E5.24043
G1 X76.738 Y109.829 E5.25136
G1 X76.241 Y109.252 E5.26545
G1 X75.970 Y108.891 E5.27381
G1 X75.644 Y108.402 E5.28467
G1 X75.267 Y107.735 E5.29885
G1 X75.072 Y107.330 E5.30718
G1 X74.742 Y106.490 E5.32387
G1 X74.576 Y105.942 E5.33445
G1 X74.405 Y105.180 E5.34891
G1 X74.336 Y104.735 E5.35724
G1 X74.278 Y104.144 E5.36823
G1 X74.258 Y103.550 E5.37922
G1 X74.260 Y96.285 E5.51364
G1 X74.321 Y95.384 E5.53033
G1 X74.469 Y94.495 E5.54701
G1 X74.704 Y93.624 E5.56369
G1 X74.899 Y93.079 E5.57440
G1 X75.213 Y92.372 E5.58871
G1 X75.485 Y91.864 E5.59938
G1 X75.901 Y91.207 E5.61376
G1 X76.245 Y90.743 E5.62445
G1 X76.752 Y90.156 E5.63880
G1 X77.355 Y89.572 E5.65432
G1 X77.563 Y89.717 F6000.000
G1 X78.251 Y89.172 E5.67056 F1200.000
G1 X78.729 Y88.853 E5.68119
G1 X79.376 Y88.488 E5.69493
G1 X80.175 Y88.127 E5.71115
G1 X81.007 Y87.846 E5.72739
G1 X81.551 Y87.710 E5.73778
G1 X82.295 Y87.581 E5.75175
G1 X82.867 Y87.525 E5.76238
G1 X83.450 Y87.506 E5.77317
G1 X116.709 Y87.508 E6.38848
G1 X117.585 Y87.566 E6.40472 F1200.000
G1 X118.451 Y87.710 E6.42095
G1 X119.298 Y87.939 E6.43719
G1 X120.119 Y88.249 E6.45343
G1 X120.906 Y88.639 E6.46967
G1 X121.650 Y89.103 E6.48589
G1 X122.346 Y89.638 E6.50214
G1 X122.986 Y90.239 E6.51837
G1 X123.564 Y90.900 E6.53461
G1 X124.074 Y91.614 E6.55085
G1 X124.512 Y92.375 E6.56709
G1 X124.873 Y93.175 E6.58333
G1 X125.154 Y94.007 E6.59957
G1 X125.352 Y94.862 E6.61581
G1 X125.435 Y95.428 E6.62639
G1 X125.493 Y96.297 E6.64250
G1 X125.492 Y103.709 E6.77964
G1 X125.474 Y104.148 E6.78775
G1 X125.372 Y105.019 E6.80399
G1 X125.186 Y105.877 E6.82023
G1 X125.022 Y106.417 E6.83066
G1 X124.870 Y106.832 E6.83883
G1 X124.508 Y107.631 E6.85507
G1 X124.297 Y108.019 E6.86324
G1 X123.897 Y108.651 E6.87708
G1 X123.361 Y109.346 E6.89332
G1 X123.069 Y109.674 E6.90144
G1 X122.437 Y110.283 E6.91767
G1 X122.100 Y110.564 E6.92579
G1 X121.386 Y111.074 E6.94203
G1 X120.901 Y111.364 E6.95249
G1 X120.229 Y111.702 E6.96639
G1 X119.706 Y111.919 E6.97687
G1 X119.293 Y112.063 E6.98496
G1 X118.870 Y112.188 E6.99312
G1 X118.138 Y112.352 E7.00700
G1 X117.705 Y112.419 E7.01511
G1 X117.129 Y112.475 E7.02582
G1 X116.550 Y112.494 E7.03653
G1 X83.291 Y112.492 E7.65184
G1 X82.852 Y112.474 E7.65995
G1 X82.274 Y112.416 E7.67070
G1 X81.549 Y112.290 E7.68432
G1 X81.123 Y112.186 E7.69244
G1 X80.583 Y112.022 E7.70287
G1 X80.168 Y111.870 E7.71104
G1 X79.483 Y111.566 E7.72491
G1 X78.986 Y111.300 E7.73535
G1 X78.350 Y110.897 E7.74928
G1 X77.995 Y110.638 E7.75741
G1 X77.326 Y110.069 E7.77365
G1 X76.918 Y109.660 E7.78434
G1 X76.436 Y109.100 E7.79800
G1 X76.172 Y108.749 E7.80613
G1 X75.853 Y108.271 E7.81676
G1 X75.488 Y107.624 E7.83050
G1 X75.298 Y107.229 E7.83861
G1 X74.977 Y106.412 E7.85485
G1 X74.814 Y105.877 E7.86521
G1 X74.648 Y105.138 E7.87921
G1 X74.581 Y104.705 E7.88732
G1 X74.525 Y104.127 E7.89807
G1 X74.506 Y103.550 E7.90874
G1 X74.508 Y96.291 E8.04304
G1 X74.566 Y95.415 E8.05929
G1 X74.710 Y94.549 E8.07552
G1 X74.939 Y93.702 E8.09175
G1 X75.130 Y93.168 E8.10223
G1 X75.434 Y92.483 E8.11610
G1 X75.700 Y91.986 E8.12654
G1 X76.103 Y91.350 E8.14047
G1 X76.440 Y90.895 E8.15094
G1 X76.931 Y90.326 E8.16484
G1 X77.516 Y89.759 E8.17991
G1 X77.724 Y89.904 F6000.000
G1 X78.394 Y89.374 E8.19571 F1200.000
G1 X78.861 Y89.063 E8.20610
G1 X79.487 Y88.709 E8.21940
G1 X80.264 Y88.358 E8.23517
G1 X81.073 Y88.085 E8.25097
G1 X81.605 Y87.951 E8.26113
G1 X82.325 Y87.826 E8.27465
G1 X82.885 Y87.772 E8.28505
G1 X83.450 Y87.753 E8.29551
G1 X116.703 Y87.755 E8.91070
G1 X117.555 Y87.812 E8.92649 F1200.000
G1 X118.397 Y87.952 E8.94228
G1 X119.221 Y88.174 E8.95807
G1 X120.019 Y88.475 E8.97386
G1 X120.784 Y88.854 E8.98965
G1 X121.508 Y89.305 E9.00543
G1 X122.185 Y89.826 E9.02122
G1 X122.807 Y90.410 E9.03701
G1 X123.369 Y91.052 E9.05280
G1 X123.865 Y91.747 E9.06859
G1 X124.291 Y92.486 E9.08438
G1 X124.642 Y93.264 E9.10017
G1 X124.915 Y94.073 E9.11596
G1 X125.108 Y94.904 E9.13175
G1 X125.190 Y95.457 E9.14209
G1 X125.245 Y96.303 E9.15777
G1 X125.245 Y103.703 E9.29468
G1 X125.227 Y104.130 E9.30258
G1 X125.129 Y104.977 E9.31836
G1 X124.947 Y105.812 E9.33416
G1 X124.787 Y106.339 E9.34435
G1 X124.640 Y106.742 E9.35230
G1 X124.288 Y107.520 E9.36809
G1 X124.082 Y107.897 E9.37603
G1 X123.695 Y108.508 E9.38943
G1 X123.174 Y109.185 E9.40522
G1 X122.890 Y109.503 E9.41312
G1 X122.276 Y110.096 E9.42890
G1 X121.948 Y110.369 E9.43680
G1 X121.254 Y110.865 E9.45258
G1 X120.779 Y111.149 E9.46282
G1 X120.129 Y111.476 E9.47627
G1 X119.617 Y111.688 E9.48652
G1 X119.216 Y111.828 E9.49439
G1 X118.804 Y111.949 E9.50233
G1 X118.096 Y112.108 E9.51576
G1 X117.675 Y112.174 E9.52365
G1 X117.111 Y112.229 E9.53412
G1 X116.550 Y112.247 E9.54451
G1 X83.297 Y112.245 E10.15970
G1 X82.871 Y112.227 E10.16759
G1 X82.305 Y112.171 E10.17810
G1 X81.603 Y112.048 E10.19129
G1 X81.188 Y111.947 E10.19918
G1 X80.661 Y111.787 E10.20938
G1 X80.258 Y111.640 E10.21733
G1 X79.863 Y111.473 E10.22525
G1 X79.215 Y111.146 E10.23867
G1 X78.848 Y110.929 E10.24656
G1 X78.394 Y110.626 E10.25667
G1 X78.048 Y110.365 E10.26469
G1 X77.497 Y109.890 E10.27815
G1 X77.097 Y109.490 E10.28861
G1 X76.631 Y108.948 E10.30183
G1 X76.374 Y108.606 E10.30973
G1 X76.063 Y108.139 E10.32013
G1 X75.709 Y107.513 E10.33343
G1 X75.524 Y107.129 E10.34131
G1 X75.211 Y106.335 E10.35710
G1 X75.052 Y105.811 E10.36724
G1 X74.892 Y105.096 E10.38080
G1 X74.826 Y104.675 E10.38868
G1 X74.771 Y104.109 E10.39919
G1 X74.753 Y103.550 E10.40954
G1 X74.755 Y96.297 E10.54373
G1 X74.812 Y95.445 E10.55952
G1 X74.952 Y94.603 E10.57531
G1 X75.174 Y93.779 E10.59109
G1 X75.360 Y93.258 E10.60134
G1 X75.655 Y92.594 E10.61477
G1 X75.915 Y92.108 E10.62498
G1 X76.305 Y91.492 E10.63847
G1 X76.635 Y91.048 E10.64870
G1 X77.110 Y90.497 E10.66216
G1 X77.677 Y89.946 E10.67678
G1 F1860.000 E7.67678
G92 E0
G1 X88.822 Y103.677 F6000.000
G1 E3.10000 F1860.000
G1 X88.285 Y103.891 E3.11069 F1200.000
G1 X87.701 Y104.037 E3.12183
G1 X87.201 Y104.092 E3.13114
G1 X86.599 Y104.078 E3.14228
G1 X86.011 Y103.976 E3.15331
G1 X85.525 Y103.823 E3.16274
G1 X84.980 Y103.565 E3.17389
G1 X84.479 Y103.230 E3.18504
G1 X84.033 Y102.825 E3.19619
G1 X83.650 Y102.359 E3.20735
G1 X83.383 Y101.925 E3.21677
G1 X83.142 Y101.380 E3.22779
G1 X82.982 Y100.799 E3.23894
G1 X82.908 Y100.201 E3.25010
G1 X82.922 Y99.598 E3.26125
G1 X83.002 Y99.102 E3.27055
G1 X83.142 Y98.620 E3.27984
G1 X83.296 Y98.248 E3.28728
G1 X83.486 Y97.894 E3.29472
G1 X83.709 Y97.559 E3.30216
G1 X83.964 Y97.248 E3.30960
G1 X84.248 Y96.964 E3.31703
G1 X84.559 Y96.709 E3.32447
G1 X84.981 Y96.435 E3.33377
G1 X85.340 Y96.254 E3.34121
G1 X85.715 Y96.109 E3.34865
G1 X86.201 Y95.982 E3.35794
G1 X86.598 Y95.922 E3.36538
G1 X87.000 Y95.903 E3.37282
G1 X87.401 Y95.922 E3.38026
G1 X87.799 Y95.981 E3.38770
G1 X88.236 Y96.083 E3.39599
G1 X88.323 Y96.991 E3.41286
G1 X88.650 Y97.098 E3.41923
G1 X89.095 Y97.281 E3.42814
G1 X89.098 Y97.316 E3.42878
G1 X89.494 Y97.540 E3.43720
G1 X89.799 Y97.756 E3.44412
G1 X90.079 Y97.997 E3.45094
G1 X90.270 Y98.192 E3.45600
G1 X90.598 Y98.617 E3.46594
G1 X90.849 Y99.082 E3.47570
G1 X91.015 Y99.575 E3.48533
G1 X91.086 Y99.999 E3.49328
G1 X91.092 Y100.428 E3.50123
G1 X91.015 Y100.938 E3.51077
G1 X90.883 Y101.351 E3.51878
G1 X90.645 Y101.821 E3.52852
G1 X90.330 Y102.253 E3.53842
G1 X89.943 Y102.640 E3.54854
G1 X89.725 Y102.813 E3.55369
G1 X89.308 Y103.100 E3.56306
G1 X88.902 Y103.298 E3.57141
G1 X88.835 Y103.615 E3.57740
G1 X88.607 Y103.500 F6000.000
G1 X88.118 Y103.684 E3.58707 F1200.000
G1 X87.565 Y103.808 E3.59755
G1 X87.094 Y103.849 E3.60629
G1 X86.529 Y103.821 E3.61677
G1 X85.973 Y103.711 E3.62725
G1 X85.523 Y103.555 E3.63605
G1 X85.021 Y103.302 E3.64646
G1 X84.558 Y102.976 E3.65694
G1 X84.150 Y102.588 E3.66735
G1 X83.852 Y102.217 E3.67616
G1 X83.603 Y101.811 E3.68496
G1 X83.375 Y101.297 E3.69537
G1 X83.224 Y100.751 E3.70585
G1 X83.160 Y100.283 E3.71458
G1 X83.160 Y99.717 E3.72506
G1 X83.244 Y99.156 E3.73554
G1 X83.344 Y98.792 E3.74253
G1 X83.480 Y98.440 E3.74952
G1 X83.650 Y98.102 E3.75651
G1 X83.852 Y97.783 E3.76350
G1 X84.147 Y97.414 E3.77224
G1 X84.414 Y97.147 E3.77923
G1 X84.707 Y96.908 E3.78622
G1 X85.021 Y96.698 E3.79321
G1 X85.354 Y96.520 E3.80020
G1 X85.703 Y96.375 E3.80719
G1 X86.065 Y96.265 E3.81418
G1 X86.435 Y96.192 E3.82117
G1 X86.811 Y96.155 E3.82816
G1 X87.189 Y96.155 E3.83515
G1 X87.565 Y96.192 E3.84214
G1 X88.007 Y96.282 E3.85047
G1 X88.093 Y97.186 E3.86726
G1 X88.467 Y97.295 E3.87447
G1 X88.862 Y97.451 E3.88233
G1 X88.864 Y97.478 E3.88283
G1 X89.209 Y97.656 E3.89002
G1 X89.507 Y97.847 E3.89656
G1 X89.781 Y98.061 E3.90299
G1 X90.029 Y98.296 E3.90931
G1 X90.345 Y98.684 E3.91857
G1 X90.589 Y99.107 E3.92761
G1 X90.755 Y99.556 E3.93647
G1 X90.839 Y100.021 E3.94521
G1 X90.845 Y100.413 E3.95246
G1 X90.775 Y100.880 E3.96119
G1 X90.622 Y101.332 E3.97002
G1 X90.391 Y101.761 E3.97903
G1 X90.086 Y102.155 E3.98825
G1 X89.906 Y102.340 E3.99303
G1 X89.647 Y102.562 E3.99934
G1 X89.092 Y102.933 E4.01169
G1 X88.687 Y103.121 E4.01994
G1 X88.620 Y103.438 E4.02594
G1 X88.678 Y103.914 F6000.000
G1 F1860.000 E1.02594
G92 E0
G1 X111.498 Y96.134 F6000.000
G1 E3.10000 F1860.000
G1 X112.310 Y95.939 E3.11545 F1200.000
G1 X112.314 Y95.985 E3.11631
G1 X112.494 Y95.985 E3.11963
G1 X112.500 Y95.919 E3.12087
G1 X113.100 Y95.904 E3.13197
G1 X113.601 Y95.947 E3.14128
G1 X114.093 Y96.051 E3.15057
G1 X114.574 Y96.217 E3.15999
G1 X115.107 Y96.486 E3.17102
G1 X115.521 Y96.770 E3.18031
G1 X115.897 Y97.103 E3.18961
G1 X116.234 Y97.485 E3.19903
G1 X116.565 Y97.980 E3.21006
G1 X116.785 Y98.432 E3.21935
G1 X116.949 Y98.907 E3.22865
G1 X117.053 Y99.399 E3.23795
G1 X117.096 Y99.899 E3.24724
G1 X117.078 Y100.402 E3.25654
G1 X116.998 Y100.898 E3.26583
G1 X116.858 Y101.380 E3.27513
G1 X116.660 Y101.842 E3.28443
G1 X116.407 Y102.276 E3.29372
G1 X116.103 Y102.676 E3.30302
G1 X115.752 Y103.036 E3.31232
G1 X115.359 Y103.350 E3.32162
G1 X114.842 Y103.660 E3.33277
G1 X114.380 Y103.858 E3.34206
G1 X113.898 Y103.998 E3.35136
G1 X113.402 Y104.078 E3.36065
G1 X112.899 Y104.096 E3.36995
G1 X112.398 Y104.053 E3.37925
G1 X111.907 Y103.949 E3.38854
G1 X111.432 Y103.785 E3.39784
G1 X110.925 Y103.539 E3.40827
G1 X110.847 Y103.178 E3.41509
G1 X110.690 Y103.099 E3.41836
G1 X110.350 Y102.868 E3.42596
G1 X109.921 Y102.517 E3.43621
G1 X109.557 Y102.114 E3.44626
G1 X109.309 Y101.745 E3.45449
G1 X109.086 Y101.269 E3.46420
G1 X108.965 Y100.854 E3.47220
G1 X108.908 Y100.428 E3.48015
G1 X108.914 Y99.999 E3.48809
G1 X108.986 Y99.568 E3.49618
G1 X109.151 Y99.082 E3.50567
G1 X109.354 Y98.692 E3.51380
G1 X109.671 Y98.260 E3.52371
G1 X109.988 Y97.934 E3.53213
G1 X110.427 Y97.592 E3.54243
G1 X110.834 Y97.351 E3.55117
G1 X111.326 Y97.131 E3.56114
G1 X111.329 Y97.097 E3.56179
G1 X111.412 Y97.071 E3.56339
G1 X111.492 Y96.197 E3.57964
G1 X112.177 Y97.127 F6000.000
G1 X112.636 Y97.069 E3.58818 F1200.000
G1 X112.725 Y96.158 E3.60511
G1 X113.283 Y96.160 E3.61544
G1 X113.844 Y96.244 E3.62592
G1 X114.386 Y96.408 E3.63640
G1 X114.815 Y96.605 E3.64514
G1 X115.217 Y96.852 E3.65387
G1 X115.585 Y97.147 E3.66261
G1 X115.915 Y97.485 E3.67134
G1 X116.201 Y97.861 E3.68008
G1 X116.439 Y98.269 E3.68881
G1 X116.625 Y98.703 E3.69755
G1 X116.756 Y99.156 E3.70628
G1 X116.831 Y99.623 E3.71502
G1 X116.849 Y100.094 E3.72375
G1 X116.793 Y100.658 E3.73423
G1 X116.656 Y101.208 E3.74471
G1 X116.480 Y101.646 E3.75345
G1 X116.201 Y102.139 E3.76393
G1 X115.915 Y102.515 E3.77266
G1 X115.585 Y102.853 E3.78140
G1 X115.139 Y103.201 E3.79188
G1 X114.731 Y103.439 E3.80061
G1 X114.208 Y103.656 E3.81109
G1 X113.662 Y103.793 E3.82150
G1 X113.189 Y103.845 E3.83031
G1 X112.623 Y103.831 E3.84078
G1 X112.156 Y103.756 E3.84952
G1 X111.614 Y103.592 E3.86000
G1 X111.142 Y103.373 E3.86963
G1 X111.065 Y103.015 E3.87641
G1 X110.565 Y102.716 E3.88718
G1 X110.154 Y102.395 E3.89683
G1 X109.804 Y102.028 E3.90621
G1 X109.522 Y101.618 E3.91543
G1 X109.318 Y101.184 E3.92430
G1 X109.192 Y100.726 E3.93309
G1 X109.151 Y100.335 E3.94036
G1 X109.179 Y99.865 E3.94906
G1 X109.267 Y99.480 E3.95637
G1 X109.446 Y99.035 E3.96525
G1 X109.657 Y98.681 E3.97287
G1 X109.971 Y98.296 E3.98206
G1 X110.288 Y98.003 E3.99005
G1 X110.714 Y97.701 E3.99971
G1 X111.109 Y97.491 E4.00799
G1 X111.557 Y97.313 E4.01690
G1 X111.560 Y97.285 E4.01742
G1 X111.643 Y97.259 E4.01904
G1 X111.728 Y96.329 E4.03631
G1 X112.091 Y96.242 E4.04322
G1 X112.171 Y97.064 E4.05850
G1 X112.514 Y96.876 F6000.000
G1 F1860.000 E1.05850
G92 E0
G1 X112.177 Y94.347 F6000.000
G1 E3.10000 F1860.000
G1 X116.546 Y94.347 E3.18081 F1200.000
G1 X116.960 Y94.388 E3.18852
G1 X117.258 Y94.470 E3.19424
G1 X117.449 Y94.549 E3.19806
G1 X117.631 Y94.646 E3.20188
G1 X117.884 Y94.825 E3.20760
G1 X118.108 Y95.038 E3.21332
G1 X118.239 Y95.197 E3.21714
G1 X118.404 Y95.459 E3.22286
G1 X118.493 Y95.645 E3.22668
G1 X118.612 Y96.040 E3.23431
G1 X118.653 Y96.454 E3.24201
G1 X118.653 Y103.546 E3.37321
G1 X118.612 Y103.960 E3.38091
G1 X118.493 Y104.355 E3.38853
G1 X118.354 Y104.631 E3.39426
G1 X118.175 Y104.884 E3.39998
G1 X117.884 Y105.175 E3.40761
G1 X117.541 Y105.404 E3.41523
G1 X117.258 Y105.530 E3.42096
G1 X116.859 Y105.630 E3.42858
G1 X116.546 Y105.653 E3.43438
G1 X83.454 Y105.653 E4.04658
G1 X83.142 Y105.630 E4.05239
G1 X82.742 Y105.530 E4.06001
G1 X82.459 Y105.404 E4.06573
G1 X82.197 Y105.239 E4.07146
G1 X82.038 Y105.108 E4.07528
G1 X81.825 Y104.884 E4.08100
G1 X81.646 Y104.631 E4.08672
G1 X81.507 Y104.355 E4.09245
G1 X81.410 Y104.061 E4.09817
G1 X81.370 Y103.859 E4.10199
G1 X81.347 Y103.546 E4.10779
G1 X81.350 Y96.347 E4.24097
G1 X81.410 Y95.939 E4.24860
G1 X81.549 Y95.551 E4.25622
G1 X81.761 Y95.197 E4.26385
G1 X82.038 Y94.892 E4.27147
G1 X82.369 Y94.646 E4.27910
G1 X82.742 Y94.470 E4.28673
G1 X83.141 Y94.370 E4.29435
G1 X83.454 Y94.347 E4.30015
