; generated by Slic3r 1.1.7 on 2014-12-05 at 11:15:39

; perimeters extrusion width = 0.42mm
; infill extrusion width = 0.74mm
; solid infill extrusion width = 0.71mm
; top infill extrusion width = 0.71mm

G21 ; set units to millimeters
M190 S60 ; wait for bed temperature to be reached
M104 S186 ; set temperature
G28 ; home all axes
M109 S186 ; wait for temperature to be reached
G90 ; use absolute coordinates
G92 E0
M82 ; use absolute distances for extrusion
M106 S127
G1 F1860.000 E-3.00000
G92 E0
G1 Z0.200 F6000.000
G1 X77.563 Y89.717 F6000.000
G1 E3.10000 F1860.000
G1 X78.251 Y89.172 E3.11624 F1200.000
G1 X78.729 Y88.853 E3.12687
G1 X79.376 Y88.488 E3.14061
G1 X80.175 Y88.127 E3.15683
G1 X81.007 Y87.846 E3.17307
G1 X81.551 Y87.710 E3.18346
G1 X82.295 Y87.581 E3.19743
G1 X82.867 Y87.525 E3.20806
G1 X83.450 Y87.506 E3.21885
G1 X116.709 Y87.508 E3.83416
G1 X117.585 Y87.566 E3.85040 F1200.000
G1 X118.451 Y87.710 E3.86663
G1 X119.298 Y87.939 E3.88287
G1 X120.119 Y88.249 E3.89911
G1 X120.906 Y88.639 E3.91535
G1 X121.650 Y89.103 E3.93157
G1 X122.346 Y89.638 E3.94782
G1 X122.986 Y90.239 E3.96405
G1 X123.564 Y90.900 E3.98030
G1 X124.074 Y91.614 E3.99653
G1 X124.512 Y92.375 E4.01277
G1 X124.873 Y93.175 E4.02901
G1 X125.154 Y94.007 E4.04525
G1 X125.352 Y94.862 E4.06149
G1 X125.435 Y95.428 E4.07207
G1 X125.493 Y96.297 E4.08818
G1 X125.492 Y103.709 E4.22532
G1 X125.474 Y104.148 E4.23343
G1 X125.372 Y105.019 E4.24967
G1 X125.186 Y105.877 E4.26591
G1 X125.022 Y106.417 E4.27634
G1 X124.870 Y106.832 E4.28451
G1 X124.508 Y107.631 E4.30075
G1 X124.297 Y108.019 E4.30892
G1 X123.897 Y108.651 E4.32276
G1 X123.361 Y109.346 E4.33900
G1 X123.069 Y109.674 E4.34712
G1 X122.437 Y110.283 E4.36335
G1 X122.100 Y110.564 E4.37148
G1 X121.386 Y111.074 E4.38771
G1 X120.901 Y111.364 E4.39817
G1 X120.229 Y111.702 E4.41207
G1 X119.706 Y111.919 E4.42255
G1 X119.293 Y112.063 E4.43064
G1 X118.870 Y112.188 E4.43880
G1 X118.138 Y112.352 E4.45268
G1 X117.705 Y112.419 E4.46079
G1 X117.129 Y112.475 E4.47150
G1 X116.550 Y112.494 E4.48221
G1 X83.291 Y112.492 E5.09752
G1 X82.852 Y112.474 E5.10563
G1 X82.274 Y112.416 E5.11638
G1 X81.549 Y112.290 E5.13000
G1 X81.123 Y112.186 E5.13812
G1 X80.583 Y112.022 E5.14855
G1 X80.168 Y111.870 E5.15672
G1 X79.483 Y111.566 E5.17059
G1 X78.986 Y111.300 E5.18103
G1 X78.350 Y110.897 E5.19496
G1 X77.995 Y110.638 E5.20309
G1 X77.326 Y110.069 E5.21933
G1 X76.918 Y109.660 E5.23002
G1 X76.436 Y109.100 E5.24368
G1 X76.172 Y108.749 E5.25181
G1 X75.853 Y108.271 E5.26244
G1 X75.488 Y107.624 E5.27618
G1 X75.298 Y107.229 E5.28429
G1 X74.977 Y106.412 E5.30053
G1 X74.814 Y105.877 E5.31089
G1 X74.648 Y105.138 E5.32489
G1 X74.581 Y104.705 E5.33300
G1 X74.525 Y104.127 E5.34375
G1 X74.506 Y103.550 E5.35442
G1 X74.508 Y96.291 E5.48872
G1 X74.566 Y95.415 E5.50497
G1 X74.710 Y94.549 E5.52120
G1 X74.939 Y93.702 E5.53744
G1 X75.130 Y93.168 E5.54791
G1 X75.434 Y92.483 E5.56178
G1 X75.700 Y91.986 E5.57222
G1 X76.103 Y91.350 E5.58615
G1 X76.440 Y90.895 E5.59662
G1 X76.931 Y90.326 E5.61052
G1 X77.516 Y89.759 E5.62559
G1 X77.724 Y89.904 F6000.000
G1 X78.394 Y89.374 E5.64139 F1200.000
G1 X78.861 Y89.063 E5.65178
G1 X79.487 Y88.709 E5.66508
G1 X80.264 Y88.358 E5.68085
G1 X81.073 Y88.085 E5.69665
G1 X81.605 Y87.951 E5.70681
G1 X82.325 Y87.826 E5.72033
G1 X82.885 Y87.772 E5.73073
G1 X83.450 Y87.753 E5.74119
G1 X116.703 Y87.755 E6.35638
G1 X117.555 Y87.812 E6.37218 F1200.000
G1 X118.397 Y87.952 E6.38796
G1 X119.221 Y88.174 E6.40375
G1 X120.019 Y88.475 E6.41954
G1 X120.784 Y88.854 E6.43533
G1 X121.508 Y89.305 E6.45111
G1 X122.185 Y89.826 E6.46690
G1 X122.807 Y90.410 E6.48269
G1 X123.369 Y91.052 E6.49848
G1 X123.865 Y91.747 E6.51427
G1 X124.291 Y92.486 E6.53006
G1 X124.642 Y93.264 E6.54585
G1 X124.915 Y94.073 E6.56164
G1 X125.108 Y94.904 E6.57743
G1 X125.190 Y95.457 E6.58777
G1 X125.245 Y96.303 E6.60345
G1 X125.245 Y103.703 E6.74036
G1 X125.227 Y104.130 E6.74826
G1 X125.129 Y104.977 E6.76404
G1 X124.947 Y105.812 E6.77984
G1 X124.787 Y106.339 E6.79003
G1 X124.640 Y106.742 E6.79798
G1 X124.288 Y107.520 E6.81377
G1 X124.082 Y107.897 E6.82171
G1 X123.695 Y108.508 E6.83511
G1 X123.174 Y109.185 E6.85090
G1 X122.890 Y109.503 E6.85880
G1 X122.276 Y110.096 E6.87458
G1 X121.948 Y110.369 E6.88248
G1 X121.254 Y110.865 E6.89827
G1 X120.779 Y111.149 E6.90850
G1 X120.129 Y111.476 E6.92195
G1 X119.617 Y111.688 E6.93220
G1 X119.216 Y111.828 E6.94007
G1 X118.804 Y111.949 E6.94801
G1 X118.096 Y112.108 E6.96144
G1 X117.675 Y112.174 E6.96933
G1 X117.111 Y112.229 E6.97980
G1 X116.550 Y112.247 E6.99019
G1 X83.297 Y112.245 E7.60538
G1 X82.871 Y112.227 E7.61327
G1 X82.305 Y112.171 E7.62378
G1 X81.603 Y112.048 E7.63697
G1 X81.188 Y111.947 E7.64486
G1 X80.661 Y111.787 E7.65506
G1 X80.258 Y111.640 E7.66301
G1 X79.863 Y111.473 E7.67093
G1 X79.215 Y111.146 E7.68435
G1 X78.848 Y110.929 E7.69224
G1 X78.394 Y110.626 E7.70235
G1 X78.048 Y110.365 E7.71037
G1 X77.497 Y109.890 E7.72383
G1 X77.097 Y109.490 E7.73429
G1 X76.631 Y108.948 E7.74751
G1 X76.374 Y108.606 E7.75542
G1 X76.063 Y108.139 E7.76581
G1 X75.709 Y107.513 E7.77911
G1 X75.524 Y107.129 E7.78699
G1 X75.211 Y106.335 E7.80279
G1 X75.052 Y105.811 E7.81292
G1 X74.892 Y105.096 E7.82648
G1 X74.826 Y104.675 E7.83436
G1 X74.771 Y104.109 E7.84487
G1 X74.753 Y103.550 E7.85522
G1 X74.755 Y96.297 E7.98941
G1 X74.812 Y95.445 E8.00520
G1 X74.952 Y94.603 E8.02099
G1 X75.174 Y93.779 E8.03677
G1 X75.360 Y93.258 E8.04702
G1 X75.655 Y92.594 E8.06045
G1 X75.915 Y92.108 E8.07066
G1 X76.305 Y91.492 E8.08415
G1 X76.635 Y91.048 E8.09438
G1 X77.110 Y90.497 E8.10784
G1 X77.677 Y89.946 E8.12246
G1 F1860.000 E5.12246
G92 E0
G1 X89.825 Y102.968 F6000.000
G1 E3.10000 F1860.000
G1 X89.441 Y103.291 E3.10929 F1200.000
G1 X89.020 Y103.565 E3.11859
G1 X88.568 Y103.785 E3.12788
G1 X88.093 Y103.949 E3.13718
G1 X87.601 Y104.053 E3.14647
G1 X87.100 Y104.096 E3.15578
G1 X86.599 Y104.078 E3.16507
G1 X86.102 Y103.998 E3.17437
G1 X85.620 Y103.858 E3.18366
G1 X85.158 Y103.660 E3.19296
G1 X84.724 Y103.407 E3.20225
G1 X84.324 Y103.102 E3.21155
G1 X83.964 Y102.751 E3.22085
G1 X83.650 Y102.359 E3.23015
G1 X83.387 Y101.932 E3.23944
G1 X83.177 Y101.475 E3.24874
G1 X83.026 Y100.995 E3.25803
G1 X82.934 Y100.501 E3.26733
G1 X82.903 Y100.000 E3.27662
G1 X82.934 Y99.498 E3.28592
G1 X83.026 Y99.004 E3.29522
G1 X83.177 Y98.525 E3.30452
G1 X83.387 Y98.069 E3.31381
G1 X83.650 Y97.641 E3.32311
G1 X83.964 Y97.248 E3.33240
G1 X84.324 Y96.897 E3.34170
G1 X84.724 Y96.593 E3.35099
G1 X85.158 Y96.340 E3.36029
G1 X85.620 Y96.142 E3.36959
G1 X86.102 Y96.002 E3.37888
G1 X86.598 Y95.922 E3.38818
G1 X87.007 Y95.903 E3.39574
G1 X87.601 Y95.947 E3.40677 F1200.000
G1 X88.189 Y96.079 E3.41792
G1 X88.752 Y96.296 E3.42907
G1 X89.276 Y96.593 E3.44023
G1 X89.751 Y96.964 E3.45138
G1 X90.167 Y97.401 E3.46253
G1 X90.514 Y97.894 E3.47368
G1 X90.785 Y98.432 E3.48483
G1 X90.974 Y99.005 E3.49599
G1 X91.078 Y99.599 E3.50714
G1 X91.092 Y100.201 E3.51830
G1 X91.019 Y100.799 E3.52945
G1 X90.858 Y101.380 E3.54060
G1 X90.613 Y101.931 E3.55175
G1 X90.291 Y102.441 E3.56290
G1 X90.103 Y102.676 E3.56848
G1 X89.870 Y102.924 E3.57476
G1 X89.655 Y102.788 F6000.000
G1 X89.293 Y103.092 E3.58349 F1200.000
G1 X88.898 Y103.350 E3.59223
G1 X88.473 Y103.557 E3.60096
G1 X88.031 Y103.709 E3.60963
G1 X87.654 Y103.794 E3.61676
G1 X87.189 Y103.845 E3.62543
G1 X86.717 Y103.840 E3.63416
G1 X86.249 Y103.776 E3.64290
G1 X85.792 Y103.656 E3.65163
G1 X85.354 Y103.480 E3.66037
G1 X84.940 Y103.253 E3.66910
G1 X84.558 Y102.976 E3.67784
G1 X84.212 Y102.655 E3.68657
G1 X83.908 Y102.293 E3.69531
G1 X83.650 Y101.898 E3.70404
G1 X83.443 Y101.473 E3.71278
G1 X83.289 Y101.027 E3.72151
G1 X83.192 Y100.565 E3.73025
G1 X83.151 Y100.094 E3.73898
G1 X83.169 Y99.623 E3.74772
G1 X83.244 Y99.156 E3.75645
G1 X83.375 Y98.703 E3.76519
G1 X83.561 Y98.269 E3.77392
G1 X83.799 Y97.861 E3.78266
G1 X84.085 Y97.485 E3.79139
G1 X84.414 Y97.147 E3.80013
G1 X84.783 Y96.852 E3.80887
G1 X85.185 Y96.605 E3.81760
G1 X85.614 Y96.408 E3.82634
G1 X86.065 Y96.265 E3.83507
G1 X86.529 Y96.179 E3.84381
G1 X86.909 Y96.151 E3.85087
G1 X87.471 Y96.179 E3.86128 F1200.000
G1 X88.027 Y96.289 E3.87176
G1 X88.560 Y96.480 E3.88223
G1 X88.815 Y96.605 E3.88748
G1 X89.136 Y96.797 E3.89440
G1 X89.585 Y97.147 E3.90495
G1 X89.976 Y97.558 E3.91543
G1 X90.302 Y98.021 E3.92591
G1 X90.557 Y98.527 E3.93638
G1 X90.735 Y99.065 E3.94686
G1 X90.831 Y99.623 E3.95734
G1 X90.845 Y100.189 E3.96782
G1 X90.776 Y100.751 E3.97830
G1 X90.625 Y101.297 E3.98878
G1 X90.395 Y101.815 E3.99926
G1 X90.092 Y102.293 E4.00974
G1 X89.700 Y102.744 E4.02080
G1 F1860.000 E1.02080
G92 E0
G1 X86.857 Y95.734 F6000.000
G1 X108.934 Y100.501 F6000.000
G1 E3.10000 F1860.000
G1 X108.904 Y100.100 E3.10744 F1200.000
G1 X108.922 Y99.598 E3.11673
G1 X108.981 Y99.201 E3.12417
G1 X109.110 Y98.715 E3.13347
G1 X109.296 Y98.248 E3.14276
G1 X109.486 Y97.894 E3.15020
G1 X109.709 Y97.559 E3.15764
G1 X109.964 Y97.248 E3.16508
G1 X110.248 Y96.964 E3.17252
G1 X110.635 Y96.654 E3.18169
G1 X110.981 Y96.435 E3.18926
G1 X111.340 Y96.254 E3.19670
G1 X111.715 Y96.109 E3.20413
G1 X112.201 Y95.982 E3.21343
G1 X112.598 Y95.922 E3.22087
G1 X113.007 Y95.903 E3.22843
G1 X113.601 Y95.947 E3.23946 F1200.000
G1 X114.189 Y96.079 E3.25061
G1 X114.752 Y96.296 E3.26176
G1 X115.271 Y96.590 E3.27279
G1 X115.676 Y96.898 E3.28221
G1 X116.102 Y97.324 E3.29336
G1 X116.462 Y97.808 E3.30452
G1 X116.746 Y98.340 E3.31567
G1 X116.949 Y98.907 E3.32682
G1 X117.053 Y99.399 E3.33612
G1 X117.097 Y100.000 E3.34727
G1 X117.053 Y100.601 E3.35842
G1 X116.921 Y101.189 E3.36957
G1 X116.743 Y101.667 E3.37900
G1 X116.462 Y102.192 E3.39002
G1 X116.103 Y102.676 E3.40117
G1 X115.676 Y103.102 E3.41233
G1 X115.192 Y103.461 E3.42347
G1 X114.660 Y103.746 E3.43463
G1 X114.099 Y103.947 E3.44566
G1 X113.594 Y104.054 E3.45520
G1 X113.000 Y104.097 E3.46623
G1 X112.398 Y104.053 E3.47739
G1 X111.811 Y103.921 E3.48853
G1 X111.248 Y103.704 E3.49968
G1 X110.808 Y103.462 E3.50899
G1 X110.324 Y103.102 E3.52014
G1 X109.898 Y102.676 E3.53129
G1 X109.538 Y102.192 E3.54244
G1 X109.254 Y101.660 E3.55360
G1 X109.051 Y101.093 E3.56475
G1 X108.942 Y100.564 E3.57474
G1 X109.179 Y100.471 F6000.000
G1 X109.151 Y100.094 E3.58173 F1200.000
G1 X109.169 Y99.623 E3.59046
G1 X109.224 Y99.249 E3.59745
G1 X109.316 Y98.882 E3.60444
G1 X109.443 Y98.527 E3.61143
G1 X109.605 Y98.185 E3.61842
G1 X109.801 Y97.858 E3.62548
G1 X110.085 Y97.485 E3.63414
G1 X110.414 Y97.147 E3.64288
G1 X110.707 Y96.908 E3.64987
G1 X111.021 Y96.698 E3.65686
G1 X111.354 Y96.520 E3.66385
G1 X111.703 Y96.375 E3.67084
G1 X112.156 Y96.244 E3.67958
G1 X112.529 Y96.179 E3.68656
G1 X112.909 Y96.151 E3.69363
G1 X113.471 Y96.179 E3.70404 F1200.000
G1 X114.027 Y96.289 E3.71451
G1 X114.560 Y96.480 E3.72499
G1 X115.060 Y96.747 E3.73547
G1 X115.442 Y97.024 E3.74421
G1 X115.853 Y97.415 E3.75469
G1 X116.201 Y97.861 E3.76517
G1 X116.480 Y98.354 E3.77565
G1 X116.684 Y98.882 E3.78613
G1 X116.808 Y99.435 E3.79661
G1 X116.850 Y100.000 E3.80708
G1 X116.821 Y100.475 E3.81589
G1 X116.711 Y101.027 E3.82630
G1 X116.520 Y101.560 E3.83678
G1 X116.253 Y102.060 E3.84726
G1 X115.915 Y102.515 E3.85774
G1 X115.515 Y102.915 E3.86822
G1 X115.060 Y103.253 E3.87869
G1 X114.560 Y103.520 E3.88918
G1 X114.031 Y103.709 E3.89958
G1 X113.471 Y103.821 E3.91013
G1 X112.996 Y103.850 E3.91894
G1 X112.435 Y103.808 E3.92935
G1 X111.882 Y103.684 E3.93983
G1 X111.357 Y103.482 E3.95023
G1 X110.940 Y103.253 E3.95904
G1 X110.485 Y102.915 E3.96952
G1 X110.085 Y102.515 E3.98000
G1 X109.747 Y102.060 E3.99048
G1 X109.480 Y101.560 E4.00096
G1 X109.289 Y101.027 E4.01144
G1 X109.187 Y100.534 E4.02076
G1 F1860.000 E1.02076
G92 E0
G1 X113.012 Y95.744 F6000.000
G1 X109.179 Y105.653 F6000.000
G1 E3.10000 F1860.000
G1 X83.454 Y105.653 E3.57591 F1200.000
G1 X83.040 Y105.612 E3.58362
G1 X82.645 Y105.493 E3.59124
G1 X82.459 Y105.404 E3.59506
G1 X82.197 Y105.239 E3.60078
G1 X82.038 Y105.108 E3.60460
G1 X81.825 Y104.884 E3.61032
G1 X81.646 Y104.631 E3.61605
G1 X81.507 Y104.355 E3.62177
G1 X81.410 Y104.061 E3.62749
G1 X81.370 Y103.859 E3.63131
G1 X81.347 Y103.546 E3.63711
G1 X81.350 Y96.347 E3.77030
G1 X81.410 Y95.939 E3.77792
G1 X81.549 Y95.551 E3.78555
G1 X81.761 Y95.197 E3.79317
G1 X82.038 Y94.892 E3.80080
G1 X82.369 Y94.646 E3.80842
G1 X82.742 Y94.470 E3.81605
G1 X83.141 Y94.370 E3.82368
G1 X83.454 Y94.347 E3.82948
G1 X116.546 Y94.347 E4.44168 F1200.000
G1 X116.960 Y94.388 E4.44938
G1 X117.355 Y94.507 E4.45701
G1 X117.631 Y94.646 E4.46273
G1 X117.884 Y94.825 E4.46845
G1 X118.108 Y95.038 E4.47418
G1 X118.239 Y95.197 E4.47799
G1 X118.404 Y95.459 E4.48372
G1 X118.493 Y95.645 E4.48754
G1 X118.590 Y95.939 E4.49326
G1 X118.643 Y96.244 E4.49898
G1 X118.650 Y103.653 E4.63606
G1 X118.612 Y103.960 E4.64178
G1 X118.530 Y104.258 E4.64750
G1 X118.404 Y104.541 E4.65322
G1 X118.239 Y104.803 E4.65895
G1 X117.962 Y105.108 E4.66657
G1 X117.803 Y105.239 E4.67039
G1 X117.541 Y105.404 E4.67611
G1 X117.160 Y105.562 E4.68374
G1 X116.756 Y105.643 E4.69137
G1 X109.242 Y105.653 E4.83038
G1 X109.179 Y105.900 F6000.000
G1 X83.451 Y105.900 E5.30635 F1200.000
G1 X82.992 Y105.855 E5.31489
G1 X82.551 Y105.721 E5.32342
G1 X82.342 Y105.623 E5.32768
G1 X82.050 Y105.438 E5.33408
G1 X81.788 Y105.212 E5.34048
G1 X81.562 Y104.950 E5.34687
G1 X81.377 Y104.658 E5.35327
G1 X81.237 Y104.342 E5.35967
G1 X81.145 Y104.008 E5.36606
G1 X81.111 Y103.780 E5.37033
G1 X81.103 Y96.335 E5.50807
G1 X81.145 Y95.992 E5.51447
G1 X81.237 Y95.658 E5.52087
G1 X81.377 Y95.342 E5.52726
G1 X81.496 Y95.144 E5.53153
G1 X81.633 Y94.959 E5.53580
G1 X81.872 Y94.709 E5.54219
G1 X82.050 Y94.562 E5.54646
G1 X82.342 Y94.377 E5.55286
G1 X82.768 Y94.201 E5.56138
G1 X82.992 Y94.145 E5.56564
G1 X83.335 Y94.103 E5.57204
G1 X116.665 Y94.103 E6.18866
G1 X117.008 Y94.145 E6.19506 F1200.000
G1 X117.449 Y94.279 E6.20358
G1 X117.758 Y94.434 E6.20998
G1 X118.128 Y94.709 E6.21850
G1 X118.367 Y94.959 E6.22490
G1 X118.622 Y95.342 E6.23342
G1 X118.763 Y95.658 E6.23982
G1 X118.855 Y95.992 E6.24621
G1 X118.900 Y96.451 E6.25476
G1 X118.897 Y103.665 E6.38822
G1 X118.855 Y104.008 E6.39462
G1 X118.799 Y104.232 E6.39888
G1 X118.674 Y104.555 E6.40528
G1 X118.566 Y104.758 E6.40955
G1 X118.367 Y105.041 E6.41594
G1 X118.212 Y105.212 E6.42021
G1 X118.041 Y105.367 E6.42448
G1 X117.758 Y105.566 E6.43087
G1 X117.555 Y105.674 E6.43514
G1 X117.232 Y105.799 E6.44154
G1 X116.780 Y105.889 E6.45006
G1 X109.242 Y105.900 E6.58952
G1 F1860.000 E3.58952
G92 E0
G1 X116.950 Y94.299 F6000.000
G1 X117.765 Y94.946 F6000.000
G1 E3.10000 F1860.000
G1 X118.054 Y95.235 E3.10755 F1200.000
G1 X118.428 Y95.960 F6000.000
G1 X117.049 Y94.581 E3.14364 F1200.000
G1 X116.625 Y94.508 E3.15159
G1 X118.491 Y96.374 E3.20040
G1 X118.491 Y96.725 E3.20690
G1 X116.272 Y94.506 E3.26495
G1 X115.921 Y94.506 E3.27145
G1 X118.491 Y97.076 E3.33869
G1 X118.491 Y97.428 E3.34518
G1 X115.570 Y94.506 E3.42161
G1 X115.219 Y94.506 E3.42811
G1 X118.491 Y97.779 E3.51373
G1 X118.492 Y98.130 E3.52022
G1 X114.868 Y94.506 E3.61503
G1 X114.517 Y94.506 E3.62153
G1 X118.492 Y98.481 E3.72552
G1 X118.492 Y98.832 E3.73202
G1 X114.166 Y94.506 E3.84520
G1 X113.815 Y94.506 E3.85170
G1 X118.492 Y99.184 E3.97407
G1 X118.492 Y99.535 E3.98056
G1 X116.387 Y97.430 E4.03563
G1 X116.898 Y98.292 F6000.000
G1 X118.492 Y99.886 E4.07734 F1200.000
G1 X118.492 Y100.237 E4.08384
G1 X117.088 Y98.833 E4.12057
G1 X117.191 Y99.287 E4.12919
G1 X118.492 Y100.588 E4.16323
G1 X118.493 Y100.940 E4.16972
G1 X117.240 Y99.687 E4.20250
G1 X117.252 Y100.050 E4.20921
G1 X118.493 Y101.291 E4.24168
G1 X118.493 Y101.642 E4.24818
G1 X117.236 Y100.385 E4.28106
G1 X117.198 Y100.698 E4.28688
G1 X118.493 Y101.993 E4.32078
G1 X118.493 Y102.344 E4.32727
G1 X117.136 Y100.987 E4.36279
G1 X117.060 Y101.263 E4.36807
G1 X118.493 Y102.696 E4.40556
G1 X118.493 Y103.047 E4.41206
G1 X116.973 Y101.527 E4.45183
G1 X116.866 Y101.770 E4.45676
G1 X118.494 Y103.398 E4.49935
G1 X118.479 Y103.735 E4.50558
G1 X116.750 Y102.006 E4.55083
G1 X116.623 Y102.230 E4.55559
G1 X118.427 Y104.034 E4.60279
G1 X118.339 Y104.297 E4.60792
G1 X116.482 Y102.440 E4.65651
G1 X116.335 Y102.643 E4.66116
G1 X118.222 Y104.530 E4.71053
