; generated by Slic3r 1.1.7 on 2014-12-21 at 07:24:36

; perimeters extrusion width = 0.42mm
; infill extrusion width = 0.74mm
; solid infill extrusion width = 0.71mm
; top infill extrusion width = 0.71mm
; support material extrusion width = 0.42mm

G21 ; set units to millimeters
M190 S107 ; wait for bed temperature to be reached
M104 S220 ; set temperature
G28 ; home all axes Start of G Code Slic3r
 
M109 S220 ; wait for temperature to be reached
G90 ; use absolute coordinates
G92 E0
M82 ; use absolute distances for extrusion
M106 S127
G1 F1860.000 E-3.00000
G92 E0
G1 Z0.200 F6000.000
G1 X62.730 Y76.192 F6000.000
G1 E3.10000 F1860.000
G1 X63.347 Y75.729 E3.11478 F1200.000
G1 X63.998 Y75.312 E3.12958
G1 X64.678 Y74.945 E3.14437
G1 X65.382 Y74.629 E3.15916
G1 X65.864 Y74.447 E3.16903
G1 X66.602 Y74.219 E3.18382
G1 X67.355 Y74.047 E3.19862
G1 X68.118 Y73.930 E3.21340
G1 X124.408 Y68.180 E4.29701
G1 X125.125 Y68.151 E4.31077
G1 X132.385 Y68.153 E4.44980
G1 X133.261 Y68.212 E4.46661 F1200.000
G1 X133.824 Y68.296 E4.47753
G1 X134.553 Y68.460 E4.49182
G1 X135.388 Y68.729 E4.50863
G1 X136.192 Y69.080 E4.52543
G1 X136.692 Y69.347 E4.53628
G1 X137.424 Y69.818 E4.55295
G1 X138.022 Y70.284 E4.56747
G1 X138.661 Y70.885 E4.58427
G1 X138.958 Y71.208 E4.59269
G1 X139.503 Y71.896 E4.60949
G1 X139.978 Y72.635 E4.62631
G1 X140.377 Y73.416 E4.64311
G1 X140.548 Y73.821 E4.65153
G1 X140.829 Y74.652 E4.66832
G1 X141.027 Y75.508 E4.68515
G1 X141.140 Y76.377 E4.70194
G1 X141.170 Y77.096 E4.71571
G1 X141.168 Y110.355 E5.35267
G1 X141.149 Y110.794 E5.36108
G1 X141.093 Y111.360 E5.37198
G1 X140.965 Y112.097 E5.38630
G1 X140.737 Y112.944 E5.40310
G1 X140.426 Y113.765 E5.41991
G1 X140.154 Y114.335 E5.43202
G1 X136.947 Y120.440 E5.56408
G1 X132.319 Y127.334 E5.72310
G1 X130.743 Y128.969 E5.76658
G1 X128.701 Y129.961 E5.81006
G1 X127.447 Y130.187 E5.83447
G1 X106.659 Y131.843 E6.23385
G1 X69.245 Y131.848 E6.95037
G1 X68.730 Y131.832 E6.96023
G1 X68.216 Y131.790 E6.97010
G1 X67.452 Y131.680 E6.98489
G1 X66.695 Y131.514 E6.99973
G1 X65.722 Y131.211 E7.01924
G1 X65.000 Y130.916 E7.03420
G1 X64.544 Y130.697 E7.04387
G1 X64.083 Y130.446 E7.05392
G1 X63.428 Y130.036 E7.06872
G1 X63.009 Y129.736 E7.07859
G1 X62.606 Y129.416 E7.08845
G1 X62.218 Y129.077 E7.09832
G1 X61.849 Y128.719 E7.10816
G1 X61.496 Y128.343 E7.11804
G1 X61.162 Y127.950 E7.12791
G1 X60.848 Y127.541 E7.13779
G1 X60.555 Y127.118 E7.14765
G1 X60.283 Y126.681 E7.15751
G1 X60.032 Y126.231 E7.16738
G1 X59.804 Y125.769 E7.17724
G1 X59.599 Y125.296 E7.18711
G1 X59.421 Y124.827 E7.19672
G1 X59.259 Y124.324 E7.20683
G1 X59.126 Y123.827 E7.21670
G1 X59.017 Y123.323 E7.22657
G1 X58.933 Y122.816 E7.23642
G1 X58.873 Y122.304 E7.24629
G1 X58.830 Y121.354 E7.26449
G1 X58.831 Y84.274 E7.97461
G1 X58.847 Y83.761 E7.98445
G1 X58.889 Y83.246 E7.99434
G1 X58.974 Y82.622 E8.00641
G1 X59.103 Y81.978 E8.01899
G1 X59.232 Y81.479 E8.02886
G1 X59.385 Y80.987 E8.03873
G1 X59.599 Y80.411 E8.05049
G1 X59.872 Y79.796 E8.06339
G1 X60.108 Y79.337 E8.07326
G1 X60.366 Y78.890 E8.08315
G1 X60.791 Y78.247 E8.09790
G1 X61.101 Y77.835 E8.10777
G1 X61.431 Y77.440 E8.11764
G1 X61.779 Y77.061 E8.12749
G1 X62.223 Y76.628 E8.13937
G1 X62.681 Y76.232 E8.15097
G1 X62.884 Y76.385 F6000.000
G1 X63.487 Y75.933 E8.16540 F1200.000
G1 X64.123 Y75.526 E8.17985
G1 X64.786 Y75.167 E8.19429
G1 X65.474 Y74.859 E8.20873
G1 X65.945 Y74.681 E8.21837
G1 X66.665 Y74.459 E8.23281
G1 X67.401 Y74.290 E8.24726
G1 X68.146 Y74.175 E8.26170
G1 X124.426 Y68.427 E9.34514
G1 X125.125 Y68.398 E9.35855
G1 X132.379 Y68.400 E9.49746
G1 X133.231 Y68.457 E9.51381 F1200.000
G1 X133.782 Y68.539 E9.52448
G1 X134.487 Y68.698 E9.53832
G1 X135.299 Y68.960 E9.55466
G1 X136.081 Y69.300 E9.57100
G1 X136.570 Y69.562 E9.58161
G1 X137.282 Y70.020 E9.59782
G1 X137.860 Y70.471 E9.61188
G1 X138.482 Y71.055 E9.62821
G1 X138.771 Y71.370 E9.63640
G1 X139.301 Y72.039 E9.65274
G1 X139.762 Y72.757 E9.66909
G1 X140.151 Y73.516 E9.68542
G1 X140.318 Y73.910 E9.69361
G1 X140.591 Y74.718 E9.70994
G1 X140.784 Y75.550 E9.72630
G1 X140.894 Y76.396 E9.74263
G1 X140.923 Y77.096 E9.75605
G1 X140.921 Y110.349 E10.39289
G1 X140.903 Y110.775 E10.40107
G1 X140.848 Y111.330 E10.41173
G1 X140.724 Y112.042 E10.42559
G1 X140.502 Y112.866 E10.44193
G1 X140.200 Y113.665 E10.45828
G1 X139.934 Y114.222 E10.47010
G1 X136.742 Y120.302 E10.60162
G1 X132.114 Y127.196 E10.76064
G1 X130.563 Y128.794 E10.80328
G1 X128.550 Y129.746 E10.84592
G1 X127.427 Y129.941 E10.86776
G1 X106.650 Y131.596 E11.26693
G1 X69.248 Y131.601 E11.98322
G1 X68.244 Y131.544 E12.00248
G1 X67.497 Y131.437 E12.01692
G1 X66.758 Y131.275 E12.03141
G1 X65.808 Y130.979 E12.05046
G1 X65.102 Y130.691 E12.06506
G1 X64.208 Y130.232 E12.08432
G1 X63.568 Y129.832 E12.09877
G1 X62.765 Y129.227 E12.11803
G1 X62.026 Y128.547 E12.13727
G1 X61.355 Y127.796 E12.15655
G1 X60.762 Y126.983 E12.17581
G1 X60.252 Y126.117 E12.19507
G1 X59.828 Y125.205 E12.21433
G1 X59.497 Y124.256 E12.23358
G1 X59.260 Y123.278 E12.25285
G1 X59.120 Y122.283 E12.27210
G1 X59.077 Y121.354 E12.28989
G1 X59.078 Y84.278 E12.99996
G1 X59.135 Y83.274 E13.01922
G1 X59.218 Y82.662 E13.03104
G1 X59.344 Y82.035 E13.04329
G1 X59.619 Y81.067 E13.06255
G1 X59.829 Y80.503 E13.07408
G1 X60.095 Y79.904 E13.08663
G1 X60.576 Y79.019 E13.10592
G1 X60.991 Y78.392 E13.12033
G1 X61.294 Y77.990 E13.12996
G1 X61.956 Y77.234 E13.14922
G1 X62.391 Y76.809 E13.16085
G1 X62.835 Y76.425 E13.17211
G1 F1860.000 E10.17211
G92 E0
G1 X100.659 Y116.035 F6000.000
G1 E3.10000 F1860.000
G1 X100.462 Y116.181 E3.10470 F1200.000
G1 X100.142 Y116.362 E3.11174
G1 X99.916 Y116.456 E3.11643
G1 X99.670 Y116.530 E3.12135
G1 X99.319 Y116.590 E3.12816
G1 X99.075 Y116.602 E3.13285
G1 X98.830 Y116.590 E3.13755
G1 X98.468 Y116.527 E3.14458
G1 X98.233 Y116.456 E3.14928
G1 X97.897 Y116.307 E3.15631
G1 X97.587 Y116.110 E3.16335
G1 X97.398 Y115.955 E3.16804
G1 X97.144 Y115.689 E3.17508
G1 X96.998 Y115.492 E3.17977
G1 X96.872 Y115.282 E3.18447
G1 X96.723 Y114.946 E3.19150
G1 X96.650 Y114.700 E3.19642
G1 X96.589 Y114.349 E3.20323
G1 X96.577 Y114.104 E3.20793
G1 X96.604 Y113.738 E3.21496
G1 X96.652 Y113.498 E3.21966
G1 X96.767 Y113.149 E3.22669
G1 X96.878 Y112.917 E3.23161
G1 X97.069 Y112.617 E3.23842
G1 X97.224 Y112.427 E3.24312
G1 X97.490 Y112.174 E3.25015
G1 X97.687 Y112.028 E3.25485
G1 X98.007 Y111.847 E3.26188
G1 X98.245 Y111.749 E3.26680
G1 X98.587 Y111.655 E3.27361
G1 X98.830 Y111.619 E3.27831
G1 X99.087 Y111.607 E3.28323
G1 X99.562 Y111.655 E3.29237 F1200.000
G1 X99.916 Y111.753 E3.29941
G1 X100.252 Y111.902 E3.30645
G1 X100.562 Y112.099 E3.31349
G1 X100.840 Y112.339 E3.32052
G1 X101.081 Y112.617 E3.32756
G1 X101.277 Y112.927 E3.33460
G1 X101.426 Y113.263 E3.34163
G1 X101.524 Y113.617 E3.34867
G1 X101.569 Y113.982 E3.35570
G1 X101.560 Y114.349 E3.36274
G1 X101.497 Y114.711 E3.36978
G1 X101.382 Y115.060 E3.37681
G1 X101.217 Y115.388 E3.38385
G1 X101.005 Y115.689 E3.39089
G1 X100.707 Y115.994 E3.39906
G1 X100.502 Y115.844 F6000.000
G1 X100.325 Y115.975 E3.40329 F1200.000
G1 X100.037 Y116.138 E3.40963
G1 X99.616 Y116.288 E3.41819
G1 X99.295 Y116.344 E3.42441
G1 X99.075 Y116.355 E3.42864
G1 X98.744 Y116.330 E3.43498
G1 X98.528 Y116.287 E3.43921
G1 X98.317 Y116.223 E3.44344
G1 X98.014 Y116.089 E3.44978
G1 X97.734 Y115.912 E3.45612
G1 X97.564 Y115.772 E3.46035
G1 X97.335 Y115.532 E3.46669
G1 X97.204 Y115.355 E3.47092
G1 X97.041 Y115.066 E3.47726
G1 X96.956 Y114.863 E3.48149
G1 X96.848 Y114.429 E3.49005
G1 X96.825 Y114.104 E3.49627
G1 X96.835 Y113.884 E3.50050
G1 X96.892 Y113.558 E3.50684
G1 X96.956 Y113.346 E3.51107
G1 X97.043 Y113.137 E3.51541
G1 X97.204 Y112.854 E3.52164
G1 X97.339 Y112.673 E3.52598
G1 X97.564 Y112.437 E3.53221
G1 X97.734 Y112.297 E3.53644
G1 X98.014 Y112.120 E3.54277
G1 X98.214 Y112.026 E3.54700
G1 X98.528 Y111.922 E3.55334
G1 X98.970 Y111.857 E3.56190
G1 X99.405 Y111.879 E3.57024 F1200.000
G1 X99.728 Y111.951 E3.57658
G1 X100.037 Y112.070 E3.58292
G1 X100.325 Y112.234 E3.58926
G1 X100.586 Y112.437 E3.59560
G1 X100.814 Y112.677 E3.60194
G1 X101.005 Y112.948 E3.60828
G1 X101.153 Y113.243 E3.61462
G1 X101.257 Y113.558 E3.62096
G1 X101.314 Y113.890 E3.62741
G1 X101.314 Y114.325 E3.63574
G1 X101.257 Y114.651 E3.64208
G1 X101.153 Y114.966 E3.64842
G1 X101.005 Y115.261 E3.65476
G1 X100.814 Y115.532 E3.66110
G1 X100.550 Y115.803 E3.66835
G1 F1860.000 E0.66835
G92 E0
G1 X98.919 Y111.440 F6000.000
G1 X99.197 Y94.099 F6000.000
G1 E3.10000 F1860.000
G1 X98.708 Y94.075 E3.10938 F1200.000
G1 X98.233 Y93.956 E3.11875
G1 X97.791 Y93.747 E3.12813
G1 X97.587 Y93.610 E3.13283
G1 X97.389 Y93.447 E3.13775
G1 X97.144 Y93.189 E3.14455
G1 X96.998 Y92.992 E3.14925
G1 X96.767 Y92.560 E3.15862
G1 X96.625 Y92.092 E3.16800
G1 X96.577 Y91.604 E3.17737
G1 X96.625 Y91.117 E3.18675
G1 X96.767 Y90.649 E3.19612
G1 X96.998 Y90.217 E3.20550
G1 X97.309 Y89.839 E3.21488
G1 X97.687 Y89.528 E3.22425
G1 X98.119 Y89.297 E3.23363
G1 X98.587 Y89.155 E3.24300
G1 X98.830 Y89.119 E3.24770
G1 X99.087 Y89.107 E3.25262
G1 X99.562 Y89.155 E3.26176 F1200.000
G1 X100.030 Y89.297 E3.27114
G1 X100.462 Y89.528 E3.28052
G1 X100.840 Y89.839 E3.28989
G1 X101.081 Y90.117 E3.29693
G1 X101.332 Y90.537 E3.30631
G1 X101.497 Y90.998 E3.31568
G1 X101.569 Y91.482 E3.32505
G1 X101.545 Y91.971 E3.33443
G1 X101.426 Y92.446 E3.34381
G1 X101.217 Y92.888 E3.35318
G1 X100.925 Y93.282 E3.36256
G1 X100.562 Y93.610 E3.37194
G1 X100.142 Y93.862 E3.38131
G1 X99.681 Y94.027 E3.39069
G1 X99.260 Y94.094 E3.39886
G1 X99.185 Y93.852 F6000.000
G1 X98.744 Y93.830 E3.40730 F1200.000
G1 X98.317 Y93.723 E3.41575
G1 X97.918 Y93.534 E3.42420
G1 X97.564 Y93.272 E3.43265
G1 X97.267 Y92.945 E3.44109
G1 X97.041 Y92.566 E3.44954
G1 X96.892 Y92.151 E3.45799
G1 X96.827 Y91.715 E3.46643
G1 X96.849 Y91.274 E3.47488
G1 X96.956 Y90.846 E3.48333
G1 X97.145 Y90.448 E3.49178
G1 X97.407 Y90.093 E3.50022
G1 X97.734 Y89.797 E3.50867
G1 X98.113 Y89.570 E3.51712
G1 X98.528 Y89.422 E3.52557
G1 X98.970 Y89.357 E3.53413
G1 X99.405 Y89.379 E3.54246 F1200.000
G1 X99.833 Y89.486 E3.55091
G1 X100.231 Y89.675 E3.55935
G1 X100.586 Y89.937 E3.56780
G1 X100.882 Y90.264 E3.57625
G1 X101.109 Y90.642 E3.58470
G1 X101.257 Y91.058 E3.59314
G1 X101.322 Y91.494 E3.60159
G1 X101.300 Y91.935 E3.61004
G1 X101.193 Y92.362 E3.61849
G1 X101.005 Y92.761 E3.62693
G1 X100.742 Y93.116 E3.63538
G1 X100.415 Y93.412 E3.64383
G1 X100.037 Y93.638 E3.65228
G1 X99.621 Y93.787 E3.66072
G1 X99.248 Y93.847 E3.66797
G1 F1860.000 E0.66797
G92 E0
G1 X98.964 Y88.937 F6000.000
G1 X79.060 Y91.849 F6000.000
G1 E3.10000 F1860.000
G1 X78.997 Y92.211 E3.10703 F1200.000
G1 X78.882 Y92.560 E3.11407
G1 X78.717 Y92.888 E3.12111
G1 X78.505 Y93.189 E3.12814
G1 X78.252 Y93.455 E3.13518
G1 X77.962 Y93.681 E3.14222
G1 X77.642 Y93.862 E3.14926
G1 X77.405 Y93.960 E3.15418
G1 X77.062 Y94.054 E3.16099
G1 X76.697 Y94.099 E3.16802
G1 X76.330 Y94.090 E3.17506
G1 X75.968 Y94.027 E3.18209
G1 X75.619 Y93.912 E3.18913
G1 X75.291 Y93.747 E3.19617
G1 X74.990 Y93.535 E3.20320
G1 X74.724 Y93.282 E3.21024
G1 X74.498 Y92.992 E3.21728
G1 X74.317 Y92.672 E3.22432
G1 X74.185 Y92.329 E3.23136
G1 X74.104 Y91.971 E3.23839
G1 X74.077 Y91.604 E3.24543
G1 X74.104 Y91.238 E3.25246
G1 X74.185 Y90.880 E3.25950
G1 X74.317 Y90.537 E3.26654
G1 X74.498 Y90.217 E3.27357
G1 X74.724 Y89.927 E3.28061
G1 X74.990 Y89.674 E3.28764
G1 X75.291 Y89.462 E3.29468
G1 X75.619 Y89.297 E3.30172
G1 X75.968 Y89.182 E3.30876
G1 X76.330 Y89.119 E3.31580
G1 X76.587 Y89.107 E3.32072
G1 X76.941 Y89.134 E3.32752 F1200.000
G1 X77.181 Y89.182 E3.33221
G1 X77.642 Y89.347 E3.34159
G1 X78.062 Y89.599 E3.35097
G1 X78.425 Y89.927 E3.36034
G1 X78.717 Y90.321 E3.36972
G1 X78.926 Y90.763 E3.37909
G1 X79.045 Y91.238 E3.38847
G1 X79.069 Y91.482 E3.39316
G1 X79.065 Y91.787 E3.39900
G1 X78.814 Y91.825 F6000.000
G1 X78.757 Y92.151 E3.40534 F1200.000
G1 X78.653 Y92.466 E3.41168
G1 X78.505 Y92.761 E3.41802
G1 X78.314 Y93.032 E3.42436
G1 X78.086 Y93.272 E3.43070
G1 X77.825 Y93.475 E3.43704
G1 X77.537 Y93.638 E3.44338
G1 X77.327 Y93.725 E3.44772
G1 X77.014 Y93.811 E3.45394
G1 X76.685 Y93.852 E3.46028
G1 X76.354 Y93.844 E3.46662
G1 X76.028 Y93.787 E3.47296
G1 X75.714 Y93.683 E3.47930
G1 X75.418 Y93.534 E3.48564
G1 X75.147 Y93.344 E3.49198
G1 X74.907 Y93.115 E3.49832
G1 X74.704 Y92.855 E3.50466
G1 X74.588 Y92.660 E3.50901
G1 X74.456 Y92.363 E3.51523
G1 X74.368 Y92.043 E3.52157
G1 X74.327 Y91.715 E3.52791
G1 X74.335 Y91.384 E3.53425
G1 X74.392 Y91.058 E3.54059
G1 X74.496 Y90.743 E3.54693
G1 X74.645 Y90.448 E3.55327
G1 X74.835 Y90.177 E3.55961
G1 X75.064 Y89.937 E3.56595
G1 X75.325 Y89.734 E3.57229
G1 X75.613 Y89.570 E3.57863
G1 X75.922 Y89.451 E3.58497
G1 X76.244 Y89.379 E3.59131
G1 X76.470 Y89.357 E3.59565
G1 X76.795 Y89.365 E3.60188 F1200.000
G1 X77.014 Y89.398 E3.60611
G1 X77.436 Y89.526 E3.61455
G1 X77.825 Y89.734 E3.62300
G1 X78.166 Y90.013 E3.63145
G1 X78.314 Y90.177 E3.63568
G1 X78.505 Y90.448 E3.64202
G1 X78.693 Y90.846 E3.65046
G1 X78.800 Y91.274 E3.65891
G1 X78.822 Y91.494 E3.66314
G1 X78.818 Y91.762 E3.66828
G1 F1860.000 E0.66828
G92 E0
G1 X76.386 Y89.043 F6000.000
G1 X76.820 Y111.619 F6000.000
G1 E3.10000 F1860.000
G1 X77.300 Y111.715 E3.10938 F1200.000
G1 X77.752 Y111.902 E3.11875
G1 X78.159 Y112.174 E3.12812
G1 X78.505 Y112.520 E3.13750
G1 X78.777 Y112.927 E3.14687
G1 X78.964 Y113.380 E3.15625
G1 X79.060 Y113.860 E3.16563
G1 X79.060 Y114.349 E3.17500
G1 X78.964 Y114.830 E3.18438
G1 X78.777 Y115.282 E3.19375
G1 X78.505 Y115.689 E3.20313
G1 X78.159 Y116.035 E3.21250
G1 X77.752 Y116.307 E3.22188
G1 X77.405 Y116.460 E3.22915
G1 X76.941 Y116.575 E3.23829
G1 X76.452 Y116.599 E3.24767
G1 X75.968 Y116.527 E3.25705
G1 X75.507 Y116.362 E3.26642
G1 X75.087 Y116.110 E3.27580
G1 X74.724 Y115.782 E3.28517
G1 X74.433 Y115.388 E3.29455
G1 X74.223 Y114.946 E3.30392
G1 X74.104 Y114.471 E3.31330
G1 X74.080 Y113.982 E3.32267
G1 X74.152 Y113.498 E3.33205
G1 X74.317 Y113.037 E3.34143
G1 X74.569 Y112.617 E3.35080
G1 X74.898 Y112.254 E3.36018
G1 X75.291 Y111.962 E3.36955
G1 X75.733 Y111.753 E3.37893
G1 X76.208 Y111.634 E3.38830
G1 X76.587 Y111.607 E3.39557
G1 X76.757 Y111.615 E3.39883 F1200.000
G1 X76.795 Y111.865 F6000.000
G1 X77.228 Y111.951 E3.40728 F1200.000
G1 X77.635 Y112.120 E3.41572
G1 X78.002 Y112.365 E3.42417
G1 X78.314 Y112.677 E3.43262
G1 X78.559 Y113.044 E3.44106
G1 X78.728 Y113.451 E3.44951
G1 X78.814 Y113.884 E3.45796
G1 X78.814 Y114.325 E3.46641
G1 X78.728 Y114.758 E3.47485
G1 X78.559 Y115.165 E3.48330
G1 X78.314 Y115.532 E3.49175
G1 X78.002 Y115.844 E3.50020
G1 X77.635 Y116.089 E3.50864
G1 X77.327 Y116.225 E3.51510
G1 X76.905 Y116.330 E3.52343
G1 X76.464 Y116.352 E3.53188
G1 X76.028 Y116.287 E3.54032
G1 X75.613 Y116.138 E3.54877
G1 X75.234 Y115.912 E3.55722
G1 X74.980 Y115.691 E3.56367
G1 X74.704 Y115.355 E3.57201
G1 X74.496 Y114.966 E3.58045
G1 X74.368 Y114.543 E3.58890
G1 X74.325 Y114.104 E3.59735
G1 X74.368 Y113.666 E3.60579
G1 X74.496 Y113.243 E3.61424
G1 X74.704 Y112.854 E3.62269
G1 X74.984 Y112.513 E3.63114
G1 X75.325 Y112.234 E3.63958
G1 X75.714 Y112.026 E3.64803
G1 X76.136 Y111.898 E3.65648
G1 X76.470 Y111.857 E3.66293
G1 X76.732 Y111.861 E3.66795 F1200.000
G1 X76.473 Y111.595 F6000.000
G1 F1860.000 E0.66795
G92 E0
G1 X65.672 Y111.865 F6000.000
G1 E3.10000 F1860.000
G1 X65.672 Y84.357 E3.62682 F1200.000
G1 X65.699 Y83.907 E3.63544
G1 X65.761 Y83.554 E3.64231
G1 X65.856 Y83.209 E3.64917
G1 X65.985 Y82.874 E3.65604
G1 X66.103 Y82.632 E3.66119
G1 X66.287 Y82.325 E3.66805
G1 X66.501 Y82.037 E3.67492
G1 X66.742 Y81.772 E3.68178
G1 X66.939 Y81.588 E3.68694
G1 X67.221 Y81.368 E3.69380
G1 X67.447 Y81.221 E3.69895
G1 X67.763 Y81.052 E3.70581
G1 X68.094 Y80.915 E3.71268
G1 X68.437 Y80.811 E3.71954
G1 X68.700 Y80.756 E3.72469
G1 X69.056 Y80.712 E3.73156
G1 X69.327 Y80.702 E3.73676
G1 X106.414 Y80.703 E4.44702 F1200.000
G1 X106.683 Y80.719 E4.45217
G1 X107.037 Y80.772 E4.45903
G1 X107.385 Y80.859 E4.46590
G1 X107.722 Y80.980 E4.47276
G1 X108.047 Y81.133 E4.47963
G1 X108.354 Y81.317 E4.48649
G1 X108.642 Y81.531 E4.49336
G1 X108.908 Y81.772 E4.50022
G1 X109.148 Y82.037 E4.50709
G1 X109.362 Y82.325 E4.51395
