; generated by Slic3r 1.1.7 on 2014-12-11 at 19:05:11

; perimeters extrusion width = 0.42mm
; infill extrusion width = 0.74mm
; solid infill extrusion width = 0.71mm
; top infill extrusion width = 0.71mm
; support material extrusion width = 0.42mm

G21 ; set units to millimeters
M190 S57 ; wait for bed temperature to be reached
M104 S186 ; set temperature
G28 ; home all axes Start of G Code Slic3r
 
M109 S186 ; wait for temperature to be reached
G90 ; use absolute coordinates
G92 E0
M82 ; use absolute distances for extrusion
G1 F1860.000 E-3.00000
G92 E0
G1 Z0.200 F6000.000
G1 X73.964 Y73.846 F6000.000
G1 E3.10000 F1860.000
G1 X74.547 Y73.312 E3.11462 F1200.000
G1 X74.956 Y72.982 E3.12436
G1 X75.383 Y72.671 E3.13411
G1 X76.138 Y72.193 E3.15064
G1 X77.075 Y71.712 E3.17014
G1 X77.959 Y71.359 E3.18775
G1 X78.461 Y71.197 E3.19751
G1 X78.971 Y71.061 E3.20726
G1 X79.856 Y70.885 E3.22396
G1 X80.793 Y70.782 E3.24141
G1 X81.500 Y70.758 E3.25449
G1 X118.583 Y70.759 E3.94053
G1 X119.108 Y70.776 E3.95026 F1200.000
G1 X119.635 Y70.819 E3.96003
G1 X120.158 Y70.887 E3.96978
G1 X120.677 Y70.981 E3.97955
G1 X121.190 Y71.101 E3.98930
G1 X121.697 Y71.245 E3.99905
G1 X122.197 Y71.415 E4.00880
G1 X122.687 Y71.608 E4.01856
G1 X123.167 Y71.826 E4.02831
G1 X123.637 Y72.066 E4.03807
G1 X124.093 Y72.330 E4.04782
G1 X124.536 Y72.615 E4.05758
G1 X124.965 Y72.922 E4.06733
G1 X125.378 Y73.249 E4.07707
G1 X125.768 Y73.591 E4.08667
G1 X126.154 Y73.964 E4.09659
G1 X126.511 Y74.344 E4.10625
G1 X126.856 Y74.750 E4.11610
G1 X127.177 Y75.168 E4.12585
G1 X127.477 Y75.601 E4.13560
G1 X127.755 Y76.049 E4.14535
G1 X128.012 Y76.510 E4.15511
G1 X128.245 Y76.983 E4.16487
G1 X128.454 Y77.463 E4.17456
G1 X128.641 Y77.959 E4.18437
G1 X128.800 Y78.452 E4.19395
G1 X128.939 Y78.971 E4.20388
G1 X129.051 Y79.486 E4.21363
G1 X129.182 Y80.367 E4.23012
G1 X129.241 Y81.420 E4.24963
G1 X129.241 Y118.583 E4.93714
G1 X129.224 Y119.109 E4.94688
G1 X129.181 Y119.635 E4.95665
G1 X129.113 Y120.154 E4.96634
G1 X129.019 Y120.676 E4.97616
G1 X128.830 Y121.445 E4.99079
G1 X128.547 Y122.298 E5.00743
G1 X128.175 Y123.167 E5.02492
G1 X127.805 Y123.866 E5.03954
G1 X127.384 Y124.538 E5.05421
G1 X126.851 Y125.256 E5.07075
G1 X126.222 Y125.966 E5.08830
G1 X125.652 Y126.514 E5.10293
G1 X124.966 Y127.077 E5.11936
G1 X124.177 Y127.619 E5.13706
G1 X123.400 Y128.059 E5.15357
G1 X122.534 Y128.455 E5.17119
G1 X121.789 Y128.726 E5.18586
G1 X120.931 Y128.963 E5.20233
G1 X119.994 Y129.137 E5.21995
G1 X119.208 Y129.218 E5.23458
G1 X118.500 Y129.242 E5.24768
G1 X81.417 Y129.241 E5.93372
G1 X80.529 Y129.197 E5.95017
G1 X80.101 Y129.150 E5.95813
G1 X79.482 Y129.050 E5.96975
G1 X78.455 Y128.801 E5.98929
G1 X77.804 Y128.585 E6.00198
G1 X77.313 Y128.392 E6.01174
G1 X76.833 Y128.174 E6.02149
G1 X76.363 Y127.934 E6.03125
G1 X75.907 Y127.670 E6.04100
G1 X75.464 Y127.385 E6.05075
G1 X75.035 Y127.078 E6.06051
G1 X74.634 Y126.761 E6.06997
G1 X74.225 Y126.403 E6.08002
G1 X73.847 Y126.038 E6.08975
G1 X73.486 Y125.652 E6.09951
G1 X73.144 Y125.250 E6.10928
G1 X72.671 Y124.618 E6.12390
G1 X72.381 Y124.177 E6.13365
G1 X72.114 Y123.723 E6.14340
G1 X71.755 Y123.017 E6.15804
G1 X71.449 Y122.289 E6.17267
G1 X71.197 Y121.539 E6.18730
G1 X71.002 Y120.773 E6.20192
G1 X70.863 Y119.995 E6.21655
G1 X70.782 Y119.207 E6.23120
G1 X70.758 Y118.500 E6.24428
G1 X70.759 Y81.417 E6.93033
G1 X70.776 Y80.891 E6.94006
G1 X70.819 Y80.365 E6.94983
G1 X70.887 Y79.842 E6.95958
G1 X70.980 Y79.331 E6.96919
G1 X71.101 Y78.810 E6.97909
G1 X71.245 Y78.303 E6.98884
G1 X71.415 Y77.803 E6.99860
G1 X71.608 Y77.313 E7.00834
G1 X71.826 Y76.833 E7.01811
G1 X72.066 Y76.363 E7.02786
G1 X72.326 Y75.912 E7.03750
G1 X72.615 Y75.464 E7.04737
G1 X72.921 Y75.036 E7.05709
G1 X73.249 Y74.622 E7.06686
G1 X73.920 Y73.891 E7.08522
G1 X74.137 Y74.023 F6000.000
G1 X74.706 Y73.502 E7.09951 F1200.000
G1 X75.106 Y73.178 E7.10902
G1 X75.522 Y72.875 E7.11855
G1 X76.262 Y72.407 E7.13474
G1 X77.178 Y71.937 E7.15379
G1 X78.040 Y71.593 E7.17096
G1 X78.530 Y71.435 E7.18049
G1 X79.028 Y71.301 E7.19002
G1 X79.895 Y71.129 E7.20637
G1 X80.808 Y71.029 E7.22337
G1 X81.500 Y71.006 E7.23618
G1 X118.580 Y71.006 E7.92216
G1 X119.093 Y71.023 E7.93167 F1200.000
G1 X119.608 Y71.064 E7.94122
G1 X120.118 Y71.131 E7.95074
G1 X120.626 Y71.223 E7.96028
G1 X121.127 Y71.340 E7.96981
G1 X121.622 Y71.481 E7.97933
G1 X122.110 Y71.646 E7.98887
G1 X122.590 Y71.835 E7.99839
G1 X123.059 Y72.048 E8.00792
G1 X123.517 Y72.283 E8.01746
G1 X123.963 Y72.540 E8.02698
G1 X124.397 Y72.819 E8.03651
G1 X124.815 Y73.119 E8.04604
G1 X125.219 Y73.438 E8.05556
G1 X125.600 Y73.772 E8.06495
G1 X125.977 Y74.136 E8.07463
G1 X126.326 Y74.508 E8.08407
G1 X126.663 Y74.905 E8.09369
G1 X126.976 Y75.313 E8.10321
G1 X127.270 Y75.736 E8.11275
G1 X127.542 Y76.173 E8.12227
G1 X127.792 Y76.623 E8.13180
G1 X128.021 Y77.086 E8.14134
G1 X128.225 Y77.555 E8.15081
G1 X128.563 Y78.522 E8.16975
G1 X128.699 Y79.028 E8.17945
G1 X128.808 Y79.531 E8.18897
G1 X128.936 Y80.394 E8.20512
G1 X128.994 Y81.423 E8.22418
G1 X128.994 Y118.580 E8.91159
G1 X128.977 Y119.093 E8.92110
G1 X128.936 Y119.608 E8.93065
G1 X128.869 Y120.115 E8.94011
G1 X128.777 Y120.625 E8.94970
G1 X128.593 Y121.376 E8.96400
G1 X128.316 Y122.212 E8.98029
G1 X127.952 Y123.059 E8.99734
G1 X127.591 Y123.742 E9.01163
G1 X127.180 Y124.398 E9.02596
G1 X126.658 Y125.101 E9.04216
G1 X126.045 Y125.794 E9.05927
G1 X125.488 Y126.329 E9.07356
G1 X124.816 Y126.881 E9.08965
G1 X124.047 Y127.408 E9.10690
G1 X123.287 Y127.839 E9.12307
G1 X122.442 Y128.226 E9.14025
G1 X121.714 Y128.490 E9.15458
G1 X120.874 Y128.722 E9.17071
G1 X119.961 Y128.892 E9.18789
G1 X119.193 Y128.971 E9.20218
G1 X118.500 Y128.994 E9.21500
G1 X81.420 Y128.994 E9.90098
G1 X80.648 Y128.960 E9.91527
G1 X80.142 Y128.906 E9.92470
G1 X79.628 Y128.826 E9.93433
G1 X79.123 Y128.722 E9.94386
G1 X78.625 Y128.593 E9.95339
G1 X78.133 Y128.439 E9.96292
G1 X77.649 Y128.262 E9.97245
G1 X77.175 Y128.062 E9.98197
G1 X76.709 Y127.837 E9.99154
G1 X76.258 Y127.591 E10.00104
G1 X75.819 Y127.323 E10.01056
G1 X75.392 Y127.034 E10.02009
G1 X74.793 Y126.571 E10.03411
G1 X74.394 Y126.222 E10.04392
G1 X74.024 Y125.865 E10.05342
G1 X73.671 Y125.489 E10.06297
G1 X73.337 Y125.096 E10.07250
G1 X72.875 Y124.478 E10.08679
G1 X72.592 Y124.047 E10.09632
G1 X72.330 Y123.603 E10.10585
G1 X71.979 Y122.915 E10.12015
G1 X71.681 Y122.203 E10.13443
G1 X71.511 Y121.716 E10.14397
G1 X71.365 Y121.222 E10.15349
G1 X71.192 Y120.469 E10.16778
G1 X71.076 Y119.716 E10.18189
G1 X71.015 Y118.935 E10.19637
G1 X71.006 Y81.420 E10.89041
G1 X71.023 Y80.906 E10.89992
G1 X71.064 Y80.392 E10.90947
G1 X71.222 Y79.382 E10.92838
G1 X71.340 Y78.873 E10.93805
G1 X71.481 Y78.378 E10.94757
G1 X71.646 Y77.890 E10.95711
G1 X71.835 Y77.411 E10.96663
G1 X72.048 Y76.941 E10.97617
G1 X72.283 Y76.483 E10.98570
G1 X72.537 Y76.042 E10.99511
G1 X72.819 Y75.603 E11.00476
G1 X73.118 Y75.186 E11.01426
G1 X73.438 Y74.781 E11.02380
G1 X74.092 Y74.067 E11.04171
G1 X74.309 Y74.200 F6000.000
G1 X74.865 Y73.691 E11.05566 F1200.000
G1 X75.662 Y73.078 E11.07425
G1 X76.386 Y72.620 E11.09010
G1 X77.281 Y72.162 E11.10870
G1 X78.120 Y71.826 E11.12542
G1 X79.085 Y71.542 E11.14403
G1 X79.933 Y71.373 E11.16003
G1 X80.823 Y71.275 E11.17660
G1 X81.500 Y71.253 E11.18912
G1 X118.577 Y71.253 E11.87505
G1 X119.581 Y71.310 E11.89365 F1200.000
G1 X120.574 Y71.465 E11.91226
G1 X121.548 Y71.717 E11.93086
G1 X122.492 Y72.063 E11.94946
G1 X123.398 Y72.499 E11.96807
G1 X124.257 Y73.023 E11.98667
G1 X125.059 Y73.628 E12.00527
G1 X125.800 Y74.309 E12.02388
G1 X126.470 Y75.059 E12.04249
G1 X127.063 Y75.871 E12.06109
G1 X127.573 Y76.737 E12.07969
G1 X127.995 Y77.647 E12.09824
G1 X128.325 Y78.591 E12.11674
G1 X128.458 Y79.085 E12.12621
G1 X128.565 Y79.576 E12.13551
G1 X128.690 Y80.421 E12.15132
G1 X128.747 Y81.426 E12.16993
G1 X128.747 Y118.577 E12.85722
G1 X128.690 Y119.581 E12.87583
G1 X128.535 Y120.574 E12.89443
G1 X128.355 Y121.307 E12.90839
G1 X128.084 Y122.125 E12.92434
G1 X127.730 Y122.950 E12.94095
G1 X127.378 Y123.617 E12.95490
G1 X126.976 Y124.258 E12.96889
G1 X126.465 Y124.946 E12.98475
G1 X125.868 Y125.621 E13.00142
G1 X125.325 Y126.144 E13.01537
G1 X124.667 Y126.684 E13.03112
G1 X123.917 Y127.198 E13.04793
G1 X123.173 Y127.620 E13.06376
G1 X122.350 Y127.996 E13.08049
G1 X121.640 Y128.254 E13.09448
G1 X120.817 Y128.482 E13.11028
G1 X119.928 Y128.647 E13.12701
G1 X119.177 Y128.725 E13.14096
G1 X118.500 Y128.747 E13.15350
G1 X81.423 Y128.747 E13.83943
G1 X80.670 Y128.713 E13.85338
G1 X79.673 Y128.583 E13.87198
G1 X78.693 Y128.355 E13.89059
G1 X77.741 Y128.032 E13.90920
G1 X76.823 Y127.617 E13.92783
G1 X75.953 Y127.116 E13.94640
G1 X75.537 Y126.833 E13.95571
G1 X74.951 Y126.382 E13.96939
G1 X74.562 Y126.041 E13.97897
G1 X74.201 Y125.692 E13.98825
G1 X73.530 Y124.941 E14.00687
G1 X73.078 Y124.338 E14.02082
G1 X72.547 Y123.484 E14.03942
G1 X72.204 Y122.812 E14.05339
G1 X71.912 Y122.116 E14.06734
G1 X71.604 Y121.159 E14.08594
G1 X71.435 Y120.424 E14.09990
G1 X71.322 Y119.688 E14.11368
G1 X71.262 Y118.926 E14.12781
G1 X71.253 Y81.423 E14.82163
G1 X71.310 Y80.419 E14.84023
G1 X71.464 Y79.433 E14.85870
G1 X71.717 Y78.452 E14.87743
G1 X72.062 Y77.508 E14.89603
G1 X72.499 Y76.602 E14.91465
G1 X73.023 Y75.743 E14.93325
G1 X73.628 Y74.941 E14.95184
G1 X74.265 Y74.244 E14.96930
G1 F1860.000 E11.96930
G92 E0
G1 X90.516 Y90.516 F6000.000
G1 E3.10000 F1860.000
G1 X90.325 Y90.688 E3.10476 F1200.000
G1 X90.034 Y90.892 E3.11133
G1 X89.706 Y91.057 E3.11813
G1 X89.475 Y91.140 E3.12267
G1 X89.237 Y91.199 E3.12720
G1 X88.873 Y91.244 E3.13399
G1 X88.616 Y91.243 E3.13875
G1 X88.263 Y91.199 E3.14532
G1 X87.909 Y91.101 E3.15212
G1 X87.682 Y91.008 E3.15666
G1 X87.466 Y90.892 E3.16119
G1 X87.166 Y90.680 E3.16799
G1 X86.976 Y90.507 E3.17274
G1 X86.744 Y90.238 E3.17932
G1 X86.548 Y89.927 E3.18612
G1 X86.443 Y89.706 E3.19065
G1 X86.327 Y89.357 E3.19745
G1 X86.280 Y89.117 E3.20198
G1 X86.255 Y88.861 E3.20674
G1 X86.265 Y88.505 E3.21332
G1 X86.327 Y88.143 E3.22011
G1 X86.399 Y87.909 E3.22464
G1 X86.548 Y87.573 E3.23144
G1 X86.674 Y87.363 E3.23598
G1 X86.827 Y87.157 E3.24073
G1 X87.073 Y86.900 E3.24731
G1 X87.262 Y86.744 E3.25185
G1 X87.573 Y86.548 E3.25864
G1 X87.794 Y86.443 E3.26317
G1 X88.143 Y86.327 E3.26997
G1 X88.505 Y86.265 E3.27677
G1 X88.762 Y86.253 E3.28153
G1 X89.116 Y86.280 E3.28810 F1200.000
G1 X89.475 Y86.360 E3.29490
G1 X89.818 Y86.492 E3.30170
G1 X90.137 Y86.674 E3.30849
G1 X90.427 Y86.900 E3.31529
G1 X90.680 Y87.166 E3.32209
G1 X90.892 Y87.466 E3.32888
G1 X91.057 Y87.794 E3.33568
G1 X91.173 Y88.143 E3.34248
G1 X91.235 Y88.505 E3.34928
G1 X91.244 Y88.872 E3.35607
G1 X91.199 Y89.237 E3.36287
G1 X91.101 Y89.591 E3.36967
G1 X90.952 Y89.927 E3.37647
G1 X90.756 Y90.237 E3.38326
G1 X90.559 Y90.470 E3.38890
G1 X90.341 Y90.341 F6000.000
G1 X90.173 Y90.493 E3.39309 F1200.000
G1 X89.907 Y90.680 E3.39911
G1 X89.611 Y90.829 E3.40523
G1 X89.403 Y90.903 E3.40932
G1 X89.189 Y90.957 E3.41340
G1 X88.860 Y90.997 E3.41953
G1 X88.634 Y90.997 E3.42372
G1 X88.311 Y90.957 E3.42973
G1 X87.992 Y90.869 E3.43586
G1 X87.788 Y90.784 E3.43994
G1 X87.593 Y90.680 E3.44403
G1 X87.323 Y90.489 E3.45015
G1 X87.155 Y90.337 E3.45435
G1 X86.943 Y90.090 E3.46036
G1 X86.766 Y89.811 E3.46649
G1 X86.671 Y89.611 E3.47057
G1 X86.567 Y89.297 E3.47670
G1 X86.524 Y89.080 E3.48078
G1 X86.500 Y88.750 E3.48691
G1 X86.511 Y88.529 E3.49099
G1 X86.545 Y88.305 E3.49519
G1 X86.631 Y87.992 E3.50120
G1 X86.766 Y87.689 E3.50732
G1 X86.879 Y87.500 E3.51141
G1 X87.015 Y87.318 E3.51560
G1 X87.239 Y87.083 E3.52162
G1 X87.410 Y86.943 E3.52571
G1 X87.689 Y86.766 E3.53183
G1 X87.889 Y86.671 E3.53591
G1 X88.203 Y86.567 E3.54204
G1 X88.646 Y86.503 E3.55031
G1 X88.971 Y86.511 E3.55632 F1200.000
G1 X89.297 Y86.567 E3.56245
G1 X89.611 Y86.671 E3.56857
G1 X89.907 Y86.820 E3.57470
G1 X90.177 Y87.011 E3.58082
G1 X90.417 Y87.239 E3.58694
G1 X90.621 Y87.500 E3.59307
G1 X90.784 Y87.788 E3.59919
G1 X90.903 Y88.097 E3.60532
G1 X90.976 Y88.420 E3.61144
G1 X91.000 Y88.750 E3.61757
G1 X90.976 Y89.080 E3.62369
G1 X90.903 Y89.403 E3.62981
G1 X90.784 Y89.712 E3.63594
G1 X90.621 Y90.000 E3.64206
G1 X90.384 Y90.295 E3.64906
G1 F1860.000 E0.64906
G92 E0
G1 X88.596 Y86.181 F6000.000
G1 X108.765 Y88.995 F6000.000
G1 E3.10000 F1860.000
G1 X108.765 Y88.505 E3.10906 F1200.000
G1 X108.827 Y88.143 E3.11585
G1 X108.899 Y87.909 E3.12038
G1 X109.108 Y87.466 E3.12944
G1 X109.400 Y87.073 E3.13850
G1 X109.762 Y86.744 E3.14756
G1 X110.073 Y86.548 E3.15435
G1 X110.294 Y86.443 E3.15889
G1 X110.763 Y86.301 E3.16795
G1 X111.005 Y86.265 E3.17248
G1 X111.262 Y86.253 E3.17724
G1 X111.616 Y86.280 E3.18381 F1200.000
G1 X111.975 Y86.360 E3.19061
G1 X112.318 Y86.493 E3.19741
G1 X112.637 Y86.674 E3.20420
G1 X112.927 Y86.900 E3.21100
G1 X113.181 Y87.166 E3.21780
G1 X113.392 Y87.466 E3.22460
G1 X113.557 Y87.794 E3.23139
G1 X113.672 Y88.143 E3.23819
G1 X113.735 Y88.505 E3.24499
G1 X113.744 Y88.873 E3.25179
G1 X113.699 Y89.237 E3.25858
G1 X113.601 Y89.591 E3.26538
G1 X113.453 Y89.927 E3.27217
G1 X113.326 Y90.137 E3.27671
G1 X113.100 Y90.427 E3.28351
G1 X112.834 Y90.680 E3.29030
G1 X112.534 Y90.892 E3.29710
G1 X112.206 Y91.057 E3.30390
G1 X111.857 Y91.173 E3.31070
G1 X111.495 Y91.235 E3.31750
G1 X111.250 Y91.247 E3.32203
G1 X110.884 Y91.220 E3.32883
G1 X110.525 Y91.140 E3.33563
G1 X110.182 Y91.008 E3.34242
G1 X109.863 Y90.826 E3.34922
G1 X109.573 Y90.600 E3.35602
G1 X109.320 Y90.334 E3.36281
G1 X109.108 Y90.034 E3.36961
G1 X108.943 Y89.706 E3.37641
G1 X108.827 Y89.357 E3.38321
G1 X108.772 Y89.057 E3.38884
G1 X109.011 Y88.970 F6000.000
G1 X109.011 Y88.529 E3.39700 F1200.000
G1 X109.045 Y88.305 E3.40120
G1 X109.131 Y87.992 E3.40721
G1 X109.320 Y87.593 E3.41537
G1 X109.583 Y87.239 E3.42353
G1 X109.910 Y86.943 E3.43169
G1 X110.288 Y86.716 E3.43985
G1 X110.703 Y86.567 E3.44801
G1 X111.146 Y86.503 E3.45628
G1 X111.471 Y86.511 E3.46230 F1200.000
G1 X111.797 Y86.567 E3.46842
G1 X112.111 Y86.671 E3.47455
G1 X112.407 Y86.820 E3.48067
G1 X112.677 Y87.011 E3.48679
G1 X112.917 Y87.239 E3.49292
G1 X113.121 Y87.500 E3.49904
G1 X113.284 Y87.788 E3.50517
G1 X113.403 Y88.097 E3.51129
G1 X113.476 Y88.420 E3.51742
G1 X113.497 Y88.646 E3.52161
G1 X113.489 Y88.971 E3.52763
G1 X113.433 Y89.297 E3.53375
G1 X113.329 Y89.611 E3.53987
G1 X113.180 Y89.907 E3.54600
G1 X112.989 Y90.177 E3.55212
G1 X112.761 Y90.417 E3.55825
G1 X112.500 Y90.621 E3.56437
G1 X112.212 Y90.784 E3.57050
G1 X111.903 Y90.903 E3.57662
G1 X111.580 Y90.976 E3.58275
G1 X111.250 Y91.000 E3.58887
G1 X110.920 Y90.976 E3.59499
G1 X110.597 Y90.903 E3.60112
G1 X110.288 Y90.784 E3.60724
G1 X110.000 Y90.621 E3.61337
G1 X109.739 Y90.417 E3.61949
G1 X109.511 Y90.177 E3.62562
G1 X109.320 Y89.907 E3.63174
G1 X109.171 Y89.611 E3.63787
G1 X109.067 Y89.297 E3.64399
G1 X109.019 Y89.033 E3.64895
G1 F1860.000 E0.64895
G92 E0
G1 X111.220 Y86.186 F6000.000
G1 X111.005 Y108.765 F6000.000
G1 E3.10000 F1860.000
G1 X111.262 Y108.753 E3.10476 F1200.000
G1 X111.737 Y108.801 E3.11359 F1200.000
G1 X112.206 Y108.943 E3.12264
G1 X112.637 Y109.174 E3.13170
G1 X113.016 Y109.484 E3.14076
G1 X113.326 Y109.863 E3.14982
G1 X113.557 Y110.294 E3.15887
G1 X113.699 Y110.763 E3.16793
G1 X113.747 Y111.250 E3.17699
G1 X113.699 Y111.737 E3.18604
G1 X113.557 Y112.206 E3.19510
G1 X113.326 Y112.637 E3.20416
G1 X113.092 Y112.936 E3.21118
G1 X112.738 Y113.256 E3.22001
G1 X112.318 Y113.508 E3.22907
G1 X111.857 Y113.672 E3.23812
G1 X111.373 Y113.744 E3.24718
G1 X110.884 Y113.720 E3.25624
G1 X110.409 Y113.601 E3.26530
G1 X109.966 Y113.392 E3.27435
G1 X109.573 Y113.100 E3.28341
G1 X109.244 Y112.738 E3.29247
G1 X109.042 Y112.416 E3.29949
G1 X108.860 Y111.975 E3.30832
G1 X108.765 Y111.495 E3.31738
G1 X108.765 Y111.005 E3.32644
G1 X108.860 Y110.525 E3.33549
G1 X109.048 Y110.073 E3.34455
G1 X109.320 Y109.666 E3.35361
G1 X109.666 Y109.320 E3.36266
G1 X110.073 Y109.048 E3.37172
G1 X110.525 Y108.860 E3.38078
G1 X110.943 Y108.772 E3.38868
G1 X111.029 Y109.011 F6000.000
G1 X111.146 Y109.003 E3.39083 F1200.000
G1 X111.580 Y109.024 E3.39888 F1200.000
G1 X112.008 Y109.131 E3.40704
G1 X112.407 Y109.320 E3.41520
G1 X112.761 Y109.583 E3.42336
