; generated by Slic3r 1.1.7 on 2014-12-11 at 18:44:36

; perimeters extrusion width = 0.50mm
; infill extrusion width = 0.52mm
; solid infill extrusion width = 0.52mm
; top infill extrusion width = 0.52mm

G21 ; set units to millimeters
M107
M104 S200 ; set temperature
G28 ; home all axes
G1 Z5 F5000 ; lift nozzle

M109 S200 ; wait for temperature to be reached
G90 ; use absolute coordinates
G92 E0
M82 ; use absolute distances for extrusion
G1 F1800.000 E-1.00000
G92 E0
G1 Z0.350 F7800.000
G1 X74.023 Y73.906 F7800.000
G1 E1.00000 F1800.000
G1 X74.404 Y73.549 E1.01698 F1080.000
G1 X74.803 Y73.210 E1.03402
G1 X75.218 Y72.892 E1.05104
G1 X75.648 Y72.594 E1.06806
G1 X76.091 Y72.318 E1.08506
G1 X76.548 Y72.064 E1.10204
G1 X77.256 Y71.724 E1.12761
G1 X78.083 Y71.406 E1.15644
G1 X78.990 Y71.143 E1.18716
G1 X79.501 Y71.032 E1.20418
G1 X80.017 Y70.947 E1.22118
G1 X80.798 Y70.866 E1.24674
G1 X81.500 Y70.843 E1.26958
G1 X118.582 Y70.843 E2.47605
G1 X119.104 Y70.860 E2.49304 F1080.000
G1 X119.626 Y70.903 E2.51009
G1 X120.144 Y70.971 E2.52709
G1 X120.659 Y71.064 E2.54413
G1 X121.169 Y71.183 E2.56114
G1 X121.670 Y71.325 E2.57809
G1 X122.167 Y71.494 E2.59517
G1 X122.653 Y71.686 E2.61217
G1 X123.130 Y71.902 E2.62921
G1 X123.596 Y72.140 E2.64623
G1 X124.049 Y72.402 E2.66325
G1 X124.489 Y72.685 E2.68027
G1 X125.199 Y73.212 E2.70904
G1 X125.594 Y73.547 E2.72591
G1 X125.978 Y73.907 E2.74301
G1 X126.684 Y74.675 E2.77696
G1 X127.261 Y75.433 E2.80797
G1 X127.547 Y75.868 E2.82489
G1 X127.812 Y76.318 E2.84190
G1 X128.055 Y76.782 E2.85893
G1 X128.313 Y77.344 E2.87906
G1 X128.508 Y77.838 E2.89633
G1 X128.673 Y78.326 E2.91310
G1 X128.817 Y78.830 E2.93016
G1 X128.936 Y79.340 E2.94718
G1 X129.097 Y80.373 E2.98121
G1 X129.157 Y81.416 E3.01518
G1 X129.157 Y118.582 E4.22438
G1 X129.140 Y119.103 E4.24135
G1 X129.097 Y119.626 E4.25842
G1 X129.029 Y120.144 E4.27544
G1 X128.936 Y120.659 E4.29245
G1 X128.748 Y121.424 E4.31808
G1 X128.593 Y121.920 E4.33500
G1 X128.413 Y122.412 E4.35202
G1 X128.056 Y123.218 E4.38072
G1 X127.598 Y124.049 E4.41157
G1 X127.166 Y124.703 E4.43710
G1 X126.686 Y125.324 E4.46261
G1 X126.093 Y125.978 E4.49133
G1 X125.399 Y126.623 E4.52216
G1 X124.992 Y126.951 E4.53918
G1 X124.570 Y127.260 E4.55619
G1 X123.908 Y127.683 E4.58173
G1 X123.218 Y128.056 E4.60725
G1 X122.503 Y128.377 E4.63277
G1 X121.762 Y128.645 E4.65839
G1 X120.916 Y128.879 E4.68695
G1 X119.983 Y129.053 E4.71784
G1 X119.203 Y129.134 E4.74337
G1 X118.500 Y129.157 E4.76624
G1 X81.418 Y129.157 E5.97270
G1 X80.634 Y129.122 E5.99823
G1 X80.118 Y129.067 E6.01511
G1 X79.598 Y128.986 E6.03225
G1 X79.086 Y128.880 E6.04927
G1 X78.579 Y128.749 E6.06629
G1 X78.080 Y128.593 E6.08331
G1 X77.589 Y128.413 E6.10033
G1 X77.107 Y128.209 E6.11734
G1 X76.636 Y127.982 E6.13436
G1 X76.176 Y127.732 E6.15139
G1 X75.727 Y127.458 E6.16850
G1 X75.297 Y127.166 E6.18542
G1 X74.803 Y126.789 E6.20564
G1 X74.283 Y126.341 E6.22797
G1 X73.909 Y125.980 E6.24489
G1 X73.549 Y125.596 E6.26199
G1 X73.210 Y125.197 E6.27902
G1 X72.741 Y124.570 E6.30453
G1 X72.269 Y123.826 E6.33319
G1 X71.832 Y122.982 E6.36410
G1 X71.528 Y122.259 E6.38962
G1 X71.279 Y121.515 E6.41514
G1 X71.085 Y120.755 E6.44066
G1 X70.947 Y119.983 E6.46618
G1 X70.866 Y119.202 E6.49174
G1 X70.843 Y118.500 E6.51458
G1 X70.843 Y81.415 E7.72115
G1 X70.860 Y80.896 E7.73803
G1 X70.902 Y80.383 E7.75479
G1 X70.971 Y79.856 E7.77208
G1 X71.063 Y79.344 E7.78900
G1 X71.183 Y78.831 E7.80614
G1 X71.326 Y78.328 E7.82315
G1 X71.494 Y77.833 E7.84017
G1 X71.686 Y77.347 E7.85718
G1 X71.902 Y76.870 E7.87421
G1 X72.141 Y76.404 E7.89124
G1 X72.402 Y75.951 E7.90824
G1 X72.685 Y75.512 E7.92526
G1 X72.990 Y75.086 E7.94230
G1 X73.314 Y74.677 E7.95928
G1 X73.970 Y73.960 E7.99091
G1 F1800.000 E6.99091
G92 E0
G1 X91.699 Y113.670 F7800.000
G1 E1.00000 F1800.000
G1 X91.312 Y114.077 E1.01826 F540.000
G1 X90.984 Y114.341 E1.03195
G1 X90.548 Y114.614 E1.04868
G1 X90.035 Y114.842 E1.06694
G1 X89.677 Y114.950 E1.07913
G1 X89.124 Y115.046 E1.09739
G1 X88.750 Y115.065 E1.10957
G1 X88.190 Y115.023 E1.12782
G1 X87.823 Y114.950 E1.14001
G1 X87.290 Y114.774 E1.15828
G1 X86.951 Y114.614 E1.17045
G1 X86.478 Y114.314 E1.18870
G1 X86.188 Y114.076 E1.20089
G1 X85.801 Y113.670 E1.21915
G1 X85.478 Y113.211 E1.23741
G1 X85.302 Y112.881 E1.24958
G1 X85.158 Y112.535 E1.26178
G1 X85.009 Y111.995 E1.28001
G1 X84.950 Y111.577 E1.29372
G1 X84.940 Y111.062 E1.31048
G1 X85.009 Y110.505 E1.32873
G1 X85.158 Y109.965 E1.34699
G1 X85.386 Y109.452 E1.36524
G1 X85.578 Y109.131 E1.37743
G1 X85.801 Y108.830 E1.38961
G1 X86.188 Y108.424 E1.40786
G1 X86.516 Y108.159 E1.42157
G1 X86.952 Y107.886 E1.43830
G1 X87.334 Y107.709 E1.45200
G1 X87.823 Y107.550 E1.46873
G1 X88.375 Y107.454 E1.48698
G1 X88.797 Y107.437 E1.50071
G1 X89.310 Y107.477 E1.51746 F540.000
G1 X89.857 Y107.600 E1.53569
G1 X90.381 Y107.802 E1.55397
G1 X90.869 Y108.078 E1.57222
G1 X91.312 Y108.424 E1.59050
G1 X91.699 Y108.830 E1.60876
G1 X92.022 Y109.289 E1.62700
G1 X92.198 Y109.619 E1.63917
G1 X92.400 Y110.143 E1.65745
G1 X92.499 Y110.552 E1.67113
G1 X92.560 Y111.063 E1.68787
G1 X92.546 Y111.624 E1.70613
G1 X92.450 Y112.177 E1.72439
G1 X92.274 Y112.710 E1.74267
G1 X92.022 Y113.211 E1.76093
G1 X91.745 Y113.611 E1.77676
G1 X91.191 Y113.253 F7800.000
G1 X90.870 Y113.590 E1.79187 F540.000
G1 X90.606 Y113.804 E1.80295
G1 X90.238 Y114.035 E1.81706
G1 X89.814 Y114.223 E1.83217
G1 X89.517 Y114.313 E1.84225
G1 X89.059 Y114.392 E1.85737
G1 X88.750 Y114.407 E1.86745
G1 X88.287 Y114.373 E1.88256
G1 X87.983 Y114.313 E1.89264
G1 X87.542 Y114.167 E1.90776
G1 X87.261 Y114.034 E1.91784
G1 X86.869 Y113.786 E1.93295
G1 X86.630 Y113.589 E1.94304
G1 X86.309 Y113.253 E1.95815
G1 X86.042 Y112.873 E1.97327
G1 X85.896 Y112.600 E1.98334
G1 X85.777 Y112.313 E1.99343
G1 X85.653 Y111.866 E2.00853
G1 X85.606 Y111.529 E2.01961
G1 X85.596 Y111.095 E2.03374
G1 X85.627 Y110.786 E2.04382
G1 X85.729 Y110.334 E2.05892
G1 X85.833 Y110.042 E2.06901
G1 X86.042 Y109.627 E2.08413
G1 X86.233 Y109.345 E2.09519
G1 X86.517 Y109.018 E2.10930
G1 X86.747 Y108.809 E2.11941
G1 X87.127 Y108.542 E2.13451
G1 X87.542 Y108.333 E2.14962
G1 X87.834 Y108.228 E2.15971
G1 X88.287 Y108.127 E2.17483
G1 X88.626 Y108.096 E2.18590
G1 X89.059 Y108.108 E2.20001 F540.000
G1 X89.517 Y108.187 E2.21512
G1 X89.959 Y108.333 E2.23025
G1 X90.373 Y108.542 E2.24536
G1 X90.753 Y108.809 E2.26047
G1 X91.004 Y109.040 E2.27154
G1 X91.286 Y109.369 E2.28566
G1 X91.535 Y109.762 E2.30077
G1 X91.723 Y110.187 E2.31590
G1 X91.847 Y110.634 E2.33100
G1 X91.904 Y111.095 E2.34612
G1 X91.892 Y111.559 E2.36123
G1 X91.813 Y112.017 E2.37634
G1 X91.667 Y112.458 E2.39146
G1 X91.458 Y112.873 E2.40658
G1 X91.237 Y113.194 E2.41926
G1 X90.683 Y112.836 F7800.000
G1 X90.507 Y113.028 E2.42772 F378.000
G1 X90.239 Y113.258 E2.43921
G1 X90.023 Y113.402 E2.44767
G1 X89.707 Y113.560 E2.45916
G1 X89.357 Y113.675 E2.47113
G1 X89.117 Y113.723 E2.47911
G1 X88.750 Y113.750 E2.49108
G1 X88.490 Y113.736 E2.49953
G1 X88.143 Y113.675 E2.51102
G1 X87.793 Y113.560 E2.52299
G1 X87.571 Y113.455 E2.53098
G1 X87.261 Y113.258 E2.54294
G1 X87.071 Y113.102 E2.55093
G1 X86.817 Y112.836 E2.56289
G1 X86.606 Y112.535 E2.57486
G1 X86.490 Y112.319 E2.58284
G1 X86.396 Y112.092 E2.59083
G1 X86.298 Y111.738 E2.60279
G1 X86.261 Y111.480 E2.61125
G1 X86.253 Y111.127 E2.62275
G1 X86.298 Y110.762 E2.63471
G1 X86.396 Y110.408 E2.64668
G1 X86.545 Y110.071 E2.65865
G1 X86.671 Y109.861 E2.66663
G1 X86.817 Y109.664 E2.67461
G1 X87.071 Y109.398 E2.68658
G1 X87.273 Y109.233 E2.69504
G1 X87.571 Y109.045 E2.70653
G1 X87.807 Y108.935 E2.71499
G1 X88.142 Y108.825 E2.72648
G1 X88.505 Y108.762 E2.73844
G1 X88.765 Y108.750 E2.74691
G1 X89.117 Y108.777 E2.75840 F378.000
G1 X89.476 Y108.858 E2.77036
G1 X89.819 Y108.990 E2.78233
G1 X90.139 Y109.171 E2.79430
G1 X90.429 Y109.398 E2.80627
G1 X90.683 Y109.664 E2.81824
G1 X90.894 Y109.965 E2.83020
G1 X91.010 Y110.181 E2.83818
G1 X91.142 Y110.524 E2.85015
G1 X91.205 Y110.777 E2.85861
G1 X91.247 Y111.127 E2.87010
G1 X91.238 Y111.495 E2.88207
G1 X91.175 Y111.857 E2.89403
G1 X91.060 Y112.207 E2.90600
G1 X90.894 Y112.535 E2.91797
G1 X90.729 Y112.777 E2.92751
G1 F1800.000 E1.92751
G92 E0
G1 X88.722 Y108.400 F7800.000
G1 X89.125 Y92.546 F7800.000
G1 E1.00000 F1800.000
G1 X88.750 Y92.565 E1.01220 F540.000
G1 X88.376 Y92.546 E1.02437
G1 X88.006 Y92.491 E1.03657
G1 X87.643 Y92.400 E1.04873
G1 X87.290 Y92.274 E1.06093
G1 X86.952 Y92.114 E1.07310
G1 X86.631 Y91.922 E1.08528
G1 X86.330 Y91.699 E1.09746
G1 X86.053 Y91.448 E1.10962
G1 X85.801 Y91.170 E1.12184
G1 X85.578 Y90.870 E1.13399
G1 X85.365 Y90.506 E1.14770
G1 X85.158 Y90.035 E1.16445
G1 X85.050 Y89.677 E1.17660
G1 X84.977 Y89.309 E1.18881
G1 X84.940 Y88.937 E1.20097
G1 X84.940 Y88.562 E1.21317
G1 X84.977 Y88.190 E1.22536
G1 X85.050 Y87.823 E1.23750
G1 X85.158 Y87.465 E1.24969
G1 X85.302 Y87.119 E1.26188
G1 X85.478 Y86.788 E1.27407
G1 X85.715 Y86.441 E1.28774
G1 X86.052 Y86.053 E1.30447
G1 X86.330 Y85.801 E1.31669
G1 X86.630 Y85.578 E1.32884
G1 X86.952 Y85.386 E1.34102
G1 X87.290 Y85.226 E1.35321
G1 X87.643 Y85.099 E1.36540
G1 X88.005 Y85.009 E1.37756
G1 X88.375 Y84.954 E1.38973
G1 X88.797 Y84.937 E1.40346
G1 X89.124 Y84.954 E1.41409 F540.000
G1 X89.494 Y85.009 E1.42629
G1 X89.857 Y85.100 E1.43845
G1 X90.210 Y85.226 E1.45066
G1 X90.548 Y85.386 E1.46282
G1 X90.869 Y85.578 E1.47501
G1 X91.170 Y85.801 E1.48719
G1 X91.447 Y86.052 E1.49934
G1 X91.699 Y86.330 E1.51156
G1 X91.922 Y86.630 E1.52371
G1 X92.217 Y87.162 E1.54349
G1 X92.342 Y87.465 E1.55417
G1 X92.450 Y87.823 E1.56632
G1 X92.523 Y88.191 E1.57853
G1 X92.560 Y88.563 E1.59069
G1 X92.560 Y88.938 E1.60289
G1 X92.523 Y89.310 E1.61507
G1 X92.450 Y89.676 E1.62721
G1 X92.342 Y90.035 E1.63941
G1 X92.114 Y90.548 E1.65767
G1 X91.922 Y90.869 E1.66986
G1 X91.699 Y91.170 E1.68204
G1 X91.448 Y91.447 E1.69419
G1 X91.170 Y91.699 E1.70641
G1 X90.870 Y91.922 E1.71856
G1 X90.548 Y92.114 E1.73075
G1 X90.210 Y92.274 E1.74293
G1 X89.857 Y92.401 E1.75512
G1 X89.495 Y92.491 E1.76728
G1 X89.199 Y92.537 E1.77701
G1 X89.060 Y91.892 F7800.000
G1 X88.750 Y91.907 E1.78710 F540.000
G1 X88.441 Y91.892 E1.79718
G1 X88.134 Y91.847 E1.80727
G1 X87.834 Y91.771 E1.81734
G1 X87.541 Y91.667 E1.82744
G1 X87.262 Y91.535 E1.83751
G1 X86.996 Y91.375 E1.84759
G1 X86.747 Y91.191 E1.85767
G1 X86.518 Y90.983 E1.86774
G1 X86.309 Y90.753 E1.87784
G1 X86.125 Y90.504 E1.88791
G1 X85.952 Y90.211 E1.89900
G1 X85.777 Y89.813 E1.91312
G1 X85.687 Y89.517 E1.92318
G1 X85.627 Y89.213 E1.93328
G1 X85.596 Y88.905 E1.94335
G1 X85.596 Y88.595 E1.95344
G1 X85.627 Y88.286 E1.96353
G1 X85.687 Y87.983 E1.97359
G1 X85.777 Y87.686 E1.98368
G1 X85.896 Y87.400 E1.99376
G1 X86.042 Y87.127 E2.00385
G1 X86.214 Y86.869 E2.01390
G1 X86.411 Y86.629 E2.02401
G1 X86.630 Y86.411 E2.03408
G1 X86.869 Y86.214 E2.04416
G1 X87.127 Y86.042 E2.05424
G1 X87.400 Y85.896 E2.06432
G1 X87.687 Y85.777 E2.07441
G1 X87.983 Y85.687 E2.08448
G1 X88.287 Y85.627 E2.09457
G1 X88.626 Y85.596 E2.10564
G1 X88.905 Y85.596 E2.11474 F540.000
G1 X89.214 Y85.627 E2.12482
G1 X89.517 Y85.687 E2.13488
G1 X89.814 Y85.777 E2.14497
G1 X90.100 Y85.896 E2.15505
G1 X90.373 Y86.042 E2.16514
G1 X90.631 Y86.214 E2.17520
G1 X90.871 Y86.411 E2.18530
G1 X91.089 Y86.630 E2.19537
G1 X91.286 Y86.869 E2.20545
G1 X91.548 Y87.289 E2.22157
G1 X91.667 Y87.542 E2.23064
G1 X91.771 Y87.834 E2.24073
G1 X91.847 Y88.134 E2.25080
G1 X91.892 Y88.440 E2.26088
G1 X91.907 Y88.750 E2.27097
G1 X91.892 Y89.059 E2.28104
G1 X91.847 Y89.366 E2.29114
G1 X91.771 Y89.666 E2.30121
G1 X91.667 Y89.959 E2.31130
G1 X91.535 Y90.238 E2.32138
G1 X91.375 Y90.504 E2.33146
G1 X91.191 Y90.753 E2.34154
G1 X90.983 Y90.982 E2.35161
G1 X90.753 Y91.191 E2.36171
G1 X90.504 Y91.375 E2.37178
G1 X90.238 Y91.535 E2.38186
G1 X89.958 Y91.667 E2.39194
G1 X89.666 Y91.771 E2.40203
G1 X89.134 Y91.883 E2.41972
G1 X88.995 Y91.238 F7800.000
G1 X88.505 Y91.238 E2.43566 F378.000
G1 X88.024 Y91.142 E2.45161
G1 X87.571 Y90.955 E2.46756
G1 X87.164 Y90.683 E2.48351
G1 X86.817 Y90.336 E2.49945
G1 X86.671 Y90.139 E2.50743
G1 X86.538 Y89.915 E2.51589
G1 X86.396 Y89.592 E2.52739
G1 X86.325 Y89.358 E2.53536
G1 X86.253 Y88.873 E2.55131
G1 X86.277 Y88.383 E2.56726
G1 X86.396 Y87.908 E2.58320
G1 X86.606 Y87.465 E2.59915
G1 X86.751 Y87.249 E2.60760
G1 X86.982 Y86.982 E2.61909
G1 X87.361 Y86.671 E2.63504
G1 X87.793 Y86.440 E2.65099
G1 X88.262 Y86.298 E2.66693
G1 X88.505 Y86.262 E2.67491
G1 X88.765 Y86.250 E2.68338
G1 X89.238 Y86.298 E2.69885 F378.000
G1 X89.707 Y86.440 E2.71479
G1 X90.139 Y86.671 E2.73074
G1 X90.518 Y86.982 E2.74668
G1 X90.829 Y87.361 E2.76263
G1 X91.016 Y87.694 E2.77507
G1 X91.175 Y88.142 E2.79054
G1 X91.247 Y88.627 E2.80648
G1 X91.223 Y89.117 E2.82244
G1 X91.104 Y89.592 E2.83838
G1 X90.955 Y89.929 E2.85034
G1 X90.683 Y90.336 E2.86629
G1 X90.336 Y90.683 E2.88224
G1 X89.929 Y90.955 E2.89818
G1 X89.476 Y91.142 E2.91413
G1 X89.070 Y91.229 E2.92764
G1 F1800.000 E1.92764
G92 E0
G1 X88.774 Y85.775 F7800.000
G1 X107.454 Y89.125 F7800.000
G1 E1.00000 F1800.000
G1 X107.435 Y88.750 E1.01220 F540.000
G1 X107.459 Y88.330 E1.02590
G1 X107.550 Y87.823 E1.04263
G1 X107.658 Y87.465 E1.05482
G1 X107.802 Y87.119 E1.06700
G1 X107.978 Y86.788 E1.07919
G1 X108.186 Y86.478 E1.09134
G1 X108.424 Y86.188 E1.10356
G1 X108.830 Y85.801 E1.12182
G1 X109.130 Y85.578 E1.13397
G1 X109.452 Y85.386 E1.14615
G1 X109.790 Y85.226 E1.15833
G1 X110.143 Y85.100 E1.17052
G1 X110.505 Y85.009 E1.18268
G1 X110.876 Y84.954 E1.19486
G1 X111.297 Y84.937 E1.20859
G1 X111.810 Y84.977 E1.22533 F540.000
G1 X112.357 Y85.100 E1.24357
G1 X112.881 Y85.302 E1.26183
G1 X113.369 Y85.578 E1.28010
G1 X113.812 Y85.924 E1.29836
G1 X114.199 Y86.330 E1.31662
G1 X114.522 Y86.788 E1.33486
G1 X114.774 Y87.290 E1.35313
G1 X114.950 Y87.823 E1.37140
G1 X115.046 Y88.376 E1.38966
G1 X115.060 Y88.937 E1.40791
G1 X115.015 Y89.356 E1.42162
G1 X114.900 Y89.857 E1.43835
G1 X114.698 Y90.381 E1.45662
G1 X114.422 Y90.869 E1.47488
G1 X114.076 Y91.312 E1.49314
G1 X113.670 Y91.699 E1.51140
G1 X113.211 Y92.022 E1.52966
G1 X112.710 Y92.274 E1.54791
G1 X112.357 Y92.400 E1.56010
G1 X111.810 Y92.523 E1.57836
G1 X111.250 Y92.565 E1.59662
G1 X110.690 Y92.523 E1.61489
G1 X110.143 Y92.400 E1.63313
G1 X109.619 Y92.198 E1.65141
G1 X109.131 Y91.922 E1.66966
G1 X108.688 Y91.576 E1.68794
G1 X108.301 Y91.170 E1.70620
G1 X107.978 Y90.711 E1.72444
G1 X107.726 Y90.210 E1.74270
G1 X107.550 Y89.677 E1.76095
G1 X107.463 Y89.199 E1.77676
G1 X108.108 Y89.060 F7800.000
G1 X108.093 Y88.750 E1.78686 F540.000
G1 X108.112 Y88.410 E1.79794
G1 X108.187 Y87.983 E1.81204
G1 X108.277 Y87.686 E1.82213
G1 X108.396 Y87.400 E1.83222
G1 X108.542 Y87.127 E1.84230
G1 X108.714 Y86.869 E1.85236
G1 X108.911 Y86.629 E1.86247
G1 X109.130 Y86.411 E1.87254
G1 X109.369 Y86.214 E1.88262
G1 X109.627 Y86.042 E1.89270
G1 X109.900 Y85.896 E1.90277
G1 X110.187 Y85.777 E1.91287
G1 X110.483 Y85.687 E1.92293
G1 X110.787 Y85.627 E1.93303
G1 X111.126 Y85.596 E1.94410
G1 X111.559 Y85.608 E1.95821 F540.000
G1 X112.017 Y85.687 E1.97333
G1 X112.458 Y85.833 E1.98845
G1 X112.873 Y86.042 E2.00357
G1 X113.253 Y86.309 E2.01868
G1 X113.590 Y86.630 E2.03379
G1 X113.875 Y86.996 E2.04890
G1 X114.104 Y87.400 E2.06401
G1 X114.271 Y87.833 E2.07913
G1 X114.373 Y88.287 E2.09425
G1 X114.407 Y88.750 E2.10936
G1 X114.388 Y89.090 E2.12043
G1 X114.313 Y89.517 E2.13455
G1 X114.167 Y89.958 E2.14967
G1 X113.958 Y90.373 E2.16478
G1 X113.691 Y90.753 E2.17989
G1 X113.371 Y91.089 E2.19500
G1 X113.004 Y91.375 E2.21012
G1 X112.600 Y91.604 E2.22523
G1 X112.166 Y91.771 E2.24035
G1 X111.713 Y91.873 E2.25547
G1 X111.250 Y91.907 E2.27058
G1 X110.786 Y91.873 E2.28570
G1 X110.334 Y91.771 E2.30080
G1 X109.900 Y91.604 E2.31592
G1 X109.496 Y91.375 E2.33103
G1 X109.129 Y91.089 E2.34616
G1 X108.809 Y90.753 E2.36127
G1 X108.542 Y90.373 E2.37637
G1 X108.333 Y89.958 E2.39149
G1 X108.187 Y89.517 E2.40660
G1 X108.117 Y89.134 E2.41927
G1 X108.762 Y88.995 F7800.000
G1 X108.750 Y88.750 E2.42725 F378.000
G1 X108.764 Y88.490 E2.43571
G1 X108.825 Y88.143 E2.44720
G1 X108.896 Y87.908 E2.45519
G1 X109.106 Y87.465 E2.47113
G1 X109.398 Y87.071 E2.48708
G1 X109.571 Y86.898 E2.49506
G1 X109.773 Y86.733 E2.50352
