; generated by Slic3r 1.1.7 on 2014-12-26 at 22:50:53

; perimeters extrusion width = 0.40mm
; infill extrusion width = 0.67mm
; solid infill extrusion width = 0.67mm
; top infill extrusion width = 0.67mm
; support material extrusion width = 0.40mm

G21 ; set units to millimeters
M190 S110 ; wait for bed temperature to be reached
M104 S220 ; set temperature
G28 ; home all axes Start of G Code Slic3r
 
M109 S220 ; wait for temperature to be reached
G90 ; use absolute coordinates
G92 E0
M82 ; use absolute distances for extrusion
M106 S127
G1 F1860.000 E-3.00000
G92 E0
G1 Z0.200 F6000.000
G1 X73.471 Y60.679 F6000.000
G1 E3.10000 F1860.000
G1 X75.750 Y59.064 E3.15257 F1200.000
G1 X78.013 Y58.124 E3.19869
G1 X79.110 Y57.735 E3.22059
G1 X79.670 Y57.564 E3.23160
G1 X80.438 Y57.360 E3.24656
G1 X81.029 Y57.227 E3.25797
G1 X81.622 Y57.116 E3.26932
G1 X82.404 Y57.000 E3.28420
G1 X83.617 Y56.888 E3.30712
G1 X84.851 Y56.844 E3.33035
G1 X89.845 Y56.839 E3.42434
G1 X133.531 Y56.843 E4.24646
G1 X134.368 Y56.890 E4.26222 F1200.000
G1 X135.199 Y56.996 E4.27798
G1 X135.559 Y57.061 E4.28487
G1 X136.020 Y57.161 E4.29375
G1 X136.827 Y57.384 E4.30951
G1 X137.617 Y57.664 E4.32528
G1 X138.384 Y58.000 E4.34104
G1 X139.126 Y58.389 E4.35680
G1 X139.837 Y58.831 E4.37257
G1 X140.138 Y59.040 E4.37946
G1 X140.516 Y59.322 E4.38833
G1 X141.158 Y59.860 E4.40409
G1 X141.759 Y60.443 E4.41986
G1 X142.318 Y61.067 E4.43562
G1 X142.548 Y61.353 E4.44251
G1 X142.830 Y61.730 E4.45139
G1 X143.294 Y62.427 E4.46715
G1 X143.708 Y63.156 E4.48291
G1 X144.068 Y63.912 E4.49867
G1 X144.373 Y64.692 E4.51444
G1 X144.488 Y65.039 E4.52132
G1 X144.622 Y65.492 E4.53020
G1 X144.813 Y66.307 E4.54597
G1 X144.945 Y67.135 E4.56173
G1 X145.018 Y67.969 E4.57749
G1 X145.032 Y68.784 E4.59283
G1 X143.756 Y108.387 E5.33850
G1 X143.365 Y110.406 E5.37720
G1 X142.829 Y111.870 E5.40654
G1 X141.689 Y113.832 E5.44924
G1 X140.808 Y114.693 E5.47242
G1 X140.145 Y115.205 E5.48819
G1 X139.448 Y115.670 E5.50395
G1 X139.133 Y115.856 E5.51083
G1 X138.719 Y116.083 E5.51972
G1 X138.059 Y116.402 E5.53351
G1 X78.661 Y142.136 E6.75171
G1 X77.838 Y142.439 E6.76822
G1 X77.370 Y142.585 E6.77744
G1 X76.651 Y142.771 E6.79141
G1 X75.528 Y142.982 E6.81292
G1 X74.986 Y143.052 E6.82320
G1 X74.088 Y143.126 E6.84015
G1 X72.498 Y143.161 E6.87009
G1 X67.973 Y143.148 E6.95525
G1 X66.637 Y143.087 E6.98040
G1 X65.104 Y142.930 E7.00940
G1 X64.530 Y142.843 E7.02034
G1 X63.588 Y142.659 E7.03839
G1 X62.914 Y142.494 E7.05146
G1 X62.290 Y142.312 E7.06369
G1 X61.529 Y142.047 E7.07885
G1 X60.972 Y141.816 E7.09021
G1 X60.132 Y141.405 E7.10779
G1 X59.696 Y141.154 E7.11727
G1 X59.213 Y140.842 E7.12808
G1 X58.459 Y140.272 E7.14588
G1 X57.823 Y139.692 E7.16208
G1 X57.415 Y139.258 E7.17328
G1 X56.940 Y138.673 E7.18746
G1 X56.592 Y138.176 E7.19888
G1 X56.281 Y137.664 E7.21016
G1 X56.009 Y137.143 E7.22122
G1 X55.718 Y136.479 E7.23486
G1 X55.530 Y135.963 E7.24520
G1 X55.318 Y135.222 E7.25970
G1 X55.167 Y134.518 E7.27325
G1 X55.076 Y133.930 E7.28445
G1 X55.002 Y133.160 E7.29899
G1 X54.964 Y131.725 E7.32601
G1 X54.965 Y108.106 E7.77049
G1 X54.980 Y107.129 E7.78888
G1 X55.019 Y106.478 E7.80116
G1 X55.101 Y105.747 E7.81500
G1 X55.244 Y104.945 E7.83033
G1 X55.426 Y104.225 E7.84430
G1 X55.726 Y103.350 E7.86171
G1 X72.263 Y62.600 E8.68932
G1 X73.439 Y60.730 E8.73089
G1 X73.679 Y60.811 F6000.000
G1 X75.844 Y59.287 E8.78071 F1200.000
G1 X78.119 Y58.344 E8.82705
G1 X79.184 Y57.967 E8.84832
G1 X79.738 Y57.797 E8.85921
G1 X80.493 Y57.596 E8.87392
G1 X81.078 Y57.465 E8.88520
G1 X81.664 Y57.355 E8.89642
G1 X82.432 Y57.242 E8.91104
G1 X83.631 Y57.131 E8.93370
G1 X84.851 Y57.087 E8.95667
G1 X89.845 Y57.082 E9.05065
G1 X133.523 Y57.086 E9.87261
G1 X134.342 Y57.131 E9.88805 F1200.000
G1 X135.155 Y57.235 E9.90348
G1 X135.516 Y57.300 E9.91037
G1 X135.960 Y57.396 E9.91892
G1 X136.750 Y57.614 E9.93436
G1 X137.524 Y57.888 E9.94979
G1 X138.275 Y58.217 E9.96523
G1 X139.002 Y58.598 E9.98067
G1 X139.699 Y59.030 E9.99611
G1 X140.000 Y59.239 E10.00300
G1 X140.363 Y59.511 E10.01154
G1 X140.992 Y60.038 E10.02698
G1 X141.581 Y60.609 E10.04242
G1 X142.129 Y61.220 E10.05785
G1 X142.358 Y61.505 E10.06475
G1 X142.631 Y61.868 E10.07329
G1 X143.086 Y62.551 E10.08873
G1 X143.490 Y63.264 E10.10417
G1 X143.843 Y64.005 E10.11960
G1 X144.142 Y64.769 E10.13504
G1 X144.258 Y65.116 E10.14192
G1 X144.386 Y65.552 E10.15048
G1 X144.574 Y66.351 E10.16592
G1 X144.704 Y67.161 E10.18135
G1 X144.776 Y67.978 E10.19679
G1 X144.790 Y68.776 E10.21182
G1 X143.513 Y108.379 E10.95749
G1 X143.137 Y110.323 E10.99474
G1 X142.601 Y111.787 E11.02408
G1 X141.476 Y113.708 E11.06597
G1 X140.655 Y114.504 E11.08749
G1 X140.007 Y115.006 E11.10292
G1 X139.324 Y115.461 E11.11836
G1 X139.010 Y115.647 E11.12524
G1 X138.611 Y115.865 E11.13380
G1 X137.963 Y116.179 E11.14734
G1 X78.920 Y141.761 E12.35826
G1 X78.350 Y141.998 E12.36988
G1 X77.764 Y142.207 E12.38159
G1 X77.303 Y142.351 E12.39067
G1 X76.651 Y142.522 E12.40335
G1 X75.495 Y142.742 E12.42550
G1 X74.962 Y142.810 E12.43561
G1 X74.075 Y142.884 E12.45237
G1 X72.497 Y142.918 E12.48208
G1 X67.980 Y142.905 E12.56708
G1 X66.656 Y142.845 E12.59202
G1 X65.140 Y142.690 E12.62070
G1 X64.572 Y142.603 E12.63150
G1 X63.639 Y142.422 E12.64938
G1 X62.976 Y142.260 E12.66223
G1 X62.363 Y142.080 E12.67427
G1 X61.617 Y141.820 E12.68913
G1 X61.068 Y141.593 E12.70031
G1 X60.248 Y141.191 E12.71749
G1 X59.822 Y140.947 E12.72673
G1 X59.352 Y140.643 E12.73726
G1 X58.616 Y140.087 E12.75463
G1 X57.995 Y139.521 E12.77044
G1 X57.599 Y139.099 E12.78134
G1 X57.134 Y138.527 E12.79521
G1 X56.795 Y138.043 E12.80631
G1 X56.493 Y137.545 E12.81727
G1 X56.228 Y137.038 E12.82804
G1 X55.943 Y136.389 E12.84138
G1 X55.761 Y135.886 E12.85145
G1 X55.555 Y135.167 E12.86553
G1 X55.406 Y134.477 E12.87881
G1 X55.317 Y133.899 E12.88981
G1 X55.245 Y133.145 E12.90406
G1 X55.207 Y131.724 E12.93082
G1 X55.207 Y108.109 E13.37523
G1 X55.223 Y107.141 E13.39344
G1 X55.261 Y106.501 E13.40550
G1 X55.341 Y105.784 E13.41907
G1 X55.481 Y105.000 E13.43407
G1 X55.658 Y104.295 E13.44775
G1 X55.951 Y103.442 E13.46473
G1 X72.488 Y62.691 E14.29234
G1 X73.647 Y60.862 E14.33309
G1 F1860.000 E11.33309
G92 E0
G1 X126.602 Y105.936 F6000.000
G1 E3.10000 F1860.000
G1 X125.839 Y106.354 E3.11639 F1200.000
G1 X124.993 Y106.561 E3.13278
G1 X124.122 Y106.541 E3.14916
G1 X123.402 Y106.331 E3.16328
G1 X123.286 Y106.297 E3.16555
G1 X122.539 Y105.842 E3.18202
G1 X121.940 Y105.216 E3.19833
G1 X121.522 Y104.452 E3.21471
G1 X121.315 Y103.606 E3.23110
G1 X121.334 Y102.735 E3.24749
G1 X121.581 Y101.895 E3.26396
G1 X122.031 Y101.155 E3.28026
G1 X122.652 Y100.561 E3.29645
G1 X123.422 Y100.135 E3.31300
G1 X124.270 Y99.928 E3.32942
G1 X124.395 Y99.931 E3.33178
G1 X125.140 Y99.948 E3.34581 F1200.000
G1 X125.976 Y100.192 E3.36220
G1 X126.721 Y100.644 E3.37859
G1 X127.322 Y101.273 E3.39498
G1 X127.741 Y102.037 E3.41136
G1 X127.948 Y102.883 E3.42775
G1 X127.928 Y103.754 E3.44414
G1 X127.684 Y104.589 E3.46053
G1 X127.232 Y105.334 E3.47692
G1 X126.646 Y105.894 E3.49218
G1 X126.458 Y105.738 F6000.000
G1 X125.750 Y106.126 E3.50736 F1200.000
G1 X124.966 Y106.317 E3.52254
G1 X124.159 Y106.299 E3.53773
G1 X123.470 Y106.098 E3.55124
G1 X123.385 Y106.073 E3.55291
G1 X122.692 Y105.651 E3.56818
G1 X122.138 Y105.071 E3.58328
G1 X121.750 Y104.363 E3.59846
G1 X121.559 Y103.579 E3.61365
G1 X121.577 Y102.773 E3.62883
G1 X121.805 Y101.995 E3.64409
G1 X122.222 Y101.308 E3.65920
G1 X122.797 Y100.758 E3.67418
G1 X123.511 Y100.363 E3.68954
G1 X124.206 Y100.194 E3.70299
G1 X124.296 Y100.172 E3.70475 F1200.000
G1 X125.103 Y100.190 E3.71993
G1 X125.878 Y100.416 E3.73512
G1 X126.567 Y100.835 E3.75030
G1 X127.125 Y101.418 E3.76549
G1 X127.513 Y102.126 E3.78067
G1 X127.704 Y102.909 E3.79586
G1 X127.686 Y103.716 E3.81104
G1 X127.460 Y104.491 E3.82622
G1 X127.041 Y105.180 E3.84141
G1 X126.501 Y105.697 E3.85546
G1 X126.313 Y105.540 F6000.000
G1 X125.661 Y105.897 E3.86945 F1200.000
G1 X124.940 Y106.073 E3.88343
G1 X124.197 Y106.057 E3.89741
G1 X123.538 Y105.865 E3.91032
G1 X123.484 Y105.849 E3.91139
G1 X122.846 Y105.460 E3.92545
G1 X122.335 Y104.926 E3.93935
G1 X121.978 Y104.274 E3.95333
G1 X121.802 Y103.553 E3.96731
G1 X121.819 Y102.810 E3.98129
G1 X122.028 Y102.094 E3.99532
G1 X122.413 Y101.462 E4.00925
G1 X122.942 Y100.956 E4.02302
G1 X123.600 Y100.592 E4.03719
G1 X124.323 Y100.415 E4.05119
G1 X124.384 Y100.417 E4.05234
G1 X125.066 Y100.432 E4.06516 F1200.000
G1 X125.779 Y100.640 E4.07915
G1 X126.414 Y101.026 E4.09313
G1 X126.927 Y101.563 E4.10711
G1 X127.284 Y102.214 E4.12109
G1 X127.460 Y102.936 E4.13507
G1 X127.444 Y103.679 E4.14905
G1 X127.236 Y104.392 E4.16303
G1 X126.850 Y105.027 E4.17701
G1 X126.356 Y105.499 E4.18987
G1 X126.168 Y105.343 F6000.000
G1 X125.573 Y105.669 E4.20264 F1200.000
G1 X125.056 Y105.795 E4.21265
G1 X124.913 Y105.830 E4.21542
G1 X124.234 Y105.815 E4.22820
G1 X123.583 Y105.624 E4.24097
G1 X122.999 Y105.269 E4.25383
G1 X122.533 Y104.781 E4.26653
G1 X122.207 Y104.186 E4.27930
G1 X122.046 Y103.526 E4.29208
G1 X122.061 Y102.847 E4.30486
G1 X122.252 Y102.194 E4.31767
G1 X122.604 Y101.615 E4.33041
G1 X123.087 Y101.154 E4.34298
G1 X123.690 Y100.820 E4.35595
G1 X124.321 Y100.666 E4.36818
G1 X125.028 Y100.674 E4.38149 F1200.000
G1 X125.680 Y100.864 E4.39427
G1 X126.260 Y101.217 E4.40705
G1 X126.729 Y101.708 E4.41983
G1 X127.056 Y102.303 E4.43260
G1 X127.217 Y102.963 E4.44538
G1 X127.202 Y103.641 E4.45816
G1 X127.011 Y104.293 E4.47093
G1 X126.659 Y104.873 E4.48371
G1 X126.211 Y105.301 E4.49536
G1 F1860.000 E1.49536
G92 E0
G1 X124.257 Y100.271 F6000.000
G1 X126.168 Y71.654 F6000.000
G1 E3.10000 F1860.000
G1 X125.467 Y71.637 E3.11320 F1200.000
G1 X125.138 Y71.583 E3.11948
G1 X124.816 Y71.494 E3.12575
G1 X124.507 Y71.370 E3.13203
G1 X124.212 Y71.214 E3.13830
G1 X123.936 Y71.027 E3.14458
G1 X123.682 Y70.811 E3.15086
G1 X123.453 Y70.569 E3.15713
G1 X123.251 Y70.303 E3.16340
G1 X123.079 Y70.018 E3.16968
G1 X122.922 Y69.667 E3.17691
G1 X122.832 Y69.399 E3.18223
G1 X122.761 Y69.073 E3.18850
G1 X122.725 Y68.742 E3.19478
G1 X122.725 Y68.408 E3.20106
G1 X122.761 Y68.077 E3.20733
G1 X122.832 Y67.751 E3.21361
G1 X122.939 Y67.435 E3.21988
G1 X123.079 Y67.132 E3.22616
G1 X123.251 Y66.847 E3.23243
G1 X123.452 Y66.581 E3.23871
G1 X123.682 Y66.339 E3.24498
G1 X123.936 Y66.123 E3.25126
G1 X124.212 Y65.936 E3.25753
G1 X124.507 Y65.780 E3.26381
G1 X124.866 Y65.643 E3.27104
G1 X125.138 Y65.567 E3.27636
G1 X125.467 Y65.513 E3.28264
G1 X125.778 Y65.496 E3.28849
G1 X133.351 Y65.498 E3.43101
G1 X133.633 Y65.513 E3.43633 F1200.000
G1 X133.962 Y65.567 E3.44261
G1 X134.283 Y65.656 E3.44888
G1 X134.593 Y65.780 E3.45516
G1 X134.888 Y65.936 E3.46143
G1 X135.164 Y66.123 E3.46771
G1 X135.418 Y66.339 E3.47399
G1 X135.647 Y66.581 E3.48026
G1 X135.849 Y66.847 E3.48653
G1 X136.021 Y67.132 E3.49281
G1 X136.161 Y67.435 E3.49908
G1 X136.268 Y67.751 E3.50536
G1 X136.339 Y68.077 E3.51164
G1 X136.375 Y68.408 E3.51791
G1 X136.375 Y68.742 E3.52419
G1 X136.339 Y69.073 E3.53047
G1 X136.268 Y69.399 E3.53674
G1 X136.161 Y69.715 E3.54302
G1 X136.021 Y70.018 E3.54930
G1 X135.849 Y70.303 E3.55557
G1 X135.648 Y70.569 E3.56184
G1 X135.418 Y70.811 E3.56812
G1 X135.164 Y71.027 E3.57440
G1 X134.888 Y71.214 E3.58067
G1 X134.593 Y71.370 E3.58695
G1 X134.234 Y71.507 E3.59418
G1 X133.962 Y71.583 E3.59950
G1 X133.633 Y71.637 E3.60577
G1 X133.322 Y71.654 E3.61163
G1 X126.228 Y71.654 E3.74513
G1 X126.168 Y71.411 F6000.000
G1 X125.493 Y71.395 E3.75783 F1200.000
G1 X125.190 Y71.345 E3.76362
G1 X124.894 Y71.263 E3.76940
G1 X124.609 Y71.149 E3.77518
G1 X124.338 Y71.006 E3.78095
G1 X124.083 Y70.833 E3.78674
G1 X123.849 Y70.634 E3.79252
G1 X123.638 Y70.411 E3.79830
G1 X123.452 Y70.167 E3.80407
G1 X123.294 Y69.904 E3.80986
G1 X123.165 Y69.625 E3.81563
G1 X123.067 Y69.334 E3.82142
G1 X123.001 Y69.034 E3.82719
G1 X122.967 Y68.729 E3.83298
G1 X122.967 Y68.421 E3.83876
G1 X123.001 Y68.116 E3.84453
G1 X123.067 Y67.816 E3.85032
G1 X123.165 Y67.525 E3.85610
G1 X123.294 Y67.246 E3.86188
G1 X123.452 Y66.983 E3.86766
G1 X123.638 Y66.739 E3.87344
G1 X123.849 Y66.516 E3.87922
G1 X124.083 Y66.317 E3.88500
G1 X124.337 Y66.144 E3.89077
G1 X124.609 Y66.001 E3.89656
G1 X124.894 Y65.887 E3.90234
G1 X125.190 Y65.805 E3.90812
G1 X125.493 Y65.755 E3.91390
G1 X125.784 Y65.739 E3.91938
G1 X133.316 Y65.739 E4.06112 F1200.000
G1 X133.607 Y65.755 E4.06660
G1 X133.910 Y65.805 E4.07238
G1 X134.206 Y65.887 E4.07816
G1 X134.491 Y66.001 E4.08394
G1 X134.762 Y66.144 E4.08972
G1 X135.017 Y66.317 E4.09550
G1 X135.251 Y66.516 E4.10128
G1 X135.462 Y66.739 E4.10706
G1 X135.667 Y67.015 E4.11355
G1 X135.806 Y67.246 E4.11862
G1 X135.935 Y67.525 E4.12440
G1 X136.033 Y67.816 E4.13017
G1 X136.099 Y68.116 E4.13596
G1 X136.133 Y68.421 E4.14174
G1 X136.133 Y68.728 E4.14752
G1 X136.099 Y69.034 E4.15330
G1 X136.033 Y69.334 E4.15908
G1 X135.935 Y69.625 E4.16486
G1 X135.806 Y69.904 E4.17064
G1 X135.648 Y70.167 E4.17642
G1 X135.436 Y70.439 E4.18291
G1 X135.251 Y70.634 E4.18797
G1 X135.017 Y70.833 E4.19376
G1 X134.763 Y71.006 E4.19953
G1 X134.491 Y71.150 E4.20531
G1 X134.206 Y71.263 E4.21109
G1 X133.910 Y71.345 E4.21688
G1 X133.607 Y71.395 E4.22266
G1 X133.316 Y71.411 E4.22814
G1 X126.228 Y71.411 E4.36152
G1 X126.168 Y71.168 F6000.000
G1 X125.520 Y71.153 E4.37373 F1200.000
G1 X125.242 Y71.108 E4.37901
G1 X124.972 Y71.033 E4.38430
G1 X124.711 Y70.929 E4.38958
G1 X124.463 Y70.797 E4.39486
G1 X124.230 Y70.640 E4.40015
G1 X124.016 Y70.458 E4.40543
G1 X123.823 Y70.254 E4.41072
G1 X123.653 Y70.030 E4.41600
G1 X123.509 Y69.790 E4.42129
G1 X123.391 Y69.535 E4.42657
G1 X123.301 Y69.269 E4.43186
G1 X123.241 Y68.995 E4.43714
G1 X123.210 Y68.715 E4.44242
G1 X123.210 Y68.435 E4.44771
G1 X123.241 Y68.155 E4.45299
G1 X123.301 Y67.881 E4.45828
G1 X123.401 Y67.593 E4.46402
G1 X123.509 Y67.360 E4.46885
G1 X123.653 Y67.120 E4.47413
G1 X123.840 Y66.878 E4.47987
G1 X124.016 Y66.692 E4.48469
G1 X124.231 Y66.510 E4.48998
G1 X124.463 Y66.353 E4.49526
G1 X124.734 Y66.212 E4.50101
G1 X124.972 Y66.117 E4.50583
G1 X125.243 Y66.042 E4.51112
G1 X125.520 Y65.997 E4.51640
G1 X125.791 Y65.982 E4.52151
G1 X133.325 Y65.983 E4.66329
G1 X133.580 Y65.997 E4.66811 F1200.000
G1 X133.858 Y66.042 E4.67339
G1 X134.128 Y66.117 E4.67868
G1 X134.389 Y66.221 E4.68396
G1 X134.637 Y66.353 E4.68925
G1 X134.869 Y66.510 E4.69453
G1 X135.084 Y66.692 E4.69982
G1 X135.277 Y66.896 E4.70510
G1 X135.447 Y67.120 E4.71038
G1 X135.591 Y67.360 E4.71567
G1 X135.709 Y67.615 E4.72095
G1 X135.799 Y67.881 E4.72624
G1 X135.859 Y68.155 E4.73152
G1 X135.890 Y68.435 E4.73681
G1 X135.890 Y68.715 E4.74209
G1 X135.859 Y68.995 E4.74738
G1 X135.799 Y69.269 E4.75266
G1 X135.709 Y69.535 E4.75794
G1 X135.591 Y69.790 E4.76323
G1 X135.447 Y70.030 E4.76851
G1 X135.260 Y70.272 E4.77426
G1 X135.083 Y70.458 E4.77908
G1 X134.869 Y70.640 E4.78436
G1 X134.637 Y70.797 E4.78965
G1 X134.366 Y70.938 E4.79539
G1 X134.128 Y71.033 E4.80021
G1 X133.857 Y71.108 E4.80550
G1 X133.580 Y71.153 E4.81078
G1 X133.309 Y71.168 E4.81590
G1 X126.228 Y71.168 E4.94915
G1 X126.168 Y70.925 F6000.000
G1 X125.546 Y70.911 E4.96086 F1200.000
G1 X125.295 Y70.870 E4.96565
G1 X125.050 Y70.802 E4.97044
G1 X124.813 Y70.708 E4.97523
G1 X124.588 Y70.589 E4.98002
G1 X124.378 Y70.446 E4.98481
G1 X124.184 Y70.281 E4.98960
G1 X124.009 Y70.096 E4.99439
G1 X123.855 Y69.894 E4.99917
G1 X123.724 Y69.676 E5.00396
G1 X123.617 Y69.445 E5.00875
G1 X123.535 Y69.204 E5.01354
G1 X123.481 Y68.955 E5.01833
G1 X123.453 Y68.702 E5.02312
G1 X123.453 Y68.448 E5.02791
G1 X123.481 Y68.195 E5.03270
G1 X123.536 Y67.946 E5.03748
G1 X123.617 Y67.705 E5.04227
G1 X123.724 Y67.474 E5.04706
G1 X123.855 Y67.256 E5.05185
G1 X124.009 Y67.054 E5.05664
G1 X124.184 Y66.869 E5.06143
G1 X124.378 Y66.704 E5.06622
G1 X124.588 Y66.561 E5.07101
G1 X124.813 Y66.442 E5.07579
G1 X125.050 Y66.348 E5.08058
G1 X125.295 Y66.280 E5.08537
G1 X125.546 Y66.239 E5.09016
G1 X125.797 Y66.225 E5.09490
G1 X133.303 Y66.225 E5.23614 F1200.000
G1 X133.554 Y66.239 E5.24088
G1 X133.805 Y66.280 E5.24567
G1 X134.050 Y66.348 E5.25046
G1 X134.287 Y66.442 E5.25525
G1 X134.512 Y66.561 E5.26003
G1 X134.722 Y66.704 E5.26482
