; generated by Slic3r 1.1.7 on 2015-03-18 at 22:52:56

; perimeters extrusion width = 0.40mm
; infill extrusion width = 0.42mm
; solid infill extrusion width = 0.42mm
; top infill extrusion width = 0.42mm
; support material extrusion width = 0.40mm

G21 ; set units to millimeters
M190 S60 ; wait for bed temperature to be reached
M104 S215 ; set temperature
M106 S255; Turn on Fan fully
G28 ; home all axes Start of G Code Slic3r
 
  
M109 S215 ; wait for temperature to be reached
G90 ; use absolute coordinates
G92 E0
M82 ; use absolute distances for extrusion
G1 F1980.000 E-4.00000
G92 E0
G1 Z0.300 F6000.000
G1 X85.814 Y86.728 F6000.000
G1 E4.00000 F1980.000
G1 X87.117 Y85.460 E4.07289 F1650.000
G1 X89.733 Y83.509 E4.20373
G1 X91.319 Y82.621 E4.27662
G1 X94.351 Y81.414 E4.40746
G1 X96.113 Y80.967 E4.48035
G1 X99.354 Y80.585 E4.61118
G1 X101.172 Y80.609 E4.68408
G1 X104.401 Y81.079 E4.81491 F1650.000
G1 X106.150 Y81.573 E4.88781
G1 X109.148 Y82.863 E5.01864
G1 X110.710 Y83.793 E5.09153
G1 X113.272 Y85.814 E5.22237
G1 X114.540 Y87.117 E5.29526
G1 X116.491 Y89.733 E5.42610
G1 X117.379 Y91.319 E5.49899
G1 X118.586 Y94.351 E5.62982
G1 X119.033 Y96.113 E5.70272
G1 X119.415 Y99.354 E5.83355
G1 X119.391 Y101.172 E5.90645
G1 X118.944 Y104.240 E6.03075
G1 X118.921 Y104.401 E6.03729
G1 X118.427 Y106.150 E6.11017
G1 X117.137 Y109.148 E6.24101
G1 X116.207 Y110.710 E6.31390
G1 X114.186 Y113.272 E6.44474
G1 X112.883 Y114.540 E6.51763
G1 X110.267 Y116.491 E6.64846
G1 X108.681 Y117.379 E6.72135
G1 X105.649 Y118.587 E6.85219
G1 X103.887 Y119.033 E6.92509
G1 X103.725 Y119.052 E6.93163
G1 X100.646 Y119.415 E7.05592
G1 X98.828 Y119.391 E7.12881
G1 X95.599 Y118.921 E7.25965
G1 X93.850 Y118.427 E7.33254
G1 X90.852 Y117.137 E7.46338
G1 X89.290 Y116.207 E7.53626
G1 X86.728 Y114.186 E7.66710
G1 X85.460 Y112.883 E7.74000
G1 X83.509 Y110.267 E7.87084
G1 X82.621 Y108.681 E7.94373
G1 X81.414 Y105.649 E8.07456
G1 X80.967 Y103.887 E8.14745
G1 X80.585 Y100.646 E8.27829
G1 X80.609 Y98.828 E8.35118
G1 X81.056 Y95.760 E8.47548
G1 X81.079 Y95.599 E8.48202
G1 X81.573 Y93.850 E8.55491
G1 X82.863 Y90.852 E8.68574
G1 X83.793 Y89.290 E8.75864
G1 X85.777 Y86.775 E8.88707
G1 F1980.000 E4.88707
G92 E0
G1 X86.067 Y86.927 F6000.000
G1 E4.00000 F1980.000
G1 X87.309 Y85.718 E4.06953 F1650.000
G1 X89.925 Y83.767 E4.20036
G1 X91.438 Y82.920 E4.26989
G1 X94.470 Y81.712 E4.40073
G1 X96.151 Y81.286 E4.47026
G1 X99.391 Y80.904 E4.60109
G1 X101.125 Y80.927 E4.67062
G1 X104.355 Y81.397 E4.80145 F1650.000
G1 X106.023 Y81.869 E4.87098
G1 X109.021 Y83.158 E5.00182
G1 X110.511 Y84.045 E5.07134
G1 X113.073 Y86.067 E5.20218
G1 X114.282 Y87.309 E5.27171
G1 X116.233 Y89.925 E5.40255
G1 X117.080 Y91.438 E5.47207
G1 X118.288 Y94.470 E5.60291
G1 X118.714 Y96.151 E5.67244
G1 X119.096 Y99.391 E5.80327
G1 X119.073 Y101.125 E5.87280
G1 X118.626 Y104.193 E5.99710
G1 X118.603 Y104.355 E6.00364
G1 X118.131 Y106.023 E6.07316
G1 X116.842 Y109.021 E6.20400
G1 X115.955 Y110.511 E6.27353
G1 X113.933 Y113.073 E6.40436
G1 X112.691 Y114.282 E6.47389
G1 X110.075 Y116.233 E6.60472
G1 X108.562 Y117.080 E6.67425
G1 X105.530 Y118.288 E6.80509
G1 X103.849 Y118.714 E6.87462
G1 X103.687 Y118.733 E6.88116
G1 X100.609 Y119.096 E7.00545
G1 X98.875 Y119.073 E7.07498
G1 X95.645 Y118.603 E7.20581
G1 X93.977 Y118.131 E7.27534
G1 X90.979 Y116.842 E7.40618
G1 X89.489 Y115.955 E7.47570
G1 X86.927 Y113.933 E7.60654
G1 X85.718 Y112.691 E7.67607
G1 X83.767 Y110.075 E7.80691
G1 X82.920 Y108.562 E7.87643
G1 X81.712 Y105.530 E8.00727
G1 X81.286 Y103.849 E8.07680
G1 X80.904 Y100.609 E8.20763
G1 X80.927 Y98.875 E8.27716
G1 X81.374 Y95.807 E8.40146
G1 X81.397 Y95.645 E8.40800
G1 X81.869 Y93.977 E8.47752
G1 X83.158 Y90.979 E8.60836
G1 X84.045 Y89.489 E8.67789
G1 X86.029 Y86.975 E8.80632
G1 F1980.000 E4.80632
G92 E0
G1 X86.319 Y87.127 F6000.000
G1 E4.00000 F1980.000
G1 X87.502 Y85.976 E4.06617 F1650.000
G1 X90.117 Y84.024 E4.19700
G1 X91.557 Y83.219 E4.26316
G1 X94.589 Y82.011 E4.39400
G1 X96.188 Y81.605 E4.46016
G1 X99.429 Y81.223 E4.59100
G1 X101.079 Y81.246 E4.65716
G1 X104.308 Y81.715 E4.78800 F1650.000
G1 X105.896 Y82.164 E4.85416
G1 X108.894 Y83.453 E4.98499
G1 X110.312 Y84.298 E5.05115
G1 X112.873 Y86.319 E5.18199
G1 X114.024 Y87.502 E5.24816
G1 X115.976 Y90.117 E5.37900
G1 X116.781 Y91.557 E5.44516
G1 X117.989 Y94.589 E5.57599
G1 X118.395 Y96.188 E5.64215
G1 X118.777 Y99.429 E5.77299
G1 X118.754 Y101.079 E5.83915
G1 X118.308 Y104.147 E5.96345
G1 X118.285 Y104.308 E5.97000
G1 X117.836 Y105.896 E6.03615
G1 X116.547 Y108.894 E6.16699
G1 X115.702 Y110.312 E6.23315
G1 X113.681 Y112.873 E6.36399
G1 X112.498 Y114.024 E6.43015
G1 X109.883 Y115.976 E6.56098
G1 X108.443 Y116.781 E6.62715
G1 X105.411 Y117.989 E6.75798
G1 X103.812 Y118.395 E6.82415
G1 X103.650 Y118.414 E6.83069
G1 X100.571 Y118.777 E6.95498
G1 X98.921 Y118.754 E7.02115
G1 X95.692 Y118.285 E7.15198
G1 X94.104 Y117.836 E7.21814
G1 X91.106 Y116.547 E7.34898
G1 X89.688 Y115.702 E7.41514
G1 X87.127 Y113.681 E7.54598
G1 X85.976 Y112.498 E7.61214
G1 X84.024 Y109.883 E7.74298
G1 X83.219 Y108.443 E7.80914
G1 X82.011 Y105.411 E7.93997
G1 X81.605 Y103.812 E8.00614
G1 X81.223 Y100.571 E8.13697
G1 X81.246 Y98.921 E8.20314
G1 X81.692 Y95.853 E8.32744
G1 X81.715 Y95.692 E8.33398
G1 X82.164 Y94.104 E8.40014
G1 X83.453 Y91.106 E8.53097
G1 X84.298 Y89.688 E8.59714
G1 X86.282 Y87.174 E8.72556
G1 F1980.000 E4.72556
G92 E0
G1 X108.161 Y108.385 F6000.000
G1 E4.00000 F1980.000
G1 X105.712 Y110.211 E4.12246 F900.000
G1 X102.875 Y111.342 E4.24493
G1 X99.842 Y111.699 E4.36739
G1 X96.819 Y111.260 E4.48985
G1 X94.013 Y110.053 E4.61232
G1 X91.615 Y108.161 E4.73478
G1 X89.789 Y105.712 E4.85724
G1 X88.658 Y102.875 E4.97970
G1 X88.301 Y99.842 E5.10217
G1 X88.740 Y96.819 E5.22463
G1 X89.947 Y94.013 E5.34709
G1 X91.839 Y91.615 E5.46956
G1 X94.288 Y89.789 E5.59202
G1 X97.125 Y88.658 E5.71448
G1 X100.158 Y88.301 E5.83694
G1 X100.217 Y88.309 E5.83930
G1 X103.181 Y88.740 E5.95941 F900.000
G1 X105.987 Y89.947 E6.08187
G1 X108.385 Y91.839 E6.20433
G1 X110.211 Y94.288 E6.32680
G1 X111.342 Y97.125 E6.44926
G1 X111.699 Y100.158 E6.57172
G1 X111.260 Y103.181 E6.69418
G1 X110.053 Y105.987 E6.81665
G1 X108.198 Y108.337 E6.93671
G1 F1980.000 E2.93671
G92 E0
G1 X108.353 Y108.642 F6000.000
G1 E4.00000 F1980.000
G1 X105.871 Y110.494 E4.12416 F900.000
G1 X102.955 Y111.656 E4.25002
G1 X99.837 Y112.023 E4.37587
G1 X96.731 Y111.572 E4.50173
G1 X93.847 Y110.331 E4.62759
G1 X93.768 Y110.269 E4.63164
G1 X91.383 Y108.387 E4.75344
G1 X89.506 Y105.871 E4.87930
G1 X88.344 Y102.955 E5.00516
G1 X87.977 Y99.837 E5.13101
G1 X88.428 Y96.731 E5.25687
G1 X89.669 Y93.847 E5.38273
G1 X91.613 Y91.383 E5.50858
G1 X94.129 Y89.506 E5.63444
G1 X97.045 Y88.344 E5.76030
G1 X97.146 Y88.332 E5.76435
G1 X100.163 Y87.977 E5.88615 F900.000
G1 X103.269 Y88.428 E6.01201
G1 X106.153 Y89.669 E6.13787
G1 X108.617 Y91.613 E6.26372
G1 X110.494 Y94.129 E6.38958
G1 X111.656 Y97.045 E6.51544
G1 X112.023 Y100.163 E6.64129
G1 X111.572 Y103.269 E6.76715
G1 X110.331 Y106.153 E6.89301
G1 X108.398 Y108.603 E7.01815
G1 F1980.000 E3.01815
G92 E0
G1 X108.545 Y108.900 F6000.000
G1 E4.00000 F1980.000
G1 X106.029 Y110.777 E4.12586 F720.000
G1 X103.034 Y111.970 E4.25511
G1 X99.833 Y112.348 E4.38436
G1 X96.643 Y111.884 E4.51361
G1 X93.681 Y110.610 E4.64286
G1 X91.151 Y108.613 E4.77211
G1 X89.223 Y106.029 E4.90136
G1 X88.030 Y103.034 E5.03061
G1 X87.652 Y99.833 E5.15986
G1 X88.116 Y96.643 E5.28911
G1 X89.390 Y93.681 E5.41836
G1 X91.387 Y91.151 E5.54761
G1 X93.971 Y89.223 E5.67686
G1 X96.966 Y88.030 E5.80611
G1 X100.167 Y87.652 E5.93536
G1 X100.309 Y87.673 E5.94111
G1 X103.357 Y88.116 E6.06461 F720.000
G1 X106.319 Y89.390 E6.19386
G1 X108.849 Y91.387 E6.32311
G1 X110.777 Y93.971 E6.45236
G1 X111.970 Y96.966 E6.58161
G1 X112.348 Y100.167 E6.71086
G1 X111.884 Y103.357 E6.84011
G1 X110.610 Y106.319 E6.96936
G1 X108.593 Y108.864 E7.09957
G1 F1980.000 E3.09957
G92 E0
G1 X100.669 Y87.848 F6000.000
G1 X103.492 Y89.106 F6000.000
G1 E4.00000 F1980.000
G1 X110.848 Y96.462 E4.41709 F900.000
G1 F1980.000 E0.41709
G92 E0
G1 X111.137 Y97.207 F6000.000
G1 E4.00000 F1980.000
G1 X102.835 Y88.905 E4.47074 F900.000
G1 X102.300 Y88.828 E4.49240
G1 X111.198 Y97.725 E4.99691
G1 X111.259 Y98.243 E5.01781
G1 X101.766 Y88.750 E5.55608
G1 X101.231 Y88.672 E5.57774
G1 X111.320 Y98.761 E6.14977
G1 X111.381 Y99.278 E6.17068
G1 X100.697 Y88.594 E6.77648
G1 X100.162 Y88.517 E6.79813
G1 X111.442 Y99.796 E7.43770
G1 X111.467 Y100.278 E7.45702
G1 X99.752 Y88.563 E8.12124
G1 X99.344 Y88.611 E8.13774
G1 X111.409 Y100.676 E8.82183
G1 X111.351 Y101.075 E8.83799
G1 X98.935 Y88.660 E9.54196
G1 X98.527 Y88.708 E9.55846
G1 X111.293 Y101.474 E10.28231
G1 X111.235 Y101.872 E10.29846
G1 X98.118 Y88.756 E11.04219
G1 X97.710 Y88.804 E11.05868
G1 X111.177 Y102.271 E11.82228
G1 X111.119 Y102.670 E11.83843
G1 X97.301 Y88.852 E12.62191
G1 X96.950 Y88.958 E12.63662
G1 X111.061 Y103.068 E13.43673
G1 X110.934 Y103.399 E13.45090
G1 X96.623 Y89.088 E14.26235
G1 X96.297 Y89.218 E14.27645
G1 X110.797 Y103.718 E15.09863
G1 X110.659 Y104.037 E15.11256
G1 X95.970 Y89.348 E15.94547
G1 X95.644 Y89.478 E15.95956
G1 X110.522 Y104.357 E16.80320
G1 X110.385 Y104.676 E16.81714
G1 X95.317 Y89.608 E17.67150
G1 X94.990 Y89.738 E17.68559
G1 X110.247 Y104.995 E18.55069
G1 X110.110 Y105.315 E18.56462
G1 X94.664 Y89.868 E19.44044
G1 X94.348 Y90.010 E19.45430
G1 X109.972 Y105.634 E20.34023
G1 X109.820 Y105.938 E20.35387
G1 X94.087 Y90.205 E21.24597
G1 X93.825 Y90.400 E21.25905
G1 X109.618 Y106.193 E22.15456
G1 X109.417 Y106.448 E22.16760
G1 X93.564 Y90.595 E23.06652
G1 X93.302 Y90.790 E23.07960
G1 X109.216 Y106.704 E23.98193
G1 X109.014 Y106.959 E23.99496
G1 X93.040 Y90.985 E24.90070
G1 X92.779 Y91.180 E24.91379
G1 X108.813 Y107.214 E25.82293
G1 X108.611 Y107.470 E25.83597
G1 X92.517 Y91.376 E26.74853
G1 X92.256 Y91.571 E26.76161
G1 X108.410 Y107.725 E27.67758
G1 X108.208 Y107.980 E27.69062
G1 X92.008 Y91.779 E28.60922
G1 X91.792 Y92.020 E28.62219
G1 X107.992 Y108.221 E29.54079
G1 X107.744 Y108.429 E29.55379
G1 X91.590 Y92.275 E30.46975
G1 X91.389 Y92.531 E30.48279
G1 X107.483 Y108.624 E31.39535
G1 X107.221 Y108.820 E31.40843
G1 X91.187 Y92.786 E32.31758
G1 X90.986 Y93.041 E32.33062
G1 X106.960 Y109.015 E33.23636
G1 X106.698 Y109.210 E33.24944
G1 X90.784 Y93.296 E34.15177
G1 X90.583 Y93.552 E34.16481
G1 X106.436 Y109.405 E35.06372
G1 X106.175 Y109.600 E35.07681
G1 X90.382 Y93.807 E35.97232
G1 X90.180 Y94.062 E35.98535
G1 X105.913 Y109.795 E36.87745
G1 X105.652 Y109.990 E36.89054
G1 X90.028 Y94.366 E37.77646
G1 X89.890 Y94.685 E37.79040
G1 X105.336 Y110.132 E38.66622
G1 X105.010 Y110.262 E38.68031
G1 X89.753 Y95.005 E39.54541
G1 X89.615 Y95.324 E39.55934
G1 X104.683 Y110.392 E40.41371
G1 X104.356 Y110.522 E40.42780
G1 X89.478 Y95.643 E41.27144
G1 X89.341 Y95.963 E41.28537
G1 X104.030 Y110.652 E42.11828
G1 X103.703 Y110.782 E42.13237
G1 X89.203 Y96.282 E42.95455
G1 X89.066 Y96.601 E42.96849
G1 X103.377 Y110.912 E43.77994
G1 X103.050 Y111.042 E43.79403
G1 X88.939 Y96.932 E44.59414
G1 X88.881 Y97.330 E44.61030
G1 X102.699 Y111.148 E45.39377
G1 X102.290 Y111.196 E45.41027
G1 X88.823 Y97.729 E46.17387
G1 X88.765 Y98.128 E46.19002
G1 X101.882 Y111.244 E46.93375
G1 X101.473 Y111.292 E46.95024
G1 X88.707 Y98.526 E47.67409
G1 X88.649 Y98.925 E47.69024
G1 X101.065 Y111.340 E48.39422
G1 X100.656 Y111.389 E48.41071
G1 X88.591 Y99.324 E49.09481
G1 X88.533 Y99.723 E49.11096
G1 X100.248 Y111.437 E49.77518
G1 X99.838 Y111.483 E49.79173
G1 X88.558 Y100.204 E50.43130
G1 X88.619 Y100.722 E50.45220
G1 X99.303 Y111.406 E51.05800
G1 X98.769 Y111.328 E51.07966
G1 X88.680 Y101.239 E51.65169
G1 X88.741 Y101.757 E51.67259
G1 X98.234 Y111.250 E52.21087
G1 X97.700 Y111.172 E52.23252
G1 X88.802 Y102.275 E52.73703
G1 X88.863 Y102.793 E52.75793
G1 X97.165 Y111.095 E53.22868
G1 X96.508 Y110.894 E53.25624
G1 X89.152 Y103.538 E53.67333
G1 F1980.000 E49.67333
G92 E0
G1 X89.454 Y104.297 F6000.000
G1 E4.00000 F1980.000
G1 X95.706 Y110.549 E4.35449 F900.000
G1 F1980.000 E0.35449
G92 E0
G1 X94.905 Y110.204 F6000.000
G1 E4.00000 F1980.000
G1 X89.757 Y105.056 E4.29190 F900.000
G1 F1980.000 E0.29190
G92 E0
G1 X90.344 Y106.100 F6000.000
G1 E4.00000 F1980.000
G1 X94.070 Y109.826 E4.21125 F900.000
G1 F1980.000 E0.21125
G92 E0
G1 X91.905 Y108.117 F6000.000
G1 E4.00000 F1980.000
G1 X91.686 Y107.898 E4.01242 F900.000
G1 F1980.000 E0.01242
G92 E0
G1 X104.294 Y89.451 F6000.000
G1 E4.00000 F1980.000
G1 X110.546 Y95.703 E4.35449 F900.000
G1 F1980.000 E0.35449
G92 E0
G1 X110.243 Y94.944 F6000.000
G1 E4.00000 F1980.000
G1 X105.095 Y89.796 E4.29190 F900.000
G1 F1980.000 E0.29190
G92 E0
G1 X105.930 Y90.174 F6000.000
G1 E4.00000 F1980.000
G1 X109.656 Y93.900 E4.21125 F900.000
G1 F1980.000 E0.21125
G92 E0
G1 X108.314 Y92.102 F6000.000
G1 E4.00000 F1980.000
G1 X108.095 Y91.883 E4.01242 F900.000
M106 S184
M104 S210 ; set temperature
M140 S57 ; set bed temperature
G1 F1980.000 E0.01242
G92 E0
G1 Z0.600 F6000.000
G1 X108.015 Y108.235 F6000.000
G1 E4.00000 F1980.000
G1 X105.610 Y110.029 E4.14966 F1800.000
G1 X102.824 Y111.139 E4.29933
G1 X99.844 Y111.490 E4.44899
G1 X96.876 Y111.059 E4.59865
G1 X94.120 Y109.873 E4.74832
G1 X91.765 Y108.015 E4.89798
G1 X89.971 Y105.610 E5.04764
G1 X88.861 Y102.824 E5.19731
G1 X88.510 Y99.844 E5.34697
G1 X88.941 Y96.876 E5.49663
G1 X90.127 Y94.120 E5.64629
G1 X91.985 Y91.765 E5.79596
G1 X94.390 Y89.971 E5.94562
G1 X97.176 Y88.861 E6.09528
G1 X100.156 Y88.510 E6.24495
G1 X100.510 Y88.561 E6.26280
G1 X103.124 Y88.941 E6.39461 F1800.000
G1 X105.880 Y90.127 E6.54427
G1 X108.235 Y91.985 E6.69394
G1 X110.029 Y94.390 E6.84360
G1 X111.139 Y97.176 E6.99326
G1 X111.490 Y100.156 E7.14292
G1 X111.059 Y103.124 E7.29259
G1 X109.873 Y105.880 E7.44225
G1 X108.052 Y108.188 E7.58892
G1 F1980.000 E3.58892
G92 E0
G1 X108.329 Y108.483 F6000.000
G1 E4.00000 F1980.000
G1 X108.296 Y108.524 E4.00263 F1800.000
G1 X105.807 Y110.381 E4.15754
G1 X102.923 Y111.530 E4.31246
G1 X99.839 Y111.894 E4.46738
G1 X96.766 Y111.447 E4.62230
G1 X93.914 Y110.220 E4.77722
G1 X91.476 Y108.296 E4.93213
G1 X89.619 Y105.807 E5.08705
G1 X88.470 Y102.923 E5.24197
G1 X88.106 Y99.839 E5.39689
G1 X88.553 Y96.766 E5.55180
G1 X89.780 Y93.914 E5.70672
G1 X91.704 Y91.476 E5.86164
G1 X94.193 Y89.619 E6.01656
G1 X97.077 Y88.470 E6.17147
G1 X97.485 Y88.422 E6.19195
G1 X100.161 Y88.106 E6.32639 F1800.000
G1 X103.234 Y88.553 E6.48131
G1 X106.086 Y89.780 E6.63623
G1 X108.524 Y91.704 E6.79114
G1 X110.381 Y94.193 E6.94606
G1 X111.530 Y97.077 E7.10098
G1 X111.894 Y100.161 E7.25590
G1 X111.447 Y103.234 E7.41082
G1 X110.220 Y106.086 E7.56573
G1 X108.366 Y108.436 E7.71503
G1 F1980.000 E3.71503
G92 E0
G1 X108.643 Y108.730 F6000.000
G1 E4.00000 F1980.000
G1 X108.578 Y108.813 E4.00525 F1440.000
G1 X106.004 Y110.733 E4.16543
G1 X103.022 Y111.921 E4.32560
G1 X99.834 Y112.297 E4.48577
G1 X96.656 Y111.835 E4.64594
G1 X93.707 Y110.566 E4.80611
G1 X91.187 Y108.578 E4.96629
G1 X89.267 Y106.004 E5.12646
G1 X88.079 Y103.022 E5.28663
G1 X87.703 Y99.834 E5.44680
G1 X88.165 Y96.656 E5.60698
G1 X89.434 Y93.707 E5.76715
G1 X91.422 Y91.187 E5.92732
G1 X93.996 Y89.267 E6.08749
G1 X96.978 Y88.079 E6.24766
G1 X100.166 Y87.703 E6.40784
G1 X100.625 Y87.770 E6.43094
G1 X103.344 Y88.165 E6.56801 F1440.000
G1 X106.293 Y89.434 E6.72818
G1 X108.813 Y91.422 E6.88835
G1 X110.733 Y93.996 E7.04853
G1 X111.921 Y96.978 E7.20870
G1 X112.297 Y100.166 E7.36887
G1 X111.835 Y103.344 E7.52904
G1 X110.566 Y106.293 E7.68921
G1 X108.680 Y108.683 E7.84114
G1 F1980.000 E3.84114
G92 E0
G1 X100.984 Y87.946 F6000.000
G1 X95.567 Y89.797 F6000.000
G1 E4.00000 F1980.000
G1 X89.807 Y95.558 E4.42561 F1800.000
G1 F1980.000 E0.42561
G92 E0
G1 X89.356 Y96.606 F6000.000
G1 E4.00000 F1980.000
G1 X96.560 Y89.402 E4.53229 F1800.000
G1 X97.455 Y89.104 E4.58155
G1 X89.139 Y97.420 E5.19596
G1 X89.038 Y98.119 E5.23287
G1 X98.132 Y89.024 E5.90482
G1 X98.810 Y88.945 E5.94045
G1 X88.936 Y98.818 E6.66995
G1 X88.834 Y99.517 E6.70686
G1 X99.487 Y88.865 E7.49391
G1 X100.161 Y88.788 E7.52938
G1 X88.819 Y100.129 E8.36737
G1 X88.882 Y100.664 E8.39548
G1 X100.683 Y88.863 E9.26735
