; generated by Slic3r 1.1.7 on 2015-03-19 at 11:09:40

; perimeters extrusion width = 0.40mm
; infill extrusion width = 0.42mm
; solid infill extrusion width = 0.42mm
; top infill extrusion width = 0.42mm
; support material extrusion width = 0.40mm

G21 ; set units to millimeters
M190 S70 ; wait for bed temperature to be reached
M104 S240 ; set temperature
M106 S255; Turn on Fan fully
G28 ; home all axes Start of G Code Slic3r
 
  
M109 S240 ; wait for temperature to be reached
G90 ; use absolute coordinates
G92 E0
M82 ; use absolute distances for extrusion
M106 S127
G1 F1980.000 E-4.00000
G92 E0
G1 Z0.300 F6000.000
G1 X85.915 Y86.832 F6000.000
G1 E4.00000 F1980.000
G1 X87.218 Y85.564 E4.07459 F1650.000
G1 X89.803 Y83.635 E4.20691
G1 X91.390 Y82.748 E4.28150
G1 X94.386 Y81.554 E4.41383
G1 X96.149 Y81.107 E4.48841
G1 X96.259 Y81.094 E4.49295
G1 X99.352 Y80.730 E4.62074
G1 X101.170 Y80.754 E4.69533
G1 X104.361 Y81.218 E4.82765 F1650.000
G1 X106.111 Y81.713 E4.90224
G1 X109.074 Y82.987 E5.03457
G1 X110.636 Y83.917 E5.10915
G1 X113.168 Y85.915 E5.24148
G1 X114.436 Y87.218 E5.31607
G1 X116.365 Y89.803 E5.44839
G1 X117.252 Y91.390 E5.52298
G1 X118.446 Y94.386 E5.65530
G1 X118.893 Y96.149 E5.72989
G1 X119.270 Y99.352 E5.86222
G1 X119.246 Y101.170 E5.93681
G1 X118.782 Y104.361 E6.06913
G1 X118.287 Y106.111 E6.14373
G1 X117.455 Y108.045 E6.23010
G1 X116.799 Y109.443 E6.29344
G1 X116.171 Y110.511 E6.34426
G1 X114.407 Y112.979 E6.46873
G1 X112.674 Y114.676 E6.56825
G1 X108.983 Y117.091 E6.74922
G1 X106.484 Y118.246 E6.86216
G1 X105.456 Y118.567 E6.90633
G1 X103.851 Y118.893 E6.97353
G1 X100.648 Y119.270 E7.10585
G1 X98.830 Y119.246 E7.18044
G1 X95.639 Y118.782 E7.31276
G1 X93.889 Y118.287 E7.38735
G1 X90.926 Y117.013 E7.51967
G1 X89.364 Y116.082 E7.59426
G1 X86.832 Y114.085 E7.72659
G1 X85.564 Y112.782 E7.80118
G1 X83.635 Y110.197 E7.93350
G1 X82.748 Y108.610 E8.00809
G1 X81.554 Y105.614 E8.14041
G1 X81.107 Y103.851 E8.21500
G1 X80.730 Y100.648 E8.34733
G1 X80.754 Y98.830 E8.42192
G1 X81.218 Y95.639 E8.55424
G1 X81.713 Y93.889 E8.62883
G1 X82.987 Y90.926 E8.76115
G1 X83.918 Y89.364 E8.83574
G1 X85.878 Y86.879 E8.96560
G1 F1980.000 E4.96560
G92 E0
G1 X86.168 Y87.031 F6000.000
G1 E4.00000 F1980.000
G1 X87.411 Y85.822 E4.07115 F1650.000
G1 X89.996 Y83.893 E4.20347
G1 X91.509 Y83.046 E4.27462
G1 X94.505 Y81.853 E4.40694
G1 X96.186 Y81.427 E4.47808
G1 X96.296 Y81.414 E4.48263
G1 X99.389 Y81.049 E4.61041
G1 X101.123 Y81.072 E4.68156
G1 X104.315 Y81.537 E4.81388 F1650.000
G1 X105.984 Y82.008 E4.88503
G1 X108.947 Y83.283 E5.01735
G1 X110.437 Y84.170 E5.08849
G1 X112.969 Y86.168 E5.22082
G1 X114.178 Y87.411 E5.29197
G1 X116.107 Y89.996 E5.42429
G1 X116.953 Y91.509 E5.49543
G1 X118.147 Y94.505 E5.62776
G1 X118.573 Y96.186 E5.69891
G1 X118.951 Y99.389 E5.83123
G1 X118.928 Y101.123 E5.90238
G1 X118.463 Y104.315 E6.03470
G1 X117.992 Y105.984 E6.10586
G1 X117.160 Y107.918 E6.19223
G1 X116.509 Y109.305 E6.25509
G1 X115.910 Y110.324 E6.30357
G1 X114.145 Y112.792 E6.42804
G1 X112.493 Y114.411 E6.52296
G1 X108.847 Y116.800 E6.70179
G1 X106.365 Y117.948 E6.81397
G1 X105.385 Y118.253 E6.85610
G1 X103.814 Y118.573 E6.92188
G1 X100.611 Y118.951 E7.05420
G1 X98.877 Y118.928 E7.12535
G1 X95.685 Y118.463 E7.25767
G1 X94.016 Y117.992 E7.32882
G1 X91.053 Y116.717 E7.46114
G1 X89.563 Y115.830 E7.53229
G1 X87.031 Y113.832 E7.66461
G1 X85.822 Y112.590 E7.73576
G1 X83.893 Y110.004 E7.86808
G1 X83.046 Y108.491 E7.93923
G1 X81.853 Y105.495 E8.07155
G1 X81.427 Y103.814 E8.14270
G1 X81.049 Y100.611 E8.27502
G1 X81.072 Y98.877 E8.34617
G1 X81.537 Y95.685 E8.47849
G1 X82.008 Y94.016 E8.54964
G1 X83.283 Y91.053 E8.68196
G1 X84.170 Y89.563 E8.75311
G1 X86.131 Y87.078 E8.88297
G1 F1980.000 E4.88297
G92 E0
G1 X86.420 Y87.230 F6000.000
G1 E4.00000 F1980.000
G1 X87.603 Y86.079 E4.06770 F1650.000
G1 X90.188 Y84.151 E4.20003
G1 X91.628 Y83.345 E4.26773
G1 X94.624 Y82.151 E4.40005
G1 X96.224 Y81.746 E4.46776
G1 X96.334 Y81.733 E4.47230
G1 X99.427 Y81.368 E4.60008
G1 X101.077 Y81.390 E4.66778
G1 X104.269 Y81.855 E4.80011 F1650.000
G1 X105.857 Y82.303 E4.86781
G1 X108.820 Y83.578 E5.00014
G1 X110.238 Y84.422 E5.06784
G1 X112.770 Y86.420 E5.20016
G1 X113.921 Y87.603 E5.26787
G1 X115.849 Y90.188 E5.40019
G1 X116.655 Y91.628 E5.46789
G1 X117.849 Y94.624 E5.60022
G1 X118.254 Y96.224 E5.66792
G1 X118.632 Y99.427 E5.80024
G1 X118.610 Y101.077 E5.86795
G1 X118.145 Y104.269 E6.00027
G1 X117.697 Y105.857 E6.06798
G1 X116.865 Y107.791 E6.15435
G1 X116.218 Y109.167 E6.21674
G1 X115.648 Y110.137 E6.26287
G1 X113.884 Y112.605 E6.38734
G1 X112.311 Y114.146 E6.47767
G1 X108.710 Y116.508 E6.65437
G1 X106.246 Y117.649 E6.76577
G1 X105.313 Y117.940 E6.80587
G1 X103.776 Y118.254 E6.87023
G1 X100.573 Y118.632 E7.00256
G1 X98.923 Y118.610 E7.07026
G1 X95.731 Y118.145 E7.20259
G1 X94.143 Y117.697 E7.27029
G1 X91.180 Y116.422 E7.40261
G1 X89.762 Y115.578 E7.47032
G1 X87.230 Y113.580 E7.60264
G1 X86.079 Y112.397 E7.67034
G1 X84.151 Y109.812 E7.80267
G1 X83.345 Y108.372 E7.87037
G1 X82.151 Y105.376 E8.00269
G1 X81.746 Y103.776 E8.07040
G1 X81.368 Y100.573 E8.20272
G1 X81.390 Y98.923 E8.27043
G1 X81.855 Y95.731 E8.40275
G1 X82.303 Y94.143 E8.47045
G1 X83.578 Y91.180 E8.60278
G1 X84.422 Y89.762 E8.67048
G1 X86.383 Y87.278 E8.80034
G1 F1980.000 E4.80034
G92 E0
G1 X98.181 Y111.726 F6000.000
G1 E4.00000 F1980.000
G1 X98.126 Y111.954 E4.00961 F720.000
G1 X97.695 Y111.891 E4.02748
G1 X97.724 Y111.569 E4.04075
G1 X98.124 Y111.707 E4.05814
G1 F1980.000 E0.05814
G92 E0
G1 X98.014 Y111.891 F6000.000
G1 X96.389 Y110.918 F6000.000
G1 E4.00000 F1980.000
G1 X95.738 Y110.638 E4.02905 F900.000
G1 X95.766 Y110.437 E4.03736
G1 X94.910 Y110.045 E4.07598
G1 X92.506 Y108.680 E4.18943
G1 X91.719 Y108.059 E4.23052
G1 X89.916 Y105.642 E4.35428
G1 X88.799 Y102.839 E4.47804
G1 X88.446 Y99.844 E4.60180
G1 X88.880 Y96.858 E4.72555
G1 X90.072 Y94.087 E4.84931
G1 X91.941 Y91.719 E4.97307
G1 X94.358 Y89.916 E5.09683
G1 X97.161 Y88.799 E5.22059
G1 X100.156 Y88.446 E5.34434
G1 X103.142 Y88.880 E5.46810
G1 X105.913 Y90.072 E5.59186
G1 X108.281 Y91.941 E5.71562
G1 X110.084 Y94.358 E5.83938
G1 X111.201 Y97.161 E5.96314
G1 X111.554 Y100.156 E6.08689
G1 X111.135 Y103.035 E6.20624
G1 X105.730 Y109.838 E6.56272
G1 X96.790 Y110.505 E6.93050
G1 X96.757 Y110.760 E6.94105
G1 X96.485 Y110.672 E6.95278
G1 X96.411 Y110.862 E6.96117
G1 F1980.000 E2.96117
G92 E0
G1 X96.674 Y111.071 F6000.000
G1 E4.00000 F1980.000
G1 X96.566 Y111.344 E4.01206 F900.000
G1 X95.386 Y110.837 E4.06477
G1 X95.415 Y110.630 E4.07332
G1 X94.539 Y110.229 E4.11282
G1 X94.548 Y110.210 E4.11371
G1 X92.962 Y109.309 E4.18855
G1 X92.988 Y109.470 E4.19526
G1 X91.487 Y108.286 E4.27371
G1 X89.633 Y105.800 E4.40094
G1 X88.485 Y102.919 E4.52817
G1 X88.122 Y99.839 E4.65541
G1 X88.568 Y96.770 E4.78264
G1 X89.793 Y93.922 E4.90987
G1 X91.714 Y91.487 E5.03710
G1 X94.200 Y89.633 E5.16433
G1 X97.081 Y88.485 E5.29156
G1 X100.161 Y88.122 E5.41879
G1 X103.230 Y88.568 E5.54602
G1 X106.117 Y89.824 E5.67518
G1 X108.513 Y91.714 E5.80042
G1 X110.367 Y94.200 E5.92765
G1 X111.515 Y97.081 E6.05488
G1 X111.878 Y100.161 E6.18211
G1 X111.441 Y103.169 E6.30680
G1 X110.348 Y104.523 E6.37822
G1 X105.928 Y110.105 E6.67032
G1 X106.005 Y110.215 E6.67579
G1 X105.800 Y110.367 E6.68628
G1 X105.438 Y110.512 E6.70227
G1 X105.352 Y110.188 E6.71599
G1 X97.076 Y110.806 E7.05648
G1 X97.027 Y111.185 E7.07216
G1 X96.731 Y111.089 E7.08491
G1 F1980.000 E3.08491
G92 E0
G1 X96.862 Y111.470 F6000.000
G1 E4.00000 F1980.000
G1 X96.744 Y111.771 E4.01327 F720.000
G1 X95.034 Y111.035 E4.08964
G1 X95.064 Y110.823 E4.09843
G1 X94.117 Y110.389 E4.14115
G1 X94.136 Y110.345 E4.14313
G1 X93.387 Y109.920 E4.17847
G1 X93.438 Y110.235 E4.19157
G1 X91.255 Y108.512 E4.30569
G1 X89.350 Y105.958 E4.43639
G1 X88.170 Y102.999 E4.56709
G1 X87.797 Y99.835 E4.69780
G1 X88.256 Y96.682 E4.82850
G1 X89.515 Y93.756 E4.95920
G1 X91.488 Y91.255 E5.08991
G1 X94.042 Y89.350 E5.22061
G1 X97.001 Y88.170 E5.35131
G1 X97.092 Y88.160 E5.35504
G1 X100.165 Y87.797 E5.48202
G1 X103.318 Y88.256 E5.61272
G1 X106.244 Y89.515 E5.74342
G1 X106.316 Y89.571 E5.74715
G1 X108.745 Y91.488 E5.87413
G1 X110.650 Y94.042 E6.00483
G1 X111.830 Y97.001 E6.13553
G1 X112.203 Y100.165 E6.26624
G1 X111.746 Y103.302 E6.39628
G1 X110.599 Y104.724 E6.47125
G1 X106.329 Y110.117 E6.75346
G1 X106.447 Y110.286 E6.76191
G1 X105.958 Y110.650 E6.78693
G1 X105.221 Y110.944 E6.81950
G1 X105.110 Y110.529 E6.83714
G1 X97.361 Y111.107 E7.15594
G1 X97.296 Y111.610 E7.17675
G1 X96.919 Y111.488 E7.19299
G1 F1980.000 E3.19299
G92 E0
G1 X96.559 Y111.357 F6000.000
G1 X100.445 Y112.160 F6000.000
G1 E4.00000 F1980.000
G1 X100.080 Y112.156 E4.01497 F720.000
G1 X99.835 Y112.190 E4.02513
G1 X99.304 Y112.195 E4.04690
G1 X99.186 Y112.144 E4.05218
G1 X99.104 Y112.071 E4.05670
G1 X98.692 Y111.957 E4.07422
G1 X98.299 Y111.876 E4.09069
G1 F1980.000 E0.09069
G92 E0
G1 X105.069 Y110.958 F6000.000
G1 E4.00000 F1980.000
G1 X103.441 Y111.671 E4.07289 F720.000
G1 X103.191 Y111.818 E4.08481
G1 X103.010 Y111.876 E4.09260
G1 X102.322 Y111.999 E4.12128
G1 X102.163 Y112.048 E4.12813
G1 F1980.000 E0.12813
G92 E0
G1 X96.323 Y110.502 F6000.000
G1 E4.00000 F1980.000
G1 X89.272 Y103.450 E4.40915 F900.000
G1 F1980.000 E0.40915
G92 E0
G1 X89.000 Y102.720 F6000.000
G1 E4.00000 F1980.000
G1 X96.599 Y110.320 E4.44095 F900.000
G1 X97.011 Y110.275 E4.45794
G1 X88.938 Y102.202 E4.92632
G1 X88.877 Y101.683 E4.94774
G1 X97.437 Y110.243 E5.44437
G1 X97.862 Y110.211 E5.46188
G1 X88.816 Y101.165 E5.98674
G1 X88.755 Y100.646 E6.00816
G1 X98.288 Y110.179 E6.56127
G1 X98.714 Y110.148 E6.57878
G1 X88.694 Y100.128 E7.16012
G1 X88.687 Y99.664 E7.17916
G1 X99.139 Y110.116 E7.78559
G1 X99.565 Y110.084 E7.80310
G1 X88.745 Y99.265 E8.43085
G1 X88.803 Y98.865 E8.44741
G1 X99.990 Y110.052 E9.09648
G1 X100.416 Y110.021 E9.11399
G1 X88.861 Y98.466 E9.78439
G1 X88.920 Y98.067 E9.80095
G1 X100.842 Y109.989 E10.49267
G1 X101.267 Y109.957 E10.51018
G1 X88.978 Y97.668 E11.22323
G1 X89.036 Y97.268 E11.23979
G1 X101.693 Y109.925 E11.97416
G1 X102.118 Y109.894 E11.99167
G1 X89.103 Y96.878 E12.74682
G1 X89.241 Y96.559 E12.76110
G1 X102.544 Y109.862 E13.53296
G1 X102.970 Y109.830 E13.55047
G1 X89.378 Y96.239 E14.33904
G1 X89.516 Y95.919 E14.35332
G1 X103.395 Y109.798 E15.15861
G1 X103.821 Y109.767 E15.17612
G1 X89.654 Y95.599 E15.99812
G1 X89.791 Y95.279 E16.01240
G1 X104.247 Y109.735 E16.85111
G1 X104.672 Y109.703 E16.86862
G1 X89.929 Y94.960 E17.72404
G1 X90.066 Y94.640 E17.73832
G1 X105.098 Y109.671 E18.61046
G1 X105.523 Y109.640 E18.62797
G1 X90.204 Y94.320 E19.51682
G1 X90.381 Y94.040 E19.53042
G1 X105.777 Y109.436 E20.42371
G1 X105.980 Y109.181 E20.43707
G1 X90.583 Y93.784 E21.33041
G1 X90.784 Y93.529 E21.34377
G1 X106.182 Y108.926 E22.23715
G1 X106.385 Y108.671 E22.25051
G1 X90.986 Y93.273 E23.14394
G1 X91.188 Y93.017 E23.15730
G1 X106.587 Y108.417 E24.05077
G1 X106.790 Y108.162 E24.06413
G1 X91.390 Y92.762 E24.95765
G1 X91.591 Y92.506 E24.97101
G1 X106.992 Y107.907 E25.86458
G1 X107.195 Y107.652 E25.87793
G1 X91.793 Y92.250 E26.77155
G1 X91.996 Y91.996 E26.78490
G1 X107.397 Y107.397 E27.67848
G1 X107.600 Y107.142 E27.69183
G1 X92.228 Y91.771 E28.58370
G1 X92.490 Y91.575 E28.59711
G1 X107.802 Y106.887 E29.48553
G1 X108.005 Y106.633 E29.49889
G1 X92.752 Y91.380 E30.38386
G1 X93.014 Y91.184 E30.39727
G1 X108.207 Y106.378 E31.27880
G1 X108.410 Y106.123 E31.29215
G1 X93.276 Y90.989 E32.17023
G1 X93.538 Y90.794 E32.18364
G1 X108.612 Y105.868 E33.05827
G1 X108.815 Y105.613 E33.07162
G1 X93.800 Y90.598 E33.94281
G1 X94.062 Y90.403 E33.95621
G1 X109.017 Y105.358 E34.82395
G1 X109.220 Y105.104 E34.83730
G1 X94.324 Y90.207 E35.70159
G1 X94.616 Y90.042 E35.71536
G1 X109.422 Y104.849 E36.57444
G1 X109.625 Y104.594 E36.58779
G1 X94.943 Y89.912 E37.43964
G1 X95.270 Y89.782 E37.45408
G1 X109.827 Y104.339 E38.29871
G1 X110.030 Y104.084 E38.31206
G1 X95.597 Y89.651 E39.14946
G1 X95.924 Y89.521 E39.16390
G1 X110.232 Y103.829 E39.99407
G1 X110.435 Y103.574 E40.00743
G1 X96.251 Y89.391 E40.83037
G1 X96.578 Y89.260 E40.84482
G1 X110.637 Y103.320 E41.66054
G1 X110.840 Y103.065 E41.67389
G1 X96.905 Y89.130 E42.48239
G1 X97.237 Y89.005 E42.49694
G1 X110.964 Y102.732 E43.29340
G1 X111.022 Y102.333 E43.30996
G1 X97.646 Y88.956 E44.08605
G1 X98.055 Y88.908 E44.10295
G1 X111.080 Y101.933 E44.85868
G1 X111.139 Y101.534 E44.87523
G1 X98.464 Y88.860 E45.61059
G1 X98.874 Y88.812 E45.62749
G1 X111.197 Y101.135 E46.34249
G1 X111.255 Y100.735 E46.35904
G1 X99.283 Y88.763 E47.05366
G1 X99.692 Y88.715 E47.07056
G1 X111.313 Y100.336 E47.74482
G1 X111.306 Y99.872 E47.76386
G1 X100.101 Y88.667 E48.41399
G1 X100.620 Y88.729 E48.43543
G1 X111.245 Y99.354 E49.05190
G1 X111.184 Y98.835 E49.07332
G1 X101.155 Y88.806 E49.65520
G1 X101.690 Y88.884 E49.67738
G1 X111.123 Y98.317 E50.22466
G1 X111.062 Y97.798 E50.24608
G1 X102.226 Y88.962 E50.75875
G1 X102.761 Y89.040 E50.78094
G1 X111.000 Y97.280 E51.25901
G1 F1980.000 E47.25901
G92 E0
G1 X110.728 Y96.550 F6000.000
G1 E4.00000 F1980.000
G1 X103.402 Y89.224 E4.42506 F900.000
G1 F1980.000 E0.42506
G92 E0
G1 X104.205 Y89.569 F6000.000
G1 E4.00000 F1980.000
G1 X110.425 Y95.790 E4.36092 F900.000
G1 F1980.000 E0.36092
G92 E0
G1 X110.123 Y95.030 F6000.000
G1 E4.00000 F1980.000
G1 X105.008 Y89.915 E4.29677 F900.000
G1 F1980.000 E0.29677
G92 E0
G1 X105.823 Y90.273 F6000.000
G1 E4.00000 F1980.000
G1 X109.554 Y94.004 E4.21647 F900.000
G1 F1980.000 E0.21647
G92 E0
G1 X108.210 Y92.203 F6000.000
G1 E4.00000 F1980.000
G1 X107.991 Y91.984 E4.01271 F900.000
G1 F1980.000 E0.01271
G92 E0
G1 X95.400 Y110.035 F6000.000
G1 E4.00000 F1980.000
G1 X89.575 Y104.210 E4.33797 F900.000
G1 F1980.000 E0.33797
G92 E0
G1 X89.877 Y104.970 F6000.000
G1 E4.00000 F1980.000
G1 X94.441 Y109.534 E4.26478 F900.000
G1 F1980.000 E0.26478
G92 E0
G1 X93.382 Y108.933 F6000.000
G1 E4.00000 F1980.000
G1 X90.446 Y105.996 E4.17037 F900.000
G1 F1980.000 E0.17037
G92 E0
G1 X91.790 Y107.797 F6000.000
G1 E4.00000 F1980.000
G1 X92.008 Y108.016 E4.01270 F900.000
G1 F1980.000 E0.01270
G92 E0
G1 X109.597 Y107.516 F6000.000
G1 E4.00000 F1980.000
G1 X108.752 Y108.582 E4.05582 F720.000
G1 F1980.000 E0.05582
G92 E0
G1 X106.979 Y109.950 F6000.000
G1 E4.00000 F1980.000
G1 X107.185 Y109.843 E4.00950 F720.000
G1 X107.298 Y109.709 E4.01670
G1 X107.420 Y109.618 E4.02292
G1 X107.728 Y109.517 E4.03624
M106 S170
M104 S238 ; set temperature
M140 S65 ; set bed temperature
G1 F1980.000 E0.03624
G92 E0
G1 Z0.600 F6000.000
G1 X96.922 Y111.059 F6000.000
G1 E4.00000 F1980.000
G1 X96.693 Y110.973 E4.01247 F1800.000
G1 X96.707 Y110.945 E4.01408
G1 X92.358 Y108.474 E4.26944
G1 X91.770 Y108.010 E4.30768
G1 X89.977 Y105.607 E4.46074
G1 X88.867 Y102.822 E4.61379
G1 X88.516 Y99.845 E4.76685
G1 X88.948 Y96.878 E4.91990
G1 X90.133 Y94.124 E5.07296
G1 X91.990 Y91.770 E5.22601
G1 X94.393 Y89.977 E5.37907
G1 X97.178 Y88.867 E5.53212
G1 X100.155 Y88.516 E5.68518
G1 X103.122 Y88.948 E5.83823
G1 X104.840 Y89.687 E5.93370
G1 X105.876 Y90.133 E5.99129
G1 X108.230 Y91.990 E6.14434
G1 X110.023 Y94.393 E6.29740
G1 X111.133 Y97.178 E6.45045
G1 X111.484 Y100.155 E6.60351
G1 X111.052 Y103.122 E6.75656
G1 X110.945 Y103.372 E6.77043
G1 X105.581 Y110.033 E7.20703
G1 X103.303 Y110.941 E7.33225
G1 X100.905 Y111.120 E7.45497
G1 X100.896 Y111.194 E7.45879
M106 S255
G1 X100.874 Y111.362 E7.46785 F1800.000
G1 X99.844 Y111.484 E7.52327
G1 X98.885 Y111.344 E7.57509
M106 S170
G1 X96.981 Y111.067 E7.67330 F1800.000
G1 F1980.000 E3.67330
G92 E0
G1 X100.445 Y111.816 F6000.000
G1 E4.00000 F1980.000
G1 X99.839 Y111.887 E4.03117 F1800.000
G1 X99.631 Y111.857 E4.04188
M106 S255
G1 X99.591 Y111.851 E4.04404 F1800.000
M106 S170
G1 F1980.000 E0.04404
G92 E0
G1 X96.865 Y111.454 F6000.000
G1 E4.00000 F1980.000
G1 X96.768 Y111.440 E4.00498 F1800.000
G1 X96.147 Y111.173 E4.03949
G1 X96.181 Y111.105 E4.04335
G1 X92.796 Y109.183 E4.24207
G1 X92.823 Y109.351 E4.25076
G1 X91.481 Y108.292 E4.33807
G1 X89.625 Y105.804 E4.49650
G1 X88.476 Y102.921 E4.65493
G1 X88.113 Y99.839 E4.81336
G1 X88.560 Y96.768 E4.97179
G1 X89.786 Y93.917 E5.13023
G1 X91.708 Y91.481 E5.28866
