; generated by Slic3r 1.1.7 on 2015-02-22 at 17:24:00

; perimeters extrusion width = 0.47mm
; infill extrusion width = 0.62mm
; solid infill extrusion width = 0.62mm
; top infill extrusion width = 0.62mm

G21 ; set units to millimeters
M190 S60 ; wait for bed temperature to be reached
M104 S230 ; set temperature
G28 ; home all axes Start of G Code Slic3r
 
 
M109 S230 ; wait for temperature to be reached
G90 ; use absolute coordinates
G92 E0
M82 ; use absolute distances for extrusion
G1 F4200.000 E-3.00000
G92 E0
G1 Z0.294 F6000.000
G1 X65.935 Y70.859 F6000.000
G1 E3.00000 F4200.000
G1 X67.704 Y69.269 E3.18371 F900.000
G1 X69.899 Y68.350 E3.36742
G1 X71.515 Y68.164 E3.49304
G1 X128.485 Y68.164 E7.89241
G1 X130.831 Y68.561 E8.07611
G1 X132.915 Y69.709 E8.25982 F900.000
G1 X134.505 Y71.478 E8.44353
G1 X135.424 Y73.672 E8.62724
G1 X135.610 Y75.289 E8.75287
G1 X135.610 Y124.711 E12.56941
G1 X135.212 Y127.057 E12.75312
G1 X134.065 Y129.141 E12.93683
G1 X132.296 Y130.731 E13.12054
G1 X130.101 Y131.650 E13.30425
G1 X128.485 Y131.836 E13.42987
G1 X71.515 Y131.836 E17.82923
G1 X69.169 Y131.439 E18.01294
G1 X67.085 Y130.291 E18.19665
G1 X65.495 Y128.522 E18.38036
G1 X64.576 Y126.328 E18.56407
G1 X64.390 Y124.711 E18.68969
G1 X64.390 Y75.289 E22.50624
G1 X64.788 Y72.943 E22.68995
G1 X65.901 Y70.921 E22.86821
G1 X66.442 Y71.152 F6000.000
G1 X66.492 Y71.065 E22.87599 F900.000
G1 X68.243 Y69.600 E23.05225
G1 X71.515 Y68.726 E23.31377
G1 X128.485 Y68.726 E27.71314
G1 X130.733 Y69.123 E27.88939
G1 X132.709 Y70.266 E28.06565 F900.000
G1 X134.173 Y72.017 E28.24191
G1 X135.047 Y75.289 E28.50344
G1 X135.047 Y124.711 E32.31998
G1 X134.650 Y126.959 E32.49624
G1 X133.508 Y128.935 E32.67250
G1 X131.757 Y130.400 E32.84876
G1 X128.485 Y131.274 E33.11028
G1 X71.515 Y131.274 E37.50965
G1 X69.267 Y130.877 E37.68590
G1 X67.291 Y129.734 E37.86216
G1 X65.827 Y127.983 E38.03842
G1 X64.953 Y124.711 E38.29995
G1 X64.953 Y75.289 E42.11649
G1 X65.350 Y73.041 E42.29275
G1 X66.407 Y71.213 E42.45579
G1 F4200.000 E39.45579
G92 E0
G1 X125.098 Y117.664 F6000.000
G1 E3.00000 F4200.000
G1 X128.191 Y117.664 E3.23885 F441.000
G1 X128.191 Y124.418 E3.76036
G1 X118.783 Y124.418 E4.48693
G1 X118.783 Y122.732 E4.61712
G1 X109.404 Y122.732 E5.34138
G1 X108.835 Y122.732 E5.38530
G1 X108.835 Y124.418 E5.51549
G1 X89.245 Y124.418 E7.02826
G1 X89.245 Y122.239 E7.19648
G1 X79.297 Y122.239 E7.96466
G1 X79.297 Y124.418 E8.13288
G1 X71.809 Y124.418 E8.71119
G1 X71.809 Y117.664 E9.23270
G1 X73.474 Y117.664 E9.36132
G1 X73.474 Y107.717 E10.12950
G1 X71.809 Y107.717 E10.25812
G1 X71.809 Y100.964 E10.77962
G1 X79.790 Y100.964 E11.39597
G1 X79.790 Y102.649 E11.52616
G1 X89.738 Y102.649 E12.29434
G1 X89.738 Y100.964 E12.42453
G1 X109.327 Y100.964 E13.93729
G1 X109.327 Y103.142 E14.10552
G1 X119.275 Y103.142 E14.87370
G1 X119.275 Y100.964 E15.04192
G1 X128.191 Y100.964 E15.73046
G1 X128.191 Y107.717 E16.25196
G1 X125.098 Y107.717 E16.49081
G1 X125.098 Y117.594 E17.25355
G1 X125.098 Y118.134 F6000.000
G1 X124.536 Y118.227 F6000.000
G1 X127.629 Y118.227 E17.49240 F630.000
G1 X127.629 Y123.856 E17.92707
G1 X119.345 Y123.856 E18.56682
G1 X119.345 Y122.170 E18.69701
G1 X109.404 Y122.170 E19.46468
G1 X108.273 Y122.170 E19.55201
G1 X108.273 Y123.856 E19.68220
G1 X89.807 Y123.856 E21.10814
G1 X89.807 Y121.677 E21.27637
G1 X78.735 Y121.677 E22.13138
G1 X78.735 Y123.856 E22.29960
G1 X72.371 Y123.856 E22.79108
G1 X72.371 Y118.227 E23.22576
G1 X74.036 Y118.227 E23.35438
G1 X74.036 Y107.155 E24.20939
G1 X72.371 Y107.155 E24.33801
G1 X72.371 Y101.526 E24.77268
G1 X79.228 Y101.526 E25.30220
G1 X79.228 Y103.212 E25.43239
G1 X90.300 Y103.212 E26.28739
G1 X90.300 Y101.526 E26.41759
G1 X108.765 Y101.526 E27.84353
G1 X108.765 Y103.704 E28.01175
G1 X119.837 Y103.704 E28.86676
G1 X119.837 Y101.526 E29.03498
G1 X127.629 Y101.526 E29.63669
G1 X127.629 Y107.155 E30.07136
G1 X124.536 Y107.155 E30.31022
G1 X124.536 Y118.156 E31.15978
G1 X124.149 Y118.050 F6000.000
G1 X110.191 Y104.092 E32.68410 F900.000
G1 X110.990 Y104.092 E32.74584
G1 X124.149 Y117.250 E34.18284
G1 X124.149 Y116.451 E34.24459
G1 X111.790 Y104.092 E35.59427
G1 X112.589 Y104.092 E35.65601
G1 X124.149 Y115.651 E36.91838
G1 X124.149 Y114.851 E36.98012
G1 X113.389 Y104.092 E38.15517
G1 X114.189 Y104.092 E38.21691
G1 X124.149 Y114.052 E39.30464
G1 X124.149 Y113.252 E39.36638
G1 X114.988 Y104.092 E40.36679
G1 X115.788 Y104.092 E40.42853
G1 X124.149 Y112.453 E41.34162
G1 X124.149 Y111.653 E41.40337
G1 X116.587 Y104.092 E42.22914
G1 X117.387 Y104.092 E42.29088
G1 X124.149 Y110.854 E43.02934
G1 X124.149 Y110.054 E43.09108
G1 X118.186 Y104.092 E43.74221
G1 X118.986 Y104.092 E43.80396
G1 X124.149 Y109.255 E44.36777
G1 X124.149 Y108.455 E44.42952
G1 X119.785 Y104.092 E44.90602
G1 X120.225 Y103.732 E44.94989
G1 X124.149 Y107.655 E45.37839
G1 X124.149 Y106.856 E45.44014
G1 X120.225 Y102.932 E45.86864
G1 X120.225 Y102.133 E45.93038
G1 X124.859 Y106.767 E46.43651
G1 X125.659 Y106.767 E46.49825
G1 X120.805 Y101.913 E47.02832
G1 X121.605 Y101.913 E47.09006
G1 X126.458 Y106.767 E47.62013
G1 X127.242 Y106.751 E47.68062
G1 X122.404 Y101.913 E48.20890
G1 X123.204 Y101.913 E48.27065
G1 X127.242 Y105.951 E48.71161
G1 X127.242 Y105.152 E48.77335
G1 X124.003 Y101.913 E49.12699
G1 X124.803 Y101.913 E49.18874
G1 X127.242 Y104.352 E49.45506
G1 X127.242 Y103.552 E49.51680
G1 X125.603 Y101.913 E49.69581
G1 X126.402 Y101.913 E49.75755
G1 X127.242 Y102.753 E49.84924
G1 X127.242 Y101.953 E49.91098
G1 X127.202 Y101.913 E49.91535
G1 F4200.000 E46.91535
G92 E0
G1 X125.513 Y118.614 F6000.000
G1 E3.00000 F4200.000
G1 X127.242 Y120.343 E3.18881 F900.000
G1 X127.242 Y119.544 E3.25055
G1 X126.312 Y118.614 E3.35204
G1 X127.112 Y118.614 E3.41379
G1 X127.242 Y118.744 E3.42796
G1 X124.713 Y118.614 F6000.000
G1 X127.242 Y121.143 E3.70409 F900.000
G1 X127.242 Y121.942 E3.76583
G1 X109.391 Y104.092 E5.71526
G1 X108.592 Y104.092 E5.77700
G1 X127.242 Y122.742 E7.81374
G1 X127.168 Y123.468 E7.87011
G1 X105.614 Y101.913 E10.22406
G1 X106.413 Y101.913 E10.28580
G1 X108.378 Y103.878 E10.50035
G1 X108.378 Y103.078 E10.56209
G1 X107.213 Y101.913 E10.68932
G1 X108.012 Y101.913 E10.75106
G1 X108.378 Y102.279 E10.79097
G1 X104.814 Y101.913 F6000.000
G1 X126.369 Y123.468 E13.14492 F900.000
G1 X125.569 Y123.468 E13.20666
G1 X104.014 Y101.913 E15.56062
G1 X103.215 Y101.913 E15.62236
G1 X124.770 Y123.468 E17.97632
G1 X123.970 Y123.468 E18.03806
G1 X102.415 Y101.913 E20.39201
G1 X101.616 Y101.913 E20.45376
G1 X123.170 Y123.468 E22.80771
G1 X122.371 Y123.468 E22.86945
G1 X100.816 Y101.913 E25.22341
G1 X100.017 Y101.913 E25.28515
G1 X121.571 Y123.468 E27.63910
G1 X120.772 Y123.468 E27.70085
G1 X119.732 Y122.429 E27.81436
G1 X119.732 Y123.228 E27.87611
G1 X119.972 Y123.468 E27.90230
G1 X119.086 Y121.782 F6000.000
G1 X99.217 Y101.913 E30.07214 F900.000
G1 X98.418 Y101.913 E30.13388
G1 X118.286 Y121.782 E32.30372
G1 X117.487 Y121.782 E32.36546
G1 X97.618 Y101.913 E34.53530
G1 X96.818 Y101.913 E34.59704
G1 X116.687 Y121.782 E36.76688
G1 X115.888 Y121.782 E36.82862
G1 X96.019 Y101.913 E38.99846
G1 X95.219 Y101.913 E39.06020
G1 X115.088 Y121.782 E41.23004
G1 X114.289 Y121.782 E41.29178
G1 X94.420 Y101.913 E43.46162
G1 X93.620 Y101.913 E43.52336
G1 X113.489 Y121.782 E45.69320
G1 X112.689 Y121.782 E45.75494
G1 X92.821 Y101.913 E47.92478
G1 X92.021 Y101.913 E47.98652
G1 X111.890 Y121.782 E50.15636
G1 X111.090 Y121.782 E50.21810
G1 X91.222 Y101.913 E52.38794
G1 X90.687 Y102.179 E52.43400
G1 X110.291 Y121.782 E54.57485
G1 X109.491 Y121.782 E54.63659
G1 X90.687 Y102.978 E56.69012
G1 X90.509 Y103.599 E56.74002
G1 X108.692 Y121.782 E58.72574
G1 X107.892 Y121.782 E58.78748
G1 X89.709 Y103.599 E60.77320
G1 X88.910 Y103.599 E60.83494
G1 X107.885 Y122.575 E62.90723
G1 X107.885 Y123.374 E62.96897
G1 X88.110 Y103.599 E65.12857
G1 X87.311 Y103.599 E65.19031
G1 X107.179 Y123.468 E67.36015
G1 X106.380 Y123.468 E67.42189
G1 X86.511 Y103.599 E69.59173
G1 X85.711 Y103.599 E69.65347
G1 X105.580 Y123.468 E71.82331
G1 X104.781 Y123.468 E71.88505
G1 X84.912 Y103.599 E74.05489
G1 X84.112 Y103.599 E74.11663
G1 X103.981 Y123.468 E76.28647
G1 X103.182 Y123.468 E76.34821
G1 X83.313 Y103.599 E78.51805
G1 X82.513 Y103.599 E78.57979
G1 X102.382 Y123.468 E80.74963
G1 X101.582 Y123.468 E80.81137
G1 X81.714 Y103.599 E82.98121
G1 X80.914 Y103.599 E83.04295
G1 X100.783 Y123.468 E85.21279
G1 X99.983 Y123.468 E85.27453
G1 X80.115 Y103.599 E87.44436
G1 X79.315 Y103.599 E87.50611
G1 X99.184 Y123.468 E89.67594
G1 X98.384 Y123.468 E89.73769
G1 X76.830 Y101.913 E92.09164
G1 X77.629 Y101.913 E92.15338
G1 X78.840 Y103.124 E92.28565
G1 X78.840 Y102.325 E92.34739
G1 X78.429 Y101.913 E92.39234
G1 X76.030 Y101.913 F6000.000
G1 X97.585 Y123.468 E94.74629 F900.000
G1 X96.785 Y123.468 E94.80804
G1 X75.230 Y101.913 E97.16199
G1 X74.431 Y101.913 E97.22373
G1 X95.986 Y123.468 E99.57769
G1 X95.186 Y123.468 E99.63943
G1 X73.631 Y101.913 E101.99338
G1 X72.832 Y101.913 E102.05513
G1 X94.386 Y123.468 E104.40908
G1 X93.587 Y123.468 E104.47082
G1 X72.758 Y102.639 E106.74547
G1 X72.758 Y103.439 E106.80722
G1 X92.787 Y123.468 E108.99455
G1 X91.988 Y123.468 E109.05629
G1 X72.758 Y104.239 E111.15630
G1 X72.758 Y105.038 E111.21805
G1 X89.010 Y121.290 E112.99284
G1 X88.210 Y121.290 E113.05458
G1 X74.424 Y107.503 E114.56015
G1 X74.424 Y108.303 E114.62189
G1 X87.411 Y121.290 E116.04014
G1 X86.611 Y121.290 E116.10189
G1 X74.424 Y109.102 E117.43282
G1 X74.424 Y109.902 E117.49456
G1 X85.811 Y121.290 E118.73817
G1 X85.012 Y121.290 E118.79992
G1 X74.424 Y110.702 E119.95621
G1 X74.424 Y111.501 E120.01796
G1 X84.212 Y121.290 E121.08693
G1 X83.413 Y121.290 E121.14867
G1 X74.424 Y112.301 E122.13033
G1 X74.424 Y113.100 E122.19208
G1 X82.613 Y121.290 E123.08641
G1 X81.814 Y121.290 E123.14816
G1 X74.424 Y113.900 E123.95518
G1 X74.424 Y114.699 E124.01692
G1 X81.014 Y121.290 E124.73662
G1 X80.215 Y121.290 E124.79837
G1 X74.424 Y115.499 E125.43075
G1 X74.424 Y116.298 E125.49249
G1 X79.415 Y121.290 E126.03756
G1 X78.615 Y121.290 E126.09930
G1 X74.424 Y117.098 E126.55705
G1 X74.424 Y117.898 E126.61879
G1 X78.348 Y121.821 E127.04730
G1 X78.348 Y122.621 E127.10904
G1 X74.341 Y118.614 E127.54660
G1 X73.541 Y118.614 E127.60834
G1 X78.348 Y123.420 E128.13321
G1 X77.596 Y123.468 E128.19140
G1 X72.758 Y118.631 E128.71968
G1 X72.758 Y119.430 E128.78142
G1 X76.796 Y123.468 E129.22238
G1 X75.997 Y123.468 E129.28413
G1 X72.758 Y120.230 E129.63777
G1 X72.758 Y121.029 E129.69951
G1 X75.197 Y123.468 E129.96584
G1 X74.397 Y123.468 E130.02758
G1 X72.758 Y121.829 E130.20659
G1 X72.758 Y122.628 E130.26833
G1 X73.598 Y123.468 E130.36002
G1 X72.798 Y123.468 E130.42176
G1 X72.758 Y123.428 E130.42613
G1 F4200.000 E127.42613
G92 E0
G1 X72.888 Y106.767 F6000.000
G1 E3.00000 F4200.000
G1 X72.758 Y106.637 E3.01417 F900.000
G1 X72.758 Y105.838 E3.07592
G1 X73.688 Y106.767 E3.17741
G1 X90.195 Y122.475 F6000.000
G1 X91.188 Y123.468 E3.28588 F900.000
G1 X90.389 Y123.468 E3.34762
G1 X90.195 Y123.274 E3.36878
G1 F4200.000 E0.36878
G92 E0
G1 X119.275 Y96.858 F6000.000
G1 E3.00000 F4200.000
G1 X109.327 Y96.858 E3.76818 F441.000
G1 X109.327 Y99.036 E3.93640
G1 X89.738 Y99.036 E5.44917
G1 X89.738 Y97.351 E5.57936
G1 X79.790 Y97.351 E6.34754
G1 X79.790 Y99.036 E6.47773
G1 X71.809 Y99.036 E7.09407
G1 X71.809 Y92.283 E7.61558
G1 X73.474 Y92.283 E7.74420
G1 X73.474 Y82.336 E8.51238
G1 X71.809 Y82.336 E8.64100
G1 X71.809 Y75.582 E9.16251
G1 X79.297 Y75.582 E9.74081
G1 X79.297 Y77.761 E9.90904
G1 X89.245 Y77.761 E10.67722
G1 X89.245 Y75.582 E10.84544
G1 X108.835 Y75.582 E12.35821
G1 X108.835 Y77.268 E12.48840
G1 X118.783 Y77.268 E13.25658
G1 X118.783 Y75.582 E13.38677
G1 X128.191 Y75.582 E14.11334
G1 X128.191 Y82.336 E14.63484
G1 X125.098 Y82.336 E14.87370
G1 X125.098 Y92.283 E15.64187
G1 X128.191 Y92.283 E15.88073
G1 X128.191 Y99.036 E16.40223
G1 X119.275 Y99.036 E17.09077
G1 X119.275 Y96.929 E17.25355
G1 X119.275 Y96.388 F6000.000
G1 X119.837 Y96.296 F6000.000
G1 X108.765 Y96.296 E18.10855 F630.000
G1 X108.765 Y98.474 E18.27678
G1 X90.300 Y98.474 E19.70272
G1 X90.300 Y96.788 E19.83291
G1 X79.228 Y96.788 E20.68792
G1 X79.228 Y98.474 E20.81811
G1 X72.371 Y98.474 E21.34762
G1 X72.371 Y92.845 E21.78229
G1 X74.036 Y92.845 E21.91092
G1 X74.036 Y81.773 E22.76592
G1 X72.371 Y81.773 E22.89455
G1 X72.371 Y76.144 E23.32922
G1 X78.735 Y76.144 E23.82070
G1 X78.735 Y78.323 E23.98893
G1 X89.807 Y78.323 E24.84393
G1 X89.807 Y76.144 E25.01216
G1 X108.273 Y76.144 E26.43810
G1 X108.273 Y77.830 E26.56829
G1 X119.345 Y77.830 E27.42330
G1 X119.345 Y76.144 E27.55349
G1 X127.629 Y76.144 E28.19323
G1 X127.629 Y81.773 E28.62790
G1 X124.536 Y81.773 E28.86676
G1 X124.536 Y92.845 E29.72176
G1 X127.629 Y92.845 E29.96061
G1 X127.629 Y98.474 E30.39529
G1 X119.837 Y98.474 E30.99700
G1 X119.837 Y96.366 E31.15978
G1 X120.225 Y96.740 F6000.000
G1 X121.571 Y98.087 E31.30682 F900.000
G1 X120.772 Y98.087 E31.36857
G1 X120.225 Y97.540 E31.42829
G1 X124.713 Y93.233 F6000.000
G1 X127.242 Y95.761 E31.70442 F900.000
G1 X127.242 Y96.561 E31.76616
G1 X108.899 Y78.218 E33.76938
G1 X108.099 Y78.218 E33.83112
G1 X127.242 Y97.361 E35.92165
G1 X127.168 Y98.087 E35.97802
G1 X105.614 Y76.532 E38.33197
G1 X106.413 Y76.532 E38.39371
G1 X107.885 Y78.004 E38.55447
G1 X107.885 Y77.204 E38.61621
G1 X107.213 Y76.532 E38.68965
G1 X104.814 Y76.532 F6000.000
G1 X126.369 Y98.087 E41.04360 F900.000
G1 X125.569 Y98.087 E41.10535
G1 X104.014 Y76.532 E43.45930
G1 X103.215 Y76.532 E43.52105
G1 X124.770 Y98.087 E45.87500
G1 X123.970 Y98.087 E45.93674
G1 X102.415 Y76.532 E48.29070
G1 X101.616 Y76.532 E48.35244
G1 X123.170 Y98.087 E50.70639
G1 X122.371 Y98.087 E50.76814
G1 X100.816 Y76.532 E53.12209
G1 X100.017 Y76.532 E53.18383
G1 X119.393 Y95.908 E55.29988
G1 X118.593 Y95.908 E55.36163
G1 X99.217 Y76.532 E57.47767
G1 X98.418 Y76.532 E57.53942
G1 X117.794 Y95.908 E59.65547
G1 X116.994 Y95.908 E59.71721
G1 X97.618 Y76.532 E61.83326
G1 X96.818 Y76.532 E61.89500
G1 X116.195 Y95.908 E64.01105
G1 X115.395 Y95.908 E64.07279
G1 X96.019 Y76.532 E66.18884
G1 X95.219 Y76.532 E66.25059
G1 X114.596 Y95.908 E68.36663
G1 X113.796 Y95.908 E68.42838
G1 X94.420 Y76.532 E70.54443
G1 X93.620 Y76.532 E70.60617
G1 X112.996 Y95.908 E72.72222
G1 X112.197 Y95.908 E72.78396
G1 X92.821 Y76.532 E74.90001
G1 X92.021 Y76.532 E74.96175
G1 X111.397 Y95.908 E77.07780
G1 X110.598 Y95.908 E77.13955
G1 X91.222 Y76.532 E79.25559
G1 X90.422 Y76.532 E79.31734
G1 X109.798 Y95.908 E81.43339
G1 X108.999 Y95.908 E81.49513
G1 X90.195 Y77.104 E83.54866
G1 X90.195 Y77.904 E83.61041
G1 X108.378 Y96.087 E85.59612
G1 X108.378 Y96.886 E85.65787
G1 X90.195 Y78.704 E87.64358
G1 X89.402 Y78.710 E87.70480
G1 X108.378 Y97.686 E89.77708
G1 X107.979 Y98.087 E89.82074
G1 X88.603 Y78.710 E91.93679
G1 X87.803 Y78.710 E91.99853
G1 X107.179 Y98.087 E94.11458
G1 X106.380 Y98.087 E94.17632
G1 X87.004 Y78.710 E96.29237
G1 X86.204 Y78.710 E96.35411
G1 X105.580 Y98.087 E98.47016
G1 X104.781 Y98.087 E98.53191
G1 X85.404 Y78.710 E100.64795
G1 X84.605 Y78.710 E100.70970
G1 X103.981 Y98.087 E102.82574
G1 X103.182 Y98.087 E102.88749
G1 X83.805 Y78.710 E105.00354
G1 X83.006 Y78.710 E105.06528
G1 X102.382 Y98.087 E107.18133
G1 X101.582 Y98.087 E107.24307
G1 X82.206 Y78.710 E109.35912
G1 X81.407 Y78.710 E109.42086
G1 X100.783 Y98.087 E111.53691
G1 X99.983 Y98.087 E111.59865
G1 X80.607 Y78.710 E113.71470
G1 X79.808 Y78.710 E113.77644
G1 X99.184 Y98.087 E115.89249
G1 X98.384 Y98.087 E115.95423
G1 X79.008 Y78.710 E118.07028
G1 X78.348 Y78.050 F6000.000
G1 X76.830 Y76.532 E118.23608 F900.000
G1 X76.030 Y76.532 E118.29782
G1 X97.585 Y98.087 E120.65178
G1 X96.785 Y98.087 E120.71352
G1 X75.230 Y76.532 E123.06747
G1 X74.431 Y76.532 E123.12922
G1 X95.986 Y98.087 E125.48317
G1 X95.186 Y98.087 E125.54491
G1 X73.631 Y76.532 E127.89887
G1 X72.832 Y76.532 E127.96061
G1 X94.386 Y98.087 E130.31456
G1 X93.587 Y98.087 E130.37631
G1 X72.758 Y77.258 E132.65096
G1 X72.758 Y78.058 E132.71270
G1 X92.787 Y98.087 E134.90003
G1 X91.988 Y98.087 E134.96177
G1 X72.758 Y78.857 E137.06179
G1 X72.758 Y79.657 E137.12353
G1 X89.502 Y96.401 E138.95211
G1 X88.703 Y96.401 E139.01385
