; generated by Slic3r 1.1.7 on 2014-12-26 at 18:39:24

; perimeters extrusion width = 0.40mm
; infill extrusion width = 0.67mm
; solid infill extrusion width = 0.67mm
; top infill extrusion width = 0.67mm
; support material extrusion width = 0.40mm

G21 ; set units to millimeters
M190 S110 ; wait for bed temperature to be reached
M104 S220 ; set temperature
G28 ; home all axes Start of G Code Slic3r
 
M109 S220 ; wait for temperature to be reached
G90 ; use absolute coordinates
G92 E0
M82 ; use absolute distances for extrusion
M106 S127
G1 F1860.000 E-3.00000
G92 E0
G1 Z0.200 F6000.000
G1 X31.471 Y54.505 F6000.000
G1 E3.10000 F1860.000
G1 X51.410 Y45.580 E3.51110 F1200.000
G1 X54.365 Y45.021 E3.56769
G1 X129.132 Y48.580 E4.97631
G1 X166.886 Y54.510 E5.69550 F1200.000
G1 X169.031 Y55.248 E5.73820
G1 X170.791 Y56.681 E5.78090
G1 X171.950 Y58.632 E5.82360
G1 X172.365 Y60.917 E5.86731
G1 X172.357 Y62.984 E5.90621
G1 X169.143 Y128.188 E7.13476
G1 X168.637 Y130.400 E7.17746
G1 X167.896 Y131.704 E7.20569
G1 X165.737 Y134.643 E7.27431
G1 X163.509 Y137.505 E7.34256
G1 X160.903 Y139.501 E7.40433
G1 X139.558 Y148.458 E7.83996
G1 X138.865 Y148.693 E7.85372
G1 X138.070 Y148.898 E7.86919
G1 X137.022 Y149.063 E7.88915
G1 X136.694 Y149.090 E7.89534
G1 X62.745 Y154.984 E9.29137
G1 X61.998 Y154.968 E9.30543
G1 X61.233 Y154.913 E9.31987
G1 X59.738 Y154.679 E9.34835
G1 X58.276 Y154.286 E9.37683
G1 X56.866 Y153.737 E9.40532
G1 X55.522 Y153.040 E9.43380
G1 X54.555 Y152.421 E9.45542
G1 X35.077 Y138.713 E9.90363
G1 X33.487 Y137.115 E9.94606
G1 X30.838 Y133.203 E10.03497
G1 X29.550 Y130.667 E10.08850
G1 X28.848 Y127.863 E10.14290
G1 X27.635 Y68.959 E11.25161
G1 X27.635 Y60.425 E11.41223
G1 X28.032 Y58.191 E11.45493
G1 X29.174 Y56.230 E11.49763
G1 X31.423 Y54.541 E11.55056
G1 X31.570 Y54.727 F6000.000
G1 X51.509 Y45.802 E11.96166 F1200.000
G1 X54.353 Y45.264 E12.01613
G1 X129.094 Y48.820 E13.42425
G1 X166.848 Y54.750 E14.14344 F1200.000
G1 X168.950 Y55.481 E14.18533
G1 X170.662 Y56.904 E14.22722
G1 X171.766 Y58.837 E14.26911
G1 X172.122 Y60.917 E14.30882
G1 X172.115 Y62.972 E14.34750
G1 X168.901 Y128.176 E15.57604
G1 X168.397 Y130.344 E15.61793
G1 X167.700 Y131.561 E15.64431
G1 X165.546 Y134.494 E15.71280
G1 X163.318 Y137.356 E15.78105
G1 X160.809 Y139.277 E15.84051
G1 X139.475 Y148.230 E16.27591
G1 X138.798 Y148.460 E16.28936
G1 X138.022 Y148.660 E16.30444
G1 X137.002 Y148.821 E16.32388
G1 X136.674 Y148.848 E16.33007
G1 X62.750 Y154.741 E17.72563
G1 X62.004 Y154.725 E17.73969
G1 X61.265 Y154.672 E17.75363
G1 X59.795 Y154.443 E17.78162
G1 X58.359 Y154.057 E17.80961
G1 X56.972 Y153.519 E17.83760
G1 X55.652 Y152.834 E17.86559
G1 X54.694 Y152.222 E17.88698
G1 X35.217 Y138.515 E18.33519
G1 X33.686 Y136.976 E18.37603
G1 X31.055 Y133.093 E18.46431
G1 X29.766 Y130.557 E18.51784
G1 X29.091 Y127.858 E18.57020
G1 X27.878 Y68.959 E19.67882
G1 X27.878 Y60.425 E19.83944
G1 X28.274 Y58.235 E19.88132
G1 X29.414 Y56.323 E19.92321
G1 X31.522 Y54.762 E19.97256
G1 F1860.000 E16.97256
G92 E0
G1 X83.101 Y130.580 F6000.000
G1 E3.10000 F1860.000
G1 X83.101 Y133.179 E3.14891 F1200.000
G1 X56.390 Y136.987 E3.65666
G1 X45.267 Y129.874 E3.90513
G1 X45.267 Y127.833 E3.94354
G1 X43.078 Y126.557 E3.99122
G1 X43.078 Y124.787 E4.02452
G1 X41.789 Y124.031 E4.05263
G1 X41.789 Y64.067 E5.18109
G1 X54.949 Y58.176 E5.45242
G1 X88.503 Y63.448 E6.09160
G1 X87.403 Y127.510 E7.29734
G1 X85.329 Y127.787 E7.33673
G1 X85.329 Y130.295 E7.38391
G1 X83.160 Y130.572 E7.42505
G1 X82.858 Y130.366 F6000.000
G1 X82.858 Y132.968 E7.47402 F1200.000
G1 X56.445 Y136.734 E7.97610
G1 X45.510 Y129.741 E8.22037
G1 X45.510 Y127.694 E8.25890
G1 X43.321 Y126.417 E8.30659
G1 X43.321 Y124.648 E8.33988
G1 X42.032 Y123.892 E8.36799
G1 X42.032 Y64.224 E9.49087
G1 X54.983 Y58.427 E9.75788
G1 X88.256 Y63.655 E10.39172
G1 X87.164 Y127.297 E11.58956
G1 X85.086 Y127.575 E11.62902
G1 X85.086 Y130.081 E11.67617
G1 X82.918 Y130.358 E11.71731
G1 X83.073 Y130.703 F6000.000
G1 F1860.000 E8.71731
G92 E0
G1 X89.215 Y135.961 F6000.000
G1 E3.10000 F1860.000
G1 X89.215 Y138.483 E3.14745 F1200.000
G1 X70.470 Y141.142 E3.50373
G1 X70.267 Y142.685 E3.53303
G1 X69.788 Y143.842 E3.55658
G1 X69.512 Y144.202 E3.56512
G1 X69.086 Y144.832 E3.57945
G1 X68.727 Y145.277 E3.59020
G1 X68.339 Y145.697 E3.60096
G1 X67.923 Y146.089 E3.61172
G1 X67.482 Y146.452 E3.62247
G1 X67.017 Y146.785 E3.63323
G1 X66.530 Y147.085 E3.64399
G1 X66.024 Y147.351 E3.65474
G1 X65.502 Y147.583 E3.66550
G1 X64.965 Y147.778 E3.67626
G1 X64.375 Y147.949 E3.68782
G1 X63.653 Y148.090 E3.70165
G1 X62.879 Y148.157 E3.71628
G1 X62.101 Y148.139 E3.73092
G1 X61.330 Y148.038 E3.74555
G1 X60.574 Y147.855 E3.76019
G1 X59.843 Y147.591 E3.77482
G1 X59.102 Y147.224 E3.79038
G1 X58.486 Y146.836 E3.80409
G1 X57.876 Y146.354 E3.81872
G1 X57.322 Y145.808 E3.83335
G1 X56.757 Y145.118 E3.85014
G1 X56.630 Y144.898 E3.85492
G1 X56.378 Y144.570 E3.86270
G1 X55.829 Y143.243 E3.88972
G1 X55.007 Y143.360 E3.90533
G1 X39.152 Y133.222 E4.25949
G1 X39.152 Y131.345 E4.29480
G1 X36.964 Y130.068 E4.34249
G1 X36.964 Y128.289 E4.37598
G1 X35.675 Y127.533 E4.40410
G1 X35.675 Y69.099 E5.50375
G1 X34.463 Y68.709 E5.52770
G1 X34.463 Y60.647 E5.67942
G1 X54.107 Y51.855 E6.08443
G1 X96.704 Y58.547 E6.89589
G1 X96.704 Y66.203 E7.03996
G1 X94.545 Y67.652 E7.08889
G1 X93.426 Y132.874 E8.31645
G1 X91.443 Y133.139 E8.35410
G1 X91.443 Y135.676 E8.40186
G1 X89.275 Y135.954 E8.44299
G1 X89.458 Y136.175 F6000.000
G1 X89.458 Y138.694 E8.49039 F1200.000
G1 X70.687 Y141.356 E8.84717
G1 X70.504 Y142.749 E8.87360
G1 X70.001 Y143.964 E8.89835
G1 X69.713 Y144.339 E8.90724
G1 X69.280 Y144.979 E8.92178
G1 X68.911 Y145.436 E8.93284
G1 X68.512 Y145.868 E8.94391
G1 X68.084 Y146.271 E8.95498
G1 X67.630 Y146.645 E8.96604
G1 X67.151 Y146.987 E8.97711
G1 X66.651 Y147.296 E8.98818
G1 X66.130 Y147.570 E8.99924
G1 X65.593 Y147.808 E9.01031
G1 X65.040 Y148.009 E9.02138
G1 X64.432 Y148.185 E9.03329
G1 X63.687 Y148.331 E9.04757
G1 X62.886 Y148.400 E9.06270
G1 X62.083 Y148.382 E9.07783
G1 X61.285 Y148.278 E9.09296
G1 X60.504 Y148.088 E9.10809
G1 X59.748 Y147.815 E9.12321
G1 X58.973 Y147.430 E9.13951
G1 X58.345 Y147.035 E9.15346
G1 X57.715 Y146.536 E9.16859
G1 X57.142 Y145.972 E9.18372
G1 X56.557 Y145.256 E9.20112
G1 X56.427 Y145.033 E9.20598
G1 X56.166 Y144.692 E9.21405
G1 X55.677 Y143.510 E9.23813
G1 X54.952 Y143.614 E9.25189
G1 X38.910 Y133.355 E9.61025
G1 X38.910 Y131.485 E9.64544
G1 X36.721 Y130.208 E9.69313
G1 X36.721 Y128.428 E9.72663
G1 X35.432 Y127.672 E9.75474
G1 X35.432 Y69.276 E10.85368
G1 X34.220 Y68.887 E10.87763
G1 X34.220 Y60.490 E11.03565
G1 X54.073 Y51.603 E11.44497
G1 X96.947 Y58.340 E12.26169
G1 X96.947 Y66.333 E12.41212
G1 X94.786 Y67.783 E12.46109
G1 X93.666 Y133.087 E13.69020
G1 X91.686 Y133.351 E13.72779
G1 X91.686 Y135.890 E13.77556
G1 X89.518 Y136.168 E13.81670
G1 X89.058 Y136.192 F6000.000
G1 F1860.000 E10.81670
G92 E0
G1 X60.337 Y147.603 F6000.000
G1 E3.10000 F1860.000
G1 X35.831 Y123.098 E3.75218 F1200.000
G1 X35.831 Y122.754 E3.75865
G1 X60.834 Y147.758 E4.42407
G1 X61.288 Y147.868 E4.43286
G1 X35.831 Y122.411 E5.11036
G1 X35.831 Y122.067 E5.11683
G1 X61.693 Y147.928 E5.80510
G1 X62.088 Y147.980 E5.81260
G1 X35.831 Y121.723 E6.51140
G1 X35.831 Y121.380 E6.51786
G1 X62.442 Y147.991 E7.22608
G1 X62.794 Y147.999 E7.23270
G1 X35.831 Y121.036 E7.95028
G1 F1860.000 E4.95028
G92 E0
G1 X41.633 Y123.745 F6000.000
G1 E3.10000 F1860.000
G1 X35.831 Y117.943 E3.25441 F1200.000
G1 X35.831 Y117.599 E3.26088
G1 X41.633 Y123.401 E3.41529
G1 X41.633 Y123.058 E3.42176
G1 X35.831 Y117.256 E3.57617
G1 X35.831 Y116.912 E3.58264
G1 X41.633 Y122.714 E3.73705
G1 X41.633 Y122.370 E3.74352
G1 X35.831 Y116.568 E3.89793
G1 X35.831 Y116.225 E3.90439
G1 X41.633 Y122.027 E4.05881
G1 X41.633 Y121.683 E4.06527
G1 X35.831 Y115.881 E4.21968
G1 X35.831 Y115.537 E4.22615
G1 X41.633 Y121.339 E4.38056
G1 X41.633 Y120.996 E4.38703
G1 X35.831 Y115.194 E4.54144
G1 X35.831 Y114.850 E4.54791
G1 X41.633 Y120.652 E4.70232
G1 X41.633 Y120.308 E4.70879
G1 X35.831 Y114.506 E4.86320
G1 X35.831 Y114.163 E4.86967
G1 X41.633 Y119.965 E5.02408
G1 X41.633 Y119.621 E5.03055
G1 X35.831 Y113.819 E5.18496
G1 X35.831 Y113.475 E5.19142
G1 X41.633 Y119.277 E5.34584
G1 X41.633 Y118.934 E5.35230
G1 X35.831 Y113.132 E5.50671
G1 X35.831 Y112.788 E5.51318
G1 X41.633 Y118.590 E5.66759
G1 X41.633 Y118.246 E5.67406
G1 X35.831 Y112.444 E5.82847
G1 X35.831 Y112.101 E5.83494
G1 X41.633 Y117.902 E5.98935
G1 X41.633 Y117.559 E5.99582
G1 X35.831 Y111.757 E6.15023
G1 X35.831 Y111.413 E6.15670
G1 X41.633 Y117.215 E6.31111
G1 X41.633 Y116.871 E6.31758
G1 X35.831 Y111.070 E6.47199
G1 X35.831 Y110.726 E6.47846
G1 X41.633 Y116.528 E6.63287
G1 X41.633 Y116.184 E6.63933
G1 X35.831 Y110.382 E6.79375
G1 X35.831 Y110.038 E6.80021
G1 X41.633 Y115.840 E6.95462
G1 X41.633 Y115.497 E6.96109
G1 X35.831 Y109.695 E7.11550
G1 X35.831 Y109.351 E7.12197
G1 X41.633 Y115.153 E7.27638
G1 X41.633 Y114.809 E7.28285
G1 X35.831 Y109.007 E7.43726
G1 X35.831 Y108.664 E7.44373
G1 X41.633 Y114.466 E7.59814
G1 X41.633 Y114.122 E7.60461
G1 X35.831 Y108.320 E7.75902
G1 X35.831 Y107.976 E7.76549
G1 X41.633 Y113.778 E7.91990
G1 X41.633 Y113.435 E7.92636
G1 X35.831 Y107.633 E8.08078
G1 X35.831 Y107.289 E8.08724
G1 X41.633 Y113.091 E8.24165
G1 X41.633 Y112.747 E8.24812
G1 X35.831 Y106.945 E8.40253
G1 X35.831 Y106.602 E8.40900
G1 X41.633 Y112.404 E8.56341
G1 X41.633 Y112.060 E8.56988
G1 X35.831 Y106.258 E8.72429
G1 X35.831 Y105.914 E8.73076
G1 X41.633 Y111.716 E8.88517
G1 X41.633 Y111.373 E8.89164
G1 X35.831 Y105.571 E9.04605
G1 X35.831 Y105.227 E9.05252
G1 X41.633 Y111.029 E9.20693
G1 X41.633 Y110.685 E9.21340
G1 X35.831 Y104.883 E9.36781
G1 X35.831 Y104.540 E9.37427
G1 X41.633 Y110.342 E9.52869
G1 X41.633 Y109.998 E9.53515
G1 X35.831 Y104.196 E9.68956
G1 X35.831 Y103.852 E9.69603
G1 X41.633 Y109.654 E9.85044
G1 X41.633 Y109.311 E9.85691
G1 X35.831 Y103.509 E10.01132
G1 X35.831 Y103.165 E10.01779
G1 X41.633 Y108.967 E10.17220
G1 X41.633 Y108.623 E10.17867
G1 X35.831 Y102.821 E10.33308
G1 X35.831 Y102.478 E10.33955
G1 X41.633 Y108.280 E10.49396
G1 X41.633 Y107.936 E10.50043
G1 X35.831 Y102.134 E10.65484
G1 X35.831 Y101.790 E10.66130
G1 X41.633 Y107.592 E10.81572
G1 X41.633 Y107.249 E10.82218
G1 X35.831 Y101.447 E10.97659
G1 X35.831 Y101.103 E10.98306
G1 X41.633 Y106.905 E11.13747
G1 X41.633 Y106.561 E11.14394
G1 X35.831 Y100.759 E11.29835
G1 X35.831 Y100.416 E11.30482
G1 X41.633 Y106.218 E11.45923
G1 X41.633 Y105.874 E11.46570
G1 X35.831 Y100.072 E11.62011
G1 X35.831 Y99.728 E11.62658
G1 X41.633 Y105.530 E11.78099
G1 X41.633 Y105.187 E11.78746
G1 X35.831 Y99.385 E11.94187
G1 X35.831 Y99.041 E11.94834
G1 X41.633 Y104.843 E12.10275
G1 X41.633 Y104.499 E12.10921
G1 X35.831 Y98.697 E12.26363
G1 X35.831 Y98.354 E12.27009
G1 X41.633 Y104.156 E12.42450
G1 X41.633 Y103.812 E12.43097
G1 X35.831 Y98.010 E12.58538
G1 X35.831 Y97.666 E12.59185
G1 X41.633 Y103.468 E12.74626
G1 X41.633 Y103.125 E12.75273
G1 X35.831 Y97.323 E12.90714
G1 X35.831 Y96.979 E12.91361
G1 X41.633 Y102.781 E13.06802
G1 X41.633 Y102.437 E13.07449
G1 X35.831 Y96.635 E13.22890
G1 X35.831 Y96.292 E13.23537
G1 X41.633 Y102.094 E13.38978
G1 X41.633 Y101.750 E13.39624
G1 X35.831 Y95.948 E13.55066
G1 X35.831 Y95.604 E13.55712
G1 X41.633 Y101.406 E13.71153
G1 X41.633 Y101.063 E13.71800
G1 X35.831 Y95.261 E13.87241
G1 X35.831 Y94.917 E13.87888
G1 X41.633 Y100.719 E14.03329
G1 X41.633 Y100.375 E14.03976
G1 X35.831 Y94.573 E14.19417
G1 X35.831 Y94.230 E14.20064
G1 X41.633 Y100.032 E14.35505
G1 X41.633 Y99.688 E14.36152
G1 X35.831 Y93.886 E14.51593
G1 X35.831 Y93.542 E14.52240
G1 X41.633 Y99.344 E14.67681
G1 X41.633 Y99.001 E14.68328
G1 X35.831 Y93.199 E14.83769
G1 X35.831 Y92.855 E14.84415
G1 X41.633 Y98.657 E14.99857
G1 X41.633 Y98.313 E15.00503
G1 X35.831 Y92.511 E15.15944
G1 X35.831 Y92.168 E15.16591
G1 X41.633 Y97.969 E15.32032
G1 X41.633 Y97.626 E15.32679
G1 X35.831 Y91.824 E15.48120
G1 X35.831 Y91.480 E15.48767
G1 X41.633 Y97.282 E15.64208
G1 X41.633 Y96.938 E15.64855
G1 X35.831 Y91.137 E15.80296
G1 X35.831 Y90.793 E15.80943
G1 X41.633 Y96.595 E15.96384
G1 X41.633 Y96.251 E15.97031
G1 X35.831 Y90.449 E16.12472
G1 X35.831 Y90.105 E16.13118
G1 X41.633 Y95.907 E16.28560
G1 X41.633 Y95.564 E16.29206
G1 X35.831 Y89.762 E16.44647
G1 X35.831 Y89.418 E16.45294
G1 X41.633 Y95.220 E16.60735
G1 X41.633 Y94.876 E16.61382
G1 X35.831 Y89.074 E16.76823
G1 X35.831 Y88.731 E16.77470
G1 X41.633 Y94.533 E16.92911
G1 X41.633 Y94.189 E16.93558
G1 X35.831 Y88.387 E17.08999
G1 X35.831 Y88.043 E17.09646
G1 X41.633 Y93.845 E17.25087
G1 X41.633 Y93.502 E17.25734
G1 X35.831 Y87.700 E17.41175
G1 X35.831 Y87.356 E17.41822
G1 X41.633 Y93.158 E17.57263
G1 X41.633 Y92.814 E17.57909
G1 X35.831 Y87.012 E17.73351
G1 X35.831 Y86.669 E17.73997
G1 X41.633 Y92.471 E17.89438
G1 X41.633 Y92.127 E17.90085
G1 X35.831 Y86.325 E18.05526
G1 X35.831 Y85.981 E18.06173
G1 X41.633 Y91.783 E18.21614
G1 X41.633 Y91.440 E18.22261
G1 X35.831 Y85.638 E18.37702
G1 X35.831 Y85.294 E18.38349
G1 X41.633 Y91.096 E18.53790
G1 X41.633 Y90.752 E18.54437
G1 X35.831 Y84.950 E18.69878
G1 X35.831 Y84.607 E18.70525
G1 X41.633 Y90.409 E18.85966
G1 X41.633 Y90.065 E18.86612
G1 X35.831 Y84.263 E19.02054
G1 X35.831 Y83.919 E19.02700
G1 X41.633 Y89.721 E19.18141
G1 X41.633 Y89.378 E19.18788
G1 X35.831 Y83.576 E19.34229
G1 X35.831 Y83.232 E19.34876
G1 X41.633 Y89.034 E19.50317
G1 X41.633 Y88.690 E19.50964
G1 X35.831 Y82.888 E19.66405
G1 X35.831 Y82.545 E19.67052
G1 X41.633 Y88.347 E19.82493
G1 X41.633 Y88.003 E19.83140
G1 X35.831 Y82.201 E19.98581
G1 X35.831 Y81.857 E19.99228
G1 X41.633 Y87.659 E20.14669
G1 X41.633 Y87.316 E20.15315
G1 X35.831 Y81.514 E20.30757
G1 X35.831 Y81.170 E20.31403
G1 X41.633 Y86.972 E20.46845
G1 X41.633 Y86.628 E20.47491
G1 X35.831 Y80.826 E20.62932
G1 X35.831 Y80.483 E20.63579
G1 X41.633 Y86.285 E20.79020
G1 X41.633 Y85.941 E20.79667
G1 X35.831 Y80.139 E20.95108
G1 X35.831 Y79.795 E20.95755
G1 X41.633 Y85.597 E21.11196
G1 X41.633 Y85.254 E21.11843
G1 X35.831 Y79.452 E21.27284
G1 X35.831 Y79.108 E21.27931
G1 X41.633 Y84.910 E21.43372
G1 X41.633 Y84.566 E21.44019
G1 X35.831 Y78.764 E21.59460
G1 X35.831 Y78.421 E21.60106
G1 X41.633 Y84.223 E21.75548
G1 X41.633 Y83.879 E21.76194
G1 X35.831 Y78.077 E21.91635
G1 X35.831 Y77.733 E21.92282
G1 X41.633 Y83.535 E22.07723
G1 X41.633 Y83.192 E22.08370
G1 X35.831 Y77.390 E22.23811
G1 X35.831 Y77.046 E22.24458
G1 X41.633 Y82.848 E22.39899
G1 X41.633 Y82.504 E22.40546
G1 X35.831 Y76.702 E22.55987
G1 X35.831 Y76.359 E22.56634
G1 X41.633 Y82.161 E22.72075
G1 X41.633 Y81.817 E22.72722
G1 X35.831 Y76.015 E22.88163
G1 X35.831 Y75.671 E22.88809
G1 X41.633 Y81.473 E23.04251
G1 X41.633 Y81.130 E23.04897
G1 X35.831 Y75.328 E23.20339
G1 X35.831 Y74.984 E23.20985
G1 X41.633 Y80.786 E23.36426
G1 X41.633 Y80.442 E23.37073
G1 X35.831 Y74.640 E23.52514
G1 X35.831 Y74.297 E23.53161
G1 X41.633 Y80.099 E23.68602
G1 X41.633 Y79.755 E23.69249
G1 X35.831 Y73.953 E23.84690
G1 X35.831 Y73.609 E23.85337
G1 X41.633 Y79.411 E24.00778
G1 X41.633 Y79.067 E24.01425
G1 X35.831 Y73.266 E24.16866
G1 X35.831 Y72.922 E24.17513
G1 X41.633 Y78.724 E24.32954
G1 X41.633 Y78.380 E24.33600
G1 X35.831 Y72.578 E24.49042
G1 X35.831 Y72.235 E24.49688
G1 X41.633 Y78.036 E24.65129
G1 X41.633 Y77.693 E24.65776
G1 X35.831 Y71.891 E24.81217
G1 X35.831 Y71.547 E24.81864
G1 X41.633 Y77.349 E24.97305
G1 X41.633 Y77.005 E24.97952
G1 X35.831 Y71.204 E25.13393
G1 X35.831 Y70.860 E25.14040
G1 X41.633 Y76.662 E25.29481
G1 X41.633 Y76.318 E25.30128
G1 X35.831 Y70.516 E25.45569
G1 X35.831 Y70.172 E25.46216
G1 X41.633 Y75.974 E25.61657
G1 X41.633 Y75.631 E25.62303
G1 X35.831 Y69.829 E25.77745
G1 X35.831 Y69.485 E25.78391
G1 X41.633 Y75.287 E25.93833
G1 X41.633 Y74.943 E25.94479
G1 X34.620 Y67.930 E26.13145
G1 X34.620 Y68.273 E26.13792
G1 X35.094 Y68.748 E26.15055
G1 X34.620 Y67.586 F6000.000
G1 X41.633 Y74.600 E26.33721 F1200.000
G1 X41.633 Y74.256 E26.34368
G1 X34.620 Y67.242 E26.53033
G1 X34.620 Y66.899 E26.53680
G1 X41.633 Y73.912 E26.72346
G1 X41.633 Y73.569 E26.72993
G1 X34.620 Y66.555 E26.91659
