; generated by Slic3r 1.1.7 on 2015-01-21 at 18:59:38

; perimeters extrusion width = 0.40mm
; infill extrusion width = 0.44mm
; solid infill extrusion width = 0.44mm
; top infill extrusion width = 0.44mm

G21 ; set units to millimeters
M190 S60 ; wait for bed temperature to be reached
M104 S190 ; set temperature
G28 ; home all axes Start of G Code Slic3r
 
M109 S190 ; wait for temperature to be reached
G90 ; use absolute coordinates
G92 E0
M82 ; use absolute distances for extrusion
G1 F1860.000 E-3.00000
G92 E0
G1 Z0.294 F7800.000
G1 X10.851 Y33.136 F7800.000
G1 E3.10000 F1860.000
G1 X11.407 Y32.971 E3.13606 F1800.000
G1 X14.456 Y32.197 E3.33189
G1 X16.088 Y31.980 E3.43440
G1 X84.009 Y30.911 E7.66290
G1 X128.179 Y32.011 E10.41331 F1800.000
G1 X163.171 Y33.197 E12.59278
G1 X163.972 Y33.240 E12.64269
G1 X164.814 Y33.338 E12.69546
G1 X165.230 Y33.408 E12.72173
G1 X178.647 Y35.741 E13.56947
G1 X179.335 Y35.889 E13.61325
G1 X180.010 Y36.081 E13.65699
G1 X180.685 Y36.324 E13.70162
G1 X181.316 Y36.599 E13.74447
G1 X181.941 Y36.922 E13.78826
G1 X182.542 Y37.286 E13.83202
G1 X183.118 Y37.689 E13.87575
G1 X183.666 Y38.129 E13.91951
G1 X184.183 Y38.605 E13.96327
G1 X184.667 Y39.115 E14.00703
G1 X185.116 Y39.655 E14.05075
G1 X185.529 Y40.225 E14.09453
G1 X186.009 Y41.008 E14.15174
G1 X186.235 Y41.439 E14.18202
G1 X186.526 Y42.078 E14.22575
G1 X186.774 Y42.737 E14.26955
G1 X186.978 Y43.409 E14.31327
G1 X187.157 Y44.215 E14.36465
G1 X196.505 Y100.819 E17.93594
G1 X196.544 Y101.731 E17.99275
G1 X196.478 Y102.641 E18.04959
G1 X196.284 Y103.632 E18.11244
G1 X196.036 Y104.411 E18.16330
G1 X195.668 Y105.245 E18.22006
G1 X195.205 Y106.033 E18.27692
G1 X194.656 Y106.763 E18.33381
G1 X194.027 Y107.424 E18.39060
G1 X193.655 Y107.754 E18.42153
G1 X191.581 Y109.448 E18.58824
G1 X190.926 Y109.877 E18.63701
G1 X176.857 Y118.043 E19.64961
G1 X175.626 Y118.733 E19.73747
G1 X174.255 Y119.381 E19.83186
G1 X45.818 Y168.623 E28.39437
G1 X45.253 Y168.797 E28.43121
G1 X44.678 Y168.932 E28.46797
G1 X44.093 Y169.027 E28.50488
G1 X43.497 Y169.081 E28.54208
G1 X42.912 Y169.094 E28.57850
G1 X42.321 Y169.066 E28.61535
G1 X41.734 Y168.998 E28.65214
G1 X41.154 Y168.889 E28.68887
G1 X38.047 Y168.062 E28.88904
G1 X37.382 Y167.844 E28.93256
G1 X36.782 Y167.604 E28.97284
G1 X26.289 Y162.894 E29.68876
G1 X25.789 Y162.623 E29.72420
G1 X25.309 Y162.320 E29.75949
G1 X24.849 Y161.984 E29.79499
G1 X24.408 Y161.615 E29.83077
G1 X24.001 Y161.226 E29.86581
G1 X23.617 Y160.807 E29.90120
G1 X23.262 Y160.363 E29.93659
G1 X22.937 Y159.896 E29.97199
G1 X22.599 Y159.328 E30.01314
G1 X22.383 Y158.903 E30.04279
G1 X22.157 Y158.381 E30.07820
G1 X21.938 Y157.755 E30.11952
G1 X21.472 Y156.113 E30.22575
G1 X3.566 Y77.134 E35.26688
G1 X3.459 Y76.050 E35.33470
G1 X3.459 Y75.552 E35.36569
G1 X3.687 Y68.853 E35.78296
G1 X4.992 Y46.504 E37.17655
G1 X5.585 Y39.504 E37.61383
G1 X5.805 Y38.439 E37.68152
G1 X6.170 Y37.416 E37.74915
G1 X6.673 Y36.453 E37.81678
G1 X7.305 Y35.569 E37.88443
G1 X8.054 Y34.781 E37.95208
G1 X8.902 Y34.108 E38.01948
G1 X9.839 Y33.555 E38.08723
G1 X10.796 Y33.158 E38.15169
G1 X11.022 Y33.656 F7800.000
G1 X11.541 Y33.501 E38.18542 F1800.000
G1 X14.591 Y32.727 E38.38125
G1 X16.097 Y32.527 E38.47585
G1 X83.995 Y31.458 E42.70297
G1 X128.160 Y32.558 E45.45307 F1800.000
G1 X163.151 Y33.744 E47.63244
G1 X163.918 Y33.784 E47.68027
G1 X164.724 Y33.878 E47.73075
G1 X165.136 Y33.947 E47.75678
G1 X178.544 Y36.279 E48.60396
G1 X179.196 Y36.418 E48.64547
G1 X179.837 Y36.600 E48.68694
G1 X180.478 Y36.830 E48.72930
G1 X181.076 Y37.090 E48.76989
G1 X181.668 Y37.396 E48.81141
G1 X182.239 Y37.741 E48.85290
G1 X182.785 Y38.123 E48.89436
G1 X183.304 Y38.540 E48.93585
G1 X183.795 Y38.991 E48.97734
G1 X184.254 Y39.474 E49.01883
G1 X184.680 Y39.986 E49.06028
G1 X185.072 Y40.526 E49.10179
G1 X185.533 Y41.278 E49.15674
G1 X185.742 Y41.677 E49.18475
G1 X186.019 Y42.283 E49.22621
G1 X186.254 Y42.907 E49.26773
G1 X186.447 Y43.544 E49.30919
G1 X186.617 Y44.305 E49.35771
G1 X195.961 Y100.870 E52.92653
G1 X195.997 Y101.719 E52.97943
G1 X195.935 Y102.567 E53.03238
G1 X195.754 Y103.496 E53.09132
G1 X195.525 Y104.215 E53.13829
G1 X195.182 Y104.992 E53.19115
G1 X194.752 Y105.726 E53.24411
G1 X194.240 Y106.407 E53.29710
G1 X193.655 Y107.023 E53.35000
G1 X193.306 Y107.332 E53.37902
G1 X191.256 Y109.007 E53.54384
G1 X190.651 Y109.404 E53.58886
G1 X176.584 Y117.569 E54.60135
G1 X175.386 Y118.242 E54.68687
G1 X174.052 Y118.872 E54.77872
G1 X45.642 Y168.105 E63.33948
G1 X45.113 Y168.268 E63.37396
G1 X44.575 Y168.395 E63.40837
G1 X44.027 Y168.484 E63.44292
G1 X43.470 Y168.535 E63.47776
G1 X42.922 Y168.547 E63.51183
G1 X42.369 Y168.521 E63.54631
G1 X41.819 Y168.457 E63.58075
G1 X41.277 Y168.356 E63.61513
G1 X38.205 Y167.538 E63.81303
G1 X37.575 Y167.332 E63.85423
G1 X37.005 Y167.105 E63.89244
G1 X26.537 Y162.406 E64.60673
G1 X26.068 Y162.152 E64.63990
G1 X25.619 Y161.869 E64.67294
G1 X25.188 Y161.555 E64.70616
G1 X24.775 Y161.209 E64.73967
G1 X24.394 Y160.846 E64.77244
G1 X24.035 Y160.453 E64.80558
G1 X23.702 Y160.038 E64.83870
G1 X23.398 Y159.601 E64.87183
G1 X23.078 Y159.064 E64.91071
G1 X22.879 Y158.672 E64.93811
G1 X22.667 Y158.184 E64.97124
G1 X22.420 Y157.460 E65.01885
G1 X22.006 Y155.992 E65.11380
G1 X4.106 Y77.046 E70.15283
G1 X4.006 Y76.038 E70.21591
G1 X4.005 Y75.571 E70.24499
G1 X4.233 Y68.885 E70.66142
G1 X5.537 Y46.542 E72.05461
G1 X6.127 Y39.581 E72.48951
G1 X6.331 Y38.590 E72.55246
G1 X6.670 Y37.638 E72.61535
G1 X7.137 Y36.743 E72.67825
G1 X7.725 Y35.920 E72.74116
G1 X8.421 Y35.188 E72.80407
G1 X9.209 Y34.560 E72.86675
G1 X10.081 Y34.046 E72.92976
G1 X10.966 Y33.678 E72.98947
G1 F1860.000 E69.98947
G92 E0
G1 X36.017 Y104.413 F7800.000
G1 E3.10000 F1860.000
G1 X33.232 Y95.018 E3.71000 F441.000
G1 X33.197 Y94.797 E3.72394
G1 X33.224 Y94.580 E3.73754
G1 X33.309 Y94.379 E3.75115
G1 X33.395 Y94.261 E3.76023
G1 X33.501 Y94.161 E3.76932
G1 X33.691 Y94.050 E3.78297
G1 X33.943 Y93.980 E3.79927
G1 X34.206 Y93.967 E3.81564
G1 X34.991 Y94.082 E3.86506
G1 X35.403 Y94.202 E3.89174
G1 X35.601 Y94.285 E3.90511
G1 X35.977 Y94.491 E3.93183
G1 X36.320 Y94.749 E3.95855
G1 X37.531 Y95.962 E4.06521
G1 X37.799 Y96.273 E4.09076
G1 X37.915 Y96.439 E4.10337
G1 X38.019 Y96.612 E4.11598
G1 X38.192 Y96.979 E4.14119
G1 X38.313 Y97.365 E4.16639
G1 X38.381 Y97.769 E4.19192
G1 X39.822 Y112.138 E5.09085
G1 X45.816 Y136.676 E6.66321
G1 X45.956 Y137.062 E6.68875
G1 X46.171 Y137.422 E6.71488
G1 X46.453 Y137.733 E6.74101
G1 X46.791 Y137.982 E6.76713
G1 X47.171 Y138.160 E6.79325
G1 X47.579 Y138.258 E6.81938
G1 X47.998 Y138.274 E6.84550
G1 X48.413 Y138.206 E6.87163
G1 X48.678 Y138.116 E6.88906
G1 X48.929 Y137.991 E6.90649
G1 X49.161 Y137.834 E6.92393
G1 X49.370 Y137.648 E6.94136
G1 X52.285 Y134.281 E7.21860
G1 X55.330 Y134.285 E7.40816
G1 X56.008 Y134.444 E7.45149
G1 X56.377 Y134.494 E7.47469
G1 X57.122 Y134.519 E7.52106
G1 X57.494 Y134.494 E7.54425
G1 X58.228 Y134.370 E7.59062
G1 X58.940 Y134.151 E7.63699
G1 X59.289 Y134.003 E7.66054
G1 X102.451 Y110.214 E10.72845
G1 X105.822 Y108.110 E10.97581
G1 X125.258 Y93.002 E12.50818
G1 X143.131 Y76.103 E14.03933
G1 X143.236 Y76.019 E14.04774
G1 X143.343 Y75.974 E14.05497
G1 X143.458 Y75.958 E14.06220
G1 X143.573 Y75.974 E14.06943
G1 X143.680 Y76.020 E14.07666
G1 X143.771 Y76.092 E14.08389
G1 X143.863 Y76.239 E14.09469
G1 X143.889 Y76.352 E14.10192
G1 X143.869 Y76.525 E14.11273
G1 X143.781 Y76.679 E14.12381
G1 X131.570 Y89.637 E15.23209
G1 X118.479 Y101.711 E16.34069
G1 X104.578 Y112.837 E17.44907
G1 X101.004 Y115.183 E17.71518
G1 X54.600 Y141.851 E21.04687
G1 X54.413 Y141.919 E21.05920
G1 X54.207 Y141.961 E21.07229
G1 X53.997 Y141.975 E21.08538
G1 X53.788 Y141.960 E21.09848
G1 X53.577 Y141.915 E21.11189
G1 X52.091 Y141.490 E21.20808
G1 X51.739 Y141.450 E21.23013
G1 X51.391 Y141.481 E21.25191
G1 X51.150 Y141.545 E21.26741
G1 X50.846 Y141.683 E21.28821
G1 X50.562 Y141.887 E21.30999
G1 X50.324 Y142.144 E21.33176
G1 X50.150 Y142.410 E21.35154
G1 X50.045 Y142.632 E21.36683
G1 X49.849 Y143.189 E21.40359
G1 X49.914 Y143.189 E21.40760
G1 X50.100 Y146.185 E21.59445
G1 X50.062 Y146.665 E21.62446
G1 X49.826 Y147.708 E21.69099
G1 X49.783 Y148.293 E21.72752
G1 X49.795 Y148.587 E21.74585
G1 X50.161 Y151.630 E21.93663
G1 X50.807 Y154.796 E22.13779
G1 X50.805 Y155.046 E22.15330
G1 X50.751 Y155.289 E22.16881
G1 X50.645 Y155.514 E22.18432
G1 X50.549 Y155.650 E22.19467
G1 X50.468 Y155.725 E22.20152
G1 X50.265 Y155.829 E22.21570
G1 X50.120 Y155.875 E22.22524
G1 X49.969 Y155.902 E22.23478
G1 X49.739 Y155.905 E22.24907
G1 X49.588 Y155.882 E22.25861
G1 X49.370 Y155.810 E22.27290
G1 X49.109 Y155.651 E22.29193
G1 X48.899 Y155.428 E22.31096
G1 X48.783 Y155.230 E22.32525
G1 X48.323 Y153.878 E22.41418
G1 X47.989 Y152.568 E22.49833
G1 X47.723 Y151.051 E22.59416
G1 X47.737 Y151.051 E22.59505
G1 X47.622 Y149.891 E22.66763
G1 X47.592 Y148.540 E22.75177
G1 X47.686 Y146.940 E22.85153
G1 X47.688 Y146.415 E22.88419
G1 X47.662 Y146.153 E22.90057
G1 X47.559 Y145.638 E22.93332
G1 X47.396 Y145.163 E22.96453
G1 X47.277 Y144.901 E22.98244
G1 X47.010 Y144.448 E23.01519
G1 X46.854 Y144.236 E23.03157
G1 X46.491 Y143.834 E23.06530
G1 X46.286 Y143.694 E23.08076
G1 X45.967 Y143.546 E23.10264
G1 X45.741 Y143.484 E23.11723
G1 X45.509 Y143.453 E23.13183
G1 X45.142 Y143.468 E23.15468
G1 X44.928 Y143.512 E23.16830
G1 X44.706 Y143.590 E23.18290
G1 X44.498 Y143.696 E23.19750
G1 X44.305 Y143.829 E23.21209
G1 X44.131 Y143.987 E23.22669
G1 X43.981 Y144.167 E23.24129
G1 X43.856 Y144.366 E23.25589
G1 X43.760 Y144.574 E23.27017
G1 X40.275 Y153.767 E23.88216
G1 X40.140 Y154.214 E23.91123
G1 X40.094 Y154.446 E23.92594
G1 X40.048 Y154.916 E23.95533
G1 X40.064 Y155.388 E23.98473
G1 X40.143 Y155.853 E24.01412
G1 X40.206 Y156.081 E24.02882
G1 X40.375 Y156.522 E24.05821
G1 X40.481 Y156.733 E24.07292
G1 X40.734 Y157.131 E24.10231
G1 X40.880 Y157.317 E24.11702
G1 X41.203 Y157.655 E24.14611
G1 X43.611 Y159.853 E24.34905
G1 X43.768 Y160.030 E24.36374
G1 X43.884 Y160.228 E24.37805
G1 X43.959 Y160.445 E24.39237
G1 X43.990 Y160.673 E24.40668
G1 X43.975 Y160.903 E24.42100
G1 X43.916 Y161.125 E24.43532
G1 X43.813 Y161.330 E24.44963
G1 X43.690 Y161.492 E24.46229
G1 X43.503 Y161.601 E24.47575
G1 X43.353 Y161.658 E24.48573
G1 X43.037 Y161.707 E24.50565
G1 X42.797 Y161.686 E24.52062
G1 X39.979 Y160.928 E24.70232
G1 X39.616 Y160.777 E24.72674
G1 X39.443 Y160.684 E24.73897
G1 X39.117 Y160.465 E24.76341
G1 X38.823 Y160.206 E24.78785
G1 X38.565 Y159.909 E24.81228
G1 X38.349 Y159.582 E24.83673
G1 X38.177 Y159.229 E24.86116
G1 X38.110 Y159.044 E24.87339
G1 X38.010 Y158.660 E24.89813
G1 X37.367 Y155.279 E25.11234
G1 X37.320 Y154.880 E25.13737
G1 X37.324 Y154.484 E25.16202
G1 X37.381 Y154.092 E25.18668
G1 X37.490 Y153.711 E25.21133
G1 X41.218 Y145.143 E25.79296
G1 X41.359 Y143.637 E25.88711
G1 X41.330 Y143.224 E25.91285
G1 X41.266 Y142.954 E25.93015
G1 X41.106 Y142.570 E25.95606
G1 X40.872 Y142.225 E25.98199
G1 X40.576 Y141.933 E26.00791
G1 X40.228 Y141.704 E26.03383
G1 X39.842 Y141.548 E26.05976
G1 X39.432 Y141.471 E26.08568
G1 X39.016 Y141.476 E26.11160
G1 X38.742 Y141.525 E26.12890
G1 X37.814 Y141.814 E26.18942
G1 X37.429 Y141.987 E26.21571
G1 X37.188 Y142.145 E26.23366
G1 X36.971 Y142.335 E26.25160
G1 X36.698 Y142.670 E26.27850
G1 X36.557 Y142.922 E26.29645
G1 X36.454 Y143.185 E26.31408
G1 X35.377 Y146.588 E26.53620
G1 X35.311 Y146.776 E26.54865
G1 X35.146 Y147.129 E26.57293
G1 X34.936 Y147.458 E26.59720
G1 X34.812 Y147.615 E26.60963
G1 X32.284 Y150.619 E26.85403
G1 X31.996 Y151.018 E26.88465
G1 X31.762 Y151.458 E26.91568
G1 X31.668 Y151.689 E26.93120
G1 X31.530 Y152.168 E26.96222
G1 X31.460 Y152.661 E26.99325
G1 X31.460 Y153.154 E27.02395
G1 X31.534 Y154.303 E27.09561
G1 X31.507 Y154.706 E27.12075
G1 X31.473 Y154.906 E27.13337
G1 X31.426 Y155.103 E27.14599
G1 X31.291 Y155.485 E27.17122
G1 X31.105 Y155.848 E27.19661
G1 X30.968 Y156.032 E27.21086
G1 X30.795 Y156.186 E27.22528
G1 X30.595 Y156.303 E27.23970
G1 X30.451 Y156.358 E27.24933
G1 X30.223 Y156.403 E27.26375
G1 X30.069 Y156.407 E27.27337
G1 X29.839 Y156.376 E27.28779
G1 X29.692 Y156.330 E27.29742
G1 X29.485 Y156.225 E27.31184
G1 X29.250 Y156.026 E27.33104
G1 X29.154 Y155.905 E27.34067
G1 X29.042 Y155.702 E27.35509
G1 X28.680 Y154.484 E27.43419
G1 X28.407 Y152.253 E27.57407
G1 X28.415 Y151.835 E27.60008
G1 X28.440 Y151.628 E27.61311
G1 X28.480 Y151.422 E27.62614
G1 X28.603 Y151.022 E27.65219
G1 X28.781 Y150.643 E27.67824
G1 X29.013 Y150.289 E27.70461
G1 X32.312 Y145.949 E28.04396
G1 X32.606 Y145.486 E28.07807
G1 X32.828 Y144.984 E28.11228
G1 X34.908 Y139.062 E28.50296
G1 X35.070 Y138.689 E28.52828
G1 X35.276 Y138.346 E28.55316
G1 X35.525 Y138.034 E28.57805
G1 X35.814 Y137.757 E28.60294
G1 X35.972 Y137.634 E28.61540
G1 X36.137 Y137.522 E28.62785
G1 X36.489 Y137.333 E28.65274
G1 X36.674 Y137.256 E28.66519
G1 X37.383 Y137.028 E28.71155
G1 X37.825 Y136.827 E28.74177
G1 X38.233 Y136.569 E28.77185
G1 X38.441 Y136.404 E28.78836
G1 X38.772 Y136.084 E28.81698
G1 X39.071 Y135.705 E28.84706
G1 X39.201 Y135.501 E28.86211
G1 X39.317 Y135.289 E28.87716
G1 X39.495 Y134.865 E28.90578
G1 X39.629 Y134.376 E28.93732
G1 X39.687 Y133.920 E28.96594
G1 X39.695 Y133.655 E28.98245
G1 X39.658 Y133.173 E29.01253
G1 X39.615 Y132.934 E29.02763
G1 X37.651 Y125.310 E29.51774
G1 X35.090 Y117.864 E30.00791
G1 X31.947 Y110.644 E30.49808
G1 X27.947 Y103.152 E31.02674
G1 X27.693 Y102.589 E31.06520
G1 X27.479 Y102.009 E31.10368
G1 X27.306 Y101.415 E31.14217
G1 X27.175 Y100.811 E31.18065
G1 X27.087 Y100.199 E31.21913
G1 X27.042 Y99.583 E31.25761
G1 X27.041 Y98.965 E31.29609
G1 X27.083 Y98.348 E31.33457
G1 X27.169 Y97.730 E31.37339
G1 X27.276 Y97.134 E31.41109
G1 X27.362 Y96.899 E31.42670
G1 X27.447 Y96.754 E31.43713
G1 X27.616 Y96.561 E31.45309
G1 X28.626 Y95.625 E31.53885
G1 X28.745 Y95.549 E31.54762
G1 X28.879 Y95.495 E31.55664
G1 X29.094 Y95.461 E31.57014
G1 X29.238 Y95.471 E31.57916
G1 X29.378 Y95.506 E31.58817
G1 X29.571 Y95.606 E31.60167
G1 X29.681 Y95.700 E31.61069
G1 X29.773 Y95.812 E31.61971
G1 X29.871 Y96.013 E31.63362
G1 X32.972 Y105.315 E32.24403
G1 X35.960 Y104.430 E32.43799
G1 X36.401 Y104.300 F7800.000
G1 X36.697 Y104.783 F7800.000
G1 X33.759 Y94.873 E33.08141 F630.000
G1 X33.748 Y94.745 E33.08942
G1 X33.806 Y94.623 E33.09781
G1 X33.900 Y94.557 E33.10497
G1 X34.077 Y94.514 E33.11627
G1 X34.232 Y94.520 E33.12595
G1 X34.690 Y94.584 E33.15469
G1 X35.045 Y94.660 E33.17729
G1 X35.373 Y94.782 E33.19910
G1 X35.680 Y94.951 E33.22091
G1 X35.960 Y95.162 E33.24272
G1 X36.099 Y95.292 E33.25456
G1 X37.257 Y96.471 E33.35745
G1 X37.541 Y96.878 E33.38835
G1 X37.736 Y97.333 E33.41918
G1 X37.837 Y97.833 E33.45091
G1 X39.282 Y112.231 E34.35166
G1 X45.289 Y136.823 E35.92748
G1 X45.460 Y137.293 E35.95867
G1 X45.731 Y137.748 E35.99159
G1 X46.086 Y138.139 E36.02449
G1 X46.511 Y138.453 E36.05740
G1 X46.990 Y138.676 E36.09030
G1 X47.330 Y138.770 E36.11226
G1 X47.856 Y138.825 E36.14517
G1 X48.382 Y138.775 E36.17807
G1 X48.723 Y138.683 E36.20004
G1 X49.049 Y138.548 E36.22199
G1 X49.354 Y138.370 E36.24396
G1 X49.632 Y138.154 E36.26591
G1 X49.870 Y137.913 E36.28696
G1 X52.535 Y134.829 E36.54072
G1 X55.257 Y134.832 E36.71014
G1 X55.917 Y134.984 E36.75233
G1 X56.452 Y135.066 E36.78602
G1 X57.140 Y135.066 E36.82883
G1 X57.548 Y135.039 E36.85430
G1 X57.954 Y134.984 E36.87976
G1 X58.355 Y134.903 E36.90523
G1 X58.749 Y134.795 E36.93069
G1 X59.136 Y134.662 E36.95616
G1 X59.528 Y134.496 E36.98262
G1 X102.728 Y110.686 E40.05323
G1 X106.136 Y108.560 E40.30327
G1 X125.615 Y93.418 E41.83904
G1 X135.307 Y84.254 E42.66937
G1 X135.608 Y84.554 E42.69584
G1 X131.185 Y89.248 E43.09726
G1 X118.122 Y101.296 E44.20347
G1 X104.256 Y112.394 E45.30905
G1 X100.717 Y114.716 E45.57255
G1 X54.359 Y141.359 E48.90092
G1 X54.133 Y141.419 E48.91547
G1 X53.865 Y141.418 E48.93220
G1 X52.215 Y140.956 E49.03884
G1 X51.899 Y140.910 E49.05872
G1 X51.593 Y140.906 E49.07779
G1 X51.288 Y140.943 E49.09688
G1 X50.848 Y141.074 E49.12546
G1 X50.544 Y141.227 E49.14664
G1 X50.200 Y141.477 E49.17313
G1 X49.887 Y141.813 E49.20171
G1 X49.598 Y142.285 E49.23615
G1 X49.077 Y143.736 E49.33212
