; generated by Slic3r 1.1.7 on 2015-01-21 at 18:59:01

; perimeters extrusion width = 0.40mm
; infill extrusion width = 0.44mm
; solid infill extrusion width = 0.44mm
; top infill extrusion width = 0.44mm

G21 ; set units to millimeters
M190 S60 ; wait for bed temperature to be reached
M104 S190 ; set temperature
G28 ; home all axes Start of G Code Slic3r
 
M109 S190 ; wait for temperature to be reached
G90 ; use absolute coordinates
G92 E0
M82 ; use absolute distances for extrusion
G1 F1860.000 E-3.00000
G92 E0
G1 Z0.294 F7800.000
G1 X26.431 Y55.718 F7800.000
G1 E3.10000 F1860.000
G1 X134.637 Y4.388 E10.55519 F1800.000
G1 X135.881 Y3.912 E10.63808
G1 X137.061 Y3.557 E10.71481
G1 X138.310 Y3.278 E10.79445
G1 X139.576 Y3.094 E10.87408
G1 X140.834 Y3.003 E10.95261
G1 X142.533 Y2.997 E11.05835
G1 X144.098 Y3.090 E11.15594 F1800.000
G1 X145.725 Y3.294 E11.25801
G1 X147.335 Y3.605 E11.36008
G1 X148.989 Y4.042 E11.46658
G1 X150.476 Y4.539 E11.56418
G1 X151.994 Y5.160 E11.66626
G1 X153.467 Y5.879 E11.76830
G1 X154.926 Y6.717 E11.87307
G1 X157.420 Y8.380 E12.05968
G1 X159.791 Y10.217 E12.24641
G1 X162.026 Y12.219 E12.43312
G1 X163.665 Y13.892 E12.57895
G1 X164.112 Y14.374 E12.61987
G1 X166.002 Y16.620 E12.80256
G1 X181.275 Y37.561 E14.41602
G1 X182.718 Y39.640 E14.57354
G1 X183.077 Y40.187 E14.61429
G1 X183.411 Y40.793 E14.65732
G1 X183.685 Y41.404 E14.69900
G1 X183.932 Y42.115 E14.74589
G1 X184.070 Y42.640 E14.77969
G1 X195.618 Y94.223 E18.07017
G1 X195.782 Y95.453 E18.14740
G1 X198.662 Y159.317 E22.12690
G1 X198.640 Y160.021 E22.17078
G1 X198.556 Y160.735 E22.21551
G1 X198.389 Y161.517 E22.26530
G1 X198.203 Y162.122 E22.30466
G1 X198.063 Y162.494 E22.32939
G1 X190.563 Y180.846 E23.56352
G1 X190.233 Y181.408 E23.60413
G1 X189.850 Y181.975 E23.64669
G1 X189.300 Y182.669 E23.70182
G1 X188.837 Y183.170 E23.74427
G1 X188.217 Y183.750 E23.79715
G1 X181.700 Y189.391 E24.33368
G1 X181.167 Y189.813 E24.37596
G1 X180.601 Y190.202 E24.41875
G1 X180.013 Y190.552 E24.46134
G1 X179.393 Y190.867 E24.50459
G1 X178.763 Y191.136 E24.54725
G1 X177.764 Y191.459 E24.61261
G1 X159.176 Y196.037 E25.80426
G1 X158.381 Y196.173 E25.85448
G1 X157.669 Y196.226 E25.89892
G1 X91.998 Y197.011 E29.98719
G1 X45.374 Y195.518 E32.89095
G1 X44.241 Y195.364 E32.96217
G1 X43.181 Y195.062 E33.03078
G1 X35.810 Y192.295 E33.52084
G1 X35.181 Y191.962 E33.56516
G1 X15.761 Y180.431 E34.97107
G1 X5.961 Y173.854 E35.70575
G1 X5.169 Y173.075 E35.77495
G1 X4.439 Y172.106 E35.85043
G1 X3.951 Y171.217 E35.91358
G1 X3.551 Y170.177 E35.98293
G1 X3.304 Y169.089 E36.05240
G1 X3.232 Y168.464 E36.09154
G1 X3.033 Y165.697 E36.26420
G1 X1.368 Y142.193 E37.73099
G1 X1.338 Y141.567 E37.77004
G1 X1.776 Y78.182 E41.71573
G1 X1.820 Y77.483 E41.75936
G1 X1.910 Y76.792 E41.80275
G1 X2.047 Y76.107 E41.84623
G1 X2.230 Y75.433 E41.88968
G1 X2.533 Y74.582 E41.94593
G1 X2.728 Y74.133 E41.97640
G1 X3.044 Y73.506 E42.02009
G1 X3.398 Y72.909 E42.06333
G1 X3.793 Y72.334 E42.10672
G1 X4.135 Y71.893 E42.14145
G1 X10.196 Y64.613 E42.73112
G1 X10.706 Y64.082 E42.77696
G1 X11.061 Y63.752 E42.80717
G1 X12.054 Y62.887 E42.88912
G1 X12.525 Y62.522 E42.92624
G1 X13.102 Y62.128 E42.96968
G1 X13.700 Y61.776 E43.01287
G1 X14.180 Y61.530 E43.04648
G1 X26.377 Y55.744 E43.88682
G1 X26.665 Y56.212 F7800.000
G1 X134.842 Y4.896 E51.33998 F1800.000
G1 X136.047 Y4.434 E51.42031
G1 X137.188 Y4.089 E51.49453
G1 X138.397 Y3.819 E51.57165
G1 X139.623 Y3.639 E51.64875
G1 X140.842 Y3.550 E51.72484
G1 X142.506 Y3.544 E51.82840
G1 X144.035 Y3.634 E51.92376 F1800.000
G1 X145.626 Y3.832 E52.02358
G1 X147.201 Y4.135 E52.12341
G1 X148.820 Y4.563 E52.22767
G1 X150.273 Y5.048 E52.32303
G1 X151.758 Y5.654 E52.42286
G1 X153.199 Y6.356 E52.52266
G1 X154.625 Y7.174 E52.62499
G1 X157.088 Y8.815 E52.80918
G1 X159.429 Y10.627 E52.99348
G1 X161.635 Y12.602 E53.17778
G1 X163.275 Y14.275 E53.32360
G1 X163.695 Y14.728 E53.36210
G1 X165.564 Y16.947 E53.54268
G1 X180.825 Y37.873 E55.15494
G1 X182.268 Y39.952 E55.31247
G1 X182.607 Y40.467 E55.35086
G1 X182.922 Y41.039 E55.39151
G1 X183.175 Y41.604 E55.43001
G1 X183.407 Y42.268 E55.47377
G1 X183.536 Y42.760 E55.50544
G1 X195.084 Y94.343 E58.79593
G1 X195.236 Y95.478 E58.86720
G1 X198.115 Y159.320 E62.84538
G1 X198.095 Y159.978 E62.88634
G1 X198.016 Y160.644 E62.92807
G1 X197.859 Y161.379 E62.97490
G1 X197.687 Y161.938 E63.01126
G1 X197.556 Y162.288 E63.03454
G1 X190.085 Y180.578 E64.26442
G1 X189.772 Y181.112 E64.30293
G1 X189.410 Y181.649 E64.34325
G1 X188.882 Y182.315 E64.39612
G1 X188.444 Y182.789 E64.43633
G1 X187.859 Y183.337 E64.48624
G1 X181.351 Y188.970 E65.02199
G1 X180.847 Y189.369 E65.06205
G1 X180.311 Y189.738 E65.10257
G1 X179.754 Y190.070 E65.14291
G1 X179.167 Y190.369 E65.18393
G1 X178.570 Y190.624 E65.22433
G1 X177.633 Y190.928 E65.28562
G1 X159.061 Y195.502 E66.47629
G1 X158.320 Y195.629 E66.52309
G1 X157.655 Y195.679 E66.56457
G1 X92.015 Y196.464 E70.65089
G1 X45.411 Y194.972 E73.55343
G1 X44.357 Y194.830 E73.61965
G1 X43.371 Y194.549 E73.68348
G1 X36.048 Y191.802 E74.17033
G1 X35.460 Y191.491 E74.21173
G1 X16.064 Y179.976 E75.61590
G1 X6.319 Y173.440 E76.34629
G1 X5.581 Y172.715 E76.41066
G1 X4.899 Y171.809 E76.48127
G1 X4.448 Y170.988 E76.53959
G1 X4.076 Y170.021 E76.60408
G1 X3.845 Y169.009 E76.66868
G1 X3.778 Y168.425 E76.70530
G1 X3.579 Y165.659 E76.87794
G1 X1.913 Y142.155 E78.34472
G1 X1.885 Y141.563 E78.38157
G1 X2.322 Y78.204 E82.32572
G1 X2.364 Y77.542 E82.36704
G1 X2.449 Y76.887 E82.40813
G1 X2.578 Y76.238 E82.44932
G1 X2.751 Y75.600 E82.49047
G1 X3.042 Y74.783 E82.54443
G1 X3.222 Y74.368 E82.57261
G1 X3.521 Y73.774 E82.61399
G1 X3.856 Y73.208 E82.65495
G1 X4.230 Y72.663 E82.69605
G1 X4.555 Y72.243 E82.72916
G1 X10.599 Y64.983 E83.31720
G1 X11.082 Y64.480 E83.36062
G1 X11.423 Y64.162 E83.38962
G1 X12.396 Y63.314 E83.46996
G1 X12.844 Y62.967 E83.50527
G1 X13.390 Y62.594 E83.54641
G1 X13.956 Y62.260 E83.58733
G1 X14.414 Y62.024 E83.61941
G1 X26.611 Y56.238 E84.45974
G1 F1860.000 E81.45974
G92 E0
G1 X19.439 Y162.338 F7800.000
G1 E3.10000 F1860.000
G1 X18.592 Y159.247 E3.29944 F441.000
G1 X10.667 Y161.418 E3.81091
G1 X10.542 Y161.436 E3.81883
G1 X10.370 Y161.400 E3.82973
G1 X10.227 Y161.299 E3.84063
G1 X10.160 Y161.204 E3.84792
G1 X10.111 Y161.025 E3.85946
G1 X9.806 Y156.761 E4.12556
G1 X9.832 Y156.569 E4.13762
G1 X9.892 Y156.461 E4.14530
G1 X9.979 Y156.373 E4.15298
G1 X10.087 Y156.314 E4.16066
G1 X10.217 Y156.286 E4.16896
G1 X18.408 Y155.704 E4.68014
G1 X18.184 Y152.508 E4.87957
G1 X9.992 Y153.090 E5.39081
G1 X9.859 Y153.081 E5.39910
G1 X9.691 Y153.005 E5.41056
G1 X9.570 Y152.865 E5.42205
G1 X9.517 Y152.679 E5.43412
G1 X9.216 Y148.412 E5.70039
G1 X9.223 Y148.286 E5.70826
G1 X9.262 Y148.176 E5.71551
G1 X9.329 Y148.080 E5.72278
G1 X9.470 Y147.979 E5.73363
G1 X9.582 Y147.946 E5.74090
G1 X9.709 Y147.945 E5.74878
G1 X17.863 Y148.974 E6.26042
G1 X18.265 Y145.792 E6.46006
G1 X9.309 Y144.663 E7.02199
G1 X9.171 Y144.624 E7.03089
G1 X9.061 Y144.552 E7.03906
G1 X8.978 Y144.450 E7.04724
G1 X8.919 Y144.251 E7.06014
G1 X8.726 Y141.514 E7.23094
G1 X8.752 Y141.322 E7.24304
G1 X8.810 Y141.213 E7.25070
G1 X8.897 Y141.126 E7.25835
G1 X9.005 Y141.067 E7.26602
G1 X9.125 Y141.041 E7.27368
G1 X9.259 Y141.052 E7.28205
G1 X9.696 Y141.142 E7.30979
G1 X9.991 Y141.165 E7.32821
G1 X10.283 Y141.146 E7.34646
G1 X10.571 Y141.087 E7.36472
G1 X10.842 Y140.990 E7.38266
G1 X12.018 Y140.476 E7.46257
G1 X12.225 Y140.403 E7.47620
G1 X12.433 Y140.361 E7.48944
G1 X12.752 Y140.352 E7.50930
G1 X12.968 Y140.384 E7.52287
G1 X15.865 Y141.022 E7.70754
G1 X16.216 Y140.989 E7.72950
G1 X16.680 Y140.863 E7.75942
G1 X16.972 Y140.729 E7.77939
G1 X17.369 Y140.458 E7.80931
G1 X17.704 Y140.114 E7.83924
G1 X17.886 Y139.850 E7.85920
G1 X18.032 Y139.564 E7.87917
G1 X18.175 Y139.105 E7.90909
G1 X18.219 Y138.787 E7.92906
G1 X18.220 Y138.466 E7.94904
G1 X18.174 Y138.124 E7.97057
G1 X16.748 Y134.772 E8.19733
G1 X16.715 Y134.630 E8.20638
G1 X16.716 Y134.416 E8.21967
G1 X16.772 Y134.210 E8.23296
G1 X16.882 Y134.027 E8.24627
G1 X16.998 Y133.908 E8.25661
G1 X18.749 Y133.371 E8.37059
G1 X20.515 Y132.695 E8.48833
G1 X22.231 Y131.899 E8.60607
G1 X23.993 Y130.920 E8.73155
G1 X25.479 Y129.965 E8.84154
G1 X26.996 Y128.835 E8.95927
G1 X28.432 Y127.604 E9.07701
G1 X29.780 Y126.277 E9.19475
G1 X31.033 Y124.861 E9.31249
G1 X32.187 Y123.362 E9.43023
G1 X33.235 Y121.788 E9.54797
G1 X34.167 Y120.157 E9.66489
G1 X34.290 Y120.005 E9.67704
G1 X34.455 Y119.926 E9.68842
G1 X34.648 Y119.924 E9.70047
G1 X36.903 Y120.351 E9.84329
G1 X37.210 Y120.316 E9.86259
G1 X37.493 Y120.190 E9.88187
G1 X37.717 Y119.993 E9.90043
G1 X40.494 Y116.671 E10.16993
G1 X40.594 Y116.579 E10.17838
G1 X40.710 Y116.526 E10.18630
G1 X40.899 Y116.513 E10.19811
G1 X42.745 Y116.985 E10.31674
G1 X44.552 Y117.320 E10.43110
G1 X46.376 Y117.534 E10.54544
G1 X48.211 Y117.626 E10.65980
G1 X50.047 Y117.596 E10.77414
G1 X51.878 Y117.443 E10.88849
G1 X53.694 Y117.169 E11.00284
G1 X55.488 Y116.774 E11.11719
G1 X57.252 Y116.261 E11.23154
G1 X58.978 Y115.632 E11.34588
G1 X60.658 Y114.888 E11.46023
G1 X62.284 Y114.035 E11.57458
G1 X63.835 Y113.085 E11.68779
G1 X64.038 Y113.009 E11.70126
G1 X64.235 Y113.032 E11.71361
G1 X64.361 Y113.102 E11.72258
G1 X67.348 Y115.399 E11.95714
G1 X67.483 Y115.463 E11.96647
G1 X67.776 Y115.529 E11.98511
G1 X68.074 Y115.506 E12.00374
G1 X68.353 Y115.399 E12.02237
G1 X68.582 Y115.222 E12.04036
G1 X70.974 Y112.694 E12.25701
G1 X72.087 Y112.299 E12.33051
G1 X77.300 Y112.985 E12.65785
G1 X77.666 Y112.993 E12.68063
G1 X77.911 Y112.954 E12.69604
G1 X78.148 Y112.882 E12.71147
G1 X78.368 Y112.779 E12.72656
G1 X85.456 Y108.841 E13.23131
G1 X85.848 Y108.659 E13.25824
G1 X86.050 Y108.590 E13.27154
G1 X86.467 Y108.496 E13.29812
G1 X86.679 Y108.472 E13.31141
G1 X87.106 Y108.470 E13.33799
G1 X89.387 Y108.778 E13.48128
G1 X89.510 Y108.811 E13.48924
G1 X89.612 Y108.874 E13.49668
G1 X89.693 Y108.963 E13.50413
G1 X89.746 Y109.069 E13.51156
G1 X89.770 Y109.197 E13.51965
G1 X89.798 Y109.867 E13.56135
G1 X89.738 Y110.051 E13.57343
G1 X89.604 Y110.189 E13.58539
G1 X89.478 Y110.247 E13.59407
G1 X85.420 Y111.411 E13.85686
G1 X84.977 Y111.570 E13.88616
G1 X84.762 Y111.673 E13.90096
G1 X84.361 Y111.917 E13.93021
G1 X81.056 Y114.239 E14.18161
G1 X75.084 Y115.971 E14.56869
G1 X74.840 Y116.126 E14.58670
G1 X74.737 Y116.228 E14.59574
G1 X74.578 Y116.471 E14.61378
G1 X74.527 Y116.607 E14.62283
G1 X74.483 Y116.893 E14.64085
G1 X74.590 Y117.651 E14.68852
G1 X74.715 Y117.924 E14.70717
G1 X74.915 Y118.149 E14.72590
G1 X75.824 Y118.714 E14.79254
G1 X82.130 Y118.765 E15.18513
G1 X82.587 Y118.801 E15.21363
G1 X82.809 Y118.841 E15.22771
G1 X83.244 Y118.965 E15.25583
G1 X83.657 Y119.147 E15.28394
G1 X83.858 Y119.261 E15.29832
G1 X88.534 Y122.119 E15.63948
G1 X88.778 Y122.257 E15.65691
G1 X89.303 Y122.482 E15.69246
G1 X89.854 Y122.628 E15.72798
G1 X90.416 Y122.692 E15.76316
G1 X95.205 Y122.887 E16.06152
G1 X95.379 Y123.040 E16.07593
G1 X95.506 Y123.224 E16.08985
G1 X95.587 Y123.432 E16.10377
G1 X95.616 Y123.654 E16.11769
G1 X95.593 Y123.876 E16.13160
G1 X95.517 Y124.087 E16.14552
G1 X95.394 Y124.273 E16.15944
G1 X95.269 Y124.398 E16.17044
G1 X92.947 Y125.153 E16.32246
G1 X92.557 Y125.251 E16.34748
G1 X92.163 Y125.295 E16.37218
G1 X91.964 Y125.298 E16.38455
G1 X91.568 Y125.263 E16.40926
G1 X91.373 Y125.227 E16.42162
G1 X90.993 Y125.114 E16.44632
G1 X90.804 Y125.037 E16.45899
G1 X83.756 Y121.888 E16.93955
G1 X83.304 Y121.720 E16.96956
G1 X83.068 Y121.660 E16.98472
G1 X82.587 Y121.589 E17.01500
G1 X82.106 Y121.583 E17.04496
G1 X72.450 Y122.130 E17.64699
G1 X72.033 Y122.127 E17.67294
G1 X71.625 Y122.065 E17.69862
G1 X71.230 Y121.947 E17.72429
G1 X71.039 Y121.868 E17.73714
G1 X70.854 Y121.776 E17.74999
G1 X70.506 Y121.554 E17.77566
G1 X70.192 Y121.287 E17.80133
G1 X70.047 Y121.134 E17.81449
G1 X68.353 Y119.244 E17.97247
G1 X68.098 Y119.087 E17.99113
G1 X67.956 Y119.038 E18.00047
G1 X67.659 Y119.005 E18.01908
G1 X67.365 Y119.060 E18.03770
G1 X67.108 Y119.191 E18.05568
G1 X64.339 Y121.196 E18.26849
G1 X64.109 Y121.306 E18.28434
G1 X63.860 Y121.362 E18.30020
G1 X63.521 Y121.351 E18.32130
G1 X61.596 Y120.925 E18.44404
G1 X59.730 Y120.645 E18.56149
G1 X57.850 Y120.493 E18.67892
G1 X55.964 Y120.470 E18.79636
G1 X54.080 Y120.577 E18.91380
G1 X52.208 Y120.812 E19.03123
G1 X50.357 Y121.174 E19.14867
G1 X48.534 Y121.662 E19.26611
G1 X46.750 Y122.274 E19.38355
G1 X45.028 Y123.000 E19.49986
G1 X44.871 Y123.043 E19.50998
G1 X44.716 Y123.032 E19.51967
G1 X42.211 Y122.424 E19.68011
G1 X42.072 Y122.399 E19.68889
G1 X41.767 Y122.417 E19.70797
G1 X41.481 Y122.523 E19.72691
G1 X41.240 Y122.708 E19.74585
G1 X39.582 Y125.013 E19.92256
G1 X39.434 Y125.109 E19.93359
G1 X38.342 Y125.615 E20.00853
G1 X37.268 Y126.201 E20.08462
G1 X36.236 Y126.855 E20.16071
G1 X35.249 Y127.577 E20.23681
G1 X34.313 Y128.362 E20.31290
G1 X33.430 Y129.208 E20.38899
G1 X32.605 Y130.110 E20.46509
G1 X31.841 Y131.065 E20.54119
G1 X31.143 Y132.068 E20.61728
G1 X30.512 Y133.115 E20.69338
G1 X29.952 Y134.201 E20.76947
G1 X29.464 Y135.323 E20.84557
G1 X29.053 Y136.473 E20.92166
G1 X28.730 Y137.606 E20.99498
G1 X28.535 Y137.927 E21.01834
G1 X28.415 Y138.086 E21.03077
G1 X28.144 Y138.380 E21.05561
G1 X27.837 Y138.634 E21.08046
G1 X27.671 Y138.746 E21.09288
G1 X27.319 Y138.934 E21.11773
G1 X26.945 Y139.073 E21.14257
G1 X26.551 Y139.162 E21.16771
G1 X24.159 Y139.534 E21.31841
G1 X23.814 Y139.641 E21.34092
G1 X23.499 Y139.838 E21.36404
G1 X23.248 Y140.112 E21.38717
G1 X23.078 Y140.443 E21.41030
G1 X23.017 Y140.683 E21.42574
G1 X23.000 Y140.930 E21.44117
G1 X23.027 Y141.177 E21.45662
G1 X23.098 Y141.415 E21.47207
G1 X23.210 Y141.636 E21.48751
G1 X23.360 Y141.834 E21.50295
G1 X26.072 Y144.347 E21.73310
G1 X26.325 Y144.650 E21.75773
G1 X26.536 Y144.985 E21.78233
G1 X26.624 Y145.162 E21.79464
G1 X26.764 Y145.532 E21.81925
G1 X26.815 Y145.723 E21.83156
G1 X26.879 Y146.113 E21.85618
G1 X26.891 Y146.513 E21.88110
G1 X26.859 Y147.241 E21.92644
G1 X26.786 Y147.649 E21.95224
G1 X26.657 Y148.043 E21.97807
G1 X26.241 Y148.912 E22.03801
G1 X26.095 Y149.315 E22.06474
G1 X26.032 Y149.747 E22.09187
G1 X26.040 Y150.038 E22.10998
G1 X26.088 Y150.324 E22.12808
G1 X26.232 Y150.736 E22.15522
G1 X26.458 Y151.108 E22.18236
G1 X26.646 Y151.324 E22.20014
G1 X28.035 Y152.715 E22.32249
G1 X28.129 Y152.838 E22.33219
G1 X28.239 Y153.049 E22.34695
G1 X28.315 Y153.356 E22.36662
G1 X28.305 Y153.671 E22.38627
G1 X28.241 Y153.900 E22.40104
G1 X28.174 Y154.043 E22.41089
G1 X26.955 Y155.680 E22.53793
G1 X26.732 Y156.050 E22.56486
G1 X26.589 Y156.462 E22.59200
G1 X26.534 Y156.895 E22.61914
G1 X26.569 Y157.330 E22.64630
G1 X26.692 Y157.748 E22.67342
G1 X26.821 Y158.009 E22.69155
G1 X27.431 Y158.927 E22.76019
G1 X27.615 Y159.300 E22.78604
G1 X27.744 Y159.695 E22.81191
G1 X27.878 Y160.408 E22.85711
G1 X27.925 Y160.806 E22.88204
G1 X27.917 Y161.202 E22.90667
G1 X27.856 Y161.593 E22.93130
G1 X27.807 Y161.784 E22.94362
G1 X27.670 Y162.156 E22.96825
G1 X27.584 Y162.334 E22.98057
G1 X27.376 Y162.671 E23.00520
G1 X25.115 Y165.445 E23.22800
G1 X24.977 Y165.646 E23.24317
G1 X24.842 Y165.993 E23.26634
G1 X24.805 Y166.239 E23.28182
G1 X24.813 Y166.488 E23.29732
G1 X24.908 Y166.848 E23.32050
G1 X25.023 Y167.068 E23.33598
G1 X25.265 Y167.351 E23.35916
G1 X25.464 Y167.500 E23.37464
G1 X25.805 Y167.650 E23.39782
G1 X26.167 Y167.703 E23.42057
G1 X28.580 Y167.735 E23.57080
G1 X28.983 Y167.768 E23.59594
G1 X29.372 Y167.852 E23.62076
G1 X29.747 Y167.989 E23.64559
G1 X30.100 Y168.173 E23.67042
G1 X30.426 Y168.404 E23.69524
G1 X30.718 Y168.676 E23.72006
G1 X30.955 Y168.965 E23.74335
G1 X31.436 Y170.041 E23.81670
G1 X32.006 Y171.122 E23.89278
G1 X32.646 Y172.163 E23.96888
G1 X33.354 Y173.159 E24.04497
G1 X34.126 Y174.107 E24.12107
G1 X34.960 Y175.001 E24.19716
G1 X35.850 Y175.839 E24.27325
G1 X36.794 Y176.615 E24.34934
G1 X37.788 Y177.328 E24.42544
G1 X38.826 Y177.973 E24.50154
G1 X39.905 Y178.548 E24.57763
G1 X41.019 Y179.051 E24.65372
G1 X42.164 Y179.478 E24.72981
G1 X43.407 Y179.859 E24.81071
G1 X43.549 Y179.963 E24.82165
G1 X45.442 Y181.945 E24.99232
G1 X45.710 Y182.096 E25.01145
