; generated by Slic3r 1.1.7 on 2014-12-10 at 15:44:41

; perimeters extrusion width = 0.42mm
; infill extrusion width = 0.74mm
; solid infill extrusion width = 0.71mm
; top infill extrusion width = 0.71mm
; support material extrusion width = 0.42mm

G21 ; set units to millimeters
M190 S65 ; wait for bed temperature to be reached
M104 S186 ; set temperature
G28 ; home all axes
M109 S186 ; wait for temperature to be reached
G90 ; use absolute coordinates
G92 E0
M82 ; use absolute distances for extrusion
G1 F1860.000 E-1.00000
G92 E0
G1 Z0.200 F6000.000
G1 X26.688 Y56.260 F6000.000
G1 E1.10000 F1860.000
G1 X134.862 Y4.945 E3.31498 F1200.000
G1 X136.019 Y4.498 E3.33794
G1 X137.201 Y4.140 E3.36078
G1 X138.405 Y3.871 E3.38362
G1 X139.627 Y3.691 E3.40647
G1 X140.843 Y3.603 E3.42901
G1 X142.431 Y3.593 E3.45840
G1 X144.029 Y3.686 E3.48800
G1 X145.665 Y3.893 E3.51851 F1200.000
G1 X147.188 Y4.186 E3.54720
G1 X148.736 Y4.591 E3.57680
G1 X150.254 Y5.097 E3.60641
G1 X151.735 Y5.701 E3.63601
G1 X153.174 Y6.402 E3.66561
G1 X154.597 Y7.218 E3.69595
G1 X157.056 Y8.857 E3.75062
G1 X159.394 Y10.667 E3.80533
G1 X161.597 Y12.639 E3.86003
G1 X163.655 Y14.762 E3.91474
G1 X165.521 Y16.979 E3.96834
G1 X180.782 Y37.904 E4.44747
G1 X182.255 Y40.025 E4.49526
G1 X182.613 Y40.580 E4.50747
G1 X182.832 Y40.978 E4.51587
G1 X183.126 Y41.623 E4.52899
G1 X183.356 Y42.282 E4.54190
G1 X183.485 Y42.771 E4.55126
G1 X195.183 Y95.480 E5.55011
G1 X198.062 Y159.321 E6.73238
G1 X198.042 Y159.974 E6.74446
G1 X197.948 Y160.728 E6.75852
G1 X197.807 Y161.370 E6.77069
G1 X197.638 Y161.920 E6.78133
G1 X197.507 Y162.268 E6.78821
G1 X190.687 Y179.090 E7.12403
G1 X190.039 Y180.553 E7.15362
G1 X189.728 Y181.084 E7.16501
G1 X189.368 Y181.618 E7.17692
G1 X188.973 Y182.126 E7.18882
G1 X188.402 Y182.756 E7.20455
G1 X187.824 Y183.297 E7.21920
G1 X181.318 Y188.929 E7.37841
G1 X180.818 Y189.325 E7.39021
G1 X180.284 Y189.693 E7.40221
G1 X179.729 Y190.023 E7.41415
G1 X179.149 Y190.319 E7.42620
G1 X178.555 Y190.573 E7.43814
G1 X177.621 Y190.876 E7.45632
G1 X159.052 Y195.450 E7.81011
G1 X158.315 Y195.576 E7.82394
G1 X157.660 Y195.626 E7.83610
G1 X92.017 Y196.412 E9.05059
G1 X45.422 Y194.920 E9.91306
G1 X44.371 Y194.778 E9.93268
G1 X43.389 Y194.499 E9.95155
G1 X36.071 Y191.754 E10.09616
G1 X35.487 Y191.446 E10.10837
G1 X16.093 Y179.932 E10.52564
G1 X6.350 Y173.397 E10.74267
G1 X5.621 Y172.681 E10.76158
G1 X4.998 Y171.865 E10.78056
G1 X4.496 Y170.966 E10.79962
G1 X4.098 Y169.909 E10.82051
G1 X3.883 Y168.901 E10.83957
G1 X3.830 Y168.421 E10.84851
G1 X3.632 Y165.655 E10.89982
G1 X2.149 Y144.740 E11.28772
G1 X1.938 Y141.563 E11.34662
G1 X2.375 Y78.206 E12.51877
G1 X2.416 Y77.547 E12.53098
G1 X2.501 Y76.896 E12.54313
G1 X2.630 Y76.251 E12.55530
G1 X2.802 Y75.616 E12.56747
G1 X3.094 Y74.796 E12.58357
G1 X3.270 Y74.391 E12.59175
G1 X3.567 Y73.800 E12.60398
G1 X3.900 Y73.237 E12.61609
G1 X4.272 Y72.695 E12.62824
G1 X4.596 Y72.277 E12.63803
G1 X10.638 Y65.019 E12.81275
G1 X11.119 Y64.518 E12.82558
G1 X11.458 Y64.202 E12.83417
G1 X12.429 Y63.355 E12.85800
G1 X12.875 Y63.010 E12.86844
G1 X13.418 Y62.638 E12.88060
G1 X13.982 Y62.306 E12.89272
G1 X14.437 Y62.072 E12.90219
G1 X26.631 Y56.287 E13.15188
G1 X26.794 Y56.483 F6000.000
G1 X134.954 Y5.174 E15.36660 F1200.000
G1 X136.094 Y4.733 E15.38921
G1 X137.258 Y4.381 E15.41171
G1 X138.445 Y4.115 E15.43421
G1 X139.649 Y3.938 E15.45672
G1 X140.846 Y3.850 E15.47893
G1 X142.419 Y3.840 E15.50803
G1 X144.000 Y3.932 E15.53733
G1 X145.620 Y4.136 E15.56754 F1200.000
G1 X147.127 Y4.426 E15.59593
G1 X148.660 Y4.826 E15.62523
G1 X150.162 Y5.327 E15.65453
G1 X151.629 Y5.925 E15.68383
G1 X153.053 Y6.618 E15.71314
G1 X154.461 Y7.424 E15.74315
G1 X156.905 Y9.053 E15.79749
G1 X159.230 Y10.852 E15.85188
G1 X161.421 Y12.812 E15.90625
G1 X163.467 Y14.922 E15.96063
G1 X165.323 Y17.127 E16.01396
G1 X180.579 Y38.045 E16.49292
G1 X182.052 Y40.166 E16.54071
G1 X182.401 Y40.707 E16.55261
G1 X182.611 Y41.089 E16.56069
G1 X182.896 Y41.713 E16.57338
G1 X183.118 Y42.351 E16.58587
G1 X183.243 Y42.825 E16.59494
G1 X194.936 Y95.491 E17.59300
G1 X197.815 Y159.322 E18.77509
G1 X197.796 Y159.954 E18.78678
G1 X197.720 Y160.594 E18.79869
G1 X197.568 Y161.308 E18.81220
G1 X197.405 Y161.837 E18.82245
G1 X197.278 Y162.175 E18.82913
G1 X190.458 Y178.997 E19.16495
G1 X189.823 Y180.432 E19.19397
G1 X189.520 Y180.950 E19.20507
G1 X189.169 Y181.470 E19.21669
G1 X188.785 Y181.966 E19.22829
G1 X188.225 Y182.584 E19.24371
G1 X187.662 Y183.110 E19.25797
G1 X181.160 Y188.739 E19.41707
G1 X180.673 Y189.125 E19.42857
G1 X180.152 Y189.484 E19.44026
G1 X179.612 Y189.806 E19.45191
G1 X179.046 Y190.094 E19.46365
G1 X178.468 Y190.342 E19.47529
G1 X177.562 Y190.636 E19.49292
G1 X159.000 Y195.209 E19.84659
G1 X158.288 Y195.331 E19.85995
G1 X157.653 Y195.379 E19.87172
G1 X92.025 Y196.165 E21.08595
G1 X45.438 Y194.673 E21.94825
G1 X44.423 Y194.537 E21.96720
G1 X43.475 Y194.267 E21.98543
G1 X36.178 Y191.532 E22.12960
G1 X35.613 Y191.234 E22.14142
G1 X16.230 Y179.726 E22.55846
G1 X6.512 Y173.210 E22.77491
G1 X5.808 Y172.518 E22.79317
G1 X5.206 Y171.731 E22.81151
G1 X4.720 Y170.863 E22.82991
G1 X4.335 Y169.839 E22.85015
G1 X4.127 Y168.866 E22.86856
G1 X4.077 Y168.404 E22.87716
G1 X3.878 Y165.638 E22.92846
G1 X2.185 Y141.562 E23.37497
G1 X2.622 Y78.216 E24.54691
G1 X2.662 Y77.574 E24.55881
G1 X2.744 Y76.939 E24.57065
G1 X2.870 Y76.310 E24.58252
G1 X3.037 Y75.691 E24.59438
G1 X3.324 Y74.887 E24.61017
G1 X3.493 Y74.497 E24.61804
G1 X3.783 Y73.921 E24.62996
G1 X4.107 Y73.372 E24.64177
G1 X4.469 Y72.844 E24.65361
G1 X4.786 Y72.435 E24.66318
G1 X10.820 Y65.186 E24.83768
G1 X11.289 Y64.697 E24.85019
G1 X11.622 Y64.387 E24.85861
G1 X12.583 Y63.548 E24.88222
G1 X13.019 Y63.210 E24.89242
G1 X13.548 Y62.849 E24.90428
G1 X14.098 Y62.524 E24.91609
G1 X14.543 Y62.295 E24.92535
G1 X26.737 Y56.510 E25.17505
G1 F1860.000 E24.17505
G92 E0
G1 X19.504 Y162.375 F6000.000
G1 E1.10000 F1860.000
G1 X18.630 Y159.182 E1.16125 F1200.000
G1 X10.655 Y161.366 E1.31422
G1 X10.542 Y161.382 E1.31634
G1 X10.392 Y161.351 E1.31917
G1 X10.266 Y161.263 E1.32201
G1 X10.207 Y161.179 E1.32391
G1 X10.164 Y161.019 E1.32697
G1 X9.860 Y156.759 E1.40598
G1 X9.883 Y156.588 E1.40918
G1 X9.934 Y156.493 E1.41118
G1 X10.011 Y156.416 E1.41318
G1 X10.106 Y156.364 E1.41518
G1 X10.223 Y156.339 E1.41740
G1 X18.466 Y155.754 E1.57027
G1 X18.233 Y152.451 E1.63153
G1 X9.990 Y153.037 E1.78442
G1 X9.870 Y153.029 E1.78664
G1 X9.723 Y152.962 E1.78962
G1 X9.617 Y152.840 E1.79261
G1 X9.570 Y152.673 E1.79582
G1 X9.269 Y148.410 E1.87488
G1 X9.276 Y148.297 E1.87698
G1 X9.310 Y148.201 E1.87887
G1 X9.368 Y148.117 E1.88076
G1 X9.492 Y148.028 E1.88358
G1 X9.590 Y147.999 E1.88548
G1 X9.704 Y147.999 E1.88758
G1 X17.910 Y149.034 E2.04059
G1 X18.324 Y145.746 E2.10191
G1 X9.317 Y144.610 E2.26986
G1 X9.193 Y144.575 E2.27224
G1 X9.097 Y144.512 E2.27437
G1 X9.025 Y144.423 E2.27650
G1 X8.972 Y144.246 E2.27992
G1 X8.780 Y141.512 E2.33061
G1 X8.802 Y141.340 E2.33382
G1 X8.853 Y141.246 E2.33581
G1 X8.929 Y141.169 E2.33780
G1 X9.024 Y141.118 E2.33980
G1 X9.129 Y141.095 E2.34179
G1 X9.687 Y141.195 E2.35229
G1 X9.991 Y141.218 E2.35791
G1 X10.290 Y141.199 E2.36347
G1 X10.585 Y141.138 E2.36903
G1 X10.863 Y141.040 E2.37449
G1 X12.039 Y140.525 E2.39823
G1 X12.239 Y140.455 E2.40217
G1 X12.440 Y140.414 E2.40596
G1 X12.748 Y140.405 E2.41166
G1 X12.957 Y140.437 E2.41557
G1 X15.861 Y141.076 E2.47057
G1 X16.225 Y141.042 E2.47734
G1 X16.699 Y140.913 E2.48643
G1 X16.997 Y140.776 E2.49250
G1 X17.403 Y140.499 E2.50159
G1 X17.746 Y140.147 E2.51068
G1 X17.932 Y139.877 E2.51675
G1 X18.081 Y139.585 E2.52282
G1 X18.228 Y139.116 E2.53191
G1 X18.272 Y138.791 E2.53798
G1 X18.273 Y138.463 E2.54404
G1 X18.225 Y138.108 E2.55066
G1 X16.799 Y134.756 E2.61807
G1 X16.768 Y134.623 E2.62059
G1 X16.769 Y134.424 E2.62428
G1 X16.822 Y134.231 E2.62796
G1 X16.924 Y134.060 E2.63165
G1 X17.026 Y133.955 E2.63436
G1 X18.766 Y133.422 E2.66803
G1 X20.536 Y132.744 E2.70309
G1 X22.255 Y131.947 E2.73815
G1 X23.915 Y131.034 E2.77321
G1 X25.509 Y130.009 E2.80827
G1 X27.029 Y128.877 E2.84333
G1 X28.468 Y127.643 E2.87839
G1 X29.818 Y126.314 E2.91345
G1 X31.075 Y124.895 E2.94851
G1 X32.231 Y123.393 E2.98357
G1 X33.281 Y121.816 E3.01863
G1 X34.213 Y120.184 E3.05340
G1 X34.323 Y120.047 E3.05664
G1 X34.467 Y119.978 E3.05960
G1 X34.640 Y119.977 E3.06279
G1 X36.901 Y120.405 E3.10536
G1 X37.225 Y120.368 E3.11139
G1 X37.522 Y120.235 E3.11743
G1 X37.757 Y120.028 E3.12320
G1 X40.535 Y116.707 E3.20331
G1 X40.624 Y116.624 E3.20556
G1 X40.725 Y116.577 E3.20762
G1 X40.891 Y116.566 E3.21070
G1 X42.734 Y117.037 E3.24589
G1 X44.544 Y117.373 E3.27994
G1 X46.371 Y117.588 E3.31399
G1 X48.210 Y117.680 E3.34804
G1 X50.050 Y117.649 E3.38209
G1 X51.884 Y117.496 E3.41614
G1 X53.704 Y117.222 E3.45019
G1 X55.502 Y116.826 E3.48424
G1 X57.269 Y116.312 E3.51829
G1 X58.998 Y115.681 E3.55234
G1 X60.681 Y114.937 E3.58639
G1 X62.311 Y114.082 E3.62044
G1 X63.862 Y113.131 E3.65409
G1 X64.044 Y113.063 E3.65770
G1 X64.217 Y113.082 E3.66092
G1 X64.330 Y113.146 E3.66331
G1 X67.322 Y115.446 E3.73313
G1 X67.493 Y115.522 E3.73659
G1 X67.772 Y115.582 E3.74187
G1 X68.086 Y115.559 E3.74770
G1 X68.380 Y115.445 E3.75353
G1 X68.619 Y115.260 E3.75913
G1 X71.004 Y112.740 E3.82332
G1 X72.093 Y112.353 E3.84468
G1 X77.295 Y113.038 E3.94175
G1 X77.671 Y113.046 E3.94871
G1 X77.923 Y113.007 E3.95343
G1 X78.167 Y112.932 E3.95816
G1 X78.393 Y112.827 E3.96276
G1 X85.481 Y108.888 E4.11277
G1 X85.867 Y108.709 E4.12065
G1 X86.065 Y108.641 E4.12453
G1 X86.475 Y108.549 E4.13229
G1 X86.893 Y108.517 E4.14005
G1 X87.102 Y108.523 E4.14393
G1 X89.378 Y108.831 E4.18642
G1 X89.489 Y108.861 E4.18854
G1 X89.616 Y108.952 E4.19143
G1 X89.695 Y109.087 E4.19432
G1 X89.747 Y109.791 E4.20739
G1 X89.735 Y109.919 E4.20977
G1 X89.692 Y110.023 E4.21186
G1 X89.620 Y110.110 E4.21394
G1 X89.526 Y110.172 E4.21603
G1 X85.404 Y111.360 E4.29538
G1 X84.955 Y111.521 E4.30421
G1 X84.738 Y111.626 E4.30867
G1 X84.331 Y111.873 E4.31748
G1 X81.033 Y114.190 E4.39205
G1 X75.194 Y115.873 E4.50447
G1 X74.928 Y115.994 E4.50987
G1 X74.805 Y116.085 E4.51270
G1 X74.604 Y116.314 E4.51834
G1 X74.530 Y116.448 E4.52117
G1 X74.442 Y116.740 E4.52681
G1 X74.438 Y117.034 E4.53225
G1 X74.507 Y117.525 E4.54142
G1 X74.582 Y117.785 E4.54643
G1 X74.670 Y117.953 E4.54993
G1 X74.880 Y118.190 E4.55579
G1 X75.809 Y118.767 E4.57602
G1 X82.129 Y118.818 E4.69295
G1 X82.579 Y118.854 E4.70131
G1 X83.014 Y118.947 E4.70953
G1 X83.432 Y119.098 E4.71775
G1 X83.831 Y119.307 E4.72609
G1 X88.507 Y122.165 E4.82747
G1 X88.753 Y122.305 E4.83271
G1 X89.285 Y122.533 E4.84342
G1 X89.845 Y122.680 E4.85412
G1 X90.413 Y122.745 E4.86470
G1 X95.186 Y122.940 E4.95308
G1 X95.339 Y123.076 E4.95686
G1 X95.459 Y123.249 E4.96076
G1 X95.535 Y123.445 E4.96467
G1 X95.563 Y123.655 E4.96857
G1 X95.540 Y123.864 E4.97247
G1 X95.469 Y124.063 E4.97637
G1 X95.354 Y124.239 E4.98027
G1 X95.242 Y124.351 E4.98320
G1 X92.931 Y125.101 E5.02814
G1 X92.547 Y125.198 E5.03546
G1 X92.160 Y125.242 E5.04267
G1 X91.965 Y125.244 E5.04628
G1 X91.577 Y125.211 E5.05349
G1 X91.385 Y125.174 E5.05710
G1 X91.011 Y125.064 E5.06431
G1 X90.825 Y124.988 E5.06803
G1 X83.777 Y121.838 E5.21085
G1 X83.319 Y121.669 E5.21989
G1 X83.080 Y121.608 E5.22446
G1 X82.591 Y121.535 E5.23359
G1 X82.103 Y121.530 E5.24262
G1 X72.448 Y122.077 E5.42154
G1 X72.037 Y122.073 E5.42913
G1 X71.637 Y122.012 E5.43662
G1 X71.249 Y121.897 E5.44412
G1 X71.061 Y121.819 E5.44786
G1 X70.880 Y121.729 E5.45161
G1 X70.538 Y121.511 E5.45911
G1 X70.230 Y121.249 E5.46660
G1 X70.086 Y121.098 E5.47046
G1 X68.388 Y119.203 E5.51754
G1 X68.119 Y119.038 E5.52337
G1 X67.970 Y118.986 E5.52629
G1 X67.657 Y118.951 E5.53212
G1 X67.347 Y119.009 E5.53794
G1 X67.078 Y119.147 E5.54354
G1 X64.383 Y121.102 E5.60514
G1 X64.167 Y121.226 E5.60975
G1 X63.854 Y121.309 E5.61573
G1 X63.531 Y121.298 E5.62171
G1 X61.606 Y120.872 E5.65818
G1 X60.012 Y120.633 E5.68800
G1 X60.012 Y120.614 E5.68835
G1 X57.853 Y120.440 E5.72844
G1 X55.962 Y120.417 E5.76341
G1 X54.075 Y120.523 E5.79838
G1 X52.200 Y120.759 E5.83335
G1 X50.345 Y121.122 E5.86832
G1 X48.519 Y121.611 E5.90329
G1 X46.731 Y122.224 E5.93826
G1 X45.008 Y122.950 E5.97284
G1 X44.866 Y122.990 E5.97557
G1 X44.726 Y122.979 E5.97816
G1 X42.222 Y122.372 E6.02583
G1 X42.078 Y122.346 E6.02855
G1 X41.755 Y122.364 E6.03452
G1 X41.455 Y122.476 E6.04045
G1 X41.202 Y122.671 E6.04637
G1 X39.545 Y124.974 E6.09885
G1 X39.410 Y125.062 E6.10183
G1 X38.317 Y125.568 E6.12410
G1 X37.241 Y126.154 E6.14678
G1 X36.206 Y126.811 E6.16946
G1 X35.216 Y127.535 E6.19214
G1 X34.277 Y128.322 E6.21482
G1 X33.391 Y129.170 E6.23750
G1 X32.564 Y130.075 E6.26019
G1 X31.798 Y131.033 E6.28287
G1 X31.098 Y132.039 E6.30555
G1 X30.465 Y133.089 E6.32823
G1 X29.903 Y134.178 E6.35091
G1 X29.415 Y135.303 E6.37359
G1 X29.002 Y136.457 E6.39627
G1 X28.680 Y137.585 E6.41797
G1 X28.373 Y138.053 E6.42832
G1 X28.107 Y138.341 E6.43557
G1 X27.806 Y138.591 E6.44282
G1 X27.643 Y138.700 E6.44645
G1 X27.297 Y138.885 E6.45370
G1 X26.930 Y139.022 E6.46095
G1 X26.542 Y139.110 E6.46830
G1 X24.149 Y139.482 E6.51311
G1 X23.792 Y139.592 E6.52003
G1 X23.465 Y139.797 E6.52717
G1 X23.204 Y140.081 E6.53431
G1 X23.028 Y140.425 E6.54145
G1 X22.964 Y140.674 E6.54622
G1 X22.946 Y140.931 E6.55098
G1 X22.975 Y141.188 E6.55575
G1 X23.048 Y141.434 E6.56051
G1 X23.164 Y141.664 E6.56528
G1 X23.320 Y141.870 E6.57005
G1 X26.033 Y144.383 E6.63847
G1 X26.282 Y144.682 E6.64566
G1 X26.488 Y145.011 E6.65284
G1 X26.575 Y145.184 E6.65643
G1 X26.713 Y145.547 E6.66362
G1 X26.763 Y145.735 E6.66721
G1 X26.826 Y146.118 E6.67439
G1 X26.838 Y146.512 E6.68169
G1 X26.805 Y147.235 E6.69507
G1 X26.734 Y147.636 E6.70260
G1 X26.607 Y148.023 E6.71014
G1 X26.193 Y148.889 E6.72791
G1 X26.043 Y149.302 E6.73604
G1 X25.978 Y149.744 E6.74430
G1 X25.987 Y150.043 E6.74982
G1 X26.036 Y150.337 E6.75534
G1 X26.184 Y150.759 E6.76361
G1 X26.416 Y151.141 E6.77188
G1 X26.608 Y151.361 E6.77728
G1 X27.995 Y152.750 E6.81361
G1 X28.124 Y152.932 E6.81774
G1 X28.189 Y153.069 E6.82053
G1 X28.261 Y153.361 E6.82610
G1 X28.252 Y153.662 E6.83167
G1 X28.192 Y153.880 E6.83586
G1 X28.127 Y154.017 E6.83865
G1 X26.912 Y155.648 E6.87629
G1 X26.683 Y156.028 E6.88449
G1 X26.537 Y156.450 E6.89276
G1 X26.480 Y156.894 E6.90102
G1 X26.516 Y157.339 E6.90930
G1 X26.642 Y157.768 E6.91757
G1 X26.775 Y158.036 E6.92309
G1 X27.385 Y158.954 E6.94349
G1 X27.565 Y159.320 E6.95103
G1 X27.693 Y159.708 E6.95859
G1 X27.825 Y160.417 E6.97193
G1 X27.871 Y160.808 E6.97923
G1 X27.863 Y161.197 E6.98642
G1 X27.804 Y161.581 E6.99360
G1 X27.755 Y161.769 E6.99720
G1 X27.621 Y162.134 E7.00439
G1 X27.536 Y162.309 E7.00798
G1 X27.332 Y162.640 E7.01517
G1 X25.073 Y165.412 E7.08134
G1 X24.930 Y165.620 E7.08600
G1 X24.795 Y165.961 E7.09280
G1 X24.752 Y166.236 E7.09794
G1 X24.760 Y166.494 E7.10272
G1 X24.858 Y166.868 E7.10988
G1 X24.978 Y167.097 E7.11466
G1 X25.229 Y167.391 E7.12181
G1 X25.437 Y167.545 E7.12659
G1 X25.791 Y167.701 E7.13375
G1 X26.165 Y167.757 E7.14075
G1 X28.578 Y167.789 E7.18540
G1 X28.975 Y167.821 E7.19276
G1 X29.357 Y167.904 E7.20000
G1 X29.725 Y168.038 E7.20725
G1 X30.072 Y168.219 E7.21449
G1 X30.392 Y168.445 E7.22174
G1 X30.679 Y168.712 E7.22898
G1 X30.909 Y168.992 E7.23569
G1 X31.387 Y170.064 E7.25740
G1 X31.959 Y171.148 E7.28008
G1 X32.602 Y172.192 E7.30276
G1 X33.312 Y173.192 E7.32544
G1 X34.086 Y174.142 E7.34812
G1 X34.922 Y175.039 E7.37080
G1 X35.815 Y175.879 E7.39348
G1 X36.762 Y176.658 E7.41616
G1 X37.758 Y177.372 E7.43884
G1 X38.799 Y178.019 E7.46152
G1 X39.881 Y178.596 E7.48420
G1 X40.999 Y179.100 E7.50688
G1 X42.147 Y179.529 E7.52956
G1 X43.383 Y179.907 E7.55348
G1 X43.511 Y180.001 E7.55642
G1 X45.409 Y181.987 E7.60723
G1 X45.691 Y182.146 E7.61322
G1 X46.002 Y182.214 E7.61912
G1 X46.162 Y182.213 E7.62209
G1 X46.461 Y182.144 E7.62775
G1 X48.857 Y181.187 E7.67549
G1 X48.995 Y181.156 E7.67810
G1 X49.141 Y181.175 E7.68082
G1 X50.949 Y181.650 E7.71542
G1 X52.806 Y182.004 E7.75039
G1 X54.683 Y182.231 E7.78537
G1 X56.571 Y182.328 E7.82034
G1 X58.461 Y182.296 E7.85532
G1 X60.345 Y182.135 E7.89029
G1 X62.213 Y181.846 E7.92526
G1 X64.057 Y181.429 E7.96024
