; generated by Slic3r 1.1.7 on 2014-12-10 at 15:46:18

; perimeters extrusion width = 0.42mm
; infill extrusion width = 0.74mm
; solid infill extrusion width = 0.71mm
; top infill extrusion width = 0.71mm
; support material extrusion width = 0.42mm

G21 ; set units to millimeters
M190 S65 ; wait for bed temperature to be reached
M104 S186 ; set temperature
G28 ; home all axes
M109 S186 ; wait for temperature to be reached
G90 ; use absolute coordinates
G92 E0
M82 ; use absolute distances for extrusion
G1 F1860.000 E-1.00000
G92 E0
G1 Z0.200 F6000.000
G1 X11.037 Y33.706 F6000.000
G1 E1.10000 F1860.000
G1 X11.554 Y33.552 E1.10999 F1200.000
G1 X14.604 Y32.778 E1.16819
G1 X16.098 Y32.580 E1.19608
G1 X83.726 Y31.506 E2.44737
G1 X128.159 Y32.611 E3.26964 F1200.000
G1 X163.149 Y33.796 E3.91734
G1 X163.913 Y33.837 E3.93150
G1 X164.716 Y33.930 E3.94646
G1 X165.127 Y33.999 E3.95416
G1 X178.535 Y36.331 E4.20593
G1 X179.183 Y36.469 E4.21819
G1 X179.818 Y36.649 E4.23041
G1 X180.454 Y36.877 E4.24290
G1 X181.051 Y37.137 E4.25494
G1 X181.642 Y37.442 E4.26725
G1 X182.209 Y37.785 E4.27952
G1 X182.752 Y38.165 E4.29177
G1 X183.267 Y38.578 E4.30398
G1 X183.757 Y39.028 E4.31630
G1 X184.360 Y39.676 E4.33267
G1 X184.638 Y40.018 E4.34082
G1 X185.028 Y40.555 E4.35309
G1 X185.380 Y41.116 E4.36536
G1 X185.695 Y41.700 E4.37762
G1 X185.970 Y42.302 E4.38988
G1 X186.204 Y42.923 E4.40215
G1 X186.396 Y43.557 E4.41441
G1 X186.565 Y44.314 E4.42875
G1 X195.908 Y100.874 E5.48932
G1 X195.944 Y101.718 E5.50493
G1 X195.883 Y102.560 E5.52056
G1 X195.727 Y103.390 E5.53617
G1 X195.476 Y104.197 E5.55181
G1 X195.135 Y104.968 E5.56740
G1 X194.708 Y105.697 E5.58303
G1 X194.200 Y106.372 E5.59867
G1 X193.619 Y106.984 E5.61428
G1 X193.273 Y107.292 E5.62285
G1 X191.227 Y108.963 E5.67172
G1 X190.625 Y109.358 E5.68505
G1 X176.610 Y117.493 E5.98484
G1 X175.363 Y118.194 E6.01131
G1 X174.032 Y118.823 E6.03853
G1 X45.625 Y168.055 E8.58271
G1 X45.099 Y168.217 E8.59289
G1 X44.564 Y168.343 E8.60306
G1 X44.021 Y168.431 E8.61325
G1 X43.473 Y168.482 E8.62342
G1 X42.923 Y168.494 E8.63361
G1 X42.374 Y168.469 E8.64378
G1 X41.827 Y168.405 E8.65396
G1 X41.289 Y168.304 E8.66409
G1 X38.220 Y167.487 E8.72284
G1 X37.594 Y167.283 E8.73502
G1 X37.027 Y167.056 E8.74632
G1 X26.560 Y162.358 E8.95857
G1 X26.097 Y162.108 E8.96831
G1 X25.644 Y161.822 E8.97821
G1 X25.222 Y161.514 E8.98788
G1 X24.815 Y161.174 E8.99769
G1 X24.432 Y160.809 E9.00748
G1 X24.075 Y160.419 E9.01726
G1 X23.745 Y160.007 E9.02704
G1 X23.442 Y159.573 E9.03682
G1 X23.170 Y159.121 E9.04659
G1 X22.927 Y158.650 E9.05639
G1 X22.681 Y158.073 E9.06799
G1 X22.471 Y157.445 E9.08024
G1 X22.058 Y155.980 E9.10840
G1 X4.158 Y77.038 E10.60592
G1 X4.058 Y76.037 E10.62454
G1 X4.058 Y75.573 E10.63312
G1 X4.286 Y68.888 E10.75686
G1 X5.590 Y46.546 E11.17090
G1 X6.193 Y39.492 E11.30187
G1 X6.381 Y38.605 E11.31865
G1 X6.718 Y37.660 E11.33721
G1 X7.182 Y36.770 E11.35577
G1 X7.765 Y35.954 E11.37433
G1 X8.454 Y35.229 E11.39282
G1 X9.239 Y34.604 E11.41139
G1 X10.106 Y34.092 E11.43002
G1 X10.978 Y33.730 E11.44749
G1 X11.114 Y33.941 F6000.000
G1 X11.615 Y33.792 E11.45717 F1200.000
G1 X14.664 Y33.018 E11.51537
G1 X16.102 Y32.827 E11.54220
G1 X83.722 Y31.753 E12.79334
G1 X128.150 Y32.858 E13.61553 F1200.000
G1 X163.140 Y34.043 E14.26321
G1 X163.889 Y34.083 E14.27710
G1 X164.676 Y34.174 E14.29175
G1 X165.085 Y34.242 E14.29942
G1 X178.488 Y36.573 E14.55111
G1 X179.121 Y36.708 E14.56307
G1 X179.740 Y36.884 E14.57499
G1 X180.360 Y37.106 E14.58717
G1 X180.942 Y37.359 E14.59891
G1 X181.519 Y37.657 E14.61091
G1 X182.072 Y37.991 E14.62287
G1 X182.602 Y38.361 E14.63483
G1 X183.104 Y38.763 E14.64673
G1 X183.582 Y39.203 E14.65875
G1 X184.173 Y39.838 E14.67480
G1 X184.441 Y40.167 E14.68266
G1 X184.821 Y40.691 E14.69462
G1 X185.165 Y41.238 E14.70658
G1 X185.472 Y41.807 E14.71854
G1 X185.740 Y42.395 E14.73049
G1 X185.969 Y43.000 E14.74246
G1 X186.157 Y43.618 E14.75442
G1 X186.322 Y44.354 E14.76837
G1 X195.662 Y100.897 E15.82861
G1 X195.697 Y101.712 E15.84370
G1 X195.638 Y102.526 E15.85880
G1 X195.487 Y103.328 E15.87389
G1 X195.245 Y104.108 E15.88900
G1 X194.916 Y104.854 E15.90408
G1 X194.503 Y105.558 E15.91918
G1 X194.013 Y106.211 E15.93429
G1 X193.451 Y106.803 E15.94938
G1 X193.115 Y107.101 E15.95770
G1 X191.084 Y108.762 E16.00624
G1 X190.500 Y109.144 E16.01914
G1 X176.486 Y117.279 E16.31891
G1 X175.254 Y117.972 E16.34507
G1 X173.941 Y118.594 E16.37195
G1 X45.545 Y167.821 E18.91590
G1 X45.036 Y167.978 E18.92576
G1 X44.517 Y168.100 E18.93561
G1 X43.991 Y168.186 E18.94548
G1 X43.460 Y168.235 E18.95534
G1 X42.927 Y168.247 E18.96521
G1 X42.395 Y168.222 E18.97506
G1 X41.866 Y168.161 E18.98492
G1 X41.344 Y168.063 E18.99474
G1 X38.291 Y167.250 E19.05319
G1 X37.681 Y167.052 E19.06506
G1 X37.128 Y166.831 E19.07608
G1 X26.672 Y162.138 E19.28811
G1 X26.223 Y161.895 E19.29755
G1 X25.784 Y161.618 E19.30714
G1 X25.375 Y161.320 E19.31650
G1 X24.981 Y160.991 E19.32602
G1 X24.610 Y160.637 E19.33550
G1 X24.264 Y160.259 E19.34498
G1 X23.943 Y159.860 E19.35445
G1 X23.650 Y159.440 E19.36393
G1 X23.386 Y159.002 E19.37339
G1 X23.151 Y158.545 E19.38289
G1 X22.912 Y157.984 E19.39417
G1 X22.708 Y157.376 E19.40603
G1 X22.299 Y155.926 E19.43392
G1 X4.402 Y76.998 E20.93116
G1 X4.306 Y76.031 E20.94914
G1 X4.305 Y75.581 E20.95747
G1 X4.532 Y68.902 E21.08109
G1 X5.837 Y46.563 E21.49508
G1 X6.438 Y39.526 E21.62574
G1 X6.619 Y38.673 E21.64188
G1 X6.944 Y37.760 E21.65980
G1 X7.392 Y36.901 E21.67773
G1 X7.955 Y36.113 E21.69564
G1 X8.619 Y35.413 E21.71350
G1 X9.377 Y34.809 E21.73144
G1 X10.215 Y34.314 E21.74943
G1 X11.055 Y33.965 E21.76627
G1 F1860.000 E20.76627
G92 E0
G1 X36.084 Y104.449 F6000.000
G1 E1.10000 F1860.000
G1 X33.283 Y95.004 E1.28226 F1200.000
G1 X33.251 Y94.796 E1.28615
G1 X33.276 Y94.594 E1.28992
G1 X33.393 Y94.350 E1.29494
G1 X33.535 Y94.203 E1.29871
G1 X33.649 Y94.129 E1.30123
G1 X33.789 Y94.072 E1.30402
G1 X34.035 Y94.022 E1.30867
G1 X34.292 Y94.030 E1.31343
G1 X34.980 Y94.134 E1.32630
G1 X35.384 Y94.252 E1.33409
G1 X35.579 Y94.333 E1.33799
G1 X35.948 Y94.536 E1.34579
G1 X36.285 Y94.790 E1.35359
G1 X37.492 Y95.999 E1.38520
G1 X37.756 Y96.305 E1.39267
G1 X37.870 Y96.468 E1.39635
G1 X37.973 Y96.638 E1.40003
G1 X38.142 Y96.998 E1.40739
G1 X38.261 Y97.378 E1.41475
G1 X38.328 Y97.776 E1.42221
G1 X39.770 Y112.147 E1.68943
G1 X45.765 Y136.690 E2.15683
G1 X45.908 Y137.084 E2.16458
G1 X46.128 Y137.454 E2.17254
G1 X46.417 Y137.773 E2.18050
G1 X46.763 Y138.028 E2.18847
G1 X47.153 Y138.210 E2.19643
G1 X47.572 Y138.311 E2.20439
G1 X48.002 Y138.327 E2.21235
G1 X48.427 Y138.258 E2.22031
G1 X48.698 Y138.165 E2.22562
G1 X48.956 Y138.037 E2.23094
G1 X49.194 Y137.876 E2.23625
G1 X49.408 Y137.686 E2.24156
G1 X52.310 Y134.335 E2.32357
G1 X55.323 Y134.339 E2.37932
G1 X55.999 Y134.497 E2.39216
G1 X56.372 Y134.547 E2.39912
G1 X56.747 Y134.572 E2.40608
G1 X57.124 Y134.572 E2.41304
G1 X57.499 Y134.547 E2.42000
G1 X57.872 Y134.497 E2.42696
G1 X58.241 Y134.422 E2.43392
G1 X58.604 Y134.323 E2.44088
G1 X58.959 Y134.201 E2.44784
G1 X59.312 Y134.052 E2.45493
G1 X102.478 Y110.260 E3.36678
G1 X105.853 Y108.154 E3.44037
G1 X125.293 Y93.043 E3.89588
G1 X143.167 Y76.143 E4.35097
G1 X143.264 Y76.065 E4.35327
G1 X143.357 Y76.025 E4.35515
G1 X143.458 Y76.012 E4.35703
G1 X143.559 Y76.026 E4.35891
G1 X143.653 Y76.066 E4.36080
G1 X143.732 Y76.129 E4.36268
G1 X143.813 Y76.258 E4.36549
G1 X143.835 Y76.357 E4.36737
G1 X143.818 Y76.508 E4.37019
G1 X143.740 Y76.645 E4.37310
G1 X131.533 Y89.599 E4.70239
G1 X118.444 Y101.670 E5.03179
G1 X104.546 Y112.794 E5.36112
G1 X100.976 Y115.137 E5.44013
G1 X54.576 Y141.803 E6.43020
G1 X54.399 Y141.867 E6.43368
G1 X54.200 Y141.908 E6.43744
G1 X53.998 Y141.922 E6.44119
G1 X53.795 Y141.907 E6.44495
G1 X52.103 Y141.438 E6.47743
G1 X51.740 Y141.397 E6.48419
G1 X51.381 Y141.428 E6.49086
G1 X51.133 Y141.495 E6.49560
G1 X50.819 Y141.637 E6.50198
G1 X50.526 Y141.847 E6.50865
G1 X50.281 Y142.111 E6.51532
G1 X50.045 Y142.497 E6.52368
G1 X49.953 Y142.731 E6.52834
G1 X49.879 Y143.101 E6.53531
G1 X49.873 Y143.352 E6.53997
G1 X50.047 Y146.184 E6.59246
G1 X50.009 Y146.657 E6.60124
G1 X49.773 Y147.700 E6.62101
G1 X49.730 Y148.293 E6.63202
G1 X49.742 Y148.591 E6.63754
G1 X50.108 Y151.639 E6.69432
G1 X50.753 Y154.802 E6.75405
G1 X50.752 Y155.040 E6.75845
G1 X50.700 Y155.271 E6.76284
G1 X50.599 Y155.487 E6.76724
G1 X50.439 Y155.680 E6.77189
G1 X50.246 Y155.779 E6.77590
G1 X50.107 Y155.823 E6.77860
G1 X49.963 Y155.849 E6.78130
G1 X49.744 Y155.852 E6.78536
G1 X49.599 Y155.830 E6.78806
G1 X49.391 Y155.761 E6.79211
G1 X49.262 Y155.693 E6.79481
G1 X49.087 Y155.561 E6.79887
G1 X48.942 Y155.397 E6.80292
G1 X48.832 Y155.208 E6.80697
G1 X48.374 Y153.863 E6.83326
G1 X48.041 Y152.556 E6.85819
G1 X47.808 Y151.229 E6.88313
G1 X47.676 Y149.888 E6.90806
G1 X47.645 Y148.541 E6.93299
G1 X47.740 Y146.944 E6.96259
G1 X47.741 Y146.412 E6.97242
G1 X47.672 Y145.883 E6.98229
G1 X47.611 Y145.624 E6.98723
G1 X47.437 Y145.119 E6.99709
G1 X47.325 Y144.877 E7.00202
G1 X47.066 Y144.436 E7.01149
G1 X46.896 Y144.203 E7.01682
G1 X46.526 Y143.794 E7.02703
G1 X46.313 Y143.648 E7.03181
G1 X45.985 Y143.495 E7.03851
G1 X45.617 Y143.410 E7.04550
G1 X45.391 Y143.395 E7.04968
G1 X45.150 Y143.412 E7.05415
G1 X44.914 Y143.460 E7.05862
G1 X44.685 Y143.540 E7.06309
G1 X44.470 Y143.650 E7.06756
G1 X44.271 Y143.788 E7.07203
G1 X44.093 Y143.950 E7.07650
G1 X43.938 Y144.136 E7.08098
G1 X43.809 Y144.340 E7.08545
G1 X43.710 Y144.554 E7.08981
G1 X40.225 Y153.749 E7.27172
G1 X40.087 Y154.202 E7.28048
G1 X40.041 Y154.437 E7.28492
G1 X39.994 Y154.914 E7.29378
G1 X40.011 Y155.393 E7.30265
G1 X40.091 Y155.866 E7.31151
G1 X40.155 Y156.097 E7.31595
G1 X40.326 Y156.544 E7.32481
G1 X40.434 Y156.758 E7.32925
G1 X40.691 Y157.163 E7.33812
G1 X40.839 Y157.352 E7.34255
G1 X41.167 Y157.694 E7.35131
G1 X43.574 Y159.892 E7.41162
G1 X43.724 Y160.061 E7.41581
G1 X43.836 Y160.250 E7.41987
G1 X43.907 Y160.458 E7.42393
G1 X43.937 Y160.675 E7.42799
G1 X43.922 Y160.894 E7.43204
G1 X43.865 Y161.106 E7.43610
G1 X43.768 Y161.302 E7.44016
G1 X43.654 Y161.452 E7.44364
G1 X43.481 Y161.552 E7.44735
G1 X43.337 Y161.606 E7.45018
G1 X43.036 Y161.654 E7.45583
G1 X42.807 Y161.633 E7.46007
G1 X39.996 Y160.877 E7.51394
G1 X39.640 Y160.729 E7.52106
G1 X39.306 Y160.536 E7.52820
G1 X39.150 Y160.423 E7.53176
G1 X38.861 Y160.168 E7.53890
G1 X38.608 Y159.877 E7.54603
G1 X38.395 Y159.555 E7.55316
G1 X38.227 Y159.208 E7.56030
G1 X38.106 Y158.842 E7.56743
G1 X37.420 Y155.270 E7.63473
G1 X37.373 Y154.877 E7.64205
G1 X37.378 Y154.488 E7.64925
G1 X37.434 Y154.103 E7.65644
G1 X37.541 Y153.729 E7.66364
G1 X41.270 Y145.157 E7.83659
G1 X41.412 Y143.638 E7.86480
G1 X41.383 Y143.216 E7.87264
G1 X41.318 Y142.938 E7.87791
G1 X41.153 Y142.545 E7.88581
G1 X40.913 Y142.191 E7.89371
G1 X40.610 Y141.891 E7.90160
G1 X40.253 Y141.657 E7.90950
G1 X39.857 Y141.497 E7.91740
G1 X39.579 Y141.435 E7.92267
G1 X39.152 Y141.412 E7.93057
G1 X38.730 Y141.473 E7.93847
G1 X37.796 Y141.764 E7.95656
G1 X37.403 Y141.941 E7.96454
G1 X37.156 Y142.103 E7.97001
G1 X36.933 Y142.297 E7.97548
G1 X36.654 Y142.641 E7.98368
G1 X36.509 Y142.899 E7.98914
G1 X36.403 Y143.168 E7.99450
G1 X35.326 Y146.571 E8.06052
G1 X35.261 Y146.757 E8.06417
G1 X35.099 Y147.104 E8.07125
G1 X34.893 Y147.426 E8.07834
G1 X34.771 Y147.581 E8.08198
G1 X32.242 Y150.585 E8.15462
G1 X31.951 Y150.989 E8.16384
G1 X31.713 Y151.436 E8.17320
G1 X31.618 Y151.670 E8.17788
G1 X31.483 Y152.135 E8.18684
G1 X31.407 Y152.657 E8.19660
G1 X31.407 Y153.157 E8.20584
G1 X31.481 Y154.303 E8.22710
G1 X31.454 Y154.699 E8.23443
G1 X31.421 Y154.895 E8.23811
G1 X31.374 Y155.089 E8.24180
G1 X31.242 Y155.464 E8.24916
G1 X31.058 Y155.821 E8.25658
G1 X30.929 Y155.996 E8.26061
G1 X30.764 Y156.143 E8.26469
G1 X30.573 Y156.254 E8.26878
G1 X30.435 Y156.307 E8.27151
G1 X30.218 Y156.350 E8.27560
G1 X29.997 Y156.349 E8.27969
G1 X29.781 Y156.304 E8.28378
G1 X29.577 Y156.218 E8.28787
G1 X29.453 Y156.138 E8.29060
G1 X29.242 Y155.934 E8.29604
G1 X29.091 Y155.681 E8.30149
G1 X28.732 Y154.473 E8.32480
G1 X28.461 Y152.250 E8.36622
G1 X28.468 Y151.840 E8.37381
G1 X28.493 Y151.636 E8.37761
G1 X28.586 Y151.236 E8.38522
G1 X28.653 Y151.041 E8.38902
G1 X28.828 Y150.669 E8.39662
G1 X29.056 Y150.320 E8.40434
G1 X32.356 Y145.980 E8.50520
G1 X32.653 Y145.512 E8.51547
G1 X32.878 Y145.002 E8.52577
G1 X34.958 Y139.081 E8.64187
G1 X35.118 Y138.714 E8.64929
G1 X35.320 Y138.377 E8.65655
G1 X35.564 Y138.070 E8.66381
G1 X35.848 Y137.798 E8.67108
G1 X36.003 Y137.678 E8.67471
G1 X36.166 Y137.568 E8.67835
G1 X36.512 Y137.381 E8.68561
G1 X36.693 Y137.306 E8.68925
G1 X37.402 Y137.079 E8.70302
G1 X37.850 Y136.874 E8.71214
G1 X38.265 Y136.612 E8.72121
G1 X38.474 Y136.446 E8.72614
G1 X38.811 Y136.120 E8.73483
G1 X39.115 Y135.735 E8.74390
G1 X39.247 Y135.528 E8.74844
G1 X39.467 Y135.090 E8.75752
G1 X39.554 Y134.860 E8.76205
G1 X39.626 Y134.625 E8.76659
G1 X39.717 Y134.165 E8.77528
G1 X39.749 Y133.654 E8.78474
G1 X39.711 Y133.165 E8.79382
G1 X39.667 Y132.923 E8.79838
G1 X37.703 Y125.294 E8.94411
G1 X35.140 Y117.844 E9.08986
G1 X31.995 Y110.621 E9.23562
G1 X27.995 Y103.128 E9.39274
G1 X27.742 Y102.569 E9.40411
G1 X27.530 Y101.992 E9.41547
G1 X27.358 Y101.402 E9.42684
G1 X27.228 Y100.802 E9.43821
G1 X27.140 Y100.194 E9.44957
G1 X27.096 Y99.581 E9.46094
G1 X27.095 Y98.966 E9.47231
G1 X27.136 Y98.353 E9.48367
G1 X27.222 Y97.738 E9.49516
G1 X27.328 Y97.147 E9.50628
G1 X27.410 Y96.923 E9.51070
G1 X27.491 Y96.785 E9.51366
G1 X27.653 Y96.599 E9.51820
G1 X28.603 Y95.717 E9.54220
G1 X28.770 Y95.597 E9.54600
G1 X29.027 Y95.519 E9.55098
G1 X29.296 Y95.537 E9.55596
G1 X29.540 Y95.650 E9.56094
G1 X29.729 Y95.842 E9.56592
G1 X29.821 Y96.031 E9.56980
G1 X32.938 Y105.381 E9.75215
G1 X36.023 Y104.467 E9.81169
G1 X35.776 Y104.283 F6000.000
G1 X33.045 Y95.070 E9.98946 F1200.000
G1 X33.003 Y94.799 E9.99452
G1 X33.017 Y94.619 E9.99788
G1 X33.065 Y94.443 E10.00124
G1 X33.193 Y94.204 E10.00627
G1 X33.382 Y94.008 E10.01129
G1 X33.617 Y93.871 E10.01633
G1 X33.912 Y93.788 E10.02200
G1 X34.218 Y93.774 E10.02768
G1 X35.032 Y93.892 E10.04288
G1 X35.470 Y94.021 E10.05134
G1 X35.682 Y94.108 E10.05557
G1 X36.082 Y94.328 E10.06403
G1 X36.448 Y94.603 E10.07248
G1 X37.671 Y95.828 E10.10451
G1 X37.954 Y96.156 E10.11252
G1 X38.078 Y96.333 E10.11652
G1 X38.189 Y96.518 E10.12051
G1 X38.372 Y96.908 E10.12849
G1 X38.501 Y97.320 E10.13647
G1 X38.573 Y97.747 E10.14448
G1 X40.014 Y112.105 E10.41145
G1 X46.040 Y136.744 E10.88070
G1 X46.190 Y137.093 E10.88773
G1 X46.406 Y137.407 E10.89478
G1 X46.680 Y137.672 E10.90183
G1 X47.001 Y137.877 E10.90888
G1 X47.357 Y138.015 E10.91593
G1 X47.669 Y138.072 E10.92181
G1 X47.986 Y138.080 E10.92768
G1 X48.363 Y138.019 E10.93473
G1 X48.603 Y137.937 E10.93944
G1 X48.831 Y137.823 E10.94414
G1 X49.042 Y137.681 E10.94885
G1 X49.232 Y137.512 E10.95355
G1 X52.197 Y134.087 E11.03736
G1 X55.357 Y134.092 E11.09581
G1 X56.040 Y134.253 E11.10881
G1 X56.397 Y134.301 E11.11547
G1 X57.115 Y134.325 E11.12877
G1 X57.474 Y134.301 E11.13543
G1 X58.184 Y134.182 E11.14873
G1 X58.871 Y133.970 E11.16203
G1 X59.204 Y133.829 E11.16872
G1 X102.353 Y110.047 E12.08021
G1 X105.711 Y107.951 E12.15345
G1 X125.132 Y92.855 E12.60850
G1 X143.067 Y75.900 E13.06511
G1 X143.212 Y75.814 E13.06823
G1 X143.374 Y75.770 E13.07134
G1 X143.543 Y75.770 E13.07445
G1 X143.705 Y75.815 E13.07757
G1 X143.849 Y75.901 E13.08068
G1 X143.965 Y76.023 E13.08379
G1 X144.045 Y76.171 E13.08691
G1 X144.082 Y76.335 E13.09002
G1 X144.054 Y76.585 E13.09467
G1 X143.929 Y76.805 E13.09935
G1 X131.707 Y89.775 E13.42904
G1 X118.606 Y101.858 E13.75876
G1 X104.692 Y112.994 E14.08847
G1 X101.105 Y115.348 E14.16783
G1 X54.685 Y142.026 E15.15834
G1 X54.466 Y142.105 E15.16265
G1 X54.234 Y142.153 E15.16704
G1 X53.997 Y142.169 E15.17142
G1 X53.760 Y142.152 E15.17581
G1 X53.527 Y142.102 E15.18023
G1 X52.048 Y141.679 E15.20869
G1 X51.737 Y141.644 E15.21448
G1 X51.427 Y141.671 E15.22023
G1 X51.220 Y141.726 E15.22421
G1 X50.943 Y141.851 E15.22983
G1 X50.690 Y142.033 E15.23558
G1 X50.478 Y142.261 E15.24133
G1 X50.268 Y142.603 E15.24876
G1 X50.163 Y142.902 E15.25463
G1 X50.125 Y143.124 E15.25879
