; generated by Slic3r 1.1.7 on 2014-12-05 at 10:42:48

; perimeters extrusion width = 0.42mm
; infill extrusion width = 0.74mm
; solid infill extrusion width = 0.71mm
; top infill extrusion width = 0.71mm

G21 ; set units to millimeters
M190 S60 ; wait for bed temperature to be reached
M104 S186 ; set temperature
G28 ; home all axes
M109 S186 ; wait for temperature to be reached
G90 ; use absolute coordinates
G92 E0
M82 ; use absolute distances for extrusion
M106 S127
G1 F1860.000 E-3.00000
G92 E0
G1 Z0.200 F6000.000
G1 X56.075 Y67.948 F6000.000
G1 E3.10000 F1860.000
G1 X56.751 Y67.399 E3.11612 F1200.000
G1 X58.169 Y66.312 E3.14916
G1 X59.797 Y65.158 E3.18609
G1 X61.384 Y64.119 E3.22117
G1 X62.168 Y63.635 E3.23822
G1 X63.044 Y63.114 E3.25708
G1 X64.510 Y62.290 E3.28819
G1 X66.526 Y61.241 E3.33024
G1 X67.470 Y60.783 E3.34964
G1 X69.235 Y59.979 E3.38553
G1 X71.594 Y59.439 E3.43029
G1 X100.188 Y58.591 E3.95952
G1 X128.407 Y59.439 E4.48181
G1 X130.747 Y59.970 E4.52620 F1200.000
G1 X132.238 Y60.646 E4.55650
G1 X134.038 Y61.524 E4.59354
G1 X135.848 Y62.485 E4.63145
G1 X137.397 Y63.373 E4.66449
G1 X138.310 Y63.927 E4.68424
G1 X139.898 Y64.951 E4.71920
G1 X140.700 Y65.500 E4.73718
G1 X142.013 Y66.448 E4.76714
G1 X143.615 Y67.693 E4.80467
G1 X144.977 Y68.842 E4.83764
G1 X146.325 Y70.073 E4.87140
G1 X147.548 Y71.282 E4.90323
G1 X148.709 Y72.525 E4.93470
G1 X149.688 Y73.658 E4.96240
G1 X150.247 Y74.345 E4.97879
G1 X151.334 Y75.779 E5.01207
G1 X152.238 Y77.088 E5.04151
G1 X153.065 Y78.403 E5.07025
G1 X153.902 Y79.879 E5.10163
G1 X154.720 Y81.511 E5.13540
G1 X155.247 Y82.690 E5.15929
G1 X155.504 Y83.316 E5.17181
G1 X156.080 Y84.876 E5.20258
G1 X156.538 Y86.333 E5.23084
G1 X156.923 Y87.803 E5.25896
G1 X157.235 Y89.279 E5.28686
G1 X157.473 Y90.767 E5.31474
G1 X157.568 Y91.540 E5.32915
G1 X157.684 Y92.875 E5.35393
G1 X157.746 Y94.538 E5.38472
G1 X157.723 Y96.038 E5.41248
G1 X157.633 Y97.469 E5.43901
G1 X157.448 Y99.086 E5.46912
G1 X157.156 Y100.792 E5.50113
G1 X156.877 Y102.063 E5.52521
G1 X156.721 Y102.677 E5.53693
G1 X156.306 Y104.107 E5.56448
G1 X156.013 Y104.992 E5.58172
G1 X155.496 Y106.377 E5.60907
G1 X154.827 Y107.933 E5.64040
G1 X154.137 Y109.347 E5.66951
G1 X153.377 Y110.738 E5.69884
G1 X152.545 Y112.111 E5.72854
G1 X151.863 Y113.138 E5.75135
G1 X151.136 Y114.165 E5.77462
G1 X150.127 Y115.478 E5.80526
G1 X149.048 Y116.764 E5.83631
G1 X147.900 Y118.024 E5.86785
G1 X146.674 Y119.263 E5.90010
G1 X145.441 Y120.417 E5.93133
G1 X144.694 Y121.075 E5.94976
G1 X143.309 Y122.225 E5.98306
G1 X141.788 Y123.391 E6.01852
G1 X140.390 Y124.386 E6.05026
G1 X139.515 Y124.975 E6.06977
G1 X138.382 Y125.698 E6.09464
G1 X137.034 Y126.513 E6.12379
G1 X135.325 Y127.473 E6.16004
G1 X110.491 Y140.680 E6.68041
G1 X107.557 Y141.411 E6.73634
G1 X92.443 Y141.411 E7.01596
G1 X89.510 Y140.680 E7.07188
G1 X64.997 Y127.645 E7.58551
G1 X64.102 Y127.159 E7.60435
G1 X62.427 Y126.194 E7.64012
G1 X61.579 Y125.675 E7.65851
G1 X60.135 Y124.742 E7.69031
G1 X58.472 Y123.581 E7.72784
G1 X57.026 Y122.490 E7.76135
G1 X56.013 Y121.671 E7.78546
G1 X54.935 Y120.751 E7.81166
G1 X53.640 Y119.566 E7.84414
G1 X53.000 Y118.942 E7.86068
G1 X51.937 Y117.850 E7.88886
G1 X50.684 Y116.454 E7.92356
G1 X50.128 Y115.791 E7.93958
G1 X49.208 Y114.625 E7.96705
G1 X48.161 Y113.176 E8.00013
G1 X47.276 Y111.826 E8.02999
G1 X46.462 Y110.455 E8.05949
G1 X45.720 Y109.065 E8.08864
G1 X45.078 Y107.724 E8.11615
G1 X44.428 Y106.182 E8.14710
G1 X43.900 Y104.738 E8.17555
G1 X43.445 Y103.280 E8.20381
G1 X43.064 Y101.813 E8.23184
G1 X42.755 Y100.334 E8.25980
G1 X42.527 Y98.899 E8.28667
G1 X42.354 Y97.298 E8.31647
G1 X42.269 Y95.798 E8.34426
G1 X42.258 Y94.296 E8.37205
G1 X42.322 Y92.796 E8.39983
G1 X42.460 Y91.299 E8.42764
G1 X42.673 Y89.809 E8.45547
G1 X42.945 Y88.389 E8.48224
G1 X43.336 Y86.783 E8.51281
G1 X43.773 Y85.319 E8.54108
G1 X44.282 Y83.868 E8.56952
G1 X44.869 Y82.420 E8.59844
G1 X45.526 Y80.996 E8.62744
G1 X46.251 Y79.597 E8.65660
G1 X47.081 Y78.162 E8.68726
G1 X47.958 Y76.794 E8.71732
G1 X48.905 Y75.452 E8.74771
G1 X49.917 Y74.141 E8.77836
G1 X50.999 Y72.855 E8.80944
G1 X52.156 Y71.590 E8.84115
G1 X53.339 Y70.397 E8.87224
G1 X54.718 Y69.112 E8.90711
G1 X56.026 Y67.988 E8.93902
G1 F1860.000 E5.93902
G92 E0
G1 X108.404 Y105.189 F6000.000
G1 E3.10000 F1860.000
G1 X105.047 Y120.857 E3.39645 F1200.000
G1 X102.251 Y116.383 E3.49404
G1 X97.749 Y116.383 E3.57733
G1 X94.954 Y120.857 E3.67493
G1 X91.596 Y105.188 E3.97138
G1 X88.943 Y105.004 E4.02058
G1 X87.925 Y104.970 E4.03943
G1 X87.052 Y104.971 E4.05557
G1 X86.299 Y105.000 E4.06951
G1 X85.632 Y105.051 E4.08190
G1 X85.023 Y105.123 E4.09324
G1 X83.918 Y105.322 E4.11401
G1 X83.384 Y105.455 E4.12419
G1 X82.347 Y105.786 E4.14433
G1 X81.855 Y105.980 E4.15412
G1 X80.926 Y106.417 E4.17310
G1 X80.491 Y106.658 E4.18229
G1 X79.684 Y107.174 E4.20002
G1 X79.315 Y107.446 E4.20851
G1 X78.629 Y108.023 E4.22508
G1 X78.008 Y108.647 E4.24138
G1 X77.426 Y109.346 E4.25820
G1 X77.156 Y109.719 E4.26672
G1 X76.670 Y110.494 E4.28365
G1 X76.453 Y110.898 E4.29213
G1 X76.075 Y111.725 E4.30894
G1 X75.776 Y112.572 E4.32556
G1 X75.555 Y113.428 E4.34191
G1 X75.474 Y113.858 E4.35002
G1 X75.370 Y114.717 E4.36603
G1 X75.342 Y115.566 E4.38174
G1 X75.387 Y116.391 E4.39703
G1 X75.514 Y117.288 E4.41379
G1 X75.622 Y117.815 E4.42374
G1 X75.772 Y118.423 E4.43532
G1 X76.210 Y119.925 E4.46428
G1 X74.524 Y119.232 E4.49800
G1 X73.156 Y118.631 E4.52564
G1 X71.821 Y117.997 E4.55298
G1 X70.522 Y117.332 E4.57998
G1 X69.294 Y116.657 E4.60591
G1 X68.103 Y115.953 E4.63151
G1 X66.952 Y115.224 E4.65672
G1 X65.865 Y114.486 E4.68101
G1 X64.827 Y113.730 E4.70477
G1 X63.822 Y112.946 E4.72835
G1 X62.870 Y112.148 E4.75134
G1 X61.977 Y111.346 E4.77354
G1 X61.100 Y110.498 E4.79610
G1 X60.310 Y109.675 E4.81722
G1 X59.568 Y108.842 E4.83785
G1 X58.863 Y107.985 E4.85838
G1 X58.219 Y107.136 E4.87809
G1 X57.619 Y106.277 E4.89748
G1 X57.050 Y105.385 E4.91706
G1 X56.547 Y104.517 E4.93563
G1 X56.094 Y103.653 E4.95366
G1 X55.689 Y102.793 E4.97124
G1 X55.336 Y101.952 E4.98813
G1 X55.009 Y101.070 E5.00553
G1 X54.757 Y100.279 E5.02088
G1 X54.530 Y99.451 E5.03676
G1 X54.338 Y98.609 E5.05274
G1 X54.189 Y97.792 E5.06811
G1 X54.077 Y96.980 E5.08327
G1 X54.008 Y96.258 E5.09669
G1 X53.963 Y95.450 E5.11167
G1 X53.954 Y94.624 E5.12694
G1 X53.982 Y93.802 E5.14215
G1 X54.048 Y92.960 E5.15779
G1 X54.153 Y92.113 E5.17357
G1 X54.295 Y91.278 E5.18924
G1 X54.481 Y90.419 E5.20550
G1 X54.707 Y89.563 E5.22189
G1 X54.981 Y88.688 E5.23884
G1 X55.305 Y87.799 E5.25635
G1 X55.676 Y86.907 E5.27422
G1 X56.111 Y85.984 E5.29311
G1 X56.602 Y85.055 E5.31254
G1 X57.140 Y84.139 E5.33219
G1 X57.724 Y83.239 E5.35204
G1 X58.367 Y82.334 E5.37259
G1 X59.056 Y81.446 E5.39337
G1 X59.796 Y80.568 E5.41462
G1 X60.604 Y79.684 E5.43678
G1 X61.469 Y78.809 E5.45954
G1 X62.377 Y77.959 E5.48255
G1 X63.346 Y77.117 E5.50630
G1 X64.379 Y76.284 E5.53085
G1 X65.457 Y75.477 E5.55575
G1 X66.578 Y74.695 E5.58104
G1 X67.745 Y73.939 E5.60677
G1 X68.974 Y73.198 E5.63331
G1 X70.259 Y72.480 E5.66056
G1 X71.689 Y71.738 E5.69036
G1 X72.101 Y72.170 E5.70139
G1 X71.233 Y73.698 E5.73391
G1 X70.713 Y74.692 E5.75466
G1 X70.283 Y75.583 E5.77297
G1 X69.891 Y76.480 E5.79107
G1 X69.617 Y77.189 E5.80513
G1 X69.290 Y78.218 E5.82510
G1 X69.068 Y79.197 E5.84368
G1 X68.937 Y80.160 E5.86165
G1 X68.905 Y80.620 E5.87019
G1 X68.897 Y81.441 E5.88537
G1 X68.916 Y81.796 E5.89196
G1 X68.985 Y82.412 E5.90343
G1 X69.142 Y83.142 E5.91723
G1 X69.267 Y83.525 E5.92469
G1 X69.402 Y83.847 E5.93115
G1 X69.546 Y84.122 E5.93688
G1 X69.773 Y84.464 E5.94449
G1 X69.995 Y84.722 E5.95079
G1 X70.171 Y84.887 E5.95525
G1 X70.460 Y85.103 E5.96192
G1 X70.673 Y85.228 E5.96649
G1 X71.064 Y85.402 E5.97441
G1 X71.357 Y85.497 E5.98011
G1 X71.697 Y85.576 E5.98656
G1 X72.100 Y85.634 E5.99409
G1 X72.582 Y85.664 E6.00303
G1 X73.206 Y85.648 E6.01457
G1 X73.900 Y85.572 E6.02750
G1 X74.301 Y85.503 E6.03502
G1 X75.240 Y85.276 E6.05290
G1 X75.709 Y85.130 E6.06199
G1 X76.613 Y84.781 E6.07992
G1 X77.554 Y84.322 E6.09927
G1 X78.087 Y84.020 E6.11062
G1 X78.751 Y83.608 E6.12506
G1 X79.575 Y83.053 E6.14344
G1 X80.493 Y82.389 E6.16441
G1 X82.088 Y81.165 E6.20160
G1 X82.270 Y82.129 E6.21974
G1 X82.403 Y82.628 E6.22930
G1 X82.553 Y83.046 E6.23752
G1 X82.814 Y83.589 E6.24866
G1 X83.136 Y84.080 E6.25952
G1 X83.501 Y84.503 E6.26985
G1 X83.740 Y84.727 E6.27591
G1 X83.997 Y84.932 E6.28200
G1 X84.401 Y85.185 E6.29081
G1 X84.857 Y85.392 E6.30009
G1 X85.399 Y85.553 E6.31054
G1 X86.017 Y85.648 E6.32212
G1 X86.709 Y85.658 E6.33491
G1 X87.430 Y85.571 E6.34835
G1 X87.960 Y85.449 E6.35842
G1 X88.581 Y85.250 E6.37048
G1 X89.360 Y84.928 E6.38608
G1 X89.853 Y84.686 E6.39623
G1 X90.778 Y84.156 E6.41596
G1 X91.266 Y83.834 E6.42676
G1 X91.778 Y83.465 E6.43845
G1 X92.321 Y83.039 E6.45121
G1 X92.901 Y82.542 E6.46533
G1 X93.535 Y81.952 E6.48136
G1 X94.213 Y81.269 E6.49918
G1 X95.005 Y80.406 E6.52084
G1 X95.707 Y79.583 E6.54085
G1 X96.346 Y78.771 E6.55996
G1 X96.932 Y77.962 E6.57844
G1 X97.504 Y77.096 E6.59764
G1 X98.007 Y76.258 E6.61574
G1 X98.520 Y75.326 E6.63542
G1 X99.059 Y74.268 E6.65739
G1 X100.003 Y72.279 E6.69812
G1 X101.077 Y74.541 E6.74445
G1 X101.592 Y75.535 E6.76517
G1 X102.092 Y76.428 E6.78410
G1 X102.614 Y77.281 E6.80258
G1 X103.191 Y78.138 E6.82170
G1 X103.838 Y79.010 E6.84180
G1 X104.554 Y79.896 E6.86287
G1 X105.288 Y80.732 E6.88345
G1 X106.031 Y81.521 E6.90350
G1 X106.668 Y82.146 E6.92001
G1 X107.256 Y82.680 E6.93469
G1 X107.806 Y83.141 E6.94798
G1 X108.328 Y83.543 E6.96017
G1 X109.311 Y84.211 E6.98216
G1 X110.240 Y84.734 E7.00188
G1 X111.061 Y85.111 E7.01860
G1 X111.403 Y85.245 E7.02539
G1 X112.010 Y85.441 E7.03719
G1 X112.789 Y85.607 E7.05193
G1 X113.254 Y85.656 E7.06057
G1 X113.782 Y85.661 E7.07035
G1 X114.195 Y85.625 E7.07802
G1 X114.753 Y85.516 E7.08853
G1 X115.087 Y85.413 E7.09500
G1 X115.532 Y85.221 E7.10397
G1 X115.942 Y84.975 E7.11281
G1 X116.217 Y84.764 E7.11923
G1 X116.615 Y84.380 E7.12945
G1 X116.863 Y84.082 E7.13663
G1 X117.087 Y83.755 E7.14395
G1 X117.369 Y83.230 E7.15498
G1 X117.524 Y82.847 E7.16263
G1 X117.668 Y82.383 E7.17162
G1 X117.921 Y81.168 E7.19458
G1 X119.837 Y82.632 E7.23918
G1 X120.674 Y83.225 E7.25816
G1 X121.516 Y83.778 E7.27680
G1 X122.167 Y84.167 E7.29083
G1 X123.125 Y84.662 E7.31078
G1 X123.576 Y84.861 E7.31991
G1 X124.470 Y85.188 E7.33750
G1 X125.384 Y85.437 E7.35504
G1 X126.178 Y85.583 E7.36998
G1 X126.850 Y85.652 E7.38248
G1 X127.544 Y85.660 E7.39531
G1 X128.197 Y85.594 E7.40745
G1 X128.550 Y85.522 E7.41411
G1 X128.857 Y85.431 E7.42003
G1 X129.358 Y85.212 E7.43015
G1 X129.566 Y85.086 E7.43466
G1 X129.846 Y84.874 E7.44115
G1 X130.183 Y84.521 E7.45018
G1 X130.352 Y84.288 E7.45551
G1 X130.507 Y84.029 E7.46109
G1 X130.647 Y83.740 E7.46703
G1 X130.780 Y83.396 E7.47385
G1 X130.960 Y82.729 E7.48663
G1 X131.048 Y82.179 E7.49693
G1 X131.081 Y81.854 E7.50298
G1 X131.109 Y81.081 E7.51730
G1 X131.063 Y80.161 E7.53433
G1 X131.007 Y79.669 E7.54350
G1 X130.823 Y78.667 E7.56233
G1 X130.696 Y78.164 E7.57194
G1 X130.347 Y77.089 E7.59285
G1 X130.083 Y76.417 E7.60620
G1 X129.711 Y75.570 E7.62331
G1 X129.253 Y74.624 E7.64276
G1 X128.717 Y73.606 E7.66405
G1 X127.898 Y72.163 E7.69474
G1 X128.306 Y71.736 E7.70567
G1 X130.326 Y72.800 E7.74791
G1 X131.532 Y73.496 E7.77365
G1 X132.690 Y74.214 E7.79888
G1 X133.796 Y74.949 E7.82344
G1 X134.867 Y75.713 E7.84778
G1 X135.873 Y76.482 E7.87119
G1 X136.835 Y77.270 E7.89421
G1 X137.756 Y78.079 E7.91688
G1 X138.624 Y78.899 E7.93898
G1 X139.430 Y79.719 E7.96025
G1 X140.198 Y80.561 E7.98133
G1 X140.914 Y81.408 E8.00186
G1 X141.587 Y82.272 E8.02211
G1 X142.211 Y83.142 E8.04192
G1 X142.783 Y84.015 E8.06123
G1 X143.306 Y84.892 E8.08012
G1 X143.778 Y85.764 E8.09846
G1 X144.193 Y86.615 E8.11597
G1 X144.563 Y87.468 E8.13318
G1 X144.888 Y88.312 E8.14990
G1 X145.166 Y89.141 E8.16608
G1 X145.408 Y89.978 E8.18220
G1 X145.607 Y90.801 E8.19787
G1 X145.768 Y91.618 E8.21328
G1 X145.894 Y92.446 E8.22877
G1 X145.982 Y93.274 E8.24417
G1 X146.032 Y94.084 E8.25919
G1 X146.047 Y94.897 E8.27423
G1 X146.026 Y95.736 E8.28976
G1 X145.968 Y96.558 E8.30500
G1 X145.873 Y97.378 E8.32028
G1 X145.737 Y98.229 E8.33623
G1 X145.559 Y99.087 E8.35243
G1 X145.341 Y99.942 E8.36875
G1 X145.077 Y100.811 E8.38556
G1 X144.763 Y101.698 E8.40297
G1 X144.398 Y102.597 E8.42092
G1 X143.976 Y103.513 E8.43957
G1 X143.500 Y104.433 E8.45873
G1 X142.977 Y105.342 E8.47813
G1 X142.397 Y106.255 E8.49815
G1 X141.761 Y107.165 E8.51868
G1 X141.081 Y108.056 E8.53943
G1 X140.342 Y108.946 E8.56083
G1 X139.550 Y109.826 E8.58273
G1 X138.701 Y110.697 E8.60522
G1 X137.824 Y111.530 E8.62759
G1 X136.866 Y112.376 E8.65125
G1 X135.850 Y113.208 E8.67554
G1 X134.780 Y114.023 E8.70042
G1 X133.661 Y114.814 E8.72578
G1 X132.497 Y115.580 E8.75156
G1 X131.270 Y116.330 E8.77816
G1 X129.999 Y117.052 E8.80520
G1 X128.691 Y117.741 E8.83256
G1 X127.324 Y118.409 E8.86070
G1 X125.906 Y119.049 E8.88948
G1 X123.779 Y119.934 E8.93210
G1 X124.094 Y118.897 E8.95214
G1 X124.301 Y118.144 E8.96660
G1 X124.424 Y117.607 E8.97679
G1 X124.581 Y116.680 E8.99418
G1 X124.651 Y115.843 E9.00972
G1 X124.647 Y114.984 E9.02561
G1 X124.616 Y114.545 E9.03375
G1 X124.494 Y113.673 E9.05004
G1 X124.294 Y112.807 E9.06649
G1 X124.035 Y112.009 E9.08201
G1 X123.677 Y111.161 E9.09903
G1 X123.471 Y110.750 E9.10754
G1 X123.246 Y110.349 E9.11605
G1 X122.750 Y109.585 E9.13289
G1 X122.202 Y108.885 E9.14935
G1 X121.598 Y108.238 E9.16572
G1 X121.268 Y107.929 E9.17408
G1 X120.574 Y107.361 E9.19069
G1 X119.758 Y106.806 E9.20892
G1 X119.318 Y106.549 E9.21836
G1 X118.367 Y106.076 E9.23801
G1 X117.862 Y105.865 E9.24814
G1 X116.824 Y105.513 E9.26841
G1 X116.283 Y105.369 E9.27876
G1 X115.212 Y105.157 E9.29897
G1 X114.611 Y105.077 E9.31019
G1 X113.939 Y105.015 E9.32266
G1 X113.178 Y104.977 E9.33677
G1 X112.265 Y104.968 E9.35366
G1 X111.235 Y104.996 E9.37272
G1 X110.105 Y105.060 E9.39365
G1 X108.467 Y105.184 E9.42404
G1 X108.201 Y104.956 F6000.000
G1 X104.933 Y120.208 E9.71262 F1200.000
G1 X102.388 Y116.136 E9.80145
G1 X97.612 Y116.136 E9.88981
G1 X95.068 Y120.208 E9.97865
G1 X91.799 Y104.956 E10.26723
G1 X88.952 Y104.757 E10.32002
G1 X87.930 Y104.723 E10.33895
G1 X87.047 Y104.724 E10.35529
G1 X86.285 Y104.753 E10.36938
G1 X85.608 Y104.805 E10.38196
G1 X84.989 Y104.878 E10.39348
G1 X83.864 Y105.081 E10.41463
G1 X83.319 Y105.216 E10.42501
G1 X82.261 Y105.554 E10.44556
G1 X81.759 Y105.752 E10.45555
G1 X80.811 Y106.198 E10.47492
G1 X80.367 Y106.444 E10.48431
G1 X79.542 Y106.972 E10.50243
G1 X79.164 Y107.250 E10.51112
G1 X78.462 Y107.840 E10.52809
G1 X77.825 Y108.481 E10.54480
G1 X77.229 Y109.197 E10.56203
G1 X76.953 Y109.578 E10.57075
G1 X76.455 Y110.372 E10.58809
G1 X76.232 Y110.786 E10.59677
G1 X75.846 Y111.632 E10.61398
G1 X75.539 Y112.499 E10.63100
G1 X75.313 Y113.376 E10.64776
G1 X75.230 Y113.818 E10.65607
G1 X75.123 Y114.698 E10.67248
G1 X75.095 Y115.569 E10.68859
G1 X75.141 Y116.415 E10.70428
G1 X75.271 Y117.333 E10.72141
G1 X75.381 Y117.870 E10.73155
G1 X75.534 Y118.488 E10.74334
G1 X75.829 Y119.501 E10.76287
G1 X74.622 Y119.005 E10.78701
G1 X73.258 Y118.406 E10.81458
G1 X71.931 Y117.776 E10.84175
G1 X70.641 Y117.116 E10.86855
G1 X69.415 Y116.441 E10.89444
G1 X68.231 Y115.742 E10.91989
G1 X67.090 Y115.019 E10.94487
G1 X66.009 Y114.285 E10.96904
G1 X64.975 Y113.532 E10.99272
G1 X63.979 Y112.754 E11.01609
G1 X63.033 Y111.963 E11.03890
G1 X62.144 Y111.164 E11.06102
G1 X61.278 Y110.326 E11.08331
G1 X60.492 Y109.508 E11.10430
G1 X59.755 Y108.679 E11.12483
G1 X59.059 Y107.834 E11.14507
G1 X58.419 Y106.992 E11.16464
G1 X57.822 Y106.137 E11.18393
G1 X57.263 Y105.259 E11.20318
G1 X56.762 Y104.396 E11.22165
G1 X56.315 Y103.542 E11.23948
G1 X55.916 Y102.695 E11.25680
G1 X55.566 Y101.862 E11.27352
G1 X55.257 Y101.025 E11.29002
G1 X54.992 Y100.200 E11.30606
G1 X54.767 Y99.381 E11.32176
G1 X54.581 Y98.562 E11.33730
G1 X54.433 Y97.754 E11.35250
G1 X54.322 Y96.949 E11.36754
G1 X54.254 Y96.241 E11.38070
G1 X54.210 Y95.440 E11.39554
G1 X54.201 Y94.628 E11.41055
G1 X54.229 Y93.813 E11.42565
G1 X54.294 Y92.983 E11.44104
G1 X54.397 Y92.152 E11.45655
G1 X54.538 Y91.323 E11.47209
G1 X54.721 Y90.479 E11.48808
