; generated by Slic3r 1.1.7 on 2014-12-13 at 17:10:09

; perimeters extrusion width = 0.42mm
; infill extrusion width = 0.74mm
; solid infill extrusion width = 0.71mm
; top infill extrusion width = 0.71mm
; support material extrusion width = 0.42mm

G21 ; set units to millimeters
M190 S57 ; wait for bed temperature to be reached
M104 S186 ; set temperature
G28 ; home all axes Start of G Code Slic3r
 
M109 S186 ; wait for temperature to be reached
G90 ; use absolute coordinates
G92 E0
M82 ; use absolute distances for extrusion
G1 F1860.000 E-3.00000
G92 E0
G1 Z0.200 F6000.000
G1 X83.296 Y84.349 F6000.000
G1 E3.10000 F1860.000
G1 X88.008 Y80.429 E3.21341 F1200.000
G1 X89.623 Y79.578 E3.24717
G1 X95.229 Y77.551 E3.35745
G1 X97.200 Y77.257 E3.39432
G1 X102.859 Y77.258 E3.49902
G1 X105.002 Y77.625 E3.53925 F1200.000
G1 X111.341 Y80.017 E3.66459
G1 X111.997 Y80.431 E3.67894
G1 X112.421 Y80.759 E3.68885
G1 X116.718 Y84.363 E3.79261
G1 X117.586 Y85.240 E3.81543
G1 X118.226 Y86.161 E3.83619
G1 X121.324 Y91.588 E3.95179
G1 X121.588 Y92.257 E3.96511
G1 X121.836 Y93.232 E3.98372
G1 X122.809 Y98.748 E4.08733
G1 X122.879 Y100.561 E4.12090
G1 X122.802 Y101.140 E4.13171
G1 X121.840 Y106.599 E4.23425
G1 X121.515 Y107.789 E4.25707
G1 X121.020 Y108.850 E4.27874
G1 X118.000 Y114.048 E4.38996
G1 X117.874 Y114.230 E4.39404
G1 X116.719 Y115.481 E4.42555
G1 X112.373 Y119.127 E4.53049
G1 X110.785 Y120.102 E4.56497
G1 X110.346 Y120.279 E4.57372
G1 X105.138 Y122.175 E4.67625
G1 X103.771 Y122.515 E4.70232
G1 X102.767 Y122.590 E4.72094
G1 X97.225 Y122.590 E4.82347
G1 X95.990 Y122.476 E4.84643
G1 X94.855 Y122.172 E4.86817
G1 X88.729 Y119.863 E4.98928
G1 X87.561 Y119.075 E5.01534
G1 X82.753 Y114.984 E5.13213
G1 X81.765 Y113.672 E5.16253
G1 X78.744 Y108.398 E5.27497
G1 X78.164 Y106.613 E5.30969
G1 X77.175 Y100.991 E5.41530
G1 X77.091 Y100.073 E5.43234
G1 X77.133 Y99.158 E5.44930
G1 X77.193 Y98.747 E5.45697
G1 X78.167 Y93.224 E5.56072
G1 X78.490 Y92.036 E5.58350
G1 X78.649 Y91.648 E5.59126
G1 X78.980 Y90.995 E5.60481
G1 X82.206 Y85.509 E5.72255
G1 X83.252 Y84.395 E5.75082
G1 X83.455 Y84.538 F6000.000
G1 X88.150 Y80.631 E5.86383 F1200.000
G1 X89.707 Y79.810 E5.89640
G1 X95.301 Y77.788 E6.00644
G1 X97.200 Y77.504 E6.04196
G1 X102.855 Y77.505 E6.14658
G1 X104.922 Y77.859 E6.18538 F1200.000
G1 X111.222 Y80.234 E6.30993
G1 X111.854 Y80.632 E6.32375
G1 X112.263 Y80.948 E6.33331
G1 X116.559 Y84.553 E6.43706
G1 X117.395 Y85.397 E6.45905
G1 X118.012 Y86.285 E6.47905
G1 X121.099 Y91.691 E6.59422
G1 X121.354 Y92.336 E6.60705
G1 X121.593 Y93.275 E6.62498
G1 X122.565 Y98.789 E6.72856
G1 X122.633 Y100.538 E6.76093
G1 X122.559 Y101.098 E6.77138
G1 X121.597 Y106.556 E6.87392
G1 X121.284 Y107.703 E6.89591
G1 X120.806 Y108.727 E6.91682
G1 X117.795 Y113.910 E7.02772
G1 X117.673 Y114.087 E7.03168
G1 X116.560 Y115.291 E7.06203
G1 X112.216 Y118.936 E7.16694
G1 X110.686 Y119.875 E7.20015
G1 X110.262 Y120.047 E7.20861
G1 X105.054 Y121.942 E7.31114
G1 X103.737 Y122.271 E7.33626
G1 X102.767 Y122.343 E7.35424
G1 X96.097 Y122.244 E7.47765
G1 X94.939 Y121.940 E7.49980
G1 X88.845 Y119.645 E7.62028
G1 X87.720 Y118.886 E7.64539
G1 X82.931 Y114.812 E7.76170
G1 X81.979 Y113.548 E7.79098
G1 X78.966 Y108.289 E7.90311
G1 X78.407 Y106.570 E7.93655
G1 X77.419 Y100.954 E8.04205
G1 X77.339 Y100.068 E8.05850
G1 X77.379 Y99.186 E8.07484
G1 X77.436 Y98.790 E8.08223
G1 X78.410 Y93.267 E8.18599
G1 X78.722 Y92.123 E8.20793
G1 X78.875 Y91.749 E8.21541
G1 X79.194 Y91.119 E8.22848
G1 X82.403 Y85.657 E8.34566
G1 X83.411 Y84.584 E8.37290
G1 X83.614 Y84.728 F6000.000
G1 X88.292 Y80.834 E8.48551 F1200.000
G1 X89.792 Y80.043 E8.51689
G1 X95.373 Y78.024 E8.62668
G1 X97.200 Y77.751 E8.66085
G1 X102.851 Y77.752 E8.76540
G1 X104.841 Y78.093 E8.80276 F1200.000
G1 X111.102 Y80.450 E8.92652
G1 X111.710 Y80.833 E8.93982
G1 X112.104 Y81.137 E8.94902
G1 X116.400 Y84.742 E9.05277
G1 X117.205 Y85.554 E9.07392
G1 X117.798 Y86.408 E9.09316
G1 X120.874 Y91.793 E9.20790
G1 X121.119 Y92.414 E9.22024
G1 X121.349 Y93.318 E9.23750
G1 X122.321 Y98.830 E9.34104
G1 X122.387 Y100.514 E9.37222
G1 X122.316 Y101.055 E9.38231
G1 X121.353 Y106.513 E9.48485
G1 X121.052 Y107.616 E9.50600
G1 X120.592 Y108.603 E9.52615
G1 X117.590 Y113.772 E9.63673
G1 X117.472 Y113.943 E9.64058
G1 X116.401 Y115.102 E9.66977
G1 X112.058 Y118.745 E9.77464
G1 X110.587 Y119.649 E9.80658
G1 X110.177 Y119.814 E9.81476
G1 X104.969 Y121.710 E9.91729
G1 X103.702 Y122.026 E9.94145
G1 X102.767 Y122.096 E9.95879
G1 X96.140 Y122.001 E10.08141
G1 X95.024 Y121.708 E10.10276
G1 X88.961 Y119.427 E10.22260
G1 X87.879 Y118.696 E10.24676
G1 X83.109 Y114.641 E10.36258
G1 X82.193 Y113.425 E10.39075
G1 X79.188 Y108.181 E10.50256
G1 X78.651 Y106.527 E10.53473
G1 X77.663 Y100.917 E10.64011
G1 X77.586 Y100.062 E10.65599
G1 X77.625 Y99.214 E10.67170
G1 X77.680 Y98.833 E10.67882
G1 X78.653 Y93.310 E10.78257
G1 X78.953 Y92.209 E10.80368
G1 X79.101 Y91.849 E10.81088
G1 X79.408 Y91.242 E10.82347
G1 X82.600 Y85.806 E10.94009
G1 X83.570 Y84.774 E10.96630
G1 F1860.000 E7.96630
G92 E0
G1 X103.895 Y102.966 F6000.000
G1 E3.10000 F1860.000
G1 X102.619 Y104.114 E3.13176 F1200.000
G1 X102.518 Y104.156 E3.13379
G1 X101.028 Y104.758 E3.16352
G1 X99.312 Y104.817 E3.19528
G1 X97.679 Y104.287 E3.22704
G1 X97.593 Y104.219 E3.22907
G1 X96.327 Y103.230 E3.25880
G1 X95.417 Y101.774 E3.29056
G1 X95.060 Y100.095 E3.32231
G1 X95.075 Y99.986 E3.32434
G1 X95.299 Y98.395 E3.35407
G1 X96.105 Y96.879 E3.38583
G1 X97.381 Y95.731 E3.41759
G1 X98.972 Y95.088 E3.44935
G1 X100.688 Y95.028 E3.48111
G1 X100.792 Y95.062 E3.48314
G1 X102.321 Y95.558 E3.51287 F1200.000
G1 X103.673 Y96.615 E3.54463
G1 X104.583 Y98.071 E3.57639
G1 X104.940 Y99.750 E3.60815
G1 X104.701 Y101.450 E3.63991
G1 X103.925 Y102.910 E3.67050
G1 X103.697 Y102.811 F6000.000
G1 X102.486 Y103.902 E3.70065 F1200.000
G1 X102.425 Y103.926 E3.70187
G1 X100.976 Y104.512 E3.73079
G1 X99.347 Y104.569 E3.76094
G1 X97.797 Y104.065 E3.79108
G1 X97.745 Y104.025 E3.79231
G1 X96.513 Y103.062 E3.82123
G1 X95.650 Y101.680 E3.85138
G1 X95.311 Y100.086 E3.88152
G1 X95.320 Y100.021 E3.88275
G1 X95.538 Y98.473 E3.91167
G1 X96.303 Y97.034 E3.94182
G1 X97.514 Y95.944 E3.97196
G1 X99.024 Y95.333 E4.00211
G1 X99.091 Y95.331 E4.00333
G1 X100.653 Y95.276 E4.03226 F1200.000
G1 X102.203 Y95.780 E4.06240
G1 X103.487 Y96.783 E4.09255
G1 X104.350 Y98.165 E4.12269
G1 X104.689 Y99.759 E4.15284
G1 X104.462 Y101.372 E4.18299
G1 X103.727 Y102.756 E4.21197
G1 F1860.000 E1.21197
G92 E0
G1 X98.980 Y94.926 F6000.000
G1 X113.165 Y108.277 F6000.000
G1 E3.10000 F1860.000
G1 X112.122 Y110.084 E3.13858 F1200.000
G1 X107.902 Y113.625 E3.24051
G1 X102.746 Y115.501 E3.34201
G1 X97.253 Y115.501 E3.44364
G1 X92.091 Y113.623 E3.54526
G1 X87.883 Y110.092 E3.64689
G1 X85.137 Y105.335 E3.74851
G1 X84.183 Y99.926 E3.85010
G1 X85.139 Y94.505 E3.95195
G1 X87.881 Y89.755 E4.05342
G1 X92.089 Y86.224 E4.15504
G1 X97.251 Y84.346 E4.25666
G1 X102.747 Y84.346 E4.35833 F1200.000
G1 X107.906 Y86.224 E4.45991
G1 X112.116 Y89.756 E4.56158
G1 X114.864 Y94.516 E4.66327
G1 X115.818 Y99.926 E4.76490
G1 X114.865 Y105.333 E4.86647
G1 X113.197 Y108.223 E4.92820
G1 X113.379 Y108.401 F6000.000
G1 X112.310 Y110.248 E4.96768 F1200.000
G1 X108.032 Y113.839 E5.07102
G1 X102.808 Y115.742 E5.17387
G1 X97.234 Y115.749 E5.27699
G1 X91.951 Y113.827 E5.38100
G1 X87.683 Y110.240 E5.48413
G1 X84.899 Y105.411 E5.58726
G1 X83.933 Y99.923 E5.69035
G1 X84.903 Y94.419 E5.79374
G1 X87.702 Y89.583 E5.89712
G1 X91.975 Y86.003 E6.00025
G1 X97.168 Y84.113 E6.10250
G1 X97.215 Y84.098 E6.10339
G1 X102.790 Y84.099 E6.20654
G1 X108.032 Y86.006 E6.30973 F1200.000
G1 X112.308 Y89.595 E6.41301
G1 X115.100 Y94.431 E6.51631
G1 X116.064 Y99.956 E6.62008
G1 X115.104 Y105.402 E6.72237
G1 X113.411 Y108.347 E6.78522
G1 F1860.000 E3.78522
G92 E0
G1 X103.141 Y84.330 F6000.000
G1 X103.337 Y84.730 F6000.000
G1 E3.10000 F1860.000
G1 X115.041 Y96.434 E3.40621 F1200.000
G1 X115.116 Y96.858 E3.41418
G1 X102.787 Y84.530 E3.73673
G1 X102.413 Y84.505 E3.74368
G1 X115.191 Y97.283 E4.07799
G1 X115.265 Y97.707 E4.08596
G1 X102.063 Y84.505 E4.43138
G1 X101.713 Y84.505 E4.43785
G1 X115.340 Y98.132 E4.79437
G1 X115.415 Y98.556 E4.80234
G1 X101.364 Y84.505 E5.16997
G1 X101.014 Y84.505 E5.17644
G1 X115.490 Y98.981 E5.55517
G1 X115.565 Y99.405 E5.56315
G1 X100.664 Y84.505 E5.95299
G1 X100.315 Y84.505 E5.95946
G1 X115.640 Y99.830 E6.36041
G1 X115.616 Y100.156 E6.36646
G1 X99.965 Y84.505 E6.77594
G1 X99.615 Y84.505 E6.78241
G1 X115.564 Y100.453 E7.19966
G1 X115.511 Y100.750 E7.20525
G1 X99.266 Y84.505 E7.63028
G1 X98.916 Y84.505 E7.63675
G1 X115.459 Y101.048 E8.06956
G1 X115.407 Y101.345 E8.07515
G1 X98.567 Y84.505 E8.51574
G1 X98.217 Y84.505 E8.52220
G1 X115.354 Y101.642 E8.97057
G1 X115.302 Y101.939 E8.97615
G1 X97.867 Y84.505 E9.43230
G1 X97.518 Y84.505 E9.43876
G1 X115.249 Y102.237 E9.90268
G1 X115.197 Y102.534 E9.90827
G1 X97.198 Y84.534 E10.37919
G1 X96.941 Y84.628 E10.38423
G1 X115.144 Y102.831 E10.86049
G1 X115.092 Y103.128 E10.86608
G1 X96.685 Y84.721 E11.34767
G1 X96.428 Y84.814 E11.35271
G1 X115.040 Y103.426 E11.83964
G1 X114.987 Y103.723 E11.84523
G1 X96.172 Y84.908 E12.33749
G1 X95.916 Y85.001 E12.34254
G1 X114.935 Y104.020 E12.84014
G1 X114.882 Y104.317 E12.84572
G1 X95.659 Y85.094 E13.34865
G1 X95.403 Y85.188 E13.35370
G1 X114.830 Y104.614 E13.86197
G1 X114.778 Y104.912 E13.86756
G1 X95.147 Y85.281 E14.38116
G1 X94.890 Y85.374 E14.38621
G1 X114.725 Y105.209 E14.90515
G1 X114.615 Y105.448 E14.91003
G1 X94.634 Y85.468 E15.43279
G1 X94.378 Y85.561 E15.43783
G1 X114.487 Y105.670 E15.96395
G1 X114.359 Y105.892 E15.96869
G1 X94.121 Y85.654 E16.49816
G1 X93.865 Y85.747 E16.50321
G1 X114.231 Y106.113 E17.03605
G1 X114.103 Y106.335 E17.04078
G1 X93.609 Y85.841 E17.57698
G1 X93.352 Y85.934 E17.58202
G1 X113.975 Y106.557 E18.12158
G1 X113.847 Y106.778 E18.12631
G1 X104.157 Y97.088 E18.37984
G1 X104.734 Y98.015 F6000.000
G1 X113.719 Y107.000 E18.61492 F1200.000
G1 X113.591 Y107.222 E18.61965
G1 X104.828 Y98.459 E18.84891
G1 X104.923 Y98.903 E18.85731
G1 X113.463 Y107.443 E19.08075
G1 X113.335 Y107.665 E19.08548
G1 X105.017 Y99.347 E19.30310
G1 X105.097 Y99.777 E19.31119
G1 X113.207 Y107.887 E19.52337
G1 X113.079 Y108.108 E19.52811
G1 X105.054 Y100.083 E19.73807
G1 X105.011 Y100.390 E19.74379
G1 X112.951 Y108.330 E19.95153
G1 X112.823 Y108.552 E19.95627
G1 X104.968 Y100.696 E20.16179
G1 X104.925 Y101.003 E20.16752
G1 X112.695 Y108.773 E20.37081
G1 X112.567 Y108.995 E20.37555
G1 X104.882 Y101.309 E20.57662
G1 X104.809 Y101.586 E20.58192
G1 X112.439 Y109.217 E20.78155
G1 X112.311 Y109.438 E20.78629
G1 X104.688 Y101.815 E20.98575
G1 X104.566 Y102.043 E20.99053
G1 X112.183 Y109.660 E21.18981
G1 X112.055 Y109.882 E21.19455
G1 X104.445 Y102.271 E21.39366
G1 X104.323 Y102.499 E21.39844
G1 X111.887 Y110.063 E21.59633
G1 X111.702 Y110.228 E21.60091
G1 X104.202 Y102.728 E21.79714
G1 X104.081 Y102.956 E21.80192
G1 X111.512 Y110.388 E21.99636
G1 X111.322 Y110.547 E22.00095
G1 X103.927 Y103.152 E22.19444
G1 X103.743 Y103.317 E22.19902
G1 X111.132 Y110.707 E22.39235
G1 X110.942 Y110.866 E22.39694
G1 X103.559 Y103.483 E22.59011
G1 X103.375 Y103.649 E22.59469
G1 X110.752 Y111.026 E22.78770
G1 X110.562 Y111.185 E22.79229
G1 X103.191 Y103.814 E22.98514
G1 X103.007 Y103.980 E22.98972
G1 X110.372 Y111.345 E23.18241
G1 X110.181 Y111.504 E23.18700
G1 X102.823 Y104.146 E23.37953
G1 X102.615 Y104.288 E23.38419
G1 X109.991 Y111.664 E23.57717
G1 X109.801 Y111.823 E23.58176
G1 X102.366 Y104.388 E23.77628
G1 X102.117 Y104.489 E23.78125
G1 X109.611 Y111.983 E23.97731
G1 X109.421 Y112.142 E23.98191
G1 X101.868 Y104.590 E24.17951
G1 X101.619 Y104.690 E24.18448
G1 X109.231 Y112.302 E24.38363
G1 X109.041 Y112.462 E24.38822
G1 X101.370 Y104.791 E24.58891
G1 X101.121 Y104.892 E24.59388
G1 X108.851 Y112.621 E24.79611
G1 X108.660 Y112.781 E24.80070
G1 X100.805 Y104.925 E25.00624
G1 X100.467 Y104.936 E25.01249
G1 X108.470 Y112.940 E25.22189
G1 X108.280 Y113.100 E25.22648
G1 X100.129 Y104.948 E25.43975
G1 X99.791 Y104.960 E25.44601
G1 X108.090 Y113.259 E25.66314
G1 X107.900 Y113.419 E25.66773
G1 X99.453 Y104.972 E25.88873
G1 X99.022 Y104.891 E25.89684
G1 X107.671 Y113.540 E26.12312
G1 X107.415 Y113.633 E26.12816
G1 X98.504 Y104.722 E26.36129
G1 X97.986 Y104.554 E26.37136
G1 X107.158 Y113.726 E26.61133
G1 X106.902 Y113.819 E26.61638
G1 X97.187 Y104.104 E26.87056
G1 X95.849 Y102.767 F6000.000
G1 X86.152 Y93.069 E27.12427 F1200.000
G1 X86.280 Y92.847 E27.12901
G1 X95.267 Y101.835 E27.36414
G1 X95.173 Y101.391 E27.37254
G1 X86.408 Y92.626 E27.60186
G1 X86.536 Y92.404 E27.60660
G1 X95.078 Y100.947 E27.83009
G1 X94.984 Y100.503 E27.83849
G1 X86.664 Y92.182 E28.05617
G1 X86.792 Y91.961 E28.06091
G1 X94.903 Y100.072 E28.27311
G1 X94.946 Y99.765 E28.27884
G1 X86.920 Y91.739 E28.48883
G1 X87.048 Y91.517 E28.49356
G1 X94.989 Y99.458 E28.70132
G1 X95.032 Y99.152 E28.70705
G1 X87.176 Y91.296 E28.91259
G1 X87.304 Y91.074 E28.91733
G1 X95.075 Y98.845 E29.12065
G1 X95.118 Y98.539 E29.12638
G1 X87.432 Y90.852 E29.32748
G1 X87.560 Y90.631 E29.33221
G1 X95.190 Y98.261 E29.53184
G1 X95.311 Y98.033 E29.53663
G1 X87.688 Y90.409 E29.73609
G1 X87.816 Y90.187 E29.74082
G1 X95.433 Y97.805 E29.94011
G1 X95.554 Y97.576 E29.94489
G1 X87.944 Y89.966 E30.14401
G1 X88.110 Y89.783 E30.14859
G1 X95.675 Y97.348 E30.34652
G1 X95.797 Y97.120 E30.35130
G1 X88.294 Y89.617 E30.54760
G1 X88.484 Y89.457 E30.55219
G1 X95.918 Y96.891 E30.74669
G1 X96.071 Y96.695 E30.75130
G1 X88.674 Y89.298 E30.94484
G1 X88.864 Y89.138 E30.94943
G1 X96.255 Y96.529 E31.14281
G1 X96.439 Y96.364 E31.14739
G1 X89.054 Y88.979 E31.34061
G1 X89.244 Y88.819 E31.34520
G1 X96.623 Y96.198 E31.53826
G1 X96.807 Y96.032 E31.54284
G1 X89.435 Y88.660 E31.73574
G1 X89.625 Y88.500 E31.74033
G1 X96.991 Y95.867 E31.93306
G1 X97.175 Y95.701 E31.93764
G1 X89.815 Y88.341 E32.13022
G1 X90.005 Y88.181 E32.13481
G1 X97.382 Y95.558 E32.32782
G1 X97.631 Y95.458 E32.33279
G1 X90.195 Y88.022 E32.52735
G1 X90.385 Y87.862 E32.53194
G1 X97.880 Y95.357 E32.72803
G1 X98.129 Y95.256 E32.73300
G1 X90.575 Y87.702 E32.93064
G1 X90.765 Y87.543 E32.93523
G1 X98.378 Y95.156 E33.13441
G1 X98.627 Y95.055 E33.13938
G1 X90.956 Y87.383 E33.34010
G1 X91.146 Y87.224 E33.34469
G1 X98.876 Y94.955 E33.54695
G1 X99.192 Y94.921 E33.55282
G1 X91.336 Y87.064 E33.75837
G1 X91.526 Y86.905 E33.76296
G1 X99.530 Y94.909 E33.97237
G1 X99.868 Y94.897 E33.97862
G1 X91.716 Y86.745 E34.19190
G1 X91.906 Y86.586 E34.19649
G1 X100.206 Y94.885 E34.41363
G1 X100.543 Y94.873 E34.41988
G1 X92.096 Y86.426 E34.64089
G1 X92.327 Y86.307 E34.64569
G1 X100.972 Y94.953 E34.87188
G1 X101.490 Y95.121 E34.88196
G1 X92.583 Y86.214 E35.11500
G1 X92.840 Y86.121 E35.12004
G1 X102.008 Y95.289 E35.35992
G1 X102.797 Y95.728 F6000.000
G1 X93.096 Y86.027 E35.61373 F1200.000
G1 F1860.000 E32.61373
G92 E0
G1 X86.024 Y93.291 F6000.000
G1 E3.10000 F1860.000
G1 X106.646 Y113.913 E3.63954 F1200.000
G1 X106.389 Y114.006 E3.64458
G1 X85.896 Y93.512 E4.18076
G1 X85.768 Y93.734 E4.18550
G1 X106.133 Y114.099 E4.71832
G1 X105.877 Y114.193 E4.72336
G1 X85.640 Y93.956 E5.25282
G1 X85.512 Y94.177 E5.25756
G1 X105.620 Y114.286 E5.78366
G1 X105.364 Y114.379 E5.78871
G1 X85.384 Y94.399 E6.31145
G1 X85.277 Y94.641 E6.31635
G1 X105.108 Y114.473 E6.83520
G1 X104.851 Y114.566 E6.84025
G1 X85.224 Y94.939 E7.35376
G1 X85.172 Y95.236 E7.35934
G1 X104.595 Y114.659 E7.86752
G1 X104.339 Y114.752 E7.87256
G1 X85.119 Y95.533 E8.37540
G1 X85.067 Y95.830 E8.38098
G1 X104.082 Y114.846 E8.87849
G1 X103.826 Y114.939 E8.88354
G1 X85.015 Y96.128 E9.37570
G1 X84.962 Y96.425 E9.38129
G1 X103.570 Y115.032 E9.86812
G1 X103.313 Y115.126 E9.87317
G1 X84.910 Y96.722 E10.35466
G1 X84.857 Y97.019 E10.36025
G1 X103.057 Y115.219 E10.83641
G1 X102.801 Y115.312 E10.84145
G1 X84.805 Y97.317 E11.31228
G1 X84.752 Y97.614 E11.31786
G1 X102.481 Y115.342 E11.78170
G1 X102.131 Y115.342 E11.78816
G1 X84.700 Y97.911 E12.24422
G1 X84.648 Y98.208 E12.24980
G1 X101.782 Y115.342 E12.69808
G1 X101.432 Y115.342 E12.70455
G1 X84.595 Y98.506 E13.14505
G1 X84.543 Y98.803 E13.15064
