; generated by Slic3r 1.1.7 on 2014-12-12 at 21:16:13

; perimeters extrusion width = 0.42mm
; infill extrusion width = 0.74mm
; solid infill extrusion width = 0.71mm
; top infill extrusion width = 0.71mm
; support material extrusion width = 0.42mm

G21 ; set units to millimeters
M190 S57 ; wait for bed temperature to be reached
M104 S186 ; set temperature
G28 ; home all axes Start of G Code Slic3r
 
M109 S186 ; wait for temperature to be reached
G90 ; use absolute coordinates
G92 E0
M82 ; use absolute distances for extrusion
G1 F1860.000 E-3.00000
G92 E0
G1 Z0.200 F6000.000
G1 X61.384 Y72.099 F6000.000
G1 E3.10000 F1860.000
G1 X65.994 Y68.262 E3.21096 F1200.000
G1 X67.552 Y67.442 E3.24353
G1 X73.041 Y65.457 E3.35152
G1 X74.940 Y65.173 E3.38704
G1 X80.485 Y65.174 E3.48962
G1 X123.367 Y66.984 E4.28366 F1200.000
G1 X124.992 Y67.262 E4.31415
G1 X128.768 Y68.417 E4.38720
G1 X130.545 Y69.273 E4.42369
G1 X133.800 Y71.508 E4.49675
G1 X135.238 Y72.859 E4.53324
G1 X137.672 Y75.968 E4.60630
G1 X138.668 Y77.769 E4.64437
G1 X147.705 Y102.835 E5.13732
G1 X148.089 Y105.038 E5.17868
G1 X148.089 Y128.418 E5.61121
G1 X147.693 Y130.653 E5.65322
G1 X146.550 Y132.616 E5.69523
G1 X144.802 Y134.065 E5.73723
G1 X141.595 Y134.912 E5.79860
G1 X138.417 Y134.905 E5.85740
G1 X47.267 Y130.715 E7.54548
G1 X45.052 Y130.216 E7.58748
G1 X43.144 Y128.985 E7.62949
G1 X41.776 Y127.172 E7.67150
G1 X41.071 Y124.228 E7.72752
G1 X41.071 Y109.228 E8.00502
G1 X41.889 Y106.071 E8.06535
G1 X57.178 Y78.583 E8.64726
G1 X60.332 Y73.218 E8.76240
G1 X61.340 Y72.144 E8.78964
G1 X61.543 Y72.288 F6000.000
G1 X66.136 Y68.465 E8.90020 F1200.000
G1 X67.636 Y67.674 E8.93158
G1 X73.113 Y65.693 E9.03933
G1 X74.940 Y65.420 E9.07349
G1 X80.480 Y65.421 E9.17599
G1 X123.357 Y67.231 E9.96992 F1200.000
G1 X124.919 Y67.499 E9.99925
G1 X128.695 Y68.653 E10.07230
G1 X130.405 Y69.477 E10.10741
G1 X133.660 Y71.712 E10.18046
G1 X135.043 Y73.011 E10.21556
G1 X137.478 Y76.121 E10.28862
G1 X138.435 Y77.853 E10.32524
G1 X147.472 Y102.919 E10.81819
G1 X147.842 Y105.038 E10.85798
G1 X147.842 Y128.418 E11.29051
G1 X147.445 Y130.609 E11.33171
G1 X146.305 Y132.521 E11.37290
G1 X144.567 Y133.913 E11.41409
G1 X141.595 Y134.665 E11.47081
G1 X138.428 Y134.659 E11.52940
G1 X47.278 Y130.468 E13.21747
G1 X45.108 Y129.972 E13.25867
G1 X43.249 Y128.745 E13.29986
G1 X41.939 Y126.944 E13.34105
G1 X41.318 Y124.228 E13.39261
G1 X41.318 Y109.228 E13.67011
G1 X42.105 Y106.191 E13.72814
G1 X57.393 Y78.706 E14.30998
G1 X60.529 Y73.366 E14.42456
G1 X61.499 Y72.334 E14.45077
G1 F1860.000 E11.45077
G92 E0
G1 X118.232 Y120.175 F6000.000
G1 E3.10000 F1860.000
G1 X118.232 Y113.281 E3.22755 F1200.000
G1 X47.912 Y113.281 E4.52848
G1 X47.912 Y109.575 E4.59704
G1 X62.021 Y109.575 E4.85805
G1 X63.971 Y111.525 E4.90907
G1 X133.686 Y111.525 E6.19882
G1 X138.876 Y105.385 E6.34755
G1 X141.248 Y105.385 E6.39143
G1 X141.248 Y128.071 E6.81112
G1 X138.838 Y128.071 E6.85570
G1 X133.648 Y123.881 E6.97910
G1 X47.912 Y123.881 E8.56523
G1 X47.912 Y120.175 E8.63378
G1 X118.169 Y120.175 E9.93355
G1 X117.985 Y119.928 F6000.000
G1 X117.985 Y113.528 E10.05195 F1200.000
G1 X47.665 Y113.528 E11.35289
G1 X47.665 Y109.328 E11.43059
G1 X62.123 Y109.328 E11.69807
G1 X64.073 Y111.278 E11.74909
G1 X133.571 Y111.278 E13.03482
G1 X138.761 Y105.138 E13.18356
G1 X141.495 Y105.138 E13.23413
G1 X141.495 Y128.318 E13.66296
G1 X138.750 Y128.318 E13.71374
G1 X133.560 Y124.128 E13.83714
G1 X47.665 Y124.128 E15.42622
G1 X47.665 Y119.928 E15.50392
G1 X117.922 Y119.928 E16.80369
G1 X118.405 Y119.928 F6000.000
G1 F1860.000 E13.80369
G92 E0
G1 X118.131 Y113.121 F6000.000
G1 E3.10000 F1860.000
G1 X116.693 Y111.684 E3.13760 F1200.000
G1 X116.343 Y111.684 E3.14409
G1 X117.780 Y113.121 E3.18169
G1 X117.430 Y113.121 E3.18817
G1 X115.992 Y111.684 E3.22577
G1 X115.642 Y111.684 E3.23226
G1 X117.079 Y113.121 E3.26986
G1 X116.729 Y113.121 E3.27634
G1 X115.291 Y111.684 E3.31394
G1 X114.941 Y111.684 E3.32043
G1 X116.378 Y113.121 E3.35803
G1 X116.028 Y113.121 E3.36451
G1 X114.590 Y111.684 E3.40211
G1 X114.240 Y111.684 E3.40860
G1 X115.677 Y113.121 E3.44620
G1 X115.326 Y113.121 E3.45268
G1 X113.889 Y111.684 E3.49028
G1 X113.539 Y111.684 E3.49677
G1 X114.976 Y113.121 E3.53437
G1 X114.625 Y113.121 E3.54086
G1 X113.188 Y111.684 E3.57846
G1 X112.838 Y111.684 E3.58494
G1 X114.275 Y113.121 E3.62254
G1 X113.924 Y113.121 E3.62903
G1 X112.487 Y111.684 E3.66663
G1 X112.137 Y111.684 E3.67311
G1 X113.574 Y113.121 E3.71071
G1 X113.223 Y113.121 E3.71720
G1 X111.786 Y111.684 E3.75480
G1 X111.436 Y111.684 E3.76128
G1 X112.873 Y113.121 E3.79888
G1 X112.522 Y113.121 E3.80537
G1 X111.085 Y111.684 E3.84297
G1 X110.735 Y111.684 E3.84945
G1 X112.172 Y113.121 E3.88705
G1 X111.821 Y113.121 E3.89354
G1 X110.384 Y111.684 E3.93114
G1 X110.034 Y111.684 E3.93762
G1 X111.471 Y113.121 E3.97523
G1 X111.120 Y113.121 E3.98171
G1 X109.683 Y111.684 E4.01931
G1 X109.333 Y111.684 E4.02580
G1 X110.770 Y113.121 E4.06340
G1 X110.419 Y113.121 E4.06988
G1 X108.982 Y111.684 E4.10748
G1 X108.632 Y111.684 E4.11397
G1 X110.069 Y113.121 E4.15157
G1 X109.718 Y113.121 E4.15805
G1 X108.281 Y111.684 E4.19565
G1 X107.931 Y111.684 E4.20214
G1 X109.368 Y113.121 E4.23974
G1 X109.017 Y113.121 E4.24622
G1 X107.580 Y111.684 E4.28382
G1 X107.229 Y111.684 E4.29031
G1 X108.667 Y113.121 E4.32791
G1 X108.316 Y113.121 E4.33439
G1 X106.879 Y111.684 E4.37199
G1 X106.528 Y111.684 E4.37848
G1 X107.966 Y113.121 E4.41608
G1 X107.615 Y113.121 E4.42256
G1 X106.178 Y111.684 E4.46017
G1 X105.827 Y111.684 E4.46665
G1 X107.265 Y113.121 E4.50425
G1 X106.914 Y113.121 E4.51074
G1 X105.477 Y111.684 E4.54834
G1 X105.126 Y111.684 E4.55482
G1 X106.564 Y113.121 E4.59242
G1 X106.213 Y113.121 E4.59891
G1 X104.776 Y111.684 E4.63651
G1 X104.425 Y111.684 E4.64299
G1 X105.863 Y113.121 E4.68059
G1 X105.512 Y113.121 E4.68708
G1 X104.075 Y111.684 E4.72468
G1 X103.724 Y111.684 E4.73116
G1 X105.161 Y113.121 E4.76876
G1 X104.811 Y113.121 E4.77525
G1 X103.374 Y111.684 E4.81285
G1 X103.023 Y111.684 E4.81933
G1 X104.460 Y113.121 E4.85694
G1 X104.110 Y113.121 E4.86342
G1 X102.673 Y111.684 E4.90102
G1 X102.322 Y111.684 E4.90751
G1 X103.759 Y113.121 E4.94511
G1 X103.409 Y113.121 E4.95159
G1 X101.972 Y111.684 E4.98919
G1 X101.621 Y111.684 E4.99568
G1 X103.058 Y113.121 E5.03328
G1 X102.708 Y113.121 E5.03976
G1 X101.271 Y111.684 E5.07736
G1 X100.920 Y111.684 E5.08385
G1 X102.357 Y113.121 E5.12145
G1 X102.007 Y113.121 E5.12793
G1 X100.570 Y111.684 E5.16553
G1 X100.219 Y111.684 E5.17202
G1 X101.656 Y113.121 E5.20962
G1 X101.306 Y113.121 E5.21610
G1 X99.869 Y111.684 E5.25370
G1 X99.518 Y111.684 E5.26019
G1 X100.955 Y113.121 E5.29779
G1 X100.605 Y113.121 E5.30427
G1 X99.168 Y111.684 E5.34188
G1 X98.817 Y111.684 E5.34836
G1 X100.254 Y113.121 E5.38596
G1 X99.904 Y113.121 E5.39245
G1 X98.467 Y111.684 E5.43005
G1 X98.116 Y111.684 E5.43653
G1 X99.553 Y113.121 E5.47413
G1 X99.203 Y113.121 E5.48062
G1 X97.765 Y111.684 E5.51822
G1 X97.415 Y111.684 E5.52470
G1 X98.852 Y113.121 E5.56230
G1 X98.502 Y113.121 E5.56879
G1 X97.064 Y111.684 E5.60639
G1 X96.714 Y111.684 E5.61287
G1 X98.151 Y113.121 E5.65047
G1 X97.801 Y113.121 E5.65696
G1 X96.363 Y111.684 E5.69456
G1 X96.013 Y111.684 E5.70104
G1 X97.450 Y113.121 E5.73864
G1 X97.100 Y113.121 E5.74513
G1 X95.662 Y111.684 E5.78273
G1 X95.312 Y111.684 E5.78922
G1 X96.749 Y113.121 E5.82682
G1 X96.399 Y113.121 E5.83330
G1 X94.961 Y111.684 E5.87090
G1 X94.611 Y111.684 E5.87739
G1 X96.048 Y113.121 E5.91499
G1 X95.697 Y113.121 E5.92147
G1 X94.260 Y111.684 E5.95907
G1 X93.910 Y111.684 E5.96556
G1 X95.347 Y113.121 E6.00316
G1 X94.996 Y113.121 E6.00964
G1 X93.559 Y111.684 E6.04724
G1 X93.209 Y111.684 E6.05373
G1 X94.646 Y113.121 E6.09133
G1 X94.295 Y113.121 E6.09781
G1 X92.858 Y111.684 E6.13541
G1 X92.508 Y111.684 E6.14190
G1 X93.945 Y113.121 E6.17950
G1 X93.594 Y113.121 E6.18598
G1 X92.157 Y111.684 E6.22359
G1 X91.807 Y111.684 E6.23007
G1 X93.244 Y113.121 E6.26767
G1 X92.893 Y113.121 E6.27416
G1 X91.456 Y111.684 E6.31176
G1 X91.106 Y111.684 E6.31824
G1 X92.543 Y113.121 E6.35584
G1 X92.192 Y113.121 E6.36233
G1 X90.755 Y111.684 E6.39993
G1 X90.405 Y111.684 E6.40641
G1 X91.842 Y113.121 E6.44401
G1 X91.491 Y113.121 E6.45050
G1 X90.054 Y111.684 E6.48810
G1 X89.704 Y111.684 E6.49458
G1 X91.141 Y113.121 E6.53218
G1 X90.790 Y113.121 E6.53867
G1 X89.353 Y111.684 E6.57627
G1 X89.003 Y111.684 E6.58275
G1 X90.440 Y113.121 E6.62035
G1 X90.089 Y113.121 E6.62684
G1 X88.652 Y111.684 E6.66444
G1 X88.301 Y111.684 E6.67092
G1 X89.739 Y113.121 E6.70853
G1 X89.388 Y113.121 E6.71501
G1 X87.951 Y111.684 E6.75261
G1 X87.600 Y111.684 E6.75910
G1 X89.038 Y113.121 E6.79670
G1 X88.687 Y113.121 E6.80318
G1 X87.250 Y111.684 E6.84078
G1 X86.899 Y111.684 E6.84727
G1 X88.337 Y113.121 E6.88487
G1 X87.986 Y113.121 E6.89135
G1 X86.549 Y111.684 E6.92895
G1 X86.198 Y111.684 E6.93544
G1 X87.636 Y113.121 E6.97304
G1 X87.285 Y113.121 E6.97952
G1 X85.848 Y111.684 E7.01712
G1 X85.497 Y111.684 E7.02361
G1 X86.935 Y113.121 E7.06121
G1 X86.584 Y113.121 E7.06769
G1 X85.147 Y111.684 E7.10530
G1 X84.796 Y111.684 E7.11178
G1 X86.233 Y113.121 E7.14938
G1 X85.883 Y113.121 E7.15587
G1 X84.446 Y111.684 E7.19347
G1 X84.095 Y111.684 E7.19995
G1 X85.532 Y113.121 E7.23755
G1 X85.182 Y113.121 E7.24404
G1 X83.745 Y111.684 E7.28164
G1 X83.394 Y111.684 E7.28812
G1 X84.831 Y113.121 E7.32572
G1 X84.481 Y113.121 E7.33221
G1 X83.044 Y111.684 E7.36981
G1 X82.693 Y111.684 E7.37629
G1 X84.130 Y113.121 E7.41389
G1 X83.780 Y113.121 E7.42038
G1 X82.343 Y111.684 E7.45798
G1 X81.992 Y111.684 E7.46446
G1 X83.429 Y113.121 E7.50206
G1 X83.079 Y113.121 E7.50855
G1 X81.642 Y111.684 E7.54615
G1 X81.291 Y111.684 E7.55263
G1 X82.728 Y113.121 E7.59024
G1 X82.378 Y113.121 E7.59672
G1 X80.941 Y111.684 E7.63432
G1 X80.590 Y111.684 E7.64081
G1 X82.027 Y113.121 E7.67841
G1 X81.677 Y113.121 E7.68489
G1 X80.240 Y111.684 E7.72249
G1 X79.889 Y111.684 E7.72898
G1 X81.326 Y113.121 E7.76658
G1 X80.976 Y113.121 E7.77306
G1 X79.539 Y111.684 E7.81066
G1 X79.188 Y111.684 E7.81715
G1 X80.625 Y113.121 E7.85475
G1 X80.275 Y113.121 E7.86123
G1 X78.838 Y111.684 E7.89883
G1 X78.487 Y111.684 E7.90532
G1 X79.924 Y113.121 E7.94292
G1 X79.574 Y113.121 E7.94940
G1 X78.136 Y111.684 E7.98701
G1 X77.786 Y111.684 E7.99349
G1 X79.223 Y113.121 E8.03109
G1 X78.873 Y113.121 E8.03758
G1 X77.435 Y111.684 E8.07518
G1 X77.085 Y111.684 E8.08166
G1 X78.522 Y113.121 E8.11926
G1 X78.172 Y113.121 E8.12575
G1 X76.734 Y111.684 E8.16335
G1 X76.384 Y111.684 E8.16983
G1 X77.821 Y113.121 E8.20743
G1 X77.471 Y113.121 E8.21392
G1 X76.033 Y111.684 E8.25152
G1 X75.683 Y111.684 E8.25800
G1 X77.120 Y113.121 E8.29560
G1 X76.769 Y113.121 E8.30209
G1 X75.332 Y111.684 E8.33969
G1 X74.982 Y111.684 E8.34617
G1 X76.419 Y113.121 E8.38377
G1 X76.068 Y113.121 E8.39026
G1 X74.631 Y111.684 E8.42786
G1 X74.281 Y111.684 E8.43434
G1 X75.718 Y113.121 E8.47195
G1 X75.367 Y113.121 E8.47843
G1 X73.930 Y111.684 E8.51603
G1 X73.580 Y111.684 E8.52252
G1 X75.017 Y113.121 E8.56012
G1 X74.666 Y113.121 E8.56660
G1 X73.229 Y111.684 E8.60420
G1 X72.879 Y111.684 E8.61069
G1 X74.316 Y113.121 E8.64829
G1 X73.965 Y113.121 E8.65477
G1 X72.528 Y111.684 E8.69237
G1 X72.178 Y111.684 E8.69886
G1 X73.615 Y113.121 E8.73646
G1 X73.264 Y113.121 E8.74294
G1 X71.827 Y111.684 E8.78054
G1 X71.477 Y111.684 E8.78703
G1 X72.914 Y113.121 E8.82463
G1 X72.563 Y113.121 E8.83111
G1 X71.126 Y111.684 E8.86872
G1 X70.776 Y111.684 E8.87520
G1 X72.213 Y113.121 E8.91280
G1 X71.862 Y113.121 E8.91929
G1 X70.425 Y111.684 E8.95689
G1 X70.075 Y111.684 E8.96337
G1 X71.512 Y113.121 E9.00097
G1 X71.161 Y113.121 E9.00746
G1 X69.724 Y111.684 E9.04506
G1 X69.374 Y111.684 E9.05154
G1 X70.811 Y113.121 E9.08914
G1 X70.460 Y113.121 E9.09563
G1 X69.023 Y111.684 E9.13323
G1 X68.672 Y111.684 E9.13971
G1 X70.110 Y113.121 E9.17731
G1 X69.759 Y113.121 E9.18380
G1 X68.322 Y111.684 E9.22140
G1 X67.971 Y111.684 E9.22788
G1 X69.409 Y113.121 E9.26548
G1 X69.058 Y113.121 E9.27197
G1 X67.621 Y111.684 E9.30957
G1 X67.270 Y111.684 E9.31605
G1 X68.708 Y113.121 E9.35366
G1 X68.357 Y113.121 E9.36014
G1 X66.920 Y111.684 E9.39774
G1 X66.569 Y111.684 E9.40423
G1 X68.007 Y113.121 E9.44183
G1 X67.656 Y113.121 E9.44831
G1 X66.219 Y111.684 E9.48591
G1 X65.868 Y111.684 E9.49240
G1 X67.305 Y113.121 E9.53000
G1 X66.955 Y113.121 E9.53648
G1 X65.518 Y111.684 E9.57408
G1 X65.167 Y111.684 E9.58057
G1 X66.604 Y113.121 E9.61817
G1 X66.254 Y113.121 E9.62465
G1 X64.817 Y111.684 E9.66225
G1 X64.466 Y111.684 E9.66874
G1 X65.903 Y113.121 E9.70634
G1 X65.553 Y113.121 E9.71282
G1 X64.116 Y111.684 E9.75043
G1 F1860.000 E6.75043
G92 E0
G1 X61.815 Y109.734 F6000.000
G1 E3.10000 F1860.000
G1 X65.202 Y113.121 E3.18862 F1200.000
G1 X64.852 Y113.121 E3.19510
G1 X61.465 Y109.734 E3.28372
G1 X61.114 Y109.734 E3.29021
G1 X64.501 Y113.121 E3.37883
G1 X64.151 Y113.121 E3.38531
G1 X60.764 Y109.734 E3.47393
G1 X60.413 Y109.734 E3.48042
G1 X63.800 Y113.121 E3.56903
G1 X63.450 Y113.121 E3.57552
G1 X60.063 Y109.734 E3.66414
G1 X59.712 Y109.734 E3.67062
G1 X63.099 Y113.121 E3.75924
G1 X62.749 Y113.121 E3.76573
G1 X59.362 Y109.734 E3.85435
G1 X59.011 Y109.734 E3.86083
G1 X62.398 Y113.121 E3.94945
G1 X62.048 Y113.121 E3.95593
G1 X58.661 Y109.734 E4.04455
G1 X58.310 Y109.734 E4.05104
G1 X61.697 Y113.121 E4.13966
G1 X61.347 Y113.121 E4.14614
G1 X57.960 Y109.734 E4.23476
G1 X57.609 Y109.734 E4.24124
G1 X60.996 Y113.121 E4.32986
G1 X60.646 Y113.121 E4.33635
G1 X57.258 Y109.734 E4.42497
G1 X56.908 Y109.734 E4.43145
G1 X60.295 Y113.121 E4.52007
G1 X59.945 Y113.121 E4.52656
G1 X56.557 Y109.734 E4.61518
G1 X56.207 Y109.734 E4.62166
G1 X59.594 Y113.121 E4.71028
G1 X59.244 Y113.121 E4.71676
G1 X55.856 Y109.734 E4.80538
G1 X55.506 Y109.734 E4.81187
G1 X58.893 Y113.121 E4.90049
G1 X58.543 Y113.121 E4.90697
G1 X55.155 Y109.734 E4.99559
G1 X54.805 Y109.734 E5.00207
G1 X58.192 Y113.121 E5.09069
G1 X57.841 Y113.121 E5.09718
G1 X54.454 Y109.734 E5.18580
G1 X54.104 Y109.734 E5.19228
G1 X57.491 Y113.121 E5.28090
G1 X57.140 Y113.121 E5.28739
G1 X53.753 Y109.734 E5.37601
G1 X53.403 Y109.734 E5.38249
G1 X56.790 Y113.121 E5.47111
G1 X56.439 Y113.121 E5.47759
G1 X53.052 Y109.734 E5.56621
G1 X52.702 Y109.734 E5.57270
G1 X56.089 Y113.121 E5.66132
G1 X55.738 Y113.121 E5.66780
G1 X52.351 Y109.734 E5.75642
G1 X52.001 Y109.734 E5.76290
G1 X55.388 Y113.121 E5.85152
G1 X55.037 Y113.121 E5.85801
G1 X51.650 Y109.734 E5.94663
G1 X51.300 Y109.734 E5.95311
G1 X54.687 Y113.121 E6.04173
G1 X54.336 Y113.121 E6.04822
G1 X50.949 Y109.734 E6.13684
G1 X50.599 Y109.734 E6.14332
G1 X53.986 Y113.121 E6.23194
G1 X53.635 Y113.121 E6.23842
G1 X50.248 Y109.734 E6.32704
G1 X49.898 Y109.734 E6.33353
G1 X53.285 Y113.121 E6.42215
G1 X52.934 Y113.121 E6.42863
G1 X49.547 Y109.734 E6.51725
G1 X49.197 Y109.734 E6.52373
G1 X52.584 Y113.121 E6.61235
G1 X52.233 Y113.121 E6.61884
G1 X48.846 Y109.734 E6.70746
G1 X48.496 Y109.734 E6.71394
G1 X51.883 Y113.121 E6.80256
G1 X51.532 Y113.121 E6.80905
G1 X48.145 Y109.734 E6.89766
G1 X48.071 Y110.011 E6.90297
G1 X51.182 Y113.121 E6.98434
G1 X50.831 Y113.121 E6.99082
G1 X48.071 Y110.362 E7.06303
G1 X48.071 Y110.712 E7.06951
G1 X50.481 Y113.121 E7.13254
G1 X50.130 Y113.121 E7.13903
G1 X48.071 Y111.063 E7.19289
G1 X48.071 Y111.413 E7.19937
G1 X49.780 Y113.121 E7.24406
G1 X49.429 Y113.121 E7.25055
G1 X48.071 Y111.764 E7.28607
G1 X48.071 Y112.114 E7.29255
G1 X49.079 Y113.121 E7.31890
G1 X48.728 Y113.121 E7.32539
G1 X48.071 Y112.465 E7.34257
G1 X48.071 Y112.815 E7.34905
G1 X48.377 Y113.121 E7.35706
G1 F1860.000 E4.35706
G92 E0
G1 X48.071 Y123.681 F6000.000
G1 E3.10000 F1860.000
G1 X48.111 Y123.721 E3.10105 F1200.000
G1 X48.462 Y123.721 E3.10753
G1 X48.071 Y123.331 E3.11775
G1 X48.071 Y122.980 E3.12423
G1 X48.812 Y123.721 E3.14362
G1 X49.163 Y123.721 E3.15011
G1 X48.071 Y122.630 E3.17866
G1 X48.071 Y122.279 E3.18515
G1 X49.513 Y123.721 E3.22288
G1 X49.864 Y123.721 E3.22936
G1 X48.071 Y121.929 E3.27626
G1 X48.071 Y121.578 E3.28275
G1 X50.215 Y123.721 E3.33882
G1 X50.565 Y123.721 E3.34530
G1 X48.071 Y121.228 E3.41054
G1 X48.071 Y120.877 E3.41703
G1 X50.916 Y123.721 E3.49144
G1 X51.266 Y123.721 E3.49793
G1 X48.071 Y120.527 E3.58151
