; generated by Slic3r 1.1.7 on 2014-12-25 at 16:53:39

; perimeters extrusion width = 0.40mm
; infill extrusion width = 0.67mm
; solid infill extrusion width = 0.67mm
; top infill extrusion width = 0.67mm
; support material extrusion width = 0.40mm

G21 ; set units to millimeters
M190 S60 ; wait for bed temperature to be reached
M104 S186 ; set temperature
G28 ; home all axes Start of G Code Slic3r
 
M109 S186 ; wait for temperature to be reached
G90 ; use absolute coordinates
G92 E0
M82 ; use absolute distances for extrusion
G1 F1860.000 E-3.00000
G92 E0
G1 Z0.200 F6000.000
G1 X71.971 Y44.269 F6000.000
G1 E3.10000 F1860.000
G1 X73.224 Y42.302 E3.14388 F1200.000
G1 X73.418 Y42.050 E3.14987
G1 X75.035 Y40.091 E3.19767
G1 X75.867 Y39.277 E3.21957
G1 X77.341 Y38.015 E3.25610
G1 X78.889 Y36.998 E3.29096
G1 X80.209 Y36.353 E3.31859
G1 X81.868 Y35.764 E3.35173
G1 X83.518 Y35.411 E3.38348
G1 X83.817 Y35.389 E3.38912
G1 X114.373 Y33.587 E3.96515
G1 X116.132 Y33.567 E3.99825
G1 X117.566 Y33.711 E4.02538
G1 X118.063 Y33.834 E4.03501 F1200.000
G1 X120.028 Y34.414 E4.07357
G1 X121.055 Y34.877 E4.09476
G1 X123.269 Y36.216 E4.14345
G1 X125.091 Y37.790 E4.18877
G1 X126.739 Y39.647 E4.23549
G1 X127.186 Y40.262 E4.24979
G1 X128.189 Y41.727 E4.28321
G1 X128.664 Y42.549 E4.30107
G1 X129.589 Y44.247 E4.33746
G1 X130.884 Y47.237 E4.39877
G1 X131.192 Y48.133 E4.41662
G1 X131.893 Y50.277 E4.45906
G1 X132.714 Y53.567 E4.52287
G1 X133.326 Y57.102 E4.59039
G1 X133.504 Y58.770 E4.62195
G1 X133.706 Y60.905 E4.66230
G1 X133.831 Y64.466 E4.72937
G1 X134.095 Y129.145 E5.94654
G1 X134.040 Y131.186 E5.98496
G1 X133.970 Y132.923 E6.01768
G1 X133.757 Y135.141 E6.05961
G1 X133.591 Y136.614 E6.08751
G1 X133.191 Y138.982 E6.13271
G1 X132.971 Y140.144 E6.15496
G1 X132.333 Y142.732 E6.20512
G1 X132.101 Y143.576 E6.22160
G1 X131.175 Y146.364 E6.27689
G1 X126.965 Y158.735 E6.52279
G1 X126.780 Y159.187 E6.53199
G1 X126.396 Y160.009 E6.54907
G1 X126.141 Y160.471 E6.55898
G1 X125.677 Y161.216 E6.57552
G1 X125.356 Y161.665 E6.58589
G1 X124.785 Y162.377 E6.60307
G1 X124.404 Y162.791 E6.61366
G1 X123.743 Y163.434 E6.63101
G1 X123.308 Y163.804 E6.64176
G1 X122.590 Y164.349 E6.65872
G1 X122.109 Y164.665 E6.66955
G1 X121.351 Y165.106 E6.68605
G1 X120.831 Y165.364 E6.69698
G1 X119.992 Y165.723 E6.71416
G1 X119.449 Y165.913 E6.72498
G1 X118.561 Y166.170 E6.74237
G1 X118.006 Y166.289 E6.75305
G1 X117.106 Y166.433 E6.77021
G1 X116.555 Y166.483 E6.78063
G1 X115.843 Y166.518 E6.79403
G1 X84.276 Y166.516 E7.38809
G1 X83.721 Y166.498 E7.39853
G1 X82.792 Y166.419 E7.41609
G1 X82.238 Y166.332 E7.42663
G1 X81.332 Y166.140 E7.44408
G1 X80.794 Y165.986 E7.45460
G1 X79.931 Y165.689 E7.47176
G1 X79.420 Y165.473 E7.48221
G1 X78.601 Y165.073 E7.49936
G1 X78.112 Y164.792 E7.50998
G1 X77.334 Y164.286 E7.52744
G1 X76.881 Y163.944 E7.53812
G1 X76.188 Y163.361 E7.55517
G1 X75.778 Y162.966 E7.56589
G1 X75.184 Y162.327 E7.58230
G1 X74.824 Y161.886 E7.59302
G1 X74.326 Y161.204 E7.60891
G1 X74.015 Y160.716 E7.61979
G1 X73.619 Y160.015 E7.63495
G1 X73.357 Y159.479 E7.64617
G1 X73.075 Y158.813 E7.65978
G1 X67.934 Y143.643 E7.96121
G1 X67.685 Y142.645 E7.98057
G1 X66.844 Y139.121 E8.04875
G1 X66.572 Y137.331 E8.08282
G1 X66.190 Y134.567 E8.13533
G1 X66.040 Y132.332 E8.17748
G1 X65.924 Y130.038 E8.22071
G1 X66.824 Y64.808 E9.44837
G1 X66.886 Y62.967 E9.48304
G1 X67.137 Y60.247 E9.53445
G1 X67.317 Y58.682 E9.56409
G1 X67.787 Y55.974 E9.61581
G1 X68.066 Y54.587 E9.64244
G1 X68.706 Y52.139 E9.69004
G1 X69.042 Y50.999 E9.71241
G1 X69.874 Y48.655 E9.75923
G1 X70.286 Y47.620 E9.78019
G1 X71.318 Y45.433 E9.82570
G1 X71.734 Y44.654 E9.84232
G1 X71.940 Y44.320 E9.84969
G1 X72.178 Y44.396 F6000.000
G1 X73.416 Y42.450 E9.89309 F1200.000
G1 X73.609 Y42.201 E9.89903
G1 X75.205 Y40.265 E9.94624
G1 X76.034 Y39.454 E9.96806
G1 X77.476 Y38.217 E10.00381
G1 X79.020 Y37.203 E10.03859
G1 X80.290 Y36.582 E10.06519
G1 X81.950 Y35.993 E10.09833
G1 X83.537 Y35.654 E10.12889
G1 X83.831 Y35.631 E10.13443
G1 X114.376 Y33.830 E10.71024
G1 X116.135 Y33.810 E10.74334
G1 X117.515 Y33.949 E10.76945
G1 X117.996 Y34.068 E10.77877 F1200.000
G1 X119.946 Y34.643 E10.81704
G1 X120.936 Y35.089 E10.83747
G1 X123.117 Y36.406 E10.88541
G1 X124.913 Y37.956 E10.93007
G1 X126.543 Y39.790 E10.97623
G1 X126.988 Y40.402 E10.99047
G1 X127.979 Y41.849 E11.02348
G1 X128.452 Y42.668 E11.04128
G1 X129.368 Y44.346 E11.07725
G1 X130.655 Y47.316 E11.13816
G1 X130.962 Y48.211 E11.15596
G1 X131.658 Y50.338 E11.19809
G1 X132.475 Y53.610 E11.26156
G1 X133.085 Y57.128 E11.32874
G1 X133.262 Y58.794 E11.36028
G1 X133.464 Y60.914 E11.40035
G1 X133.588 Y64.467 E11.46726
G1 X133.852 Y129.138 E12.68429
G1 X133.728 Y132.900 E12.75511
G1 X133.515 Y135.116 E12.79701
G1 X133.352 Y136.574 E12.82462
G1 X132.952 Y138.940 E12.86977
G1 X132.735 Y140.086 E12.89173
G1 X132.098 Y142.672 E12.94184
G1 X131.870 Y143.500 E12.95800
G1 X130.945 Y146.286 E13.01326
G1 X126.740 Y158.643 E13.25890
G1 X126.556 Y159.092 E13.26803
G1 X126.183 Y159.892 E13.28464
G1 X125.930 Y160.350 E13.29448
G1 X125.479 Y161.075 E13.31055
G1 X125.160 Y161.520 E13.32085
G1 X124.606 Y162.213 E13.33755
G1 X124.227 Y162.624 E13.34806
G1 X123.586 Y163.249 E13.36492
G1 X123.153 Y163.616 E13.37559
G1 X122.456 Y164.146 E13.39208
G1 X121.979 Y164.460 E13.40282
G1 X121.242 Y164.888 E13.41886
G1 X120.726 Y165.145 E13.42970
G1 X119.911 Y165.494 E13.44640
G1 X119.372 Y165.683 E13.45714
G1 X118.510 Y165.932 E13.47404
G1 X117.959 Y166.051 E13.48464
G1 X117.084 Y166.191 E13.50132
G1 X116.536 Y166.241 E13.51166
G1 X115.843 Y166.276 E13.52472
G1 X84.283 Y166.273 E14.11864
G1 X83.733 Y166.256 E14.12901
G1 X82.829 Y166.179 E14.14608
G1 X82.279 Y166.093 E14.15655
G1 X81.398 Y165.906 E14.17350
G1 X80.864 Y165.754 E14.18395
G1 X80.026 Y165.465 E14.20064
G1 X79.518 Y165.251 E14.21101
G1 X78.722 Y164.863 E14.22767
G1 X78.236 Y164.583 E14.23822
G1 X77.480 Y164.092 E14.25519
G1 X77.030 Y163.753 E14.26579
G1 X76.356 Y163.186 E14.28237
G1 X75.949 Y162.793 E14.29300
G1 X75.372 Y162.173 E14.30895
G1 X75.014 Y161.735 E14.31959
G1 X74.530 Y161.073 E14.33502
G1 X74.222 Y160.589 E14.34582
G1 X73.837 Y159.908 E14.36054
G1 X73.578 Y159.376 E14.37168
G1 X73.304 Y158.731 E14.38487
G1 X68.169 Y143.584 E14.68584
G1 X67.921 Y142.587 E14.70518
G1 X67.084 Y139.084 E14.77295
G1 X66.812 Y137.296 E14.80699
G1 X66.432 Y134.551 E14.85915
G1 X66.282 Y132.319 E14.90125
G1 X66.167 Y130.042 E14.94416
G1 X67.067 Y64.814 E16.17177
G1 X67.128 Y62.989 E16.20613
G1 X67.379 Y60.272 E16.25748
G1 X67.556 Y58.723 E16.28681
G1 X68.026 Y56.019 E16.33847
G1 X68.301 Y54.648 E16.36479
G1 X68.940 Y52.205 E16.41230
G1 X69.271 Y51.080 E16.43436
G1 X70.102 Y48.741 E16.48109
G1 X70.506 Y47.723 E16.50169
G1 X71.536 Y45.541 E16.54711
G1 X71.941 Y44.781 E16.56331
G1 X72.147 Y44.447 E16.57069
G1 F1860.000 E13.57069
G92 E0
G1 X120.086 Y156.665 F6000.000
G1 E3.10000 F1860.000
G1 X119.819 Y157.134 E3.11015 F1200.000
G1 X119.518 Y157.554 E3.11987
G1 X119.162 Y157.950 E3.12988
G1 X118.754 Y158.313 E3.14017
G1 X118.303 Y158.632 E3.15057
G1 X117.800 Y158.907 E3.16136
G1 X117.262 Y159.124 E3.17228
G1 X116.909 Y159.222 E3.17917
G1 X116.702 Y159.276 E3.18319
G1 X116.105 Y159.363 E3.19453
G1 X115.512 Y159.377 E3.20571
G1 X114.926 Y159.320 E3.21678
G1 X114.347 Y159.192 E3.22795
G1 X113.764 Y158.986 E3.23958
G1 X113.235 Y158.722 E3.25070
G1 X112.751 Y158.403 E3.26161
G1 X112.297 Y158.019 E3.27281
G1 X111.908 Y157.602 E3.28354
G1 X111.581 Y157.155 E3.29395
G1 X111.309 Y156.693 E3.30404
G1 X111.094 Y156.218 E3.31385
G1 X110.977 Y155.764 E3.32269
G1 X110.948 Y155.528 E3.32716
G1 X110.943 Y155.280 E3.33183
G1 X110.967 Y155.021 E3.33672
G1 X111.021 Y154.755 E3.34183
G1 X111.110 Y154.484 E3.34719
G1 X111.230 Y154.225 E3.35256
G1 X111.383 Y153.980 E3.35800
G1 X111.502 Y153.831 E3.36160
G1 X111.781 Y153.544 E3.36913
G1 X112.014 Y153.369 E3.37460
G1 X112.276 Y153.218 E3.38030
G1 X112.562 Y153.098 E3.38614
G1 X112.860 Y153.017 E3.39195
G1 X113.169 Y152.975 E3.39782
G1 X113.477 Y152.975 E3.40360
G1 X113.777 Y153.009 E3.40930
G1 X114.685 Y153.240 E3.42693
G1 X115.406 Y153.328 E3.44060
G1 X116.067 Y153.321 E3.45303
G1 X116.739 Y153.227 E3.46579
G1 X117.605 Y153.011 E3.48259
G1 X117.868 Y152.975 E3.48759
G1 X118.313 Y152.986 E3.49596
G1 X118.680 Y153.052 E3.50298 F1200.000
G1 X118.944 Y153.140 E3.50822
G1 X119.197 Y153.259 E3.51348
G1 X119.437 Y153.410 E3.51882
G1 X119.653 Y153.585 E3.52406
G1 X119.851 Y153.785 E3.52936
G1 X120.026 Y154.009 E3.53469
G1 X120.175 Y154.253 E3.54008
G1 X120.294 Y154.518 E3.54554
G1 X120.381 Y154.801 E3.55111
G1 X120.432 Y155.091 E3.55665
G1 X120.448 Y155.385 E3.56220
G1 X120.425 Y155.677 E3.56771
G1 X120.375 Y155.964 E3.57320
G1 X120.293 Y156.218 E3.57822
G1 X120.111 Y156.611 E3.58637
G1 X119.870 Y156.553 F6000.000
G1 X119.614 Y157.003 E3.59611 F1200.000
G1 X119.329 Y157.402 E3.60534
G1 X118.991 Y157.777 E3.61485
G1 X118.603 Y158.123 E3.62462
G1 X118.174 Y158.426 E3.63450
G1 X117.696 Y158.687 E3.64476
G1 X117.184 Y158.893 E3.65514
G1 X116.845 Y158.987 E3.66175
G1 X116.653 Y159.038 E3.66550
G1 X116.085 Y159.121 E3.67629
G1 X115.521 Y159.134 E3.68692
G1 X114.965 Y159.080 E3.69744
G1 X114.414 Y158.958 E3.70805
G1 X113.860 Y158.762 E3.71912
G1 X113.357 Y158.512 E3.72968
G1 X112.898 Y158.209 E3.74004
G1 X112.465 Y157.843 E3.75069
G1 X112.096 Y157.447 E3.76089
G1 X111.785 Y157.022 E3.77079
G1 X111.526 Y156.583 E3.78039
G1 X111.323 Y156.134 E3.78966
G1 X111.217 Y155.722 E3.79767
G1 X111.187 Y155.288 E3.80586
G1 X111.207 Y155.056 E3.81024
G1 X111.256 Y154.817 E3.81483
G1 X111.336 Y154.574 E3.81965
G1 X111.444 Y154.342 E3.82446
G1 X111.691 Y153.984 E3.83265
G1 X111.939 Y153.729 E3.83934
G1 X112.147 Y153.572 E3.84425
G1 X112.383 Y153.436 E3.84937
G1 X112.640 Y153.329 E3.85461
G1 X112.908 Y153.256 E3.85983
G1 X113.185 Y153.218 E3.86510
G1 X113.462 Y153.218 E3.87030
G1 X113.732 Y153.249 E3.87543
G1 X114.642 Y153.480 E3.89310
G1 X115.392 Y153.571 E3.90730
G1 X116.085 Y153.564 E3.92034
G1 X116.785 Y153.466 E3.93365
G1 X117.578 Y153.263 E3.94905
G1 X117.885 Y153.218 E3.95490
G1 X118.037 Y153.215 E3.95775
G1 X118.374 Y153.236 E3.96410 F1200.000
G1 X118.616 Y153.287 E3.96877
G1 X118.853 Y153.365 E3.97346
G1 X119.079 Y153.472 E3.97817
G1 X119.295 Y153.608 E3.98297
G1 X119.626 Y153.901 E3.99129
G1 X119.825 Y154.146 E3.99723
G1 X119.959 Y154.366 E4.00207
G1 X120.066 Y154.603 E4.00697
G1 X120.144 Y154.857 E4.01197
G1 X120.190 Y155.118 E4.01695
G1 X120.204 Y155.382 E4.02194
G1 X120.139 Y155.901 E4.03179
G1 X120.064 Y156.134 E4.03638
G1 X119.895 Y156.498 E4.04394
G1 F1860.000 E1.04394
G92 E0
G1 X117.983 Y152.882 F6000.000
G1 X120.356 Y156.820 F6000.000
G1 E3.10000 F1860.000
G1 X120.111 Y157.260 E3.10949 F1200.000
G1 X119.740 Y157.774 E3.12142
G1 X119.301 Y158.247 E3.13356
G1 X118.807 Y158.663 E3.14572
G1 X118.450 Y158.900 E3.15378
G1 X118.288 Y159.002 E3.15739
G1 X117.707 Y159.288 E3.16958
G1 X117.090 Y159.501 E3.18185
G1 X116.456 Y159.635 E3.19406
G1 X116.040 Y159.674 E3.20191
G1 X115.835 Y159.689 E3.20577
G1 X115.189 Y159.667 E3.21795
G1 X114.552 Y159.565 E3.23008
G1 X113.936 Y159.387 E3.24215
G1 X113.357 Y159.140 E3.25399
G1 X112.794 Y158.814 E3.26624
G1 X112.282 Y158.425 E3.27834
G1 X111.831 Y157.987 E3.29017
G1 X111.445 Y157.510 E3.30172
G1 X111.119 Y156.997 E3.31316
G1 X110.866 Y156.475 E3.32406
G1 X110.681 Y155.960 E3.33437
G1 X110.552 Y155.441 E3.34443
G1 X110.485 Y154.945 E3.35385
G1 X110.465 Y154.470 E3.36280
G1 X110.523 Y153.142 E3.38781
G1 X110.452 Y152.267 E3.40434
G1 X110.284 Y151.402 E3.42092
G1 X110.017 Y150.574 E3.43729
G1 X109.645 Y149.770 E3.45396
G1 X109.205 Y149.041 E3.46999
G1 X107.341 Y145.723 E3.54159
G1 X105.930 Y141.974 E3.61699
G1 X104.968 Y138.077 E3.69253
G1 X104.377 Y134.095 E3.76827
G1 X104.128 Y130.120 E3.84323
G1 X104.199 Y126.269 E3.91572
G1 X104.559 Y122.523 E3.98653
G1 X105.008 Y119.935 E4.03596
G1 X105.188 Y118.986 E4.05413
G1 X105.993 Y115.958 E4.11310
G1 X106.981 Y113.205 E4.16815
G1 X107.952 Y111.144 E4.21101
G1 X108.071 Y110.905 E4.21605
G1 X109.152 Y109.146 E4.25490
G1 X109.286 Y108.973 E4.25901
G1 X110.341 Y107.640 E4.29101
G1 X111.654 Y106.374 E4.32533
G1 X113.041 Y105.462 E4.35657
G1 X114.622 Y104.901 E4.38814
G1 X114.728 Y104.893 E4.39013
G1 X116.439 Y104.874 E4.42235 F1200.000
G1 X118.012 Y105.328 E4.45315
G1 X119.290 Y106.043 E4.48072
G1 X120.383 Y106.946 E4.50740
G1 X121.496 Y108.159 E4.53838
G1 X122.552 Y109.637 E4.57255
G1 X123.632 Y111.534 E4.61364
G1 X124.697 Y113.947 E4.66327
G1 X124.983 Y114.778 E4.67981
G1 X125.553 Y116.483 E4.71364
G1 X126.264 Y119.275 E4.76787
G1 X126.804 Y122.317 E4.82599
G1 X127.150 Y125.655 E4.88916
G1 X127.268 Y128.972 E4.95161
G1 X127.215 Y130.961 E4.98906
G1 X127.171 Y132.280 E5.01390
G1 X126.856 Y135.488 E5.07455
G1 X126.337 Y138.523 E5.13249
G1 X125.616 Y141.437 E5.18899
G1 X124.713 Y144.158 E5.24294
G1 X123.496 Y146.869 E5.29886
G1 X121.791 Y149.680 E5.36073
G1 X121.447 Y150.397 E5.37571
G1 X121.184 Y151.125 E5.39026
G1 X121.005 Y151.851 E5.40435
G1 X120.904 Y152.566 E5.41793
G1 X120.872 Y153.313 E5.43200
G1 X120.924 Y154.577 E5.45580
G1 X120.886 Y155.076 E5.46522
G1 X120.794 Y155.609 E5.47540
G1 X120.633 Y156.177 E5.48651
G1 X120.385 Y156.767 E5.49855
G1 X120.569 Y156.936 F6000.000
G1 X120.316 Y157.392 E5.50836 F1200.000
G1 X119.928 Y157.929 E5.52083
G1 X119.469 Y158.424 E5.53354
G1 X118.951 Y158.859 E5.54626
G1 X118.582 Y159.103 E5.55459
G1 X118.407 Y159.214 E5.55849
G1 X117.800 Y159.513 E5.57123
G1 X117.155 Y159.736 E5.58407
G1 X116.491 Y159.876 E5.59684
G1 X116.060 Y159.916 E5.60497
G1 X115.841 Y159.932 E5.60911
G1 X115.165 Y159.909 E5.62185
G1 X114.498 Y159.802 E5.63455
G1 X113.854 Y159.616 E5.64717
G1 X113.248 Y159.357 E5.65957
G1 X112.659 Y159.016 E5.67239
G1 X112.123 Y158.609 E5.68505
G1 X111.651 Y158.150 E5.69743
G1 X111.247 Y157.651 E5.70952
G1 X110.906 Y157.114 E5.72149
G1 X110.642 Y156.568 E5.73290
G1 X110.448 Y156.028 E5.74370
G1 X110.314 Y155.487 E5.75420
G1 X110.243 Y154.968 E5.76405
G1 X110.221 Y154.470 E5.77343
G1 X110.280 Y153.146 E5.79836
G1 X110.211 Y152.300 E5.81435
G1 X110.048 Y151.462 E5.83040
G1 X109.790 Y150.661 E5.84624
G1 X109.430 Y149.882 E5.86240
G1 X108.996 Y149.164 E5.87817
G1 X107.120 Y145.826 E5.95024
G1 X105.698 Y142.046 E6.02624
G1 X104.729 Y138.124 E6.10226
G1 X104.136 Y134.121 E6.17842
G1 X103.885 Y130.125 E6.25376
G1 X103.920 Y127.663 E6.30009
G1 X103.956 Y126.254 E6.32662
G1 X104.318 Y122.489 E6.39780
G1 X104.951 Y118.933 E6.46578
G1 X105.761 Y115.884 E6.52514
G1 X106.757 Y113.110 E6.58061
G1 X107.858 Y110.787 E6.62899
G1 X108.952 Y109.008 E6.66829
G1 X110.160 Y107.477 E6.70498
G1 X111.503 Y106.183 E6.74007
G1 X112.934 Y105.242 E6.77231
G1 X114.571 Y104.662 E6.80499
G1 X116.509 Y104.641 E6.84147
G1 X118.113 Y105.106 E6.87291 F1200.000
G1 X119.426 Y105.841 E6.90122
G1 X120.550 Y106.769 E6.92866
G1 X121.685 Y108.005 E6.96023
G1 X122.076 Y108.543 E6.97274
G1 X122.757 Y109.506 E6.99493
G1 X123.849 Y111.425 E7.03649
G1 X124.924 Y113.859 E7.08655
G1 X125.213 Y114.700 E7.10329
G1 X125.786 Y116.414 E7.13730
G1 X126.502 Y119.224 E7.19188
G1 X127.044 Y122.283 E7.25034
G1 X127.392 Y125.639 E7.31383
G1 X127.511 Y128.971 E7.37658
G1 X127.414 Y132.296 E7.43918
G1 X127.097 Y135.521 E7.50016
G1 X126.575 Y138.573 E7.55843
G1 X125.849 Y141.505 E7.61528
G1 X124.940 Y144.244 E7.66959
G1 X123.713 Y146.980 E7.72601
G1 X122.004 Y149.797 E7.78801
G1 X121.671 Y150.491 E7.80250
G1 X121.417 Y151.195 E7.81659
G1 X121.243 Y151.898 E7.83021
G1 X121.146 Y152.588 E7.84332
G1 X121.115 Y153.316 E7.85703
G1 X121.167 Y154.578 E7.88081
G1 X121.127 Y155.105 E7.89076
G1 X121.032 Y155.663 E7.90140
G1 X120.863 Y156.257 E7.91302
G1 X120.598 Y156.884 E7.92583
G1 F1860.000 E4.92583
G92 E0
G1 X116.819 Y104.893 F6000.000
G1 X118.777 Y105.935 F6000.000
G1 E3.10000 F1860.000
G1 X122.062 Y109.219 E3.18741 F1200.000
G1 X122.687 Y110.189 F6000.000
G1 X117.995 Y105.497 E3.31227 F1200.000
G1 X117.494 Y105.341 E3.32214
G1 X123.142 Y110.989 E3.47244
G1 X123.555 Y111.746 F6000.000
G1 X117.010 Y105.201 E3.64663 F1200.000
G1 X116.524 Y105.061 E3.65614
G1 X123.828 Y112.364 E3.85050
