; generated by Slic3r 1.1.7 on 2014-12-25 at 16:54:18

; perimeters extrusion width = 0.40mm
; infill extrusion width = 0.67mm
; solid infill extrusion width = 0.67mm
; top infill extrusion width = 0.67mm
; support material extrusion width = 0.40mm

G21 ; set units to millimeters
M190 S60 ; wait for bed temperature to be reached
M104 S186 ; set temperature
G28 ; home all axes Start of G Code Slic3r
 
M109 S186 ; wait for temperature to be reached
G90 ; use absolute coordinates
G92 E0
M82 ; use absolute distances for extrusion
G1 F1860.000 E-3.00000
G92 E0
G1 Z0.200 F6000.000
G1 X70.972 Y42.564 F6000.000
G1 E3.10000 F1860.000
G1 X71.538 Y41.645 E3.12032 F1200.000
G1 X72.461 Y40.212 E3.15239
G1 X74.272 Y38.002 E3.20617
G1 X75.105 Y37.188 E3.22808
G1 X76.579 Y35.925 E3.26460
G1 X78.127 Y34.908 E3.29946
G1 X79.446 Y34.264 E3.32710
G1 X81.106 Y33.675 E3.36024
G1 X82.756 Y33.322 E3.39198
G1 X83.366 Y33.288 E3.40349
G1 X85.197 Y33.268 E3.43794
G1 X117.233 Y33.268 E4.04082
G1 X118.595 Y33.413 E4.06659
G1 X119.092 Y33.536 E4.07623 F1200.000
G1 X121.058 Y34.116 E4.11480
G1 X122.084 Y34.578 E4.13598
G1 X124.297 Y35.918 E4.18467
G1 X126.120 Y37.492 E4.22999
G1 X127.768 Y39.349 E4.27671
G1 X128.215 Y39.963 E4.29101
G1 X129.218 Y41.429 E4.32443
G1 X129.693 Y42.250 E4.34229
G1 X130.618 Y43.948 E4.37868
G1 X131.913 Y46.938 E4.44000
G1 X132.221 Y47.835 E4.45784
G1 X132.922 Y49.979 E4.50028
G1 X133.743 Y53.268 E4.56409
G1 X134.355 Y56.804 E4.63161
G1 X134.533 Y58.472 E4.66317
G1 X134.735 Y60.606 E4.70352
G1 X134.858 Y64.347 E4.77395
G1 X133.278 Y131.484 E6.03774
G1 X133.208 Y133.221 E6.07046
G1 X132.994 Y135.439 E6.11239
G1 X132.829 Y136.913 E6.14029
G1 X132.429 Y139.281 E6.18549
G1 X132.209 Y140.443 E6.20774
G1 X131.571 Y143.030 E6.25790
G1 X131.339 Y143.875 E6.27438
G1 X130.413 Y146.663 E6.32966
G1 X126.202 Y159.033 E6.57557
G1 X126.018 Y159.486 E6.58477
G1 X125.633 Y160.308 E6.60185
G1 X125.379 Y160.769 E6.61176
G1 X124.915 Y161.515 E6.62829
G1 X124.594 Y161.963 E6.63867
G1 X124.023 Y162.675 E6.65585
G1 X123.641 Y163.089 E6.66644
G1 X122.981 Y163.733 E6.68379
G1 X122.545 Y164.102 E6.69454
G1 X121.828 Y164.647 E6.71150
G1 X121.347 Y164.963 E6.72232
G1 X120.589 Y165.404 E6.73883
G1 X120.069 Y165.662 E6.74975
G1 X119.230 Y166.022 E6.76694
G1 X118.687 Y166.212 E6.77776
G1 X117.799 Y166.468 E6.79515
G1 X117.244 Y166.588 E6.80583
G1 X116.344 Y166.731 E6.82299
G1 X115.792 Y166.782 E6.83341
G1 X115.081 Y166.817 E6.84681
G1 X83.514 Y166.814 E7.44086
G1 X82.959 Y166.797 E7.45131
G1 X82.029 Y166.717 E7.46887
G1 X81.476 Y166.631 E7.47941
G1 X80.569 Y166.438 E7.49686
G1 X80.032 Y166.285 E7.50737
G1 X79.169 Y165.988 E7.52454
G1 X78.658 Y165.772 E7.53499
G1 X77.839 Y165.372 E7.55214
G1 X77.349 Y165.090 E7.56276
G1 X76.572 Y164.585 E7.58022
G1 X76.118 Y164.243 E7.59090
G1 X75.426 Y163.659 E7.60795
G1 X75.016 Y163.264 E7.61866
G1 X74.422 Y162.626 E7.63508
G1 X74.062 Y162.184 E7.64580
G1 X73.564 Y161.502 E7.66169
G1 X73.253 Y161.015 E7.67257
G1 X72.856 Y160.314 E7.68773
G1 X72.595 Y159.778 E7.69894
G1 X72.313 Y159.112 E7.71255
G1 X67.171 Y143.942 E8.01399
G1 X66.923 Y142.944 E8.03334
G1 X66.082 Y139.420 E8.10153
G1 X65.809 Y137.630 E8.13560
G1 X65.428 Y134.866 E8.18811
G1 X65.277 Y132.631 E8.23026
G1 X65.162 Y130.340 E8.27342
G1 X66.026 Y65.260 E9.49826
G1 X66.062 Y62.718 E9.54609
G1 X66.124 Y60.877 E9.58076
G1 X66.375 Y58.157 E9.63216
G1 X66.555 Y56.592 E9.66180
G1 X67.025 Y53.884 E9.71353
G1 X67.304 Y52.497 E9.74016
G1 X67.944 Y50.050 E9.78775
G1 X68.279 Y48.910 E9.81012
G1 X69.112 Y46.565 E9.85694
G1 X69.524 Y45.530 E9.87791
G1 X70.556 Y43.343 E9.92341
G1 X70.944 Y42.617 E9.93890
G1 X71.179 Y42.692 F6000.000
G1 X71.745 Y41.772 E9.95922 F1200.000
G1 X72.654 Y40.361 E9.99081
G1 X74.442 Y38.175 E10.04396
G1 X75.271 Y37.365 E10.06578
G1 X76.713 Y36.128 E10.10153
G1 X78.258 Y35.113 E10.13630
G1 X79.528 Y34.493 E10.16290
G1 X81.187 Y33.903 E10.19604
G1 X82.775 Y33.564 E10.22660
G1 X83.369 Y33.531 E10.23779
G1 X85.197 Y33.511 E10.27219
G1 X117.233 Y33.511 E10.87507
G1 X118.544 Y33.650 E10.89987
G1 X119.025 Y33.769 E10.90920 F1200.000
G1 X120.975 Y34.345 E10.94747
G1 X121.965 Y34.790 E10.96790
G1 X124.146 Y36.107 E11.01584
G1 X125.942 Y37.658 E11.06050
G1 X127.571 Y39.492 E11.10666
G1 X128.016 Y40.104 E11.12090
G1 X129.008 Y41.550 E11.15391
G1 X129.481 Y42.370 E11.17171
G1 X130.396 Y44.048 E11.20768
G1 X131.683 Y47.017 E11.26859
G1 X131.991 Y47.912 E11.28639
G1 X132.687 Y50.040 E11.32852
G1 X133.504 Y53.312 E11.39199
G1 X134.113 Y56.829 E11.45917
G1 X134.291 Y58.496 E11.49071
G1 X134.492 Y60.616 E11.53078
G1 X134.615 Y64.341 E11.60092
G1 X133.035 Y131.476 E12.86467
G1 X132.966 Y133.198 E12.89710
G1 X132.753 Y135.414 E12.93900
G1 X132.590 Y136.872 E12.96661
G1 X132.190 Y139.238 E13.01176
G1 X131.973 Y140.385 E13.03372
G1 X131.336 Y142.970 E13.08383
G1 X131.108 Y143.798 E13.09999
G1 X130.183 Y146.585 E13.15525
G1 X125.977 Y158.942 E13.40089
G1 X125.794 Y159.391 E13.41002
G1 X125.420 Y160.191 E13.42663
G1 X125.168 Y160.649 E13.43647
G1 X124.717 Y161.374 E13.45254
G1 X124.398 Y161.819 E13.46284
G1 X123.844 Y162.511 E13.47954
G1 X123.465 Y162.922 E13.49005
G1 X122.824 Y163.548 E13.50691
G1 X122.391 Y163.915 E13.51758
G1 X121.694 Y164.444 E13.53407
G1 X121.217 Y164.758 E13.54481
G1 X120.480 Y165.187 E13.56085
G1 X119.964 Y165.443 E13.57169
G1 X119.149 Y165.793 E13.58838
G1 X118.610 Y165.981 E13.59913
G1 X117.747 Y166.231 E13.61603
G1 X117.197 Y166.350 E13.62663
G1 X116.321 Y166.490 E13.64331
G1 X115.774 Y166.540 E13.65365
G1 X115.081 Y166.574 E13.66671
G1 X83.521 Y166.571 E14.26063
G1 X82.970 Y166.554 E14.27100
G1 X82.066 Y166.477 E14.28807
G1 X81.517 Y166.391 E14.29854
G1 X80.635 Y166.204 E14.31549
G1 X80.102 Y166.052 E14.32594
G1 X79.263 Y165.764 E14.34263
G1 X78.755 Y165.549 E14.35300
G1 X77.960 Y165.161 E14.36966
G1 X77.474 Y164.881 E14.38022
G1 X76.718 Y164.390 E14.39718
G1 X76.268 Y164.051 E14.40778
G1 X75.594 Y163.484 E14.42435
G1 X75.187 Y163.092 E14.43499
G1 X74.610 Y162.472 E14.45094
G1 X74.252 Y162.034 E14.46158
G1 X73.768 Y161.372 E14.47701
G1 X73.460 Y160.888 E14.48781
G1 X73.075 Y160.207 E14.50253
G1 X72.815 Y159.675 E14.51366
G1 X72.541 Y159.029 E14.52686
G1 X67.407 Y143.883 E14.82783
G1 X67.159 Y142.886 E14.84717
G1 X66.322 Y139.383 E14.91494
G1 X66.050 Y137.595 E14.94898
G1 X65.670 Y134.849 E15.00114
G1 X65.520 Y132.617 E15.04324
G1 X65.405 Y130.343 E15.08609
G1 X66.269 Y65.263 E16.31092
G1 X66.305 Y62.725 E16.35869
G1 X66.366 Y60.899 E16.39306
G1 X66.617 Y58.183 E16.44440
G1 X66.794 Y56.634 E16.47374
G1 X67.264 Y53.930 E16.52539
G1 X67.539 Y52.558 E16.55171
G1 X68.178 Y50.116 E16.59923
G1 X68.508 Y48.991 E16.62129
G1 X69.339 Y46.651 E16.66802
G1 X69.744 Y45.634 E16.68862
G1 X70.774 Y43.451 E16.73403
G1 X71.151 Y42.745 E16.74911
G1 F1860.000 E13.74911
G92 E0
G1 X119.057 Y157.433 F6000.000
G1 E3.10000 F1860.000
G1 X118.756 Y157.853 E3.10973 F1200.000
G1 X118.400 Y158.248 E3.11974
G1 X117.992 Y158.612 E3.13002
G1 X117.540 Y158.930 E3.14042
G1 X117.037 Y159.205 E3.15121
G1 X116.499 Y159.422 E3.16213
G1 X115.940 Y159.574 E3.17304
G1 X115.343 Y159.662 E3.18439
G1 X114.749 Y159.676 E3.19557
G1 X114.372 Y159.641 E3.20270
G1 X114.164 Y159.619 E3.20664
G1 X113.584 Y159.491 E3.21780
G1 X113.002 Y159.284 E3.22944
G1 X112.473 Y159.021 E3.24055
G1 X111.989 Y158.702 E3.25146
G1 X111.535 Y158.317 E3.26266
G1 X111.146 Y157.900 E3.27339
G1 X110.819 Y157.454 E3.28380
G1 X110.547 Y156.992 E3.29389
G1 X110.332 Y156.517 E3.30370
G1 X110.215 Y156.062 E3.31254
G1 X110.186 Y155.826 E3.31701
G1 X110.181 Y155.578 E3.32168
G1 X110.237 Y155.160 E3.32962
G1 X110.348 Y154.782 E3.33703
G1 X110.468 Y154.524 E3.34239
G1 X110.564 Y154.369 E3.34582
G1 X110.805 Y154.050 E3.35336
G1 X111.019 Y153.842 E3.35896
G1 X111.169 Y153.728 E3.36251
G1 X111.514 Y153.516 E3.37012
G1 X111.800 Y153.397 E3.37596
G1 X112.098 Y153.316 E3.38177
G1 X112.407 Y153.273 E3.38764
G1 X112.714 Y153.273 E3.39342
G1 X113.015 Y153.308 E3.39912
G1 X113.923 Y153.539 E3.41675
G1 X114.644 Y153.627 E3.43042
G1 X115.305 Y153.619 E3.44285
G1 X115.976 Y153.526 E3.45561
G1 X116.843 Y153.310 E3.47241
G1 X117.106 Y153.274 E3.47741
G1 X117.550 Y153.285 E3.48579
G1 X117.918 Y153.350 E3.49280 F1200.000
G1 X118.182 Y153.438 E3.49804
G1 X118.435 Y153.557 E3.50330
G1 X118.675 Y153.709 E3.50865
G1 X118.891 Y153.883 E3.51388
G1 X119.089 Y154.084 E3.51918
G1 X119.214 Y154.242 E3.52298
G1 X119.412 Y154.552 E3.52989
G1 X119.532 Y154.816 E3.53536
G1 X119.619 Y155.099 E3.54093
G1 X119.670 Y155.389 E3.54647
G1 X119.685 Y155.684 E3.55202
G1 X119.663 Y155.975 E3.55752
G1 X119.612 Y156.263 E3.56302
G1 X119.531 Y156.517 E3.56803
G1 X119.323 Y156.964 E3.57731
G1 X119.087 Y157.381 E3.58633
G1 X118.852 Y157.302 F6000.000
G1 X118.566 Y157.700 E3.59556 F1200.000
G1 X118.228 Y158.076 E3.60507
G1 X117.840 Y158.421 E3.61484
G1 X117.412 Y158.724 E3.62472
G1 X116.933 Y158.986 E3.63498
G1 X116.422 Y159.192 E3.64536
G1 X115.891 Y159.336 E3.65572
G1 X115.323 Y159.419 E3.66651
G1 X114.759 Y159.432 E3.67714
G1 X114.396 Y159.399 E3.68399
G1 X114.202 Y159.378 E3.68765
G1 X113.652 Y159.257 E3.69827
G1 X113.097 Y159.061 E3.70934
G1 X112.595 Y158.810 E3.71990
G1 X112.135 Y158.507 E3.73026
G1 X111.703 Y158.142 E3.74091
G1 X111.334 Y157.745 E3.75111
G1 X111.023 Y157.321 E3.76101
G1 X110.764 Y156.882 E3.77061
G1 X110.561 Y156.433 E3.77988
G1 X110.455 Y156.020 E3.78789
G1 X110.424 Y155.586 E3.79608
G1 X110.475 Y155.209 E3.80324
G1 X110.574 Y154.872 E3.80985
G1 X110.770 Y154.497 E3.81780
G1 X110.985 Y154.214 E3.82450
G1 X111.315 Y153.923 E3.83279
G1 X111.621 Y153.735 E3.83955
G1 X111.878 Y153.627 E3.84479
G1 X112.146 Y153.554 E3.85001
G1 X112.423 Y153.516 E3.85528
G1 X112.700 Y153.517 E3.86048
G1 X112.970 Y153.548 E3.86561
G1 X113.880 Y153.778 E3.88328
G1 X114.629 Y153.869 E3.89748
G1 X115.322 Y153.862 E3.91052
G1 X116.023 Y153.765 E3.92383
G1 X116.816 Y153.562 E3.93923
G1 X117.123 Y153.516 E3.94508
G1 X117.274 Y153.513 E3.94793
G1 X117.611 Y153.535 E3.95428 F1200.000
G1 X117.854 Y153.585 E3.95894
G1 X118.253 Y153.740 E3.96700
G1 X118.533 Y153.906 E3.97313
G1 X118.728 Y154.063 E3.97784
G1 X119.023 Y154.391 E3.98613
G1 X119.197 Y154.664 E3.99223
G1 X119.304 Y154.901 E3.99712
G1 X119.382 Y155.156 E4.00213
G1 X119.428 Y155.416 E4.00711
G1 X119.442 Y155.681 E4.01210
G1 X119.376 Y156.200 E4.02194
G1 X119.302 Y156.432 E4.02654
G1 X119.108 Y156.851 E4.03523
G1 X118.882 Y157.249 E4.04384
G1 F1860.000 E1.04384
G92 E0
G1 X117.232 Y153.179 F6000.000
G1 X119.303 Y157.623 F6000.000
G1 E3.10000 F1860.000
G1 X118.978 Y158.073 E3.11043 F1200.000
G1 X118.539 Y158.546 E3.12258
G1 X118.045 Y158.962 E3.13474
G1 X117.525 Y159.301 E3.14640
G1 X116.945 Y159.587 E3.15859
G1 X116.328 Y159.800 E3.17086
G1 X115.693 Y159.934 E3.18307
G1 X115.073 Y159.988 E3.19479
G1 X114.427 Y159.965 E3.20696
G1 X113.790 Y159.863 E3.21910
G1 X113.174 Y159.685 E3.23116
G1 X112.595 Y159.439 E3.24300
G1 X112.032 Y159.112 E3.25525
G1 X111.520 Y158.723 E3.26735
G1 X111.069 Y158.285 E3.27918
G1 X110.682 Y157.809 E3.29073
G1 X110.357 Y157.295 E3.30217
G1 X110.104 Y156.774 E3.31307
G1 X109.919 Y156.258 E3.32339
G1 X109.790 Y155.739 E3.33344
G1 X109.723 Y155.244 E3.34286
G1 X109.702 Y154.768 E3.35181
G1 X109.761 Y153.441 E3.37682
G1 X109.690 Y152.565 E3.39335
G1 X109.521 Y151.700 E3.40994
G1 X109.254 Y150.872 E3.42631
G1 X108.883 Y150.068 E3.44297
G1 X108.443 Y149.339 E3.45900
G1 X106.579 Y146.022 E3.53061
G1 X105.168 Y142.272 E3.60600
G1 X104.206 Y138.375 E3.68154
G1 X103.615 Y134.394 E3.75729
G1 X103.366 Y130.419 E3.83224
G1 X103.436 Y126.567 E3.90473
G1 X103.797 Y122.822 E3.97554
G1 X104.245 Y120.233 E4.02498
G1 X104.426 Y119.285 E4.04314
G1 X105.231 Y116.257 E4.10211
G1 X106.219 Y113.503 E4.15717
G1 X107.190 Y111.443 E4.20002
G1 X107.308 Y111.203 E4.20506
G1 X108.390 Y109.445 E4.24391
G1 X108.523 Y109.272 E4.24802
G1 X109.579 Y107.939 E4.28002
G1 X110.892 Y106.673 E4.31434
G1 X112.279 Y105.761 E4.34558
G1 X113.860 Y105.200 E4.37715
G1 X113.965 Y105.191 E4.37914
G1 X115.677 Y105.172 E4.41136 F1200.000
G1 X117.250 Y105.626 E4.44216
G1 X118.528 Y106.341 E4.46973
G1 X119.621 Y107.245 E4.49641
G1 X120.734 Y108.458 E4.52739
G1 X121.790 Y109.935 E4.56156
G1 X122.870 Y111.833 E4.60265
G1 X123.234 Y112.645 E4.61939
G1 X123.935 Y114.246 E4.65228
G1 X124.791 Y116.781 E4.70265
G1 X125.502 Y119.574 E4.75688
G1 X126.042 Y122.615 E4.81500
G1 X126.214 Y124.231 E4.84558
G1 X126.387 Y125.954 E4.87817
G1 X126.506 Y129.270 E4.94062
G1 X126.409 Y132.579 E5.00291
G1 X126.094 Y135.787 E5.06357
G1 X125.575 Y138.821 E5.12150
G1 X124.854 Y141.735 E5.17800
G1 X123.950 Y144.456 E5.23195
G1 X122.734 Y147.168 E5.28787
G1 X121.029 Y149.978 E5.34974
G1 X120.685 Y150.696 E5.36472
G1 X120.421 Y151.423 E5.37927
G1 X120.242 Y152.150 E5.39336
G1 X120.142 Y152.864 E5.40694
G1 X120.110 Y153.612 E5.42101
G1 X120.161 Y154.875 E5.44481
G1 X120.124 Y155.375 E5.45423
G1 X120.085 Y155.610 E5.45872
G1 X120.032 Y155.907 E5.46441
G1 X119.871 Y156.475 E5.47552
G1 X119.638 Y157.038 E5.48698
G1 X119.337 Y157.575 E5.49855
G1 X119.500 Y157.765 F6000.000
G1 X119.166 Y158.227 E5.50930 F1200.000
G1 X118.706 Y158.723 E5.52201
G1 X118.189 Y159.158 E5.53473
G1 X117.645 Y159.513 E5.54696
G1 X117.038 Y159.812 E5.55970
G1 X116.392 Y160.034 E5.57254
G1 X115.728 Y160.174 E5.58531
G1 X115.079 Y160.231 E5.59758
G1 X114.403 Y160.207 E5.61032
G1 X113.736 Y160.101 E5.62302
G1 X113.092 Y159.914 E5.63564
G1 X112.485 Y159.656 E5.64804
G1 X111.897 Y159.314 E5.66085
G1 X111.361 Y158.907 E5.67352
G1 X110.889 Y158.449 E5.68590
G1 X110.484 Y157.950 E5.69798
G1 X110.144 Y157.412 E5.70996
G1 X109.880 Y156.867 E5.72137
G1 X109.686 Y156.327 E5.73216
G1 X109.551 Y155.785 E5.74267
G1 X109.481 Y155.266 E5.75252
G1 X109.459 Y154.768 E5.76190
G1 X109.518 Y153.445 E5.78683
G1 X109.449 Y152.598 E5.80282
G1 X109.286 Y151.761 E5.81887
G1 X109.027 Y150.960 E5.83471
G1 X108.667 Y150.180 E5.85087
G1 X108.234 Y149.463 E5.86664
G1 X106.358 Y146.124 E5.93871
G1 X104.936 Y142.344 E6.01471
G1 X103.967 Y138.423 E6.09073
G1 X103.373 Y134.419 E6.16689
G1 X103.123 Y130.424 E6.24223
G1 X103.157 Y127.962 E6.28856
G1 X103.194 Y126.553 E6.31509
G1 X103.556 Y122.788 E6.38627
G1 X104.189 Y119.231 E6.45424
G1 X104.999 Y116.183 E6.51360
G1 X105.995 Y113.408 E6.56908
G1 X107.096 Y111.085 E6.61746
G1 X108.190 Y109.307 E6.65676
G1 X109.398 Y107.776 E6.69345
G1 X110.741 Y106.482 E6.72854
G1 X112.172 Y105.541 E6.76078
G1 X113.808 Y104.960 E6.79346
G1 X115.746 Y104.939 E6.82993
G1 X117.351 Y105.405 E6.86138 F1200.000
G1 X118.664 Y106.139 E6.88969
G1 X119.788 Y107.068 E6.91712
G1 X120.922 Y108.304 E6.94870
G1 X121.314 Y108.842 E6.96121
G1 X121.995 Y109.804 E6.98340
G1 X123.087 Y111.723 E7.02495
G1 X124.162 Y114.157 E7.07502
G1 X124.451 Y114.998 E7.09176
G1 X125.024 Y116.712 E7.12577
G1 X125.739 Y119.523 E7.18035
G1 X126.282 Y122.581 E7.23881
G1 X126.630 Y125.937 E7.30230
G1 X126.749 Y129.270 E7.36505
G1 X126.652 Y132.595 E7.42765
G1 X126.335 Y135.819 E7.48862
G1 X125.813 Y138.871 E7.54690
G1 X125.087 Y141.804 E7.60375
G1 X124.178 Y144.543 E7.65805
G1 X122.950 Y147.278 E7.71448
G1 X121.242 Y150.096 E7.77648
G1 X120.909 Y150.790 E7.79097
G1 X120.654 Y151.494 E7.80506
G1 X120.481 Y152.197 E7.81868
G1 X120.384 Y152.887 E7.83179
G1 X120.353 Y153.614 E7.84550
G1 X120.405 Y154.877 E7.86928
G1 X120.365 Y155.404 E7.87922
G1 X120.269 Y155.961 E7.88987
G1 X120.101 Y156.555 E7.90149
G1 X119.954 Y156.916 E7.90882
G1 X119.857 Y157.144 E7.91349
G1 X119.535 Y157.716 E7.92583
G1 F1860.000 E4.92583
G92 E0
G1 X116.056 Y105.193 F6000.000
G1 X118.015 Y106.233 F6000.000
G1 E3.10000 F1860.000
G1 X121.300 Y109.518 E3.18741 F1200.000
G1 X121.924 Y110.487 F6000.000
G1 X117.233 Y105.796 E3.31227 F1200.000
G1 X116.732 Y105.640 E3.32214
G1 X122.379 Y111.287 E3.47244
G1 X122.793 Y112.045 F6000.000
G1 X116.247 Y105.500 E3.64663 F1200.000
G1 X115.762 Y105.359 E3.65614
G1 X123.065 Y112.662 E3.85050
G1 X123.338 Y113.280 F6000.000
G1 X115.391 Y105.333 E4.06200 F1200.000
G1 X115.051 Y105.338 E4.06839
G1 X123.610 Y113.897 E4.29618
G1 X123.850 Y114.481 F6000.000
G1 X114.712 Y105.343 E4.53937 F1200.000
G1 X114.372 Y105.348 E4.54576
