; generated by Slic3r 1.1.7 on 2015-01-07 at 16:32:36

; perimeters extrusion width = 0.40mm
; infill extrusion width = 0.44mm
; solid infill extrusion width = 0.44mm
; top infill extrusion width = 0.44mm

G21 ; set units to millimeters
M190 S115 ; wait for bed temperature to be reached
M104 S220 ; set temperature
G28 ; home all axes Start of G Code Slic3r
 
M109 S220 ; wait for temperature to be reached
G90 ; use absolute coordinates
G92 E0
M82 ; use absolute distances for extrusion
M106 S127
G1 F1860.000 E-3.00000
G92 E0
G1 Z0.294 F7800.000
G1 X68.865 Y79.426 F7800.000
G1 E3.10000 F1860.000
G1 X70.575 Y77.956 E3.24033 F1800.000
G1 X73.714 Y76.030 E3.46957
G1 X75.798 Y75.172 E3.60990
G1 X79.383 Y74.328 E3.83914
G1 X81.032 Y74.139 E3.94246
G1 X119.488 Y74.264 E6.33637
G1 X121.312 Y74.508 E6.45088 F1800.000
G1 X124.814 Y75.452 E6.67666
G1 X126.853 Y76.366 E6.81573
G1 X129.887 Y78.352 E7.04152
G1 X131.541 Y79.855 E7.18060
G1 X133.807 Y82.686 E7.40638
G1 X134.912 Y84.629 E7.54546
G1 X136.185 Y88.025 E7.77124
G1 X136.630 Y90.214 E7.91032
G1 X136.791 Y94.186 E8.15776
G1 X136.697 Y106.793 E8.94256
G1 X136.471 Y110.414 E9.16837
G1 X135.968 Y112.631 E9.30989
G1 X134.609 Y115.994 E9.53570
G1 X133.430 Y117.938 E9.67721
G1 X131.077 Y120.699 E9.90303
G1 X129.344 Y122.170 E10.04454
G1 X126.238 Y124.045 E10.27035
G1 X124.129 Y124.892 E10.41186
G1 X120.590 Y125.688 E10.63768
G1 X118.973 Y125.861 E10.73892
G1 X81.288 Y125.540 E13.08484
G1 X79.879 Y125.386 E13.17307
G1 X76.400 Y124.649 E13.39441
G1 X74.307 Y123.843 E13.53407
G1 X71.232 Y122.057 E13.75540
G1 X69.495 Y120.638 E13.89506
G1 X67.132 Y117.981 E14.11639
G1 X65.924 Y116.090 E14.25605
G1 X64.509 Y112.829 E14.47738
G1 X63.953 Y110.655 E14.61704
G1 X63.600 Y106.683 E14.86529
G1 X63.223 Y93.462 E15.68863
G1 X63.455 Y89.786 E15.91787
G1 X63.953 Y87.588 E16.05820
G1 X65.327 Y84.171 E16.28744
G1 X66.489 Y82.239 E16.42777
G1 X68.827 Y79.472 E16.65328
G1 X69.283 Y79.779 F7800.000
G1 X70.861 Y78.423 E16.78278 F1800.000
G1 X74.000 Y76.497 E17.01202
G1 X75.924 Y75.704 E17.14153
G1 X79.508 Y74.860 E17.37077
G1 X81.030 Y74.686 E17.46612
G1 X119.487 Y74.811 E19.86003
G1 X121.169 Y75.036 E19.96571 F1800.000
G1 X124.671 Y75.980 E20.19149
G1 X126.553 Y76.824 E20.31984
G1 X129.588 Y78.810 E20.54562
G1 X131.114 Y80.197 E20.67397
G1 X133.380 Y83.028 E20.89975
G1 X134.399 Y84.821 E21.02811
G1 X135.673 Y88.217 E21.25389
G1 X136.084 Y90.238 E21.38224
G1 X136.244 Y94.183 E21.62801
G1 X136.151 Y106.759 E22.41091
G1 X135.925 Y110.380 E22.63673
G1 X135.461 Y112.426 E22.76733
G1 X134.102 Y115.789 E22.99314
G1 X133.014 Y117.583 E23.12373
G1 X130.661 Y120.344 E23.34955
G1 X129.061 Y121.702 E23.48015
G1 X125.956 Y123.576 E23.70596
G1 X124.009 Y124.358 E23.83656
G1 X120.470 Y125.154 E24.06237
G1 X118.977 Y125.314 E24.15581
G1 X81.293 Y124.992 E26.50173
G1 X79.992 Y124.851 E26.58315
G1 X76.514 Y124.114 E26.80449
G1 X74.582 Y123.370 E26.93338
G1 X71.507 Y121.584 E27.15471
G1 X69.904 Y120.274 E27.28360
G1 X67.540 Y117.618 E27.50493
G1 X66.426 Y115.873 E27.63381
G1 X65.011 Y112.611 E27.85515
G1 X64.497 Y110.605 E27.98403
G1 X64.147 Y106.666 E28.23021
G1 X63.769 Y93.496 E29.05036
G1 X64.001 Y89.821 E29.27960
G1 X64.461 Y87.792 E29.40910
G1 X65.834 Y84.375 E29.63834
G1 X66.907 Y82.592 E29.76785
G1 X69.245 Y79.825 E29.99335
G1 F1860.000 E26.99335
G92 E0
G1 X126.619 Y100.236 F7800.000
G1 E3.10000 F1860.000
G1 X128.414 Y102.967 E3.30344 F441.000
G1 X129.320 Y106.381 E3.52332
G1 X129.101 Y109.906 E3.74320
G1 X127.777 Y113.181 E3.96307
G1 X125.627 Y115.703 E4.16934
G1 X125.486 Y115.869 E4.18295
G1 X122.462 Y117.695 E4.40283
G1 X119.015 Y118.470 E4.62271
G1 X115.501 Y118.115 E4.84259
G1 X112.279 Y116.667 E5.06247
G1 X109.681 Y114.274 E5.28235
G1 X108.833 Y112.738 E5.39156
G1 X91.204 Y112.739 E6.48890
G1 X90.503 Y113.996 E6.57851
G1 X87.956 Y116.340 E6.79399
G1 X84.804 Y117.772 E7.00946
G1 X81.363 Y118.148 E7.22494
G1 X77.977 Y117.431 E7.44042
G1 X74.984 Y115.693 E7.65590
G1 X72.683 Y113.106 E7.87138
G1 X71.305 Y109.931 E8.08685
G1 X70.988 Y106.484 E8.30233
G1 X71.762 Y103.110 E8.51781
G1 X73.440 Y100.332 E8.71984
G1 X71.508 Y97.351 E8.94095
G1 X70.600 Y93.880 E9.16431
G1 X70.826 Y90.299 E9.38766
G1 X72.164 Y86.970 E9.61102
G1 X74.479 Y84.229 E9.83437
G1 X77.537 Y82.352 E10.05773
G1 X81.014 Y81.528 E10.28015
G1 X84.604 Y81.845 E10.50449
G1 X87.899 Y83.265 E10.72785
G1 X90.582 Y85.647 E10.95120
G1 X91.382 Y87.026 E11.05040
G1 X108.805 Y87.026 E12.13497
G1 X109.875 Y85.353 E12.25862
G1 X112.611 Y83.116 E12.47857
G1 X115.906 Y81.841 E12.69852
G1 X119.434 Y81.654 E12.91847
G1 X122.846 Y82.573 E13.13842
G1 X125.802 Y84.508 E13.35837
G1 X128.010 Y87.267 E13.57832
G1 X129.251 Y90.575 E13.79827
G1 X129.401 Y94.105 E14.01821
G1 X128.446 Y97.507 E14.23816
G1 X126.652 Y100.186 E14.43886
G1 X126.317 Y100.498 F7800.000
G1 X125.962 Y100.233 F7800.000
G1 X127.908 Y103.193 E14.65936 F630.000
G1 X128.769 Y106.436 E14.86818
G1 X128.560 Y109.784 E15.07700
G1 X127.303 Y112.894 E15.28582
G1 X125.211 Y115.348 E15.48656
G1 X125.127 Y115.447 E15.49464
G1 X122.255 Y117.180 E15.70347
G1 X118.982 Y117.916 E15.91229
G1 X115.644 Y117.580 E16.12111
G1 X112.585 Y116.204 E16.32993
G1 X110.117 Y113.932 E16.53875
G1 X109.155 Y112.191 E16.66253
G1 X90.883 Y112.192 E17.79996
G1 X90.068 Y113.653 E17.90411
G1 X87.650 Y115.878 E18.10868
G1 X84.658 Y117.238 E18.31325
G1 X81.391 Y117.595 E18.51782
G1 X78.176 Y116.914 E18.72239
G1 X75.334 Y115.263 E18.92696
G1 X73.150 Y112.808 E19.13152
G1 X71.842 Y109.793 E19.33609
G1 X71.541 Y106.521 E19.54066
G1 X72.276 Y103.318 E19.74523
G1 X74.086 Y100.322 E19.96312
G1 X72.015 Y97.128 E20.20007
G1 X71.151 Y93.827 E20.41247
G1 X71.366 Y90.422 E20.62486
G1 X72.639 Y87.256 E20.83725
G1 X74.840 Y84.649 E21.04964
G1 X77.749 Y82.865 E21.26204
G1 X81.070 Y82.083 E21.47443
G1 X84.469 Y82.382 E21.68682
G1 X87.602 Y83.733 E21.89921
G1 X90.153 Y85.998 E22.11161
G1 X91.067 Y87.573 E22.22495
G1 X109.104 Y87.573 E23.34778
G1 X110.289 Y85.721 E23.48465
G1 X112.889 Y83.595 E23.69374
G1 X116.022 Y82.383 E23.90282
G1 X119.376 Y82.205 E24.11191
G1 X122.619 Y83.079 E24.32099
G1 X125.430 Y84.918 E24.53008
G1 X127.529 Y87.541 E24.73917
G1 X128.708 Y90.686 E24.94825
G1 X128.851 Y94.041 E25.15734
G1 X127.943 Y97.275 E25.36643
G1 X125.996 Y100.183 E25.58428
G1 X122.845 Y100.227 F7800.000
G1 X124.673 Y101.668 E25.72917 F441.000
G1 X126.183 Y103.965 E25.90030
G1 X126.888 Y106.622 E26.07142
G1 X126.717 Y109.366 E26.24255
G1 X125.687 Y111.914 E26.41367
G1 X125.638 Y111.972 E26.41837
G1 X123.904 Y114.006 E26.58480
G1 X121.550 Y115.427 E26.75592
G1 X118.868 Y116.030 E26.92705
G1 X116.133 Y115.754 E27.09817
G1 X113.626 Y114.627 E27.26930
G1 X111.603 Y112.765 E27.44042
G1 X110.256 Y110.326 E27.61384
G1 X89.788 Y110.326 E28.88795
G1 X88.584 Y112.482 E29.04167
G1 X86.606 Y114.304 E29.20905
G1 X84.158 Y115.416 E29.37643
G1 X81.485 Y115.708 E29.54381
G1 X78.855 Y115.151 E29.71119
G1 X76.530 Y113.800 E29.87857
G1 X74.743 Y111.791 E30.04595
G1 X73.672 Y109.325 E30.21333
G1 X73.426 Y106.647 E30.38071
G1 X74.027 Y104.027 E30.54809
G1 X75.417 Y101.725 E30.71547
G1 X77.153 Y100.233 E30.85791
G1 X75.273 Y98.724 E31.00798
G1 X73.744 Y96.365 E31.18300
G1 X73.032 Y93.645 E31.35803
G1 X73.209 Y90.839 E31.53304
G1 X74.258 Y88.230 E31.70806
G1 X76.072 Y86.082 E31.88308
G1 X78.468 Y84.612 E32.05810
G1 X81.131 Y83.985 E32.22840
G1 X81.205 Y83.967 E32.23312
G1 X84.006 Y84.214 E32.40814
G1 X86.588 Y85.327 E32.58316
G1 X88.690 Y87.194 E32.75818
G1 X89.992 Y89.439 E32.91972
G1 X110.126 Y89.439 E34.17301
G1 X111.700 Y86.977 E34.35493
G1 X113.840 Y85.227 E34.52698
G1 X116.418 Y84.230 E34.69903
G1 X119.103 Y84.087 E34.86643
G1 X119.178 Y84.083 E34.87109
G1 X121.847 Y84.803 E35.04314
G1 X124.159 Y86.316 E35.21520
G1 X124.206 Y86.375 E35.21986
G1 X125.886 Y88.474 E35.38725
G1 X126.857 Y91.062 E35.55931
G1 X126.974 Y93.823 E35.73136
G1 X126.227 Y96.485 E35.90342
G1 X124.690 Y98.781 E36.07547
G1 X122.892 Y100.190 E36.21761
G1 X123.235 Y100.315 F7800.000
G1 X123.730 Y100.228 F7800.000
G1 X125.081 Y101.293 E36.32469 F630.000
G1 X126.689 Y103.739 E36.50687
G1 X127.440 Y106.567 E36.68905
G1 X127.258 Y109.488 E36.87124
G1 X126.161 Y112.202 E37.05342
G1 X126.054 Y112.327 E37.06365
G1 X124.262 Y114.429 E37.23560
G1 X121.757 Y115.941 E37.41778
G1 X118.901 Y116.583 E37.59996
G1 X115.990 Y116.289 E37.78215
G1 X113.320 Y115.090 E37.96433
G1 X111.167 Y113.107 E38.14651
G1 X109.933 Y110.873 E38.30536
G1 X90.109 Y110.873 E39.53939
G1 X89.019 Y112.826 E39.67857
G1 X86.912 Y114.765 E39.85685
G1 X84.305 Y115.950 E40.03514
G1 X81.458 Y116.262 E40.21343
G1 X78.656 Y115.668 E40.39172
G1 X76.179 Y114.230 E40.57001
G1 X74.275 Y112.090 E40.74830
G1 X73.135 Y109.462 E40.92658
G1 X72.873 Y106.610 E41.10487
G1 X73.514 Y103.819 E41.28316
G1 X74.994 Y101.367 E41.46145
G1 X76.297 Y100.248 E41.56835
G1 X74.862 Y99.096 E41.68290
G1 X73.237 Y96.589 E41.86889
G1 X72.480 Y93.698 E42.05487
G1 X72.669 Y90.716 E42.24085
G1 X73.783 Y87.944 E42.42683
G1 X75.711 Y85.662 E42.61281
G1 X78.257 Y84.099 E42.79879
G1 X81.006 Y83.452 E42.97458
G1 X81.165 Y83.414 E42.98478
G1 X84.142 Y83.677 E43.17076
G1 X86.885 Y84.859 E43.35674
G1 X89.119 Y86.843 E43.54273
G1 X90.307 Y88.891 E43.69013
G1 X109.826 Y88.891 E44.90515
G1 X111.286 Y86.608 E45.07385
G1 X113.561 Y84.748 E45.25677
G1 X116.302 Y83.688 E45.43968
G1 X119.236 Y83.532 E45.62260
G1 X122.073 Y84.297 E45.80552
G1 X124.532 Y85.906 E45.98843
G1 X124.633 Y86.033 E45.99853
G1 X126.368 Y88.200 E46.17135
G1 X127.400 Y90.952 E46.35427
G1 X127.525 Y93.887 E46.53719
G1 X126.730 Y96.717 E46.72011
G1 X125.096 Y99.158 E46.90302
G1 X123.778 Y100.191 E47.00725
G1 F1860.000 E44.00725
G92 E0
G1 X75.546 Y100.128 F7800.000
G1 E3.10000 F1860.000
G1 X75.676 Y100.258 E3.11146 F1500.000
G1 X74.594 Y100.344 E3.17904
G1 X74.467 Y100.218 E3.19020
G1 X74.466 Y99.697 F7800.000
G1 X72.660 Y96.910 E3.49925 F600.000
G1 X72.610 Y96.798 E3.51065
G1 X71.818 Y93.762 E3.80263
G1 X72.014 Y90.631 E4.09463
G1 X72.041 Y90.511 E4.10603
G1 X73.213 Y87.601 E4.39801
G1 X75.277 Y85.157 E4.69573
G1 X78.004 Y83.484 E4.99345
G1 X81.118 Y82.751 E5.29117
G1 X84.304 Y83.032 E5.58890
G1 X87.242 Y84.298 E5.88662
G1 X89.634 Y86.422 E6.18434
G1 X90.576 Y88.040 E6.35856
G1 X90.703 Y88.205 E6.37792
G1 X90.909 Y88.232 E6.39728
G1 X109.254 Y88.232 E8.10458
G1 X109.451 Y88.207 E8.12309
G1 X109.579 Y88.055 E8.14159
G1 X110.790 Y86.166 E8.35034
G1 X113.178 Y84.210 E8.63762
G1 X113.283 Y84.149 E8.64892
G1 X116.104 Y83.057 E8.93049
G1 X116.223 Y83.032 E8.94180
G1 X119.306 Y82.871 E9.22908
G1 X122.345 Y83.690 E9.52204
G1 X124.929 Y85.378 E9.80931
G1 X124.979 Y85.414 E9.81501
G1 X125.148 Y85.621 E9.83984
G1 X126.946 Y87.872 E10.10797
G1 X128.052 Y90.819 E10.40094
G1 X128.185 Y93.964 E10.69390
G1 X127.353 Y96.937 E10.98118
G1 X127.302 Y97.047 E10.99248
G1 X125.480 Y99.769 E11.29738
G1 X125.384 Y100.158 F7800.000
G1 X125.457 Y100.231 E11.30379 F1500.000
G1 X124.493 Y100.349 E11.36425
G1 X124.372 Y100.229 E11.37484
G1 X125.476 Y100.693 F7800.000
G1 X127.264 Y103.414 E11.67780 F600.000
G1 X127.314 Y103.527 E11.68929
G1 X128.102 Y106.502 E11.97572
G1 X127.913 Y109.574 E12.26214
G1 X127.885 Y109.694 E12.27364
G1 X126.730 Y112.546 E12.56006
G1 X124.693 Y114.936 E12.85227
G1 X122.005 Y116.558 E13.14449
G1 X118.942 Y117.247 E13.43670
G1 X115.818 Y116.932 E13.72891
G1 X112.954 Y115.645 E14.02112
G1 X110.644 Y113.518 E14.31333
G1 X109.654 Y111.731 E14.50342
G1 X109.528 Y111.561 E14.52315
G1 X109.317 Y111.532 E14.54295
G1 X90.723 Y111.533 E16.27344
G1 X90.513 Y111.561 E16.29313
G1 X90.386 Y111.730 E16.31281
G1 X89.542 Y113.238 E16.47361
G1 X87.280 Y115.320 E16.75974
G1 X84.481 Y116.592 E17.04586
G1 X81.424 Y116.926 E17.33198
G1 X78.417 Y116.289 E17.61811
G1 X75.810 Y114.778 E17.89853
G1 X75.716 Y114.700 E17.90987
G1 X73.715 Y112.447 E18.19029
G1 X72.491 Y109.627 E18.47641
G1 X72.209 Y106.566 E18.76254
G1 X72.881 Y103.628 E19.04296
G1 X72.927 Y103.515 E19.05431
G1 X74.581 Y100.777 E19.35208
M106 S145
M104 S218 ; set temperature
M140 S112 ; set bed temperature
G1 F1860.000 E16.35208
G92 E0
G1 Z0.587 F7800.000
G1 X126.731 Y100.236 F7800.000
G1 E3.10000 F1860.000
G1 X128.500 Y102.928 E3.24658 F882.000
G1 X129.415 Y106.372 E3.40870
G1 X129.193 Y109.927 E3.57082
G1 X127.858 Y113.231 E3.73294
G1 X125.547 Y115.942 E3.89506
G1 X122.497 Y117.783 E4.05718
G1 X119.021 Y118.565 E4.21930
G1 X115.476 Y118.207 E4.38141
G1 X112.227 Y116.746 E4.54353
G1 X109.606 Y114.333 E4.70565
G1 X108.777 Y112.832 E4.78366
G1 X91.259 Y112.833 E5.58081
G1 X90.577 Y114.055 E5.64450
G1 X88.008 Y116.419 E5.80338
G1 X84.830 Y117.864 E5.96227
G1 X81.359 Y118.243 E6.12115
G1 X77.943 Y117.520 E6.28004
G1 X74.924 Y115.766 E6.43892
G1 X72.603 Y113.157 E6.59780
G1 X71.213 Y109.954 E6.75669
G1 X70.893 Y106.477 E6.91557
G1 X71.675 Y103.074 E7.07445
G1 X73.330 Y100.334 E7.22015
G1 X71.421 Y97.390 E7.37981
G1 X70.505 Y93.889 E7.54446
G1 X70.733 Y90.278 E7.70910
G1 X72.083 Y86.921 E7.87375
G1 X74.417 Y84.157 E8.03840
G1 X77.501 Y82.264 E8.20305
G1 X81.023 Y81.435 E8.36770
G1 X84.627 Y81.753 E8.53235
G1 X87.950 Y83.185 E8.69700
G1 X90.656 Y85.587 E8.86165
G1 X91.436 Y86.932 E8.93240
G1 X108.754 Y86.932 E9.72044
G1 X109.804 Y85.290 E9.80918
G1 X112.563 Y83.034 E9.97132
G1 X115.886 Y81.748 E10.13347
G1 X119.444 Y81.559 E10.29562
G1 X122.885 Y82.487 E10.45776
G1 X125.866 Y84.438 E10.61991
G1 X128.093 Y87.220 E10.78205
G1 X129.344 Y90.556 E10.94420
G1 X129.495 Y94.116 E11.10635
G1 X128.532 Y97.547 E11.26849
G1 X126.765 Y100.187 E11.41305
G1 X126.429 Y100.499 F7800.000
G1 X126.251 Y100.234 F7800.000
G1 X128.131 Y103.094 E11.56875 F1260.000
G1 X129.012 Y106.412 E11.72496
G1 X128.798 Y109.838 E11.88117
G1 X127.512 Y113.020 E12.03738
G1 X125.285 Y115.633 E12.19359
G1 X122.346 Y117.407 E12.34980
G1 X118.997 Y118.160 E12.50601
G1 X115.581 Y117.815 E12.66222
G1 X112.450 Y116.408 E12.81843
G1 X109.925 Y114.082 E12.97465
G1 X109.013 Y112.432 E13.06044
G1 X91.025 Y112.433 E13.87902
G1 X90.259 Y113.804 E13.95047
G1 X87.785 Y116.082 E14.10353
G1 X84.722 Y117.473 E14.25658
G1 X81.379 Y117.839 E14.40963
G1 X78.088 Y117.142 E14.56269
G1 X75.180 Y115.452 E14.71574
G1 X72.945 Y112.939 E14.86880
G1 X71.606 Y109.854 E15.02185
G1 X71.297 Y106.505 E15.17490
G1 X72.050 Y103.226 E15.32796
G1 X73.802 Y100.326 E15.48213
G1 X71.792 Y97.226 E15.65025
G1 X70.908 Y93.850 E15.80904
G1 X71.128 Y90.368 E15.96783
G1 X72.430 Y87.130 E16.12662
G1 X74.681 Y84.464 E16.28541
G1 X77.656 Y82.639 E16.44420
G1 X81.052 Y81.839 E16.60299
G1 X84.528 Y82.146 E16.76178
G1 X87.733 Y83.527 E16.92057
G1 X90.342 Y85.844 E17.07937
G1 X91.205 Y87.332 E17.15767
G1 X108.973 Y87.332 E17.96616
G1 X110.107 Y85.559 E18.06196
G1 X112.767 Y83.384 E18.21830
G1 X115.971 Y82.144 E18.37465
G1 X119.402 Y81.962 E18.53099
G1 X122.719 Y82.856 E18.68733
G1 X125.594 Y84.738 E18.84367
G1 X127.741 Y87.420 E19.00001
G1 X128.947 Y90.637 E19.15635
G1 X129.093 Y94.070 E19.31269
G1 X128.164 Y97.377 E19.46903
G1 X126.285 Y100.185 E19.62277
G1 X122.693 Y100.226 F7800.000
G1 X124.603 Y101.732 E19.73342 F882.000
G1 X126.096 Y104.004 E19.85713
G1 X126.794 Y106.631 E19.98084
G1 X126.624 Y109.344 E20.10455
G1 X125.606 Y111.865 E20.22826
G1 X125.531 Y111.953 E20.23354
G1 X123.842 Y113.934 E20.35197
G1 X121.515 Y115.339 E20.47568
G1 X118.862 Y115.935 E20.59939
G1 X116.157 Y115.662 E20.72310
G1 X113.678 Y114.548 E20.84681
G1 X111.678 Y112.706 E20.97053
G1 X110.312 Y110.233 E21.09912
G1 X89.733 Y110.233 E22.03554
G1 X88.510 Y112.424 E22.14973
G1 X86.554 Y114.224 E22.27072
G1 X84.133 Y115.324 E22.39171
G1 X81.490 Y115.613 E22.51271
G1 X78.889 Y115.063 E22.63370
G1 X76.590 Y113.727 E22.75469
G1 X76.514 Y113.642 E22.75986
G1 X74.823 Y111.740 E22.87568
G1 X73.764 Y109.301 E22.99667
G1 X73.520 Y106.654 E23.11766
G1 X74.115 Y104.062 E23.23865
G1 X75.490 Y101.786 E23.35965
G1 X77.300 Y100.231 E23.46822
G1 X75.344 Y98.660 E23.58238
G1 X73.831 Y96.326 E23.70894
G1 X73.126 Y93.636 E23.83551
G1 X73.302 Y90.860 E23.96208
G1 X73.346 Y90.751 E23.96744
G1 X74.339 Y88.279 E24.08865
G1 X76.134 Y86.154 E24.21522
G1 X78.504 Y84.699 E24.34179
G1 X81.097 Y84.089 E24.46301
