; generated by Slic3r 1.1.7 on 2015-01-07 at 16:47:16

; perimeters extrusion width = 0.40mm
; infill extrusion width = 0.44mm
; solid infill extrusion width = 0.44mm
; top infill extrusion width = 0.44mm

G21 ; set units to millimeters
M190 S115 ; wait for bed temperature to be reached
M104 S220 ; set temperature
G28 ; home all axes Start of G Code Slic3r
 
M109 S220 ; wait for temperature to be reached
G90 ; use absolute coordinates
G92 E0
M82 ; use absolute distances for extrusion
M106 S127
G1 F1860.000 E-3.00000
G92 E0
G1 Z0.294 F7800.000
G1 X56.739 Y58.250 F7800.000
G1 E3.10000 F1860.000
G1 X57.600 Y57.411 E3.17483 F1800.000
G1 X60.649 Y55.156 E3.41087
G1 X62.399 Y53.991 E3.54176
G1 X64.354 Y52.746 E3.68604
G1 X65.665 Y52.090 E3.77729
G1 X66.074 Y51.938 E3.80443
G1 X67.669 Y51.417 E3.90889
G1 X68.626 Y51.191 E3.97011
G1 X70.921 Y50.744 E4.11567
G1 X72.629 Y50.502 E4.22303
G1 X74.047 Y50.325 E4.31198
G1 X75.994 Y50.159 E4.43362
G1 X79.879 Y49.914 E4.67596
G1 X120.143 Y49.732 E7.18239
G1 X121.755 Y49.746 E7.28272 F1800.000
G1 X124.023 Y49.893 E7.42420
G1 X125.947 Y50.127 E7.54483
G1 X127.993 Y50.443 E7.67372
G1 X129.310 Y50.678 E7.75702
G1 X131.433 Y51.104 E7.89178
G1 X132.338 Y51.314 E7.94964
G1 X133.818 Y51.718 E8.04511
G1 X134.242 Y51.869 E8.07313
G1 X135.671 Y52.568 E8.17216
G1 X138.732 Y54.518 E8.39812
G1 X140.206 Y55.502 E8.50843
G1 X140.759 Y55.892 E8.55054
G1 X142.563 Y57.288 E8.69254
G1 X143.633 Y58.311 E8.78472
G1 X145.591 Y60.693 E8.97660
G1 X146.574 Y62.167 E9.08691
G1 X147.167 Y63.182 E9.16008
G1 X147.434 Y63.762 E9.19984
G1 X147.975 Y65.107 E9.29010
G1 X148.449 Y66.697 E9.39336
G1 X148.946 Y69.451 E9.56759
G1 X149.027 Y70.504 E9.63330
G1 X149.081 Y71.273 E9.68132
G1 X150.468 Y101.833 E11.58557
G1 X150.505 Y103.668 E11.69985
G1 X150.488 Y105.274 E11.79982
G1 X150.352 Y106.581 E11.88163
G1 X149.899 Y108.817 E12.02366
G1 X149.610 Y109.927 E12.09504
G1 X149.327 Y110.830 E12.15395
G1 X148.817 Y112.047 E12.23608
G1 X148.315 Y112.916 E12.29858
G1 X146.644 Y115.303 E12.47993
G1 X123.514 Y141.368 E14.64915
G1 X121.258 Y143.327 E14.83514
G1 X120.263 Y144.045 E14.91158
G1 X118.236 Y145.471 E15.06580
G1 X116.613 Y146.554 E15.18727
G1 X115.395 Y147.205 E15.27323
G1 X111.145 Y148.906 E15.55825
G1 X109.411 Y149.360 E15.66979
G1 X107.290 Y149.779 E15.80436
G1 X106.258 Y149.939 E15.86937
G1 X104.420 Y150.123 E15.98437
G1 X102.412 Y150.249 E16.10962
G1 X100.461 Y150.264 E16.23109
G1 X98.572 Y150.185 E16.34876
G1 X96.667 Y150.030 E16.46776
G1 X95.805 Y149.923 E16.52179
G1 X94.539 Y149.730 E16.60154
G1 X92.142 Y149.253 E16.75367
G1 X90.839 Y148.859 E16.83842
G1 X87.261 Y147.390 E17.07915
G1 X85.106 Y146.329 E17.22869
G1 X83.152 Y145.038 E17.37450
G1 X80.704 Y143.311 E17.56098
G1 X78.692 Y141.469 E17.73074
G1 X53.496 Y115.465 E19.98468
G1 X52.690 Y114.466 E20.06459
G1 X51.182 Y112.117 E20.23838
G1 X51.082 Y111.920 E20.25213
G1 X50.617 Y110.758 E20.33006
G1 X50.155 Y109.124 E20.43576
G1 X49.646 Y106.581 E20.59716
G1 X49.509 Y105.264 E20.67961
G1 X49.502 Y104.533 E20.72513
G1 X49.499 Y103.326 E20.80027
G1 X49.563 Y101.677 E20.90299
G1 X50.954 Y70.949 E22.81773
G1 X51.031 Y70.105 E22.87047
G1 X51.209 Y68.610 E22.96420
G1 X51.834 Y65.789 E23.14404
G1 X52.027 Y65.224 E23.18121
G1 X52.658 Y63.866 E23.27446
G1 X53.404 Y62.639 E23.36385
G1 X54.611 Y60.836 E23.49889
G1 X56.254 Y58.723 E23.66547
G1 X56.696 Y58.292 E23.70394
G1 X57.118 Y58.639 F7800.000
G1 X57.927 Y57.851 E23.77426 F1800.000
G1 X60.952 Y55.611 E24.00856
G1 X62.693 Y54.452 E24.13872
G1 X64.648 Y53.207 E24.28300
G1 X65.858 Y52.602 E24.36721
G1 X66.254 Y52.455 E24.39352
G1 X67.798 Y51.949 E24.49468
G1 X68.733 Y51.727 E24.55447
G1 X70.999 Y51.286 E24.69817
G1 X72.698 Y51.045 E24.80501
G1 X74.100 Y50.869 E24.89295
G1 X76.031 Y50.705 E25.01363
G1 X79.882 Y50.461 E25.25378
G1 X120.139 Y50.279 E27.75981
G1 X121.737 Y50.293 E27.85927 F1800.000
G1 X123.958 Y50.436 E27.99782
G1 X125.863 Y50.667 E28.11729
G1 X127.898 Y50.982 E28.24543
G1 X129.203 Y51.214 E28.32799
G1 X131.310 Y51.637 E28.46172
G1 X132.205 Y51.845 E28.51896
G1 X133.634 Y52.234 E28.61112
G1 X134.058 Y52.385 E28.63914
G1 X135.377 Y53.029 E28.73054
G1 X138.429 Y54.973 E28.95576
G1 X139.903 Y55.957 E29.06607
G1 X140.424 Y56.325 E29.10579
G1 X142.228 Y57.721 E29.24779
G1 X143.216 Y58.665 E29.33287
G1 X145.136 Y60.996 E29.52084
G1 X146.119 Y62.470 E29.63115
G1 X146.674 Y63.419 E29.69954
G1 X146.929 Y63.972 E29.73745
G1 X147.457 Y65.282 E29.82538
G1 X147.913 Y66.804 E29.92426
G1 X148.400 Y69.493 E30.09443
G1 X148.481 Y70.544 E30.16001
G1 X148.534 Y71.298 E30.20708
G1 X149.921 Y101.845 E32.11056
G1 X149.958 Y103.663 E32.22372
G1 X149.941 Y105.268 E32.32366
G1 X149.816 Y106.474 E32.39916
G1 X149.368 Y108.686 E32.53960
G1 X149.088 Y109.763 E32.60892
G1 X148.805 Y110.666 E32.66783
G1 X148.334 Y111.790 E32.74363
G1 X147.860 Y112.613 E32.80278
G1 X146.234 Y114.940 E32.97950
G1 X123.151 Y140.959 E35.14468
G1 X120.938 Y142.883 E35.32720
G1 X119.947 Y143.598 E35.40325
G1 X117.933 Y145.016 E35.55660
G1 X116.310 Y146.099 E35.67806
G1 X115.186 Y146.699 E35.75740
G1 X111.001 Y148.378 E36.03807
G1 X109.304 Y148.824 E36.14726
G1 X107.200 Y149.240 E36.28082
G1 X106.202 Y149.395 E36.34368
G1 X104.382 Y149.577 E36.45753
G1 X102.405 Y149.702 E36.58081
G1 X100.481 Y149.717 E36.70060
G1 X98.615 Y149.640 E36.81689
G1 X96.733 Y149.487 E36.93441
G1 X95.883 Y149.382 E36.98769
G1 X94.646 Y149.194 E37.06562
G1 X92.249 Y148.716 E37.21774
G1 X91.046 Y148.353 E37.29595
G1 X87.482 Y146.889 E37.53578
G1 X85.408 Y145.872 E37.67961
G1 X83.455 Y144.583 E37.82526
G1 X81.071 Y142.906 E38.00672
G1 X79.085 Y141.088 E38.17427
G1 X53.889 Y115.084 E40.42821
G1 X53.145 Y114.163 E40.50195
G1 X51.670 Y111.869 E40.67170
G1 X51.570 Y111.672 E40.68545
G1 X51.140 Y110.600 E40.75738
G1 X50.691 Y109.014 E40.85994
G1 X50.182 Y106.474 E41.02119
G1 X50.057 Y105.259 E41.09728
G1 X50.046 Y103.346 E41.21631
G1 X51.499 Y70.999 E43.23197
G1 X51.576 Y70.156 E43.28463
G1 X51.745 Y68.717 E43.37485
G1 X52.352 Y65.966 E43.55018
G1 X52.545 Y65.401 E43.58735
G1 X53.127 Y64.147 E43.67341
G1 X53.859 Y62.942 E43.76117
G1 X55.057 Y61.154 E43.89516
G1 X56.684 Y59.061 E44.06016
G1 X57.075 Y58.681 E44.09412
G1 F1860.000 E41.09412
G92 E0
G1 X121.954 Y116.186 F7800.000
G1 E3.10000 F1860.000
G1 X122.116 Y116.739 E3.13593 F441.000
G1 X122.567 Y117.692 E3.20157
G1 X123.049 Y118.974 E3.28677
G1 X123.498 Y121.238 E3.43046
G1 X123.662 Y122.807 E3.52867
G1 X123.646 Y124.379 E3.62654
G1 X123.450 Y125.950 E3.72510
G1 X123.005 Y128.162 E3.86554
G1 X122.678 Y128.926 E3.91726
G1 X122.511 Y129.252 E3.94008
G1 X122.471 Y129.422 E3.95093
G1 X122.052 Y130.388 E4.01648
G1 X121.859 Y131.008 E4.05689
G1 X121.642 Y131.527 E4.09194
G1 X120.578 Y133.120 E4.21119
G1 X120.043 Y133.842 E4.26710
G1 X119.967 Y133.909 E4.27341
G1 X118.586 Y135.857 E4.42206
G1 X118.422 Y135.966 E4.43431
G1 X117.718 Y136.567 E4.49197
G1 X116.893 Y137.364 E4.56335
G1 X116.006 Y138.006 E4.63149
G1 X114.451 Y139.044 E4.74787
G1 X114.119 Y139.336 E4.77540
G1 X112.541 Y140.389 E4.89351
G1 X110.553 Y141.064 E5.02417
G1 X110.150 Y141.169 E5.05009
G1 X109.546 Y141.532 E5.09397
G1 X109.161 Y141.789 E5.12278
G1 X108.567 Y141.926 E5.16075
G1 X107.953 Y142.117 E5.20078
G1 X106.059 Y142.495 E5.32096
G1 X105.485 Y142.591 E5.35722
G1 X103.900 Y142.753 E5.45638
G1 X102.313 Y142.862 E5.55542
G1 X100.728 Y142.881 E5.65407
G1 X99.141 Y142.819 E5.75295
G1 X97.553 Y142.695 E5.85209
G1 X95.973 Y142.483 E5.95137
G1 X93.617 Y142.013 E6.10089
G1 X92.528 Y141.555 E6.17444
G1 X91.459 Y140.999 E6.24943
G1 X90.897 Y140.846 E6.28572
G1 X90.237 Y140.627 E6.32896
G1 X89.800 Y140.415 E6.35920
G1 X89.153 Y140.148 E6.40277
G1 X87.591 Y139.105 E6.51969
G1 X87.525 Y139.027 E6.52604
G1 X87.238 Y138.882 E6.54609
G1 X85.657 Y137.828 E6.66436
G1 X85.202 Y137.345 E6.70566
G1 X84.988 Y137.042 E6.72875
G1 X84.560 Y136.757 E6.76077
G1 X83.998 Y136.324 E6.80493
G1 X83.572 Y135.761 E6.84885
G1 X83.273 Y135.313 E6.88236
G1 X82.977 Y135.089 E6.90547
G1 X82.504 Y134.650 E6.94570
G1 X81.448 Y133.068 E7.06408
G1 X81.122 Y132.425 E7.10894
G1 X80.238 Y131.100 E7.20814
G1 X80.073 Y130.689 E7.23570
G1 X79.757 Y130.024 E7.28151
G1 X79.572 Y129.436 E7.31989
G1 X79.440 Y128.773 E7.36196
G1 X79.222 Y127.848 E7.42110
G1 X78.540 Y124.373 E7.64154
G1 X78.529 Y122.812 E7.73874
G1 X78.740 Y121.559 E7.81782
G1 X78.771 Y121.239 E7.83785
G1 X79.149 Y119.343 E7.95820
G1 X79.380 Y118.409 E8.01808
G1 X79.510 Y117.753 E8.05971
G1 X79.703 Y117.099 E8.10218
G1 X79.881 Y116.653 E8.13205
G1 X78.175 Y116.489 E8.23871
G1 X76.810 Y116.258 E8.32489
G1 X75.396 Y116.062 E8.41376
G1 X74.877 Y116.023 E8.44616
G1 X73.968 Y115.891 E8.50332
G1 X73.072 Y115.818 E8.55929
G1 X72.520 Y115.740 E8.59401
G1 X70.355 Y115.535 E8.72935
G1 X68.769 Y115.338 E8.82883
G1 X66.356 Y114.866 E8.98190
G1 X65.526 Y114.561 E9.03695
G1 X65.210 Y114.477 E9.05732
G1 X64.721 Y114.151 E9.09391
G1 X64.218 Y113.854 E9.13028
G1 X63.708 Y113.707 E9.16329
G1 X63.056 Y113.440 E9.20714
G1 X62.498 Y113.100 E9.24782
G1 X62.047 Y112.864 E9.27951
G1 X60.491 Y111.825 E9.39595
G1 X60.433 Y111.741 E9.40232
G1 X59.685 Y111.011 E9.46735
G1 X58.987 Y110.439 E9.52358
G1 X58.803 Y110.317 E9.53729
G1 X57.762 Y108.757 E9.65402
G1 X57.685 Y108.605 E9.66466
G1 X57.590 Y108.228 E9.68886
G1 X57.391 Y107.631 E9.72799
G1 X56.897 Y105.165 E9.88456
G1 X56.882 Y103.600 E9.98202
G1 X56.943 Y102.026 E10.08005
G1 X57.417 Y99.574 E10.23552
G1 X57.579 Y98.962 E10.27491
G1 X57.660 Y98.559 E10.30049
G1 X57.725 Y98.368 E10.31309
G1 X58.492 Y97.218 E10.39910
G1 X58.568 Y97.013 E10.41272
G1 X58.936 Y96.426 E10.45585
G1 X59.998 Y94.834 E10.57495
G1 X60.572 Y94.295 E10.62396
G1 X60.843 Y94.114 E10.64427
G1 X61.023 Y93.845 E10.66440
G1 X61.573 Y93.283 E10.71339
G1 X63.022 Y92.316 E10.82181
G1 X63.411 Y91.921 E10.85631
G1 X64.980 Y90.874 E10.97377
G1 X65.300 Y90.754 E10.99499
G1 X66.153 Y90.528 E11.04997
G1 X66.872 Y90.366 E11.09586
G1 X68.768 Y89.988 E11.21618
G1 X70.346 Y89.802 E11.31510
G1 X71.928 Y89.728 E11.41369
G1 X73.512 Y89.751 E11.51227
G1 X78.568 Y90.201 E11.82825
G1 X78.279 Y89.584 E11.87068
G1 X78.192 Y89.478 E11.87924
G1 X78.111 Y89.418 E11.88550
G1 X77.069 Y87.856 E12.00238
G1 X76.535 Y87.014 E12.06444
G1 X76.153 Y86.613 E12.09893
G1 X75.096 Y85.030 E12.21745
G1 X74.973 Y84.770 E12.23534
G1 X74.856 Y84.679 E12.24455
G1 X73.544 Y82.687 E12.39305
G1 X73.375 Y82.572 E12.40574
G1 X72.771 Y81.980 E12.45839
G1 X72.574 Y81.706 E12.47942
G1 X71.917 Y81.696 E12.52029
G1 X70.314 Y81.807 E12.62035
G1 X68.741 Y81.828 E12.71828
G1 X68.124 Y81.752 E12.75694
G1 X67.701 Y81.668 E12.78380
G1 X67.174 Y81.593 E12.81694
G1 X65.283 Y81.216 E12.93697
G1 X64.964 Y81.120 E12.95769
G1 X61.480 Y78.793 E13.21852
G1 X60.785 Y78.140 E13.27783
G1 X60.671 Y77.970 E13.29062
G1 X60.609 Y77.916 E13.29574
G1 X60.069 Y77.130 E13.35512
G1 X59.005 Y75.536 E13.47437
G1 X58.813 Y75.027 E13.50825
G1 X58.440 Y73.155 E13.62711
G1 X58.313 Y71.597 E13.72438
G1 X58.458 Y70.038 E13.82185
G1 X58.832 Y68.159 E13.94111
G1 X59.008 Y67.642 E13.97513
G1 X59.554 Y66.734 E14.04107
G1 X60.613 Y65.146 E14.15989
G1 X61.925 Y63.495 E14.29117
G1 X62.045 Y63.316 E14.30455
G1 X62.718 Y62.868 E14.35490
G1 X63.993 Y61.971 E14.45195
G1 X64.071 Y61.862 E14.46031
G1 X64.762 Y61.294 E14.51596
G1 X66.354 Y60.231 E14.63511
G1 X66.706 Y60.067 E14.65929
G1 X68.300 Y58.992 E14.77894
G1 X69.002 Y58.761 E14.82497
G1 X69.434 Y58.591 E14.85389
G1 X70.075 Y58.435 E14.89494
G1 X72.068 Y58.038 E15.02143
G1 X73.557 Y57.831 E15.11504
G1 X74.062 Y57.789 E15.14655
G1 X74.772 Y57.677 E15.19129
G1 X76.505 Y57.529 E15.29957
G1 X79.921 Y57.302 E15.51272
G1 X81.569 Y57.354 E15.61532
G1 X85.067 Y57.663 E15.83394
G1 X85.816 Y57.766 E15.88097
G1 X86.290 Y57.800 E15.91058
G1 X87.874 Y58.061 E16.01052
G1 X89.773 Y58.439 E16.13102
G1 X90.403 Y58.598 E16.17148
G1 X90.878 Y58.794 E16.20344
G1 X91.525 Y59.016 E16.24605
G1 X93.110 Y60.084 E16.36502
G1 X93.465 Y60.258 E16.38959
G1 X95.051 Y61.316 E16.50833
G1 X95.624 Y61.853 E16.55717
G1 X95.761 Y62.048 E16.57203
G1 X96.089 Y62.267 E16.59656
G1 X96.755 Y62.784 E16.64905
G1 X97.369 Y63.443 E16.70509
G1 X97.520 Y63.668 E16.72197
G1 X97.668 Y63.768 E16.73314
G1 X98.263 Y64.408 E16.78753
G1 X99.144 Y65.728 E16.88632
G1 X99.662 Y66.221 E16.93079
G1 X99.976 Y66.694 E16.96618
G1 X100.247 Y66.291 E16.99645
G1 X100.669 Y65.912 E17.03175
G1 X101.637 Y64.461 E17.14029
G1 X102.183 Y63.886 E17.18967
G1 X102.375 Y63.747 E17.20446
G1 X102.581 Y63.438 E17.22756
G1 X103.127 Y62.811 E17.27930
G1 X103.759 Y62.327 E17.32890
G1 X104.125 Y62.082 E17.35628
G1 X104.289 Y61.850 E17.37397
G1 X104.815 Y61.328 E17.42011
G1 X106.401 Y60.270 E17.53876
G1 X106.655 Y60.139 E17.55659
G1 X106.742 Y60.044 E17.56462
G1 X108.308 Y58.999 E17.68180
G1 X109.028 Y58.740 E17.72946
G1 X109.425 Y58.572 E17.75629
G1 X110.079 Y58.391 E17.79853
G1 X113.569 Y57.681 E18.02022
G1 X113.799 Y57.656 E18.03462
G1 X115.152 Y57.394 E18.12043
G1 X116.690 Y57.230 E18.21670
G1 X118.185 Y57.135 E18.30992
G1 X119.924 Y57.119 E18.41822
G1 X121.664 Y57.135 E18.52652
G1 X123.156 Y57.230 E18.61958
G1 X124.827 Y57.430 E18.72432
G1 X125.948 Y57.625 E18.79518
G1 X126.708 Y57.719 E18.84281
G1 X127.505 Y57.878 E18.89341
G1 X127.877 Y57.926 E18.91676
G1 X129.776 Y58.304 E19.03728
G1 X131.353 Y58.683 E19.13825
G1 X131.729 Y58.817 E19.16309
G1 X133.306 Y59.869 E19.28110
G1 X133.470 Y60.013 E19.29468
G1 X134.502 Y60.609 E19.36888
G1 X134.651 Y60.677 E19.37906
G1 X136.209 Y61.717 E19.49567
G1 X136.306 Y61.854 E19.50616
G1 X136.766 Y62.280 E19.54515
G1 X138.010 Y63.110 E19.63825
G1 X138.659 Y64.083 E19.71104
G1 X139.269 Y64.682 E19.76423
G1 X139.473 Y64.835 E19.78015
G1 X140.517 Y66.399 E19.89720
G1 X140.979 Y67.481 E19.97039
G1 X141.207 Y68.158 E20.01492
G1 X141.581 Y70.035 E20.13402
G1 X141.699 Y71.590 E20.23109
G1 X141.520 Y73.151 E20.32888
G1 X141.147 Y75.021 E20.44762
G1 X140.905 Y75.589 E20.48605
G1 X139.839 Y77.186 E20.60557
G1 X139.246 Y78.027 E20.66961
G1 X139.154 Y78.134 E20.67840
G1 X138.378 Y78.790 E20.74170
G1 X136.776 Y79.859 E20.86155
G1 X136.114 Y80.244 E20.90921
G1 X136.014 Y80.279 E20.91579
G1 X134.833 Y81.066 E21.00417
G1 X134.567 Y81.144 E21.02140
G1 X132.676 Y81.521 E21.14142
G1 X132.277 Y81.574 E21.16648
G1 X131.670 Y81.695 E21.20506
G1 X131.113 Y81.756 E21.23990
G1 X128.980 Y81.667 E21.37279
G1 X127.927 Y81.590 E21.43856
G1 X127.414 Y81.612 E21.47049
G1 X127.114 Y82.022 E21.50210
G1 X126.470 Y82.697 E21.56016
G1 X126.363 Y82.769 E21.56820
G1 X126.238 Y82.968 E21.58282
G1 X126.127 Y83.204 E21.59906
G1 X125.081 Y84.772 E21.71642
G1 X124.895 Y84.924 E21.73136
G1 X124.816 Y85.093 E21.74301
G1 X123.754 Y86.684 E21.86204
G1 X123.318 Y87.201 E21.90414
G1 X122.968 Y87.767 E21.94559
G1 X122.878 Y87.952 E21.95842
G1 X121.431 Y90.121 E22.12071
G1 X123.789 Y89.914 E22.26804
G1 X124.202 Y89.848 E22.29412
G1 X125.222 Y89.743 E22.35790
G1 X126.067 Y89.587 E22.41138
G1 X126.346 Y89.556 E22.42886
G1 X127.922 Y89.480 E22.52713
G1 X129.500 Y89.583 E22.62552
G1 X129.815 Y89.624 E22.64532
G1 X130.630 Y89.786 E22.69707
G1 X131.080 Y89.833 E22.72523
G1 X132.976 Y90.211 E22.84556
G1 X134.557 Y90.566 E22.94641
G1 X135.017 Y90.729 E22.97680
G1 X136.600 Y91.786 E23.09528
G1 X137.223 Y92.272 E23.14444
G1 X137.326 Y92.395 E23.15442
G1 X138.432 Y93.147 E23.23769
G1 X139.275 Y93.831 E23.30528
G1 X139.994 Y94.678 E23.37446
G1 X140.548 Y95.428 E23.43251
G1 X141.608 Y97.016 E23.55133
G1 X141.636 Y97.093 E23.55643
G1 X142.319 Y98.162 E23.63542
G1 X142.444 Y98.556 E23.66111
G1 X142.821 Y100.449 E23.78124
G1 X143.082 Y102.022 E23.88053
G1 X143.118 Y103.597 E23.97861
G1 X143.101 Y105.165 E24.07621
G1 X142.727 Y107.044 E24.19551
G1 X142.559 Y107.721 E24.23891
G1 X142.284 Y108.597 E24.29605
G1 X142.161 Y108.828 E24.31231
G1 X141.119 Y110.390 E24.42922
G1 X140.198 Y111.026 E24.49886
G1 X139.424 Y111.735 E24.56425
G1 X139.360 Y111.824 E24.57103
G1 X137.802 Y112.864 E24.68765
G1 X137.378 Y113.075 E24.71710
G1 X136.783 Y113.422 E24.75997
G1 X136.146 Y113.664 E24.80243
G1 X135.602 Y113.814 E24.83753
G1 X134.549 Y114.384 E24.91212
G1 X133.434 Y114.811 E24.98641
G1 X131.080 Y115.273 E25.13574
