; generated by Slic3r 1.1.7 on 2015-01-07 at 16:25:59

; perimeters extrusion width = 0.40mm
; infill extrusion width = 0.44mm
; solid infill extrusion width = 0.44mm
; top infill extrusion width = 0.44mm

G21 ; set units to millimeters
M190 S115 ; wait for bed temperature to be reached
M104 S220 ; set temperature
G28 ; home all axes Start of G Code Slic3r
 
M109 S220 ; wait for temperature to be reached
G90 ; use absolute coordinates
G92 E0
M82 ; use absolute distances for extrusion
M106 S127
G1 F1860.000 E-3.00000
G92 E0
G1 Z0.294 F7800.000
G1 X34.810 Y35.212 F7800.000
G1 E3.10000 F1860.000
G1 X40.369 Y29.721 E3.58639 F1800.000
G1 X44.241 Y25.928 E3.92378
G1 X46.665 Y23.596 E4.13321
G1 X47.361 Y22.987 E4.19076
G1 X49.433 Y21.828 E4.33853
G1 X51.771 Y21.417 E4.48630
G1 X54.113 Y21.800 E4.63408
G1 X55.872 Y22.693 E4.75686 F1800.000
G1 X56.417 Y23.095 E4.79901
G1 X56.853 Y23.450 E4.83399
G1 X59.235 Y25.476 E5.02867
G1 X65.255 Y30.694 E5.52461
G1 X101.029 Y61.871 E8.47851
G1 X112.148 Y71.596 E9.39802
G1 X116.565 Y75.504 E9.76515
G1 X117.528 Y76.546 E9.85347
G1 X171.434 Y147.555 E15.40310
G1 X172.427 Y149.711 E15.55088
G1 X172.652 Y152.074 E15.69865
G1 X172.086 Y154.379 E15.84643
G1 X171.120 Y155.985 E15.96309
G1 X170.743 Y156.430 E15.99937
G1 X170.199 Y157.010 E16.04885
G1 X167.530 Y159.751 E16.28704
G1 X154.623 Y172.850 E17.43172
G1 X150.976 Y176.503 E17.75308
G1 X149.041 Y177.878 E17.90086
G1 X145.957 Y178.583 E18.09779
G1 X73.166 Y178.583 E22.62897
G1 X70.825 Y178.186 E22.77675
G1 X68.131 Y176.488 E22.97498
G1 X64.053 Y172.379 E23.33537
G1 X50.424 Y158.566 E24.54330
G1 X49.321 Y157.430 E24.64183
G1 X48.374 Y156.411 E24.72848
G1 X48.128 Y156.118 E24.75228
G1 X47.317 Y154.925 E24.84208
G1 X28.180 Y119.461 E27.35055
G1 X27.329 Y116.092 E27.56687
G1 X27.329 Y45.571 E31.95676
G1 X27.726 Y43.230 E32.10453
G1 X29.436 Y40.526 E32.30371
G1 X34.767 Y35.255 E32.77043
G1 X35.195 Y35.601 F7800.000
G1 X40.753 Y30.112 E33.25673 F1800.000
G1 X44.622 Y26.321 E33.59391
G1 X47.036 Y23.998 E33.80241
G1 X47.704 Y23.413 E33.85773
G1 X49.701 Y22.313 E33.99965
G1 X51.955 Y21.965 E34.14157
G1 X54.190 Y22.411 E34.28349
G1 X55.559 Y23.141 E34.38007 F1800.000
G1 X56.072 Y23.520 E34.41976
G1 X57.096 Y24.368 E34.50252
G1 X60.074 Y26.923 E34.74675
G1 X100.669 Y62.284 E38.09802
G1 X111.787 Y72.007 E39.01742
G1 X116.189 Y75.901 E39.38326
G1 X117.093 Y76.876 E39.46605
G1 X170.982 Y147.863 E45.01398
G1 X171.921 Y149.941 E45.15590
G1 X172.091 Y152.214 E45.29782
G1 X171.471 Y154.408 E45.43974
G1 X170.692 Y155.644 E45.53066
G1 X170.340 Y156.060 E45.56457
G1 X169.805 Y156.631 E45.61330
G1 X167.140 Y159.368 E45.85110
G1 X154.235 Y172.464 E46.99559
G1 X150.589 Y176.116 E47.31687
G1 X148.721 Y177.424 E47.45879
G1 X145.957 Y178.036 E47.63504
G1 X73.166 Y178.036 E52.16623
G1 X70.921 Y177.639 E52.30815
G1 X68.520 Y176.102 E52.48561
G1 X64.442 Y171.994 E52.84590
G1 X50.816 Y158.185 E54.05355
G1 X49.719 Y157.054 E54.15164
G1 X48.793 Y156.059 E54.23627
G1 X48.547 Y155.766 E54.26007
G1 X47.799 Y154.665 E54.34294
G1 X28.661 Y119.201 E56.85142
G1 X27.876 Y116.092 E57.05105
G1 X27.876 Y45.571 E61.44094
G1 X28.273 Y43.326 E61.58286
G1 X29.820 Y40.915 E61.76119
G1 X35.152 Y35.644 E62.22790
G1 F1860.000 E59.22790
G92 E0
G1 X163.723 Y151.466 F7800.000
G1 E3.10000 F1860.000
G1 X163.660 Y151.246 E3.11428 F441.000
G1 X163.534 Y151.025 E3.13006
G1 X163.048 Y150.365 E3.18112
G1 X162.128 Y149.241 E3.27152
G1 X160.657 Y147.511 E3.41285
G1 X157.177 Y143.491 E3.74386
G1 X135.515 Y118.615 E5.79717
G1 X135.378 Y118.402 E5.81294
G1 X135.295 Y118.149 E5.82950
G1 X135.231 Y118.031 E5.83785
G1 X135.108 Y117.878 E5.85009
G1 X134.921 Y117.714 E5.86558
G1 X134.939 Y117.456 E5.88165
G1 X134.643 Y117.384 E5.90062
G1 X134.508 Y117.294 E5.91072
G1 X134.287 Y117.104 E5.92888
G1 X133.634 Y116.444 E5.98666
G1 X132.781 Y115.491 E6.06627
G1 X131.717 Y114.235 E6.16873
G1 X131.398 Y113.788 E6.20289
G1 X131.032 Y113.423 E6.23508
G1 X130.583 Y112.930 E6.27660
G1 X127.624 Y109.579 E6.55487
G1 X113.525 Y93.358 E7.89275
G1 X111.448 Y90.882 E8.09389
G1 X111.352 Y90.756 E8.10376
G1 X111.306 Y90.625 E8.11245
G1 X111.384 Y90.517 E8.12071
G1 X111.049 Y90.108 E8.15363
G1 X110.776 Y89.823 E8.17820
G1 X110.578 Y89.950 E8.19278
G1 X110.302 Y89.703 E8.21581
G1 X110.118 Y89.566 E8.23008
G1 X109.933 Y89.463 E8.24328
G1 X109.740 Y89.397 E8.25598
G1 X109.541 Y89.375 E8.26846
G1 X109.287 Y89.408 E8.28441
G1 X109.139 Y89.525 E8.29615
G1 X108.385 Y90.315 E8.36412
G1 X106.471 Y92.443 E8.54232
G1 X100.182 Y99.630 E9.13679
G1 X98.482 Y101.537 E9.29583
G1 X98.322 Y101.669 E9.30871
G1 X97.602 Y101.336 E9.35813
G1 X104.355 Y93.591 E9.99778
G1 X106.477 Y91.212 E10.19627
G1 X109.565 Y87.618 E10.49122
G1 X111.797 Y90.160 E10.70180
G1 X117.730 Y97.001 E11.26547
G1 X119.429 Y98.915 E11.42482
G1 X119.519 Y99.055 E11.43521
G1 X119.420 Y99.482 E11.46247
G1 X119.818 Y99.547 E11.48755
G1 X120.000 Y99.705 E11.50256
G1 X120.968 Y100.725 E11.59009
G1 X122.134 Y102.038 E11.69939
G1 X161.206 Y146.887 E15.40209
G1 X163.944 Y150.059 E15.66291
G1 X165.199 Y151.546 E15.78404
G1 X163.529 Y153.278 E15.93382
G1 X159.959 Y156.906 E16.25071
G1 X157.041 Y159.842 E16.50838
G1 X154.766 Y162.098 E16.70781
G1 X153.750 Y163.077 E16.79564
G1 X153.094 Y163.676 E16.85095
G1 X152.841 Y163.884 E16.87133
G1 X152.740 Y163.879 E16.87764
G1 X152.619 Y163.903 E16.88531
G1 X152.511 Y163.957 E16.89281
G1 X152.423 Y164.029 E16.89991
G1 X152.354 Y164.112 E16.90665
G1 X152.252 Y164.299 E16.91985
G1 X152.131 Y164.721 E16.94719
G1 X151.496 Y165.449 E17.00735
G1 X149.801 Y167.218 E17.15987
G1 X145.835 Y171.195 E17.50948
G1 X73.288 Y171.195 E22.02548
G1 X69.311 Y167.188 E22.37691
G1 X67.594 Y165.416 E22.53049
G1 X67.013 Y164.789 E22.58374
G1 X66.541 Y164.245 E22.62856
G1 X66.598 Y164.145 E22.63575
G1 X66.086 Y163.720 E22.67718
G1 X65.392 Y163.063 E22.73670
G1 X61.578 Y159.311 E23.06976
G1 X57.010 Y154.727 E23.47260
G1 X54.698 Y152.363 E23.67845
G1 X53.932 Y151.553 E23.74781
G1 X55.826 Y149.325 E23.92985
G1 X59.021 Y145.635 E24.23373
G1 X74.608 Y127.721 E25.71189
G1 X82.357 Y118.888 E26.44328
G1 X97.340 Y101.636 E27.86569
G1 X97.632 Y101.759 E27.88538
G1 X97.601 Y102.158 E27.91029
G1 X97.604 Y102.393 E27.92497
G1 X97.325 Y102.813 E27.95632
G1 X96.589 Y103.706 E28.02837
G1 X93.842 Y106.909 E28.29101
G1 X69.102 Y135.297 E30.63508
G1 X60.559 Y145.132 E31.44601
G1 X58.066 Y148.035 E31.68420
G1 X56.511 Y149.886 E31.83469
G1 X55.704 Y150.912 E31.91594
G1 X55.510 Y151.204 E31.93776
G1 X55.410 Y151.456 E31.95467
G1 X55.478 Y151.694 E31.97006
G1 X55.607 Y151.906 E31.98553
G1 X55.811 Y152.169 E32.00626
G1 X56.539 Y152.988 E32.07449
G1 X57.830 Y154.345 E32.19104
G1 X61.143 Y157.730 E32.48590
G1 X73.538 Y170.259 E33.58298
G1 X145.597 Y170.259 E38.06861
G1 X158.005 Y157.717 E39.16685
G1 X161.322 Y154.329 E39.46197
G1 X162.608 Y152.976 E39.57818
G1 X163.331 Y152.162 E39.64598
G1 X163.533 Y151.900 E39.66656
G1 X163.661 Y151.688 E39.68196
G1 X163.707 Y151.524 E39.69257
G1 X163.910 Y151.333 F7800.000
G1 X164.461 Y151.289 F7800.000
G1 X164.644 Y151.471 E39.70862 F1500.000
G1 X163.875 Y151.863 F7800.000
G1 X163.949 Y152.150 E39.71927 F600.000
G1 X163.924 Y152.181 E39.72071
G1 X162.928 Y153.270 E39.77385
G1 X161.560 Y154.686 E39.84474
G1 X164.133 Y151.058 F7800.000
G1 X163.928 Y150.766 E39.85760 F600.000
G1 X163.395 Y150.095 E39.88846
G1 X162.149 Y148.616 E39.95810
G1 F1860.000 E36.95810
G92 E0
G1 X150.252 Y166.153 F7800.000
G1 E3.10000 F1860.000
G1 X147.447 Y168.988 E3.24362 F600.000
G1 X145.916 Y170.727 F7800.000
G1 X73.209 Y170.727 E5.86162 F600.000
G1 X71.773 Y169.073 F7800.000
G1 X68.948 Y166.218 E6.00624 F600.000
G1 X58.383 Y155.517 F7800.000
G1 X56.214 Y153.288 E6.11824 F600.000
G1 X55.452 Y152.469 E6.15853
G1 X55.054 Y152.011 E6.18037
G1 X54.955 Y151.571 F7800.000
G1 X54.854 Y151.470 E6.18930 F1500.000
G1 X54.978 Y151.092 F7800.000
G1 X55.324 Y150.634 E6.20998 F600.000
G1 X56.168 Y149.607 E6.25784
G1 X58.907 Y146.406 E6.40952
G1 X107.567 Y90.591 F7800.000
G1 X108.593 Y89.432 E6.46525 F600.000
G1 X109.119 Y89.160 E6.48658
G1 X109.492 Y89.001 F7800.000
G1 X109.428 Y88.937 E6.49224 F1500.000
G1 X109.773 Y88.424 E6.53069
G1 X109.570 Y88.221 E6.54858
G1 F1860.000 E3.54858
G92 E0
G1 X111.450 Y80.837 F7800.000
G1 E3.10000 F1860.000
G1 X108.094 Y83.809 E3.37909 F441.000
G1 X101.180 Y89.866 E3.95127
G1 X68.466 Y118.383 E6.65279
G1 X56.282 Y128.966 E7.65738
G1 X51.808 Y132.790 E8.02373
G1 X50.484 Y131.540 E8.13706
G1 X48.313 Y129.426 E8.32567
G1 X34.717 Y115.970 E9.51647
G1 X34.717 Y45.693 E13.89110
G1 X46.618 Y33.938 E14.93240
G1 X50.132 Y30.505 E15.23822
G1 X51.827 Y28.886 E15.38415
G1 X53.432 Y30.233 E15.51460
G1 X55.598 Y32.096 E15.69240
G1 X62.416 Y38.019 E16.25461
G1 X98.772 Y69.708 E19.25679
G1 X107.272 Y77.146 E19.95984
G1 X111.406 Y80.797 E20.30317
G1 X111.062 Y80.932 F7800.000
G1 X110.632 Y80.837 F7800.000
G1 X100.820 Y89.454 E21.11605 F630.000
G1 X68.107 Y117.971 E23.81752
G1 X57.834 Y126.901 E24.66484
G1 X51.826 Y132.062 E25.15787
G1 X50.388 Y130.687 E25.28175
G1 X48.066 Y128.414 E25.48398
G1 X35.264 Y115.741 E26.60532
G1 X35.264 Y45.922 E30.95151
G1 X47.002 Y34.329 E31.97847
G1 X51.851 Y29.612 E32.39959
G1 X55.240 Y32.510 E32.67714
G1 X62.056 Y38.431 E33.23919
G1 X98.412 Y70.120 E36.24134
G1 X110.587 Y80.797 E37.24936
G1 X109.809 Y80.615 F7800.000
G1 X110.031 Y80.837 E37.26891 F1500.000
G1 X109.630 Y81.215 E37.30322
G1 X103.393 Y74.978 E37.85232
G1 X97.227 Y69.591 F7800.000
G1 X109.215 Y81.580 E38.90773 F1500.000
G1 X108.800 Y81.944 E38.94211
G1 X91.089 Y64.233 E40.50126
G1 X85.026 Y58.949 F7800.000
G1 X108.385 Y82.309 E42.55769 F1500.000
G1 X107.970 Y82.673 E42.59207
G1 X78.962 Y53.664 E45.14579
G1 X72.898 Y48.380 F7800.000
G1 X107.555 Y83.037 E48.19680 F1500.000
G1 X107.141 Y83.402 E48.23118
G1 X66.834 Y43.096 E51.77947
G1 X60.771 Y37.811 F7800.000
G1 X106.726 Y83.766 E55.82506 F1500.000
G1 X106.311 Y84.131 E55.85944
G1 X54.861 Y32.681 E60.38876
G1 X51.693 Y30.292 F7800.000
G1 X105.896 Y84.495 E65.16045 F1500.000
G1 X105.481 Y84.859 E65.19482
G1 X51.298 Y30.676 E69.96476
G1 X50.902 Y31.060 E69.99907
G1 X105.066 Y85.224 E74.76726
G1 X104.651 Y85.588 E74.80164
G1 X50.507 Y31.445 E79.56808
G1 X50.112 Y31.829 E79.60239
G1 X104.236 Y85.953 E84.36708
G1 X103.821 Y86.317 E84.40146
G1 X49.717 Y32.213 E89.16441
G1 X49.322 Y32.597 E89.19871
G1 X103.406 Y86.681 E93.95992
G1 X102.991 Y87.046 E93.99429
G1 X48.927 Y32.982 E98.75374
G1 X48.532 Y33.366 E98.78805
G1 X102.576 Y87.410 E103.54576
G1 X102.161 Y87.775 E103.58013
G1 X48.137 Y33.750 E108.33609
G1 X47.742 Y34.134 E108.37040
G1 X101.746 Y88.139 E113.12461
G1 X101.331 Y88.503 E113.15899
G1 X47.347 Y34.519 E117.91145
G1 X46.954 Y34.905 E117.94575
G1 X100.916 Y88.868 E122.69626
G1 X100.501 Y89.232 E122.73064
G1 X46.562 Y35.293 E127.47911
G1 X46.170 Y35.680 E127.51341
G1 X100.085 Y89.595 E132.25974
G1 X99.668 Y89.958 E132.29413
G1 X45.778 Y36.067 E137.03832
G1 X45.385 Y36.454 E137.07263
G1 X99.252 Y90.321 E141.81468
G1 X98.836 Y90.684 E141.84907
G1 X44.993 Y36.842 E146.58898
G1 X44.601 Y37.229 E146.62329
G1 X98.419 Y91.047 E151.36106
G1 X98.003 Y91.410 E151.39545
G1 X44.209 Y37.616 E156.13109
G1 X43.817 Y38.003 E156.16539
G1 X97.586 Y91.773 E160.89889
G1 X97.170 Y92.136 E160.93328
G1 X43.425 Y38.391 E165.66464
G1 X43.033 Y38.778 E165.69894
G1 X96.754 Y92.499 E170.42817
G1 X96.337 Y92.862 E170.46255
G1 X42.641 Y39.165 E175.18963
G1 X42.249 Y39.552 E175.22394
G1 X95.921 Y93.225 E179.94888
G1 X95.505 Y93.588 E179.98327
G1 X41.857 Y39.940 E184.70608
G1 X41.465 Y40.327 E184.74038
G1 X95.088 Y93.951 E189.46105
G1 X94.672 Y94.314 E189.49543
G1 X41.073 Y40.714 E194.21396
G1 X40.680 Y41.102 E194.24827
G1 X94.255 Y94.677 E198.96466
G1 X93.839 Y95.039 E198.99904
G1 X40.288 Y41.489 E203.71329
G1 X39.896 Y41.876 E203.74760
G1 X93.423 Y95.402 E208.45971
G1 X93.006 Y95.765 E208.49410
G1 X39.504 Y42.263 E213.20407
G1 X39.112 Y42.651 E213.23837
G1 X92.590 Y96.128 E217.94621
G1 X92.173 Y96.491 E217.98059
G1 X38.720 Y43.038 E222.68629
G1 X38.328 Y43.425 E222.72060
G1 X91.757 Y96.854 E227.42415
G1 X91.341 Y97.217 E227.45854
G1 X37.936 Y43.812 E232.15995
G1 X37.546 Y44.202 E232.19426
G1 X90.924 Y97.580 E236.89332
G1 X90.508 Y97.943 E236.92770
G1 X37.157 Y44.592 E241.62442
G1 X36.767 Y44.981 E241.65872
G1 X90.092 Y98.306 E246.35308
G1 X89.675 Y98.669 E246.38747
G1 X36.377 Y45.371 E251.07948
G1 X35.987 Y45.761 E251.11378
G1 X89.259 Y99.032 E255.80344
G1 X88.842 Y99.395 E255.83782
G1 X35.641 Y46.193 E260.52136
G1 X35.641 Y46.973 E260.56987
G1 X88.426 Y99.758 E265.21674
G1 X88.010 Y100.121 E265.25113
G1 X35.641 Y47.752 E269.86135
G1 X35.641 Y48.531 E269.90986
G1 X87.593 Y100.484 E274.48343
G1 X87.177 Y100.847 E274.51781
G1 X35.641 Y49.311 E279.05472
G1 X35.641 Y50.090 E279.10323
G1 X86.761 Y101.210 E283.60349
G1 X86.344 Y101.573 E283.63787
G1 X35.641 Y50.870 E288.10147
G1 X35.641 Y51.649 E288.14998
G1 X85.928 Y101.936 E292.57692
G1 X85.511 Y102.299 E292.61131
G1 X35.641 Y52.428 E297.00159
G1 X35.641 Y53.208 E297.05011
G1 X85.095 Y102.662 E301.40374
G1 X84.679 Y103.025 E301.43812
G1 X35.641 Y53.987 E305.75510
G1 X35.641 Y54.766 E305.80361
G1 X84.262 Y103.388 E310.08393
G1 X83.846 Y103.751 E310.11832
G1 X35.641 Y55.546 E314.36198
G1 X35.641 Y56.325 E314.41049
G1 X83.429 Y104.114 E318.61750
G1 X83.013 Y104.477 E318.65189
G1 X35.641 Y57.104 E322.82224
G1 X35.641 Y57.884 E322.87075
G1 X82.597 Y104.840 E327.00445
G1 X82.180 Y105.203 E327.03883
G1 X35.641 Y58.663 E331.13588
G1 X35.641 Y59.442 E331.18439
G1 X81.764 Y105.566 E335.24477
G1 X81.348 Y105.929 E335.27916
G1 X35.641 Y60.222 E339.30289
G1 X35.641 Y61.001 E339.35140
G1 X80.931 Y106.292 E343.33848
G1 X80.515 Y106.654 E343.37286
G1 X35.641 Y61.780 E347.32328
G1 X35.641 Y62.560 E347.37180
G1 X80.098 Y107.017 E351.28556
G1 X79.682 Y107.380 E351.31994
G1 X35.641 Y63.339 E355.19705
G1 X35.641 Y64.118 E355.24556
G1 X79.266 Y107.743 E359.08602
G1 X78.849 Y108.106 E359.12040
G1 X35.641 Y64.898 E362.92420
G1 X35.641 Y65.677 E362.97271
G1 X78.433 Y108.469 E366.73985
G1 X78.016 Y108.832 E366.77424
G1 X35.641 Y66.457 E370.50472
G1 X35.641 Y67.236 E370.55324
G1 X77.600 Y109.195 E374.24707
G1 X77.184 Y109.558 E374.28145
G1 X35.641 Y68.015 E377.93863
G1 X35.641 Y68.795 E377.98714
G1 X76.767 Y109.921 E381.60766
G1 X76.351 Y110.284 E381.64204
G1 X35.641 Y69.574 E385.22591
G1 X35.641 Y70.353 E385.27442
G1 X75.935 Y110.647 E388.82163
G1 X75.518 Y111.010 E388.85601
G1 X35.641 Y71.133 E392.36656
G1 X35.641 Y71.912 E392.41508
G1 X75.102 Y111.373 E395.88897
G1 X74.685 Y111.736 E395.92336
G1 X35.641 Y72.691 E399.36060
G1 X35.641 Y73.471 E399.40911
G1 X74.269 Y112.099 E402.80970
G1 X73.853 Y112.462 E402.84408
G1 X35.641 Y74.250 E406.20801
G1 X35.641 Y75.029 E406.25653
G1 X73.436 Y112.825 E409.58380
G1 X73.020 Y113.188 E409.61818
G1 X35.641 Y75.809 E412.90880
G1 X35.641 Y76.588 E412.95732
G1 X72.604 Y113.551 E416.21128
G1 X72.187 Y113.914 E416.24566
G1 X35.641 Y77.367 E419.46297
G1 X35.641 Y78.147 E419.51148
G1 X71.771 Y114.277 E422.69213
G1 X71.354 Y114.640 E422.72652
G1 X35.641 Y78.926 E425.87052
G1 X35.641 Y79.706 E425.91903
G1 X70.938 Y115.003 E429.02637
G1 X70.522 Y115.366 E429.06075
G1 X35.641 Y80.485 E432.13144
G1 X35.641 Y81.264 E432.17995
G1 X70.105 Y115.729 E435.21398
G1 X69.689 Y116.092 E435.24837
G1 X35.641 Y82.044 E438.24574
G1 X35.641 Y82.823 E438.29425
G1 X69.272 Y116.455 E441.25497
G1 X68.856 Y116.818 E441.28936
G1 X35.641 Y83.602 E444.21342
G1 X35.641 Y84.382 E444.26193
G1 X68.440 Y117.181 E447.14934
G1 X68.023 Y117.544 E447.18372
G1 X35.641 Y85.161 E450.03447
G1 X35.641 Y85.940 E450.08299
G1 X67.607 Y117.906 E452.89705
G1 X67.190 Y118.269 E452.93144
G1 X35.641 Y86.720 E455.70880
G1 X35.641 Y87.499 E455.75732
G1 X66.773 Y118.631 E458.49798
G1 X66.356 Y118.993 E458.53237
G1 X35.641 Y88.278 E461.23632
G1 X35.641 Y89.058 E461.28484
G1 X65.939 Y119.356 E463.95209
G1 X65.522 Y119.718 E463.98648
G1 X35.641 Y89.837 E466.61703
G1 X35.641 Y90.616 E466.66554
G1 X65.105 Y120.081 E469.25938
G1 X64.688 Y120.443 E469.29377
G1 X35.641 Y91.396 E471.85091
G1 X35.641 Y92.175 E471.89943
G1 X64.271 Y120.806 E474.41987
