; generated by Slic3r 1.1.7 on 2015-03-10 at 17:10:53

; perimeters extrusion width = 0.40mm
; infill extrusion width = 0.42mm
; solid infill extrusion width = 0.42mm
; top infill extrusion width = 0.42mm
; support material extrusion width = 0.40mm

G21 ; set units to millimeters
M190 S60 ; wait for bed temperature to be reached
M104 S215 ; set temperature
M106 S255; Turn on Fan fully
G28 ; home all axes Start of G Code Slic3r
 
  
M109 S215 ; wait for temperature to be reached
G90 ; use absolute coordinates
G92 E0
M82 ; use absolute distances for extrusion
G1 F1980.000 E-4.00000
G92 E0
G1 Z0.300 F6000.000
G1 X25.325 Y38.380 F6000.000
G1 E4.00000 F1980.000
G1 X25.628 Y38.180 E4.01524 F1650.000
G1 X83.416 Y13.106 E6.66044
G1 X87.227 Y11.538 E6.83349
G1 X91.114 Y10.170 E7.00655
G1 X95.068 Y9.009 E7.17960
G1 X99.078 Y8.056 E7.35265
G1 X103.243 Y7.299 E7.53042
G1 X107.219 Y6.785 E7.69877
G1 X111.323 Y6.470 E7.87162
G1 X115.452 Y6.372 E8.04506
G1 X119.467 Y6.489 E8.21373
G1 X123.575 Y6.821 E8.38678 F1650.000
G1 X127.660 Y7.368 E8.55984
G1 X131.710 Y8.128 E8.73289
G1 X135.270 Y8.983 E8.88664
G1 X135.715 Y9.099 E8.90595
G1 X139.664 Y10.278 E9.07901
G1 X143.546 Y11.662 E9.25206
G1 X147.350 Y13.248 E9.42511
G1 X151.066 Y15.030 E9.59817
G1 X154.683 Y17.005 E9.77122
G1 X158.192 Y19.166 E9.94428
G1 X161.583 Y21.507 E10.11733
G1 X164.847 Y24.023 E10.29038
G1 X167.975 Y26.707 E10.46345
G1 X170.958 Y29.550 E10.63649
G1 X173.788 Y32.546 E10.80956
G1 X176.458 Y35.685 E10.98260
G1 X178.959 Y38.960 E11.15566
G1 X181.286 Y42.362 E11.32872
G1 X183.431 Y45.880 E11.50176
G1 X185.390 Y49.506 E11.67482
G1 X187.156 Y53.230 E11.84788
G1 X188.724 Y57.041 E12.02093
G1 X190.092 Y60.929 E12.19398
G1 X191.253 Y64.883 E12.36704
G1 X192.108 Y68.443 E12.52079
G1 X192.206 Y68.892 E12.54009
G1 X192.949 Y72.946 E12.71315
G1 X193.477 Y77.033 E12.88621
G1 X193.792 Y81.142 E13.05926
G1 X193.890 Y85.262 E13.23232
G1 X193.773 Y89.381 E13.40537
G1 X193.441 Y93.489 E13.57842
G1 X192.945 Y97.259 E13.73808
G1 X187.299 Y138.755 E15.49666
G1 X186.651 Y140.846 E15.58857
G1 X177.661 Y158.712 E16.42840
G1 X176.290 Y160.554 E16.52484
G1 X174.372 Y161.820 E16.62136
G1 X116.584 Y186.894 E19.26656
G1 X112.773 Y188.462 E19.43960
G1 X108.886 Y189.830 E19.61266
G1 X104.931 Y190.991 E19.78572
G1 X100.922 Y191.944 E19.95877
G1 X96.868 Y192.687 E20.13182
G1 X92.781 Y193.215 E20.30488
G1 X88.677 Y193.530 E20.47774
G1 X84.548 Y193.628 E20.65118
G1 X80.533 Y193.511 E20.81984
G1 X76.425 Y193.179 E20.99290
G1 X72.340 Y192.632 E21.16596
G1 X68.290 Y191.872 E21.33900
G1 X64.285 Y190.901 E21.51207
G1 X60.336 Y189.722 E21.68512
G1 X56.454 Y188.338 E21.85817
G1 X52.650 Y186.752 E22.03123
G1 X48.934 Y184.970 E22.20429
G1 X45.317 Y182.995 E22.37733
G1 X41.808 Y180.834 E22.55039
G1 X38.417 Y178.493 E22.72344
G1 X35.153 Y175.977 E22.89649
G1 X32.369 Y173.599 E23.05025
G1 X32.025 Y173.293 E23.06956
G1 X29.042 Y170.450 E23.24261
G1 X26.212 Y167.454 E23.41567
G1 X23.542 Y164.315 E23.58872
G1 X21.041 Y161.040 E23.76178
G1 X18.967 Y158.022 E23.91552
G1 X18.714 Y157.638 E23.93484
G1 X16.569 Y154.120 E24.10788
G1 X14.610 Y150.494 E24.28094
G1 X12.844 Y146.770 E24.45400
G1 X11.276 Y142.959 E24.62705
G1 X9.908 Y139.071 E24.80010
G1 X8.747 Y135.117 E24.97316
G1 X7.892 Y131.557 E25.12692
G1 X7.794 Y131.108 E25.14621
G1 X7.051 Y127.054 E25.31927
G1 X6.523 Y122.967 E25.49233
G1 X6.208 Y118.858 E25.66538
G1 X6.112 Y115.198 E25.81913
G1 X6.110 Y114.738 E25.83844
G1 X6.227 Y110.619 E26.01149
G1 X6.559 Y106.511 E26.18455
G1 X7.055 Y102.741 E26.34421
G1 X12.701 Y61.245 E28.10278
G1 X13.349 Y59.154 E28.19469
G1 X22.339 Y41.288 E29.03453
G1 X23.710 Y39.446 E29.13097
G1 X25.275 Y38.413 E29.20971
G1 F1980.000 E25.20971
G92 E0
G1 X25.498 Y38.644 F6000.000
G1 E4.00000 F1980.000
G1 X25.756 Y38.475 E4.01297 F1650.000
G1 X83.539 Y13.403 E6.65794
G1 X87.334 Y11.841 E6.83028
G1 X91.206 Y10.479 E7.00263
G1 X95.143 Y9.321 E7.17498
G1 X99.136 Y8.372 E7.34733
G1 X103.285 Y7.617 E7.52439
G1 X107.244 Y7.105 E7.69202
G1 X111.332 Y6.792 E7.86419
G1 X115.444 Y6.693 E8.03690
G1 X119.442 Y6.809 E8.20487
G1 X123.533 Y7.140 E8.37721 F1650.000
G1 X127.601 Y7.684 E8.54957
G1 X131.635 Y8.440 E8.72191
G1 X135.195 Y9.295 E8.87566
G1 X135.624 Y9.407 E8.89427
G1 X139.557 Y10.581 E9.06661
G1 X143.423 Y11.959 E9.23896
G1 X147.211 Y13.538 E9.41131
G1 X150.912 Y15.313 E9.58366
G1 X154.515 Y17.279 E9.75600
G1 X158.010 Y19.430 E9.92835
G1 X161.387 Y21.762 E10.10070
G1 X164.638 Y24.268 E10.27304
G1 X167.754 Y26.940 E10.44540
G1 X170.725 Y29.771 E10.61774
G1 X173.544 Y32.755 E10.79010
G1 X176.203 Y35.881 E10.96244
G1 X178.694 Y39.142 E11.13479
G1 X181.012 Y42.530 E11.30714
G1 X183.149 Y46.034 E11.47948
G1 X185.100 Y49.645 E11.65183
G1 X186.859 Y53.353 E11.82418
G1 X188.421 Y57.148 E11.99652
G1 X189.783 Y61.020 E12.16887
G1 X190.941 Y64.958 E12.34123
G1 X191.795 Y68.518 E12.49497
G1 X191.890 Y68.951 E12.51357
G1 X192.630 Y72.988 E12.68592
G1 X193.157 Y77.058 E12.85827
G1 X193.470 Y81.150 E13.03062
G1 X193.569 Y85.254 E13.20297
G1 X193.453 Y89.356 E13.37531
G1 X193.122 Y93.447 E13.54766
G1 X192.626 Y97.215 E13.70726
G1 X186.981 Y138.712 E15.46584
G1 X186.364 Y140.701 E15.55330
G1 X177.374 Y158.567 E16.39314
G1 X176.029 Y160.358 E16.48719
G1 X174.244 Y161.525 E16.57675
G1 X116.461 Y186.597 E19.22172
G1 X112.666 Y188.159 E19.39406
G1 X108.794 Y189.521 E19.56641
G1 X104.856 Y190.679 E19.73877
G1 X100.864 Y191.628 E19.91111
G1 X96.826 Y192.368 E20.08346
G1 X92.756 Y192.895 E20.25581
G1 X88.668 Y193.208 E20.42797
G1 X84.556 Y193.307 E20.60068
G1 X80.558 Y193.191 E20.76865
G1 X76.467 Y192.860 E20.94100
G1 X72.399 Y192.316 E21.11335
G1 X68.365 Y191.560 E21.28569
G1 X64.376 Y190.593 E21.45805
G1 X60.443 Y189.419 E21.63040
G1 X56.577 Y188.041 E21.80274
G1 X52.789 Y186.462 E21.97509
G1 X49.088 Y184.687 E22.14744
G1 X45.485 Y182.721 E22.31978
G1 X41.990 Y180.569 E22.49214
G1 X38.613 Y178.238 E22.66448
G1 X35.362 Y175.732 E22.83682
G1 X32.578 Y173.354 E22.99058
G1 X32.246 Y173.060 E23.00919
G1 X29.275 Y170.229 E23.18152
G1 X26.456 Y167.245 E23.35388
G1 X23.797 Y164.119 E23.52622
G1 X21.306 Y160.858 E23.69857
G1 X19.232 Y157.840 E23.85232
G1 X18.988 Y157.470 E23.87093
G1 X16.851 Y153.966 E24.04327
G1 X14.900 Y150.355 E24.21562
G1 X13.141 Y146.647 E24.38797
G1 X11.579 Y142.852 E24.56031
G1 X10.217 Y138.980 E24.73266
G1 X9.059 Y135.042 E24.90502
G1 X8.205 Y131.482 E25.05877
G1 X8.110 Y131.049 E25.07736
G1 X7.370 Y127.012 E25.24971
G1 X6.843 Y122.942 E25.42206
G1 X6.530 Y118.850 E25.59440
G1 X6.434 Y115.189 E25.74815
G1 X6.431 Y114.746 E25.76676
G1 X6.547 Y110.644 E25.93910
G1 X6.878 Y106.553 E26.11145
G1 X7.374 Y102.785 E26.27105
G1 X13.019 Y61.288 E28.02963
G1 X13.636 Y59.299 E28.11709
G1 X22.626 Y41.433 E28.95693
G1 X23.971 Y39.642 E29.05099
G1 X25.448 Y38.677 E29.12505
G1 F1980.000 E25.12505
G92 E0
G1 X141.540 Y66.005 F6000.000
G1 E4.00000 F1980.000
G1 X132.613 Y70.497 E4.41964 F900.000
G1 X124.047 Y53.473 E5.21988
G1 X131.719 Y49.613 E5.58053
G1 X129.920 Y46.996 E5.71385
G1 X127.989 Y44.479 E5.84709
G1 X128.037 Y44.441 E5.84966
G1 X127.582 Y43.794 E5.88284
G1 X127.434 Y43.514 E5.89617
G1 X127.322 Y43.217 E5.90950
G1 X127.247 Y42.908 E5.92283
G1 X127.212 Y42.593 E5.93616
G1 X127.217 Y42.275 E5.94949
G1 X127.297 Y41.717 E5.97318
G1 X130.837 Y46.331 E6.21738
G1 X132.740 Y49.099 E6.35845
G1 X141.070 Y44.907 E6.75006
G1 X149.636 Y61.931 E7.55031
G1 X142.552 Y65.496 E7.88335
G1 X145.639 Y71.968 E8.18445
G1 X148.476 Y78.817 E8.49576
G1 X150.950 Y85.805 E8.80707
G1 X153.056 Y92.914 E9.11838
G1 X154.762 Y100.019 E9.42525
G1 X154.853 Y100.589 E9.44946
G1 X154.872 Y100.585 E9.45028
G1 X155.449 Y103.710 E9.58374
G1 X155.938 Y107.427 E9.74117
G1 X156.232 Y111.164 E9.89858
G1 X156.330 Y114.912 E10.05600
G1 X156.232 Y118.659 E10.21342
G1 X155.938 Y122.397 E10.37084
G1 X155.449 Y126.113 E10.52826
G1 X154.766 Y129.799 E10.68567
G1 X153.891 Y133.444 E10.84309
G1 X152.826 Y137.039 E11.00051
G1 X151.574 Y140.573 E11.15793
G1 X150.140 Y144.036 E11.31535
G1 X148.526 Y147.420 E11.47277
G1 X146.737 Y150.714 E11.63018
G1 X144.779 Y153.910 E11.78760
G1 X142.655 Y157.000 E11.94502
G1 X140.373 Y159.974 E12.10244
G1 X137.939 Y162.825 E12.25986
G1 X135.358 Y165.544 E12.41727
G1 X132.639 Y168.124 E12.57469
G1 X129.788 Y170.559 E12.73211
G1 X126.814 Y172.841 E12.88953
G1 X123.725 Y174.964 E13.04695
G1 X120.528 Y176.923 E13.20436
G1 X117.234 Y178.712 E13.36178
G1 X113.850 Y180.326 E13.51920
G1 X110.387 Y181.760 E13.67662
G1 X106.853 Y183.012 E13.83404
G1 X103.259 Y184.076 E13.99145
G1 X99.613 Y184.951 E14.14887
G1 X95.927 Y185.635 E14.30629
G1 X92.211 Y186.124 E14.46371
G1 X88.377 Y186.421 E14.62520
G1 X84.925 Y186.511 E14.77019
G1 X84.274 Y186.125 E14.80198
G1 X84.265 Y186.504 E14.81787
G1 X81.079 Y186.418 E14.95173
G1 X77.341 Y186.124 E15.10915
G1 X73.625 Y185.635 E15.26657
G1 X69.939 Y184.951 E15.42399
G1 X66.294 Y184.076 E15.58141
G1 X62.699 Y183.012 E15.73882
G1 X59.165 Y181.760 E15.89624
G1 X55.702 Y180.326 E16.05366
G1 X52.318 Y178.712 E16.21108
G1 X49.024 Y176.923 E16.36850
G1 X45.828 Y174.964 E16.52592
G1 X42.738 Y172.841 E16.68333
G1 X39.764 Y170.559 E16.84075
G1 X36.913 Y168.124 E16.99817
G1 X34.194 Y165.544 E17.15559
G1 X31.614 Y162.825 E17.31300
G1 X29.179 Y159.974 E17.47042
G1 X26.897 Y157.000 E17.62784
G1 X24.774 Y153.910 E17.78526
G1 X22.815 Y150.714 E17.94268
G1 X21.026 Y147.420 E18.10009
G1 X19.412 Y144.036 E18.25752
G1 X17.978 Y140.573 E18.41493
G1 X16.760 Y137.133 E18.56816
G1 X15.662 Y133.444 E18.72976
G1 X14.787 Y129.799 E18.88718
G1 X14.103 Y126.113 E19.04460
G1 X13.614 Y122.397 E19.20202
G1 X13.320 Y118.659 E19.35944
G1 X13.224 Y115.012 E19.51266
G1 X13.320 Y111.164 E19.67427
G1 X13.614 Y107.427 E19.83168
G1 X14.103 Y103.710 E19.98910
G1 X14.754 Y100.199 E20.13907
G1 X15.139 Y99.687 E20.16597
G1 X14.887 Y99.608 E20.17705
G1 X16.496 Y92.914 E20.46617
G1 X18.602 Y85.805 E20.77748
G1 X21.077 Y78.817 E21.08879
G1 X23.914 Y71.968 E21.40010
G1 X27.001 Y65.496 E21.70121
G1 X19.916 Y61.931 E22.03428
G1 X28.482 Y44.907 E22.83452
G1 X36.813 Y49.099 E23.22613
G1 X38.715 Y46.331 E23.36721
G1 X42.256 Y41.717 E23.61140
G1 X42.335 Y42.276 E23.63510
G1 X42.340 Y42.593 E23.64843
G1 X42.305 Y42.908 E23.66176
G1 X42.231 Y43.217 E23.67509
G1 X42.119 Y43.514 E23.68841
G1 X41.970 Y43.794 E23.70174
G1 X41.515 Y44.441 E23.73492
G1 X41.563 Y44.479 E23.73750
G1 X39.632 Y46.996 E23.87073
G1 X37.833 Y49.613 E24.00406
G1 X45.505 Y53.473 E24.36470
G1 X36.939 Y70.497 E25.16494
G1 X28.012 Y66.005 E25.58458
G1 X24.948 Y72.429 E25.88344
G1 X22.134 Y79.223 E26.19226
G1 X19.679 Y86.155 E26.50108
G1 X17.590 Y93.207 E26.80990
G1 X15.885 Y100.309 E27.11662
G1 X15.222 Y103.888 E27.26944
G1 X14.741 Y107.546 E27.42437
G1 X14.451 Y111.224 E27.57930
G1 X14.355 Y114.912 E27.73423
G1 X14.451 Y118.600 E27.88915
G1 X14.741 Y122.278 E28.04408
G1 X15.222 Y125.936 E28.19901
G1 X15.895 Y129.564 E28.35394
G1 X16.756 Y133.151 E28.50886
G1 X17.804 Y136.689 E28.66379
G1 X19.035 Y140.167 E28.81872
G1 X20.447 Y143.575 E28.97365
G1 X22.035 Y146.905 E29.12858
G1 X23.796 Y150.148 E29.28350
G1 X25.724 Y153.293 E29.43843
G1 X27.813 Y156.334 E29.59336
G1 X30.059 Y159.261 E29.74829
G1 X32.456 Y162.067 E29.90322
G1 X34.995 Y164.743 E30.05814
G1 X37.671 Y167.282 E30.21307
G1 X40.477 Y169.679 E30.36800
G1 X43.404 Y171.925 E30.52293
G1 X46.445 Y174.014 E30.67786
G1 X49.590 Y175.942 E30.83278
G1 X52.833 Y177.703 E30.98771
G1 X56.102 Y179.262 E31.13983
G1 X59.571 Y180.703 E31.29756
G1 X63.049 Y181.934 E31.45249
G1 X66.587 Y182.982 E31.60742
G1 X70.174 Y183.843 E31.76235
G1 X73.802 Y184.516 E31.91728
G1 X77.460 Y184.997 E32.07220
G1 X81.138 Y185.287 E32.22713
G1 X84.776 Y185.382 E32.37996
G1 X88.414 Y185.287 E32.53279
G1 X92.092 Y184.997 E32.68771
G1 X95.750 Y184.516 E32.84264
G1 X99.378 Y183.843 E32.99757
G1 X102.965 Y182.982 E33.15250
G1 X106.503 Y181.934 E33.30743
G1 X109.981 Y180.703 E33.46236
G1 X113.390 Y179.291 E33.61728
G1 X116.720 Y177.703 E33.77221
G1 X119.962 Y175.942 E33.92714
G1 X123.108 Y174.014 E34.08207
G1 X126.148 Y171.925 E34.23699
G1 X129.075 Y169.679 E34.39192
G1 X131.881 Y167.282 E34.54685
G1 X134.557 Y164.743 E34.70178
G1 X137.097 Y162.067 E34.85671
G1 X139.493 Y159.261 E35.01163
G1 X141.739 Y156.334 E35.16656
G1 X143.829 Y153.293 E35.32149
G1 X145.756 Y150.148 E35.47642
G1 X147.517 Y146.905 E35.63135
G1 X149.105 Y143.575 E35.78627
G1 X150.517 Y140.167 E35.94120
G1 X151.749 Y136.689 E36.09613
G1 X152.796 Y133.151 E36.25106
G1 X153.658 Y129.564 E36.40598
G1 X154.330 Y125.936 E36.56091
G1 X154.812 Y122.278 E36.71584
G1 X155.101 Y118.600 E36.87077
G1 X155.198 Y114.912 E37.02570
G1 X155.101 Y111.224 E37.18062
G1 X154.812 Y107.546 E37.33555
G1 X154.330 Y103.888 E37.49048
G1 X153.667 Y100.309 E37.64331
G1 X151.962 Y93.207 E37.95002
G1 X149.873 Y86.155 E38.25884
G1 X147.418 Y79.223 E38.56766
G1 X144.604 Y72.429 E38.87648
G1 X141.566 Y66.059 E39.17282
G1 F1980.000 E35.17282
G92 E0
G1 X141.391 Y66.440 F6000.000
G1 E4.00000 F1980.000
G1 X132.470 Y70.928 E4.41935 F720.000
G1 X123.615 Y53.331 E5.24659
G1 X131.245 Y49.491 E5.60526
G1 X129.660 Y47.185 E5.72276
G1 X127.542 Y44.425 E5.86887
G1 X127.600 Y44.379 E5.87199
G1 X127.308 Y43.963 E5.89333
G1 X127.140 Y43.647 E5.90836
G1 X127.014 Y43.312 E5.92339
G1 X126.930 Y42.964 E5.93841
G1 X126.891 Y42.608 E5.95344
G1 X126.896 Y42.250 E5.96847
G1 X126.947 Y41.896 E5.98350
G1 X127.041 Y41.551 E5.99852
G1 X127.228 Y41.099 E6.01905
G1 X131.097 Y46.142 E6.28593
G1 X132.846 Y48.686 E6.41559
G1 X141.213 Y44.476 E6.80892
G1 X150.068 Y62.073 E7.63616
G1 X142.977 Y65.641 E7.96948
G1 X145.932 Y71.837 E8.25772
G1 X148.776 Y78.702 E8.56974
G1 X151.256 Y85.706 E8.88176
G1 X153.366 Y92.830 E9.19377
G1 X155.077 Y99.956 E9.50151
G1 X155.767 Y103.660 E9.65971
G1 X156.258 Y107.394 E9.81784
G1 X156.553 Y111.148 E9.97596
G1 X156.652 Y114.912 E10.13409
G1 X156.553 Y118.676 E10.29221
G1 X156.258 Y122.430 E10.45034
G1 X155.767 Y126.164 E10.60846
G1 X155.080 Y129.866 E10.76659
G1 X154.201 Y133.528 E10.92471
G1 X153.132 Y137.138 E11.08284
G1 X151.875 Y140.688 E11.24097
G1 X150.434 Y144.167 E11.39909
G1 X148.813 Y147.566 E11.55721
G1 X147.016 Y150.875 E11.71534
G1 X145.048 Y154.086 E11.87346
G1 X142.915 Y157.189 E12.03159
G1 X140.623 Y160.176 E12.18971
G1 X138.178 Y163.040 E12.34784
G1 X135.585 Y165.771 E12.50596
G1 X132.854 Y168.363 E12.66409
G1 X129.991 Y170.809 E12.82221
G1 X127.003 Y173.101 E12.98034
G1 X123.900 Y175.234 E13.13846
G1 X120.689 Y177.201 E13.29659
G1 X117.380 Y178.998 E13.45471
G1 X113.981 Y180.619 E13.61284
G1 X110.502 Y182.060 E13.77096
G1 X106.952 Y183.317 E13.92909
G1 X103.342 Y184.387 E14.08721
G1 X99.680 Y185.266 E14.24534
G1 X95.978 Y185.952 E14.40346
G1 X92.244 Y186.444 E14.56159
G1 X88.385 Y186.742 E14.72413
G1 X84.841 Y186.835 E14.87301
G1 X84.583 Y186.682 E14.88560
G1 X84.580 Y186.834 E14.89197
G1 X81.062 Y186.739 E15.03975
G1 X77.308 Y186.444 E15.19787
G1 X73.574 Y185.952 E15.35600
G1 X69.872 Y185.266 E15.51412
G1 X66.210 Y184.387 E15.67225
G1 X62.600 Y183.317 E15.83037
G1 X59.050 Y182.060 E15.98850
G1 X55.571 Y180.619 E16.14662
G1 X52.172 Y178.998 E16.30475
G1 X48.863 Y177.201 E16.46287
G1 X45.652 Y175.234 E16.62100
G1 X42.549 Y173.101 E16.77912
G1 X39.562 Y170.809 E16.93725
G1 X36.698 Y168.363 E17.09537
G1 X33.967 Y165.771 E17.25350
G1 X31.375 Y163.040 E17.41162
G1 X28.929 Y160.176 E17.56975
G1 X26.637 Y157.189 E17.72788
G1 X24.504 Y154.086 E17.88600
G1 X22.536 Y150.875 E18.04412
G1 X20.740 Y147.566 E18.20225
G1 X19.118 Y144.167 E18.36038
G1 X17.678 Y140.688 E18.51850
G1 X16.457 Y137.240 E18.67208
G1 X15.351 Y133.528 E18.83474
G1 X14.472 Y129.866 E18.99287
G1 X13.786 Y126.164 E19.15099
G1 X13.294 Y122.430 E19.30912
G1 X12.999 Y118.676 E19.46724
G1 X12.903 Y115.020 E19.62082
G1 X12.999 Y111.148 E19.78349
G1 X13.294 Y107.394 E19.94161
G1 X13.786 Y103.660 E20.09974
G1 X14.452 Y100.066 E20.25322
G1 X14.608 Y99.858 E20.26417
G1 X14.504 Y99.825 E20.26877
G1 X16.186 Y92.830 E20.57086
G1 X18.296 Y85.706 E20.88288
G1 X20.776 Y78.702 E21.19490
G1 X23.620 Y71.837 E21.50691
G1 X26.576 Y65.642 E21.79515
G1 X19.484 Y62.073 E22.12850
G1 X28.339 Y44.476 E22.95574
