; generated by Slic3r 1.1.7 on 2015-03-11 at 06:32:09

; perimeters extrusion width = 0.40mm
; infill extrusion width = 0.42mm
; solid infill extrusion width = 0.42mm
; top infill extrusion width = 0.42mm
; support material extrusion width = 0.40mm

G21 ; set units to millimeters
M190 S60 ; wait for bed temperature to be reached
M104 S215 ; set temperature
M106 S255; Turn on Fan fully
G28 ; home all axes Start of G Code Slic3r
 
  
M109 S215 ; wait for temperature to be reached
G90 ; use absolute coordinates
G92 E0
M82 ; use absolute distances for extrusion
G1 F1980.000 E-4.00000
G92 E0
G1 Z0.300 F6000.000
G1 X26.695 Y30.491 F6000.000
G1 E4.00000 F1980.000
G1 X29.683 Y28.866 E4.14282 F1650.000
G1 X44.254 Y25.330 E4.77243
G1 X100.146 Y16.269 E7.15012
G1 X104.234 Y15.740 E7.32319
G1 X108.338 Y15.426 E7.49605
G1 X112.467 Y15.327 E7.66949
G1 X116.482 Y15.444 E7.83815
G1 X120.590 Y15.776 E8.01121 F1650.000
G1 X124.220 Y16.254 E8.16497
G1 X124.675 Y16.323 E8.18427
G1 X128.725 Y17.083 E8.35732
G1 X132.730 Y18.054 E8.53038
G1 X136.679 Y19.233 E8.70344
G1 X140.561 Y20.617 E8.87649
G1 X144.365 Y22.203 E9.04954
G1 X148.080 Y23.985 E9.22260
G1 X151.698 Y25.960 E9.39565
G1 X155.207 Y28.121 E9.56871
G1 X158.224 Y30.195 E9.72246
G1 X158.598 Y30.463 E9.74176
G1 X161.862 Y32.978 E9.91481
G1 X164.990 Y35.662 E10.08788
G1 X167.646 Y38.182 E10.24162
G1 X167.973 Y38.505 E10.26092
G1 X170.803 Y41.501 E10.43399
G1 X173.472 Y44.641 E10.60704
G1 X175.974 Y47.916 E10.78009
G1 X178.301 Y51.317 E10.95315
G1 X180.446 Y54.836 E11.12620
G1 X182.193 Y58.053 E11.27996
G1 X182.405 Y58.462 E11.29926
G1 X184.171 Y62.185 E11.47232
G1 X185.739 Y65.996 E11.64536
G1 X187.106 Y69.884 E11.81842
G1 X188.268 Y73.838 E11.99148
G1 X189.221 Y77.847 E12.16453
G1 X189.964 Y81.901 E12.33759
G1 X190.492 Y85.988 E12.51065
G1 X190.807 Y90.097 E12.68369
G1 X190.902 Y93.757 E12.83744
G1 X190.905 Y94.217 E12.85676
G1 X190.788 Y98.337 E13.02980
G1 X190.456 Y102.444 E13.20286
G1 X189.960 Y106.214 E13.36252
G1 X184.314 Y147.711 E15.12110
G1 X183.666 Y149.801 E15.21300
G1 X174.676 Y167.667 E16.05284
G1 X173.305 Y169.509 E16.14928
G1 X170.317 Y171.134 E16.29210
G1 X155.746 Y174.670 E16.92171
G1 X99.854 Y183.731 E19.29941
G1 X95.766 Y184.260 E19.47247
G1 X91.662 Y184.574 E19.64533
G1 X87.533 Y184.673 E19.81877
G1 X83.518 Y184.556 E19.98743
G1 X79.410 Y184.224 E20.16049
G1 X75.325 Y183.677 E20.33355
G1 X71.275 Y182.917 E20.50660
G1 X67.270 Y181.946 E20.67966
G1 X63.321 Y180.767 E20.85271
G1 X59.439 Y179.383 E21.02576
G1 X55.635 Y177.797 E21.19882
G1 X51.920 Y176.015 E21.37188
G1 X48.302 Y174.040 E21.54493
G1 X44.793 Y171.879 E21.71799
G1 X41.402 Y169.537 E21.89104
G1 X38.497 Y167.308 E22.04479
G1 X38.138 Y167.022 E22.06409
G1 X35.010 Y164.338 E22.23715
G1 X32.027 Y161.495 E22.41020
G1 X29.197 Y158.499 E22.58326
G1 X26.528 Y155.359 E22.75631
G1 X24.299 Y152.455 E22.91006
G1 X24.026 Y152.084 E22.92937
G1 X21.699 Y148.683 E23.10243
G1 X19.554 Y145.164 E23.27548
G1 X17.595 Y141.538 E23.44853
G1 X15.829 Y137.815 E23.62159
G1 X14.261 Y134.004 E23.79464
G1 X12.894 Y130.116 E23.96769
G1 X11.732 Y126.162 E24.14076
G1 X10.779 Y122.153 E24.31380
G1 X10.036 Y118.099 E24.48686
G1 X9.508 Y114.012 E24.65992
G1 X9.193 Y109.903 E24.83297
G1 X9.098 Y106.243 E24.98672
G1 X9.095 Y105.783 E25.00603
G1 X9.212 Y101.663 E25.17908
G1 X9.544 Y97.556 E25.35214
G1 X10.040 Y93.786 E25.51179
G1 X15.686 Y52.289 E27.27037
G1 X16.334 Y50.199 E27.36228
G1 X25.324 Y32.333 E28.20212
G1 X26.659 Y30.539 E28.29604
G1 F1980.000 E24.29604
G92 E0
G1 X26.956 Y30.687 F6000.000
G1 E4.00000 F1980.000
G1 X29.759 Y29.178 E4.13367 F1650.000
G1 X44.305 Y25.648 E4.76223
G1 X100.188 Y16.587 E7.13951
G1 X104.259 Y16.060 E7.31188
G1 X108.347 Y15.747 E7.48404
G1 X112.459 Y15.648 E7.65675
G1 X116.457 Y15.764 E7.82472
G1 X120.548 Y16.095 E7.99707 F1650.000
G1 X124.178 Y16.573 E8.15082
G1 X124.616 Y16.639 E8.16942
G1 X128.650 Y17.396 E8.34176
G1 X132.639 Y18.362 E8.51412
G1 X136.572 Y19.536 E8.68647
G1 X140.438 Y20.914 E8.85881
G1 X144.226 Y22.493 E9.03116
G1 X147.927 Y24.268 E9.20351
G1 X151.530 Y26.234 E9.37585
G1 X155.025 Y28.386 E9.54821
G1 X158.042 Y30.460 E9.70196
G1 X158.402 Y30.718 E9.72055
G1 X161.653 Y33.223 E9.89290
G1 X164.769 Y35.895 E10.06526
G1 X167.424 Y38.415 E10.21900
G1 X167.740 Y38.726 E10.23760
G1 X170.559 Y41.710 E10.40995
G1 X173.217 Y44.836 E10.58230
G1 X175.709 Y48.098 E10.75465
G1 X178.027 Y51.485 E10.92700
G1 X180.164 Y54.989 E11.09934
G1 X181.911 Y58.207 E11.25309
G1 X182.115 Y58.600 E11.27169
G1 X183.874 Y62.308 E11.44405
G1 X185.436 Y66.103 E11.61638
G1 X186.798 Y69.975 E11.78873
G1 X187.956 Y73.913 E11.96109
G1 X188.905 Y77.906 E12.13343
G1 X189.645 Y81.943 E12.30578
G1 X190.172 Y86.014 E12.47813
G1 X190.485 Y90.106 E12.65047
G1 X190.581 Y93.766 E12.80422
G1 X190.584 Y94.209 E12.82283
G1 X190.468 Y98.311 E12.99517
G1 X190.137 Y102.402 E13.16752
G1 X189.641 Y106.171 E13.32712
G1 X183.996 Y147.667 E15.08570
G1 X183.379 Y149.657 E15.17316
G1 X174.389 Y167.522 E16.01300
G1 X173.044 Y169.313 E16.10706
G1 X170.241 Y170.822 E16.24072
G1 X155.695 Y174.352 E16.86927
G1 X99.812 Y183.413 E19.24657
G1 X95.741 Y183.940 E19.41892
G1 X91.653 Y184.253 E19.59108
G1 X87.541 Y184.352 E19.76379
G1 X83.543 Y184.236 E19.93176
G1 X79.452 Y183.905 E20.10411
G1 X75.384 Y183.361 E20.27647
G1 X71.350 Y182.604 E20.44880
G1 X67.361 Y181.638 E20.62116
G1 X63.428 Y180.464 E20.79351
G1 X59.562 Y179.086 E20.96585
G1 X55.774 Y177.507 E21.13820
G1 X52.073 Y175.732 E21.31056
G1 X48.470 Y173.766 E21.48290
G1 X44.975 Y171.614 E21.65525
G1 X41.598 Y169.282 E21.82759
G1 X38.693 Y167.053 E21.98135
G1 X38.347 Y166.777 E21.99994
G1 X35.231 Y164.105 E22.17230
G1 X32.260 Y161.274 E22.34464
G1 X29.441 Y158.290 E22.51699
G1 X26.783 Y155.164 E22.68933
G1 X24.554 Y152.259 E22.84308
G1 X24.291 Y151.902 E22.86169
G1 X21.973 Y148.515 E23.03404
G1 X19.836 Y145.011 E23.20638
G1 X17.885 Y141.400 E23.37873
G1 X16.126 Y137.692 E23.55109
G1 X14.564 Y133.897 E23.72342
G1 X13.202 Y130.025 E23.89577
G1 X12.044 Y126.087 E24.06813
G1 X11.095 Y122.094 E24.24047
G1 X10.355 Y118.057 E24.41282
G1 X9.828 Y113.987 E24.58517
G1 X9.515 Y109.894 E24.75751
G1 X9.419 Y106.234 E24.91126
G1 X9.416 Y105.791 E24.92987
G1 X9.532 Y101.689 E25.10221
G1 X9.863 Y97.598 E25.27456
G1 X10.359 Y93.829 E25.43416
G1 X16.004 Y52.333 E27.19274
G1 X16.621 Y50.343 E27.28020
G1 X25.611 Y32.478 E28.12004
G1 X26.920 Y30.735 E28.21156
G1 F1980.000 E24.21156
G92 E0
G1 X144.525 Y57.050 F6000.000
G1 E4.00000 F1980.000
G1 X135.598 Y61.542 E4.41964 F900.000
G1 X127.032 Y44.518 E5.21988
G1 X134.704 Y40.658 E5.58053
G1 X132.906 Y38.041 E5.71385
G1 X130.974 Y35.524 E5.84709
G1 X131.022 Y35.486 E5.84966
G1 X130.567 Y34.839 E5.88284
G1 X130.419 Y34.559 E5.89617
G1 X130.307 Y34.262 E5.90950
G1 X130.232 Y33.953 E5.92283
G1 X130.198 Y33.638 E5.93616
G1 X130.202 Y33.320 E5.94949
G1 X130.282 Y32.762 E5.97318
G1 X133.822 Y37.375 E6.21738
G1 X135.725 Y40.144 E6.35845
G1 X144.055 Y35.952 E6.75006
G1 X152.621 Y52.976 E7.55031
G1 X145.537 Y56.541 E7.88335
G1 X148.624 Y63.013 E8.18445
G1 X151.461 Y69.862 E8.49576
G1 X153.935 Y76.850 E8.80707
G1 X156.041 Y83.958 E9.11838
G1 X157.747 Y91.064 E9.42525
G1 X157.838 Y91.634 E9.44946
G1 X157.857 Y91.630 E9.45028
G1 X158.434 Y94.755 E9.58374
G1 X158.923 Y98.472 E9.74117
G1 X159.217 Y102.209 E9.89858
G1 X159.316 Y105.957 E10.05600
G1 X159.217 Y109.704 E10.21342
G1 X158.923 Y113.441 E10.37084
G1 X158.434 Y117.158 E10.52826
G1 X157.751 Y120.844 E10.68567
G1 X156.876 Y124.489 E10.84309
G1 X155.811 Y128.084 E11.00051
G1 X154.560 Y131.617 E11.15793
G1 X153.125 Y135.081 E11.31535
G1 X151.511 Y138.464 E11.47277
G1 X149.722 Y141.759 E11.63018
G1 X147.764 Y144.955 E11.78760
G1 X145.640 Y148.045 E11.94502
G1 X143.358 Y151.019 E12.10244
G1 X140.924 Y153.869 E12.25986
G1 X138.343 Y156.589 E12.41727
G1 X135.624 Y159.169 E12.57469
G1 X132.773 Y161.604 E12.73211
G1 X129.799 Y163.886 E12.88953
G1 X126.710 Y166.009 E13.04695
G1 X123.513 Y167.968 E13.20436
G1 X120.219 Y169.757 E13.36178
G1 X116.835 Y171.370 E13.51920
G1 X113.372 Y172.805 E13.67662
G1 X109.838 Y174.056 E13.83404
G1 X106.244 Y175.121 E13.99145
G1 X102.599 Y175.996 E14.14887
G1 X98.913 Y176.679 E14.30629
G1 X95.196 Y177.169 E14.46371
G1 X91.362 Y177.465 E14.62520
G1 X87.910 Y177.556 E14.77019
G1 X87.259 Y177.170 E14.80198
G1 X87.250 Y177.548 E14.81787
G1 X84.064 Y177.463 E14.95173
G1 X80.327 Y177.169 E15.10915
G1 X76.610 Y176.679 E15.26657
G1 X72.924 Y175.996 E15.42399
G1 X69.279 Y175.121 E15.58141
G1 X65.684 Y174.056 E15.73882
G1 X62.150 Y172.805 E15.89624
G1 X58.687 Y171.370 E16.05366
G1 X55.303 Y169.757 E16.21108
G1 X52.009 Y167.968 E16.36850
G1 X48.813 Y166.009 E16.52592
G1 X45.723 Y163.886 E16.68333
G1 X42.749 Y161.604 E16.84075
G1 X39.898 Y159.169 E16.99817
G1 X37.179 Y156.589 E17.15559
G1 X34.599 Y153.869 E17.31300
G1 X32.164 Y151.019 E17.47042
G1 X29.882 Y148.045 E17.62784
G1 X27.759 Y144.955 E17.78526
G1 X25.800 Y141.759 E17.94268
G1 X24.011 Y138.464 E18.10009
G1 X22.397 Y135.081 E18.25752
G1 X20.963 Y131.617 E18.41493
G1 X19.745 Y128.178 E18.56816
G1 X18.647 Y124.489 E18.72976
G1 X17.772 Y120.844 E18.88718
G1 X17.088 Y117.158 E19.04460
G1 X16.599 Y113.441 E19.20202
G1 X16.305 Y109.704 E19.35944
G1 X16.209 Y106.056 E19.51266
G1 X16.305 Y102.209 E19.67427
G1 X16.599 Y98.472 E19.83168
G1 X17.088 Y94.755 E19.98910
G1 X17.739 Y91.244 E20.13907
G1 X18.124 Y90.731 E20.16597
G1 X17.872 Y90.653 E20.17705
G1 X19.481 Y83.958 E20.46617
G1 X21.587 Y76.850 E20.77748
G1 X24.062 Y69.862 E21.08879
G1 X26.899 Y63.013 E21.40010
G1 X29.986 Y56.541 E21.70121
G1 X22.901 Y52.976 E22.03428
G1 X31.467 Y35.952 E22.83452
G1 X39.798 Y40.144 E23.22613
G1 X41.700 Y37.375 E23.36721
G1 X45.241 Y32.762 E23.61140
G1 X45.320 Y33.320 E23.63510
G1 X45.325 Y33.638 E23.64843
G1 X45.290 Y33.953 E23.66176
G1 X45.216 Y34.262 E23.67509
G1 X45.104 Y34.559 E23.68841
G1 X44.955 Y34.839 E23.70174
G1 X44.500 Y35.486 E23.73492
G1 X44.548 Y35.524 E23.73750
G1 X42.617 Y38.041 E23.87073
G1 X40.819 Y40.658 E24.00406
G1 X48.490 Y44.518 E24.36470
G1 X39.924 Y61.542 E25.16494
G1 X30.997 Y57.050 E25.58458
G1 X27.934 Y63.473 E25.88344
G1 X25.119 Y70.268 E26.19226
G1 X22.664 Y77.200 E26.50108
G1 X20.576 Y84.252 E26.80990
G1 X18.870 Y91.354 E27.11662
G1 X18.207 Y94.932 E27.26944
G1 X17.726 Y98.590 E27.42437
G1 X17.436 Y102.268 E27.57930
G1 X17.340 Y105.957 E27.73423
G1 X17.436 Y109.645 E27.88915
G1 X17.726 Y113.323 E28.04408
G1 X18.207 Y116.981 E28.19901
G1 X18.880 Y120.608 E28.35394
G1 X19.741 Y124.196 E28.50886
G1 X20.789 Y127.734 E28.66379
G1 X22.020 Y131.211 E28.81872
G1 X23.432 Y134.620 E28.97365
G1 X25.020 Y137.950 E29.12858
G1 X26.781 Y141.192 E29.28350
G1 X28.709 Y144.338 E29.43843
G1 X30.798 Y147.379 E29.59336
G1 X33.044 Y150.306 E29.74829
G1 X35.441 Y153.111 E29.90322
G1 X37.980 Y155.788 E30.05814
G1 X40.657 Y158.327 E30.21307
G1 X43.462 Y160.723 E30.36800
G1 X46.389 Y162.969 E30.52293
G1 X49.430 Y165.059 E30.67786
G1 X52.575 Y166.987 E30.83278
G1 X55.818 Y168.747 E30.98771
G1 X59.087 Y170.307 E31.13983
G1 X62.556 Y171.748 E31.29756
G1 X66.034 Y172.979 E31.45249
G1 X69.572 Y174.027 E31.60742
G1 X73.159 Y174.888 E31.76235
G1 X76.787 Y175.561 E31.91728
G1 X80.445 Y176.042 E32.07220
G1 X84.123 Y176.332 E32.22713
G1 X87.761 Y176.427 E32.37996
G1 X91.399 Y176.332 E32.53279
G1 X95.077 Y176.042 E32.68771
G1 X98.735 Y175.561 E32.84264
G1 X102.363 Y174.888 E32.99757
G1 X105.951 Y174.027 E33.15250
G1 X109.488 Y172.979 E33.30743
G1 X112.966 Y171.748 E33.46236
G1 X116.375 Y170.336 E33.61728
G1 X119.705 Y168.747 E33.77221
G1 X122.947 Y166.987 E33.92714
G1 X126.093 Y165.059 E34.08207
G1 X129.133 Y162.969 E34.23699
G1 X132.060 Y160.723 E34.39192
G1 X134.866 Y158.327 E34.54685
G1 X137.542 Y155.788 E34.70178
G1 X140.082 Y153.111 E34.85671
G1 X142.478 Y150.306 E35.01163
G1 X144.724 Y147.379 E35.16656
G1 X146.814 Y144.338 E35.32149
G1 X148.741 Y141.192 E35.47642
G1 X150.502 Y137.950 E35.63135
G1 X152.090 Y134.620 E35.78627
G1 X153.502 Y131.211 E35.94120
G1 X154.734 Y127.734 E36.09613
G1 X155.782 Y124.196 E36.25106
G1 X156.643 Y120.608 E36.40598
G1 X157.315 Y116.981 E36.56091
G1 X157.797 Y113.323 E36.71584
G1 X158.086 Y109.645 E36.87077
G1 X158.183 Y105.957 E37.02570
G1 X158.086 Y102.268 E37.18062
G1 X157.797 Y98.590 E37.33555
G1 X157.315 Y94.932 E37.49048
G1 X156.652 Y91.354 E37.64331
G1 X154.947 Y84.252 E37.95002
G1 X152.858 Y77.200 E38.25884
G1 X150.403 Y70.268 E38.56766
G1 X147.589 Y63.473 E38.87648
G1 X144.551 Y57.104 E39.17282
G1 F1980.000 E35.17282
G92 E0
G1 X144.376 Y57.484 F6000.000
G1 E4.00000 F1980.000
G1 X135.455 Y61.973 E4.41935 F720.000
G1 X126.600 Y44.375 E5.24659
G1 X134.230 Y40.536 E5.60526
G1 X132.645 Y38.230 E5.72276
G1 X130.527 Y35.470 E5.86887
G1 X130.585 Y35.423 E5.87199
G1 X130.293 Y35.008 E5.89333
G1 X130.125 Y34.691 E5.90836
G1 X129.999 Y34.357 E5.92339
G1 X129.915 Y34.009 E5.93841
G1 X129.876 Y33.653 E5.95344
G1 X129.881 Y33.295 E5.96847
G1 X129.932 Y32.941 E5.98350
G1 X130.026 Y32.596 E5.99852
G1 X130.213 Y32.144 E6.01905
G1 X134.082 Y37.186 E6.28593
G1 X135.831 Y39.731 E6.41559
G1 X144.198 Y35.521 E6.80892
G1 X153.053 Y53.118 E7.63616
G1 X145.962 Y56.686 E7.96948
G1 X148.917 Y62.882 E8.25772
G1 X151.761 Y69.747 E8.56974
G1 X154.241 Y76.751 E8.88176
G1 X156.352 Y83.875 E9.19377
G1 X158.062 Y91.001 E9.50151
G1 X158.752 Y94.705 E9.65971
G1 X159.243 Y98.438 E9.81784
G1 X159.539 Y102.192 E9.97596
G1 X159.637 Y105.957 E10.13409
G1 X159.539 Y109.721 E10.29221
G1 X159.243 Y113.475 E10.45034
G1 X158.752 Y117.208 E10.60846
G1 X158.065 Y120.911 E10.76659
G1 X157.186 Y124.572 E10.92471
G1 X156.117 Y128.183 E11.08284
G1 X154.860 Y131.733 E11.24097
G1 X153.419 Y135.212 E11.39909
G1 X151.798 Y138.610 E11.55721
G1 X150.001 Y141.920 E11.71534
G1 X148.033 Y145.130 E11.87346
G1 X145.901 Y148.234 E12.03159
G1 X143.608 Y151.221 E12.18971
G1 X141.163 Y154.085 E12.34784
G1 X138.570 Y156.816 E12.50596
G1 X135.839 Y159.408 E12.66409
G1 X132.976 Y161.854 E12.82221
G1 X129.988 Y164.146 E12.98034
G1 X126.885 Y166.279 E13.13846
G1 X123.674 Y168.246 E13.29659
G1 X120.365 Y170.043 E13.45471
G1 X116.966 Y171.664 E13.61284
G1 X113.487 Y173.105 E13.77096
G1 X109.938 Y174.362 E13.92909
G1 X106.327 Y175.432 E14.08721
G1 X102.665 Y176.311 E14.24534
G1 X98.963 Y176.997 E14.40346
G1 X95.230 Y177.489 E14.56159
G1 X91.370 Y177.787 E14.72413
G1 X87.826 Y177.879 E14.87301
G1 X87.568 Y177.727 E14.88560
G1 X87.565 Y177.879 E14.89197
G1 X84.047 Y177.784 E15.03975
G1 X80.293 Y177.489 E15.19787
G1 X76.560 Y176.997 E15.35600
G1 X72.857 Y176.311 E15.51412
G1 X69.195 Y175.432 E15.67225
G1 X65.585 Y174.362 E15.83037
G1 X62.035 Y173.105 E15.98850
G1 X58.556 Y171.664 E16.14662
G1 X55.157 Y170.043 E16.30475
G1 X51.848 Y168.246 E16.46287
G1 X48.638 Y166.279 E16.62100
G1 X45.534 Y164.146 E16.77912
G1 X42.547 Y161.854 E16.93725
G1 X39.683 Y159.408 E17.09537
G1 X36.952 Y156.816 E17.25350
G1 X34.360 Y154.085 E17.41162
G1 X31.914 Y151.221 E17.56975
G1 X29.622 Y148.234 E17.72788
G1 X27.489 Y145.130 E17.88600
G1 X25.522 Y141.920 E18.04412
G1 X23.725 Y138.610 E18.20225
G1 X22.104 Y135.211 E18.36038
G1 X20.663 Y131.733 E18.51850
G1 X19.442 Y128.285 E18.67208
G1 X18.336 Y124.572 E18.83474
G1 X17.457 Y120.911 E18.99287
G1 X16.771 Y117.208 E19.15099
G1 X16.279 Y113.475 E19.30912
G1 X15.984 Y109.721 E19.46724
G1 X15.888 Y106.065 E19.62082
G1 X15.984 Y102.192 E19.78349
G1 X16.279 Y98.438 E19.94161
G1 X16.771 Y94.705 E20.09974
G1 X17.437 Y91.111 E20.25322
G1 X17.593 Y90.903 E20.26417
G1 X17.489 Y90.870 E20.26877
G1 X19.171 Y83.875 E20.57086
G1 X21.281 Y76.751 E20.88288
G1 X23.762 Y69.747 E21.19490
G1 X26.605 Y62.882 E21.50691
G1 X29.561 Y56.687 E21.79515
G1 X22.469 Y53.118 E22.12850
G1 X31.324 Y35.521 E22.95574
G1 X39.692 Y39.731 E23.34908
G1 X41.440 Y37.186 E23.47873
G1 X45.309 Y32.144 E23.74561
G1 X45.496 Y32.596 E23.76614
G1 X45.591 Y32.941 E23.78116
G1 X45.641 Y33.295 E23.79619
G1 X45.647 Y33.653 E23.81122
G1 X45.607 Y34.009 E23.82625
G1 X45.524 Y34.357 E23.84128
G1 X45.397 Y34.691 E23.85630
G1 X45.230 Y35.008 E23.87133
G1 X44.937 Y35.423 E23.89267
G1 X44.995 Y35.470 E23.89579
