; generated by Slic3r 1.1.7 on 2015-01-18 at 16:59:14

; perimeters extrusion width = 0.40mm
; infill extrusion width = 0.44mm
; solid infill extrusion width = 0.44mm
; top infill extrusion width = 0.44mm

G21 ; set units to millimeters
M190 S60 ; wait for bed temperature to be reached
M104 S215 ; set temperature
G28 ; home all axes Start of G Code Slic3r
 
M109 S215 ; wait for temperature to be reached
G90 ; use absolute coordinates
G92 E0
M82 ; use absolute distances for extrusion
G1 F1860.000 E-3.00000
G92 E0
G1 Z0.294 F7800.000
G1 X23.659 Y31.207 F7800.000
G1 E3.10000 F1860.000
G1 X25.618 Y29.866 E3.24777 F1800.000
G1 X26.860 Y29.428 E3.32979
G1 X40.858 Y25.910 E4.22821
G1 X42.587 Y25.696 E4.33667
G1 X127.599 Y25.696 E9.62859
G1 X129.328 Y25.910 E9.73705
G1 X143.326 Y29.428 E10.63547 F1800.000
G1 X145.499 Y30.383 E10.78325
G1 X147.235 Y32.003 E10.93102
G1 X147.934 Y33.119 E11.01304
G1 X156.924 Y50.985 E12.25802
G1 X157.614 Y53.200 E12.40246
G1 X163.366 Y94.729 E15.01223
G1 X163.898 Y98.844 E15.27056
G1 X164.214 Y102.983 E15.52891
G1 X164.313 Y107.131 E15.78725
G1 X164.195 Y111.280 E16.04559
G1 X163.859 Y115.416 E16.30393
G1 X163.271 Y119.730 E16.57495
G1 X162.542 Y123.608 E16.82059
G1 X161.564 Y127.642 E17.07892
G1 X160.376 Y131.618 E17.33728
G1 X158.981 Y135.527 E17.59562
G1 X157.384 Y139.357 E17.85394
G1 X155.589 Y143.099 E18.11229
G1 X153.600 Y146.742 E18.37063
G1 X151.423 Y150.275 E18.62897
G1 X149.065 Y153.690 E18.88731
G1 X146.531 Y156.976 E19.14565
G1 X143.828 Y160.126 E19.40399
G1 X140.964 Y163.129 E19.66233
G1 X137.947 Y165.979 E19.92068
G1 X134.785 Y168.667 E20.17902
G1 X131.487 Y171.186 E20.43736
G1 X128.061 Y173.528 E20.69570
G1 X124.517 Y175.688 E20.95403
G1 X120.865 Y177.660 E21.21238
G1 X117.116 Y179.438 E21.47071
G1 X113.278 Y181.017 E21.72905
G1 X109.362 Y182.393 E21.98740
G1 X105.380 Y183.563 E22.24573
G1 X101.343 Y184.522 E22.50408
G1 X97.260 Y185.269 E22.76242
G1 X93.144 Y185.801 E23.02076
G1 X89.011 Y186.117 E23.27881
G1 X84.958 Y186.216 E23.53121
G1 X81.384 Y186.122 E23.75376
G1 X80.809 Y186.097 E23.78957
G1 X76.672 Y185.762 E24.04790
G1 X72.559 Y185.211 E24.30624
G1 X68.480 Y184.445 E24.56458
G1 X64.447 Y183.467 E24.82292
G1 X60.471 Y182.279 E25.08126
G1 X57.101 Y181.085 E25.30381
G1 X56.562 Y180.884 E25.33961
G1 X52.731 Y179.287 E25.59795
G1 X48.990 Y177.492 E25.85629
G1 X45.848 Y175.786 E26.07883
G1 X45.347 Y175.503 E26.11464
G1 X41.814 Y173.326 E26.37297
G1 X38.399 Y170.967 E26.63131
G1 X35.113 Y168.433 E26.88965
G1 X32.394 Y166.112 E27.11219
G1 X31.963 Y165.731 E27.14801
G1 X28.959 Y162.867 E27.40633
G1 X26.110 Y159.850 E27.66468
G1 X23.422 Y156.688 E27.92303
G1 X21.245 Y153.851 E28.14557
G1 X20.903 Y153.389 E28.18137
G1 X18.561 Y149.964 E28.43970
G1 X16.400 Y146.420 E28.69805
G1 X14.429 Y142.768 E28.95639
G1 X12.651 Y139.018 E29.21472
G1 X11.072 Y135.180 E29.47307
G1 X9.695 Y131.265 E29.73140
G1 X8.680 Y127.837 E29.95396
G1 X8.526 Y127.283 E29.98976
G1 X7.567 Y123.245 E30.24809
G1 X6.820 Y119.163 E30.50643
G1 X6.288 Y115.047 E30.76477
G1 X5.972 Y110.909 E31.02311
G1 X5.878 Y107.335 E31.24565
G1 X5.873 Y106.760 E31.28146
G1 X5.991 Y102.612 E31.53980
G1 X6.327 Y98.475 E31.79814
G1 X6.826 Y94.681 E32.03634
G1 X12.573 Y53.200 E34.64314
G1 X13.263 Y50.985 E34.78758
G1 X22.252 Y33.119 E36.03256
G1 X23.624 Y31.256 E36.17659
G1 X24.104 Y31.539 F7800.000
G1 X26.994 Y29.959 E36.38164 F1800.000
G1 X40.991 Y26.441 E37.28006
G1 X42.587 Y26.243 E37.38015
G1 X127.599 Y26.243 E42.67208
G1 X129.195 Y26.441 E42.77217
G1 X143.192 Y29.959 E43.67059 F1800.000
G1 X145.273 Y30.891 E43.81251
G1 X147.445 Y33.365 E44.01748
G1 X156.435 Y51.231 E45.26246
G1 X157.072 Y53.276 E45.39576
G1 X162.824 Y94.800 E48.00530
G1 X163.353 Y98.887 E48.26185
G1 X163.667 Y102.997 E48.51842
G1 X163.766 Y107.117 E48.77497
G1 X163.649 Y111.237 E49.03153
G1 X163.317 Y115.345 E49.28808
G1 X162.733 Y119.630 E49.55732
G1 X162.010 Y123.481 E49.80118
G1 X161.039 Y127.486 E50.05773
G1 X159.860 Y131.436 E50.31430
G1 X158.476 Y135.318 E50.57086
G1 X156.891 Y139.122 E50.82740
G1 X155.108 Y142.838 E51.08397
G1 X153.134 Y146.456 E51.34053
G1 X150.972 Y149.965 E51.59709
G1 X148.631 Y153.357 E51.85364
G1 X146.115 Y156.621 E52.11020
G1 X143.431 Y159.749 E52.36676
G1 X140.588 Y162.732 E52.62331
G1 X137.592 Y165.563 E52.87988
G1 X134.452 Y168.233 E53.13644
G1 X131.177 Y170.735 E53.39299
G1 X127.775 Y173.062 E53.64955
G1 X124.256 Y175.208 E53.90610
G1 X120.630 Y177.166 E54.16267
G1 X116.906 Y178.932 E54.41922
G1 X113.095 Y180.501 E54.67577
G1 X109.207 Y181.869 E54.93234
G1 X105.253 Y183.031 E55.18889
G1 X101.243 Y183.984 E55.44545
G1 X97.189 Y184.726 E55.70201
G1 X93.102 Y185.255 E55.95856
G1 X88.996 Y185.570 E56.21485
G1 X84.972 Y185.669 E56.46545
G1 X81.398 Y185.575 E56.68800
G1 X80.852 Y185.552 E56.72202
G1 X76.744 Y185.220 E56.97858
G1 X72.659 Y184.673 E57.23513
G1 X68.608 Y183.913 E57.49169
G1 X64.603 Y182.942 E57.74825
G1 X60.653 Y181.763 E58.00481
G1 X57.283 Y180.570 E58.22735
G1 X56.771 Y180.379 E58.26137
G1 X52.967 Y178.793 E58.51792
G1 X49.251 Y177.011 E58.77448
G1 X46.109 Y175.305 E58.99702
G1 X45.633 Y175.036 E59.03105
G1 X42.124 Y172.875 E59.28760
G1 X38.732 Y170.533 E59.54416
G1 X35.468 Y168.017 E59.80071
G1 X32.749 Y165.695 E60.02325
G1 X32.340 Y165.334 E60.05729
G1 X29.356 Y162.490 E60.31383
G1 X26.526 Y159.494 E60.57040
G1 X23.856 Y156.355 E60.82696
G1 X21.680 Y153.518 E61.04950
G1 X21.354 Y153.079 E61.08352
G1 X19.027 Y149.678 E61.34007
G1 X16.881 Y146.159 E61.59663
G1 X14.923 Y142.533 E61.85319
G1 X13.156 Y138.809 E62.10974
G1 X11.587 Y134.998 E62.36630
G1 X10.220 Y131.110 E62.62286
G1 X9.205 Y127.682 E62.84541
G1 X9.058 Y127.155 E62.87943
G1 X8.105 Y123.146 E63.13598
G1 X7.362 Y119.091 E63.39254
G1 X6.833 Y115.004 E63.64909
G1 X6.519 Y110.895 E63.90565
G1 X6.425 Y107.321 E64.12819
G1 X6.420 Y106.774 E64.16221
G1 X6.537 Y102.655 E64.41877
G1 X6.869 Y98.547 E64.67533
G1 X7.368 Y94.756 E64.91330
G1 X13.115 Y53.276 E67.52010
G1 X13.751 Y51.231 E67.65339
G1 X22.741 Y33.365 E68.89837
G1 X24.068 Y31.587 E69.03648
G1 F1860.000 E66.03648
G92 E0
G1 X84.766 Y178.431 F7800.000
G1 E3.10000 F1860.000
G1 X84.757 Y178.820 E3.12419 F441.000
G1 X81.381 Y178.732 E3.33439
G1 X77.629 Y178.436 E3.56866
G1 X73.898 Y177.945 E3.80293
G1 X70.198 Y177.259 E4.03720
G1 X66.538 Y176.381 E4.27147
G1 X62.930 Y175.312 E4.50574
G1 X59.382 Y174.056 E4.74001
G1 X55.905 Y172.615 E4.97428
G1 X52.508 Y170.995 E5.20855
G1 X49.201 Y169.199 E5.44282
G1 X45.992 Y167.233 E5.67708
G1 X42.891 Y165.101 E5.91136
G1 X39.905 Y162.810 E6.14562
G1 X37.043 Y160.366 E6.37990
G1 X34.313 Y157.776 E6.61417
G1 X31.858 Y155.188 E6.83622
G1 X29.278 Y152.184 E7.08269
G1 X26.987 Y149.198 E7.31696
G1 X24.856 Y146.097 E7.55123
G1 X22.889 Y142.888 E7.78550
G1 X21.094 Y139.581 E8.01977
G1 X19.474 Y136.184 E8.25404
G1 X18.033 Y132.707 E8.48831
G1 X16.777 Y129.159 E8.72258
G1 X15.708 Y125.551 E8.95685
G1 X14.830 Y121.891 E9.19112
G1 X14.144 Y118.191 E9.42539
G1 X13.653 Y114.460 E9.65966
G1 X13.357 Y110.708 E9.89392
G1 X13.259 Y106.946 E10.12819
G1 X13.357 Y103.184 E10.36246
G1 X13.653 Y99.432 E10.59673
G1 X14.144 Y95.701 E10.83100
G1 X14.792 Y92.203 E11.05244
G1 X15.277 Y91.876 E11.08886
G1 X14.891 Y91.746 E11.11425
G1 X16.543 Y84.875 E11.55417
G1 X18.653 Y77.753 E12.01657
G1 X21.132 Y70.751 E12.47897
G1 X23.975 Y63.888 E12.94136
G1 X26.991 Y57.565 E13.37748
G1 X19.994 Y54.044 E13.86509
G1 X28.720 Y36.703 E15.07350
G1 X36.979 Y40.858 E15.64901
G1 X38.806 Y38.200 E15.84982
G1 X42.592 Y33.266 E16.23694
G1 X42.782 Y33.959 E16.28165
G1 X42.829 Y34.295 E16.30280
G1 X42.835 Y34.635 E16.32396
G1 X42.797 Y34.973 E16.34511
G1 X42.718 Y35.303 E16.36626
G1 X42.598 Y35.621 E16.38741
G1 X42.439 Y35.921 E16.40856
G1 X42.074 Y36.440 E16.44804
G1 X42.127 Y36.483 E16.45230
G1 X40.093 Y39.135 E16.66037
G1 X38.412 Y41.580 E16.84503
G1 X46.061 Y45.428 E17.37803
G1 X37.335 Y62.769 E18.58645
G1 X28.412 Y58.279 E19.20829
G1 X25.428 Y64.535 E19.63972
G1 X22.617 Y71.321 E20.09694
G1 X20.165 Y78.244 E20.55416
G1 X18.079 Y85.287 E21.01137
G1 X16.376 Y92.380 E21.46547
G1 X15.715 Y95.949 E21.69144
G1 X15.234 Y99.598 E21.92053
G1 X14.946 Y103.267 E22.14961
G1 X14.849 Y106.946 E22.37870
G1 X14.946 Y110.625 E22.60779
G1 X15.234 Y114.293 E22.83687
G1 X15.715 Y117.942 E23.06596
G1 X16.385 Y121.561 E23.29504
G1 X17.245 Y125.139 E23.52413
G1 X18.290 Y128.668 E23.75322
G1 X19.518 Y132.137 E23.98231
G1 X20.872 Y135.405 E24.20254
G1 X22.511 Y138.858 E24.44046
G1 X24.267 Y142.093 E24.66955
G1 X26.190 Y145.230 E24.89864
G1 X28.274 Y148.263 E25.12772
G1 X30.515 Y151.183 E25.35681
G1 X32.905 Y153.981 E25.58589
G1 X35.438 Y156.651 E25.81498
G1 X38.107 Y159.184 E26.04407
G1 X40.906 Y161.574 E26.27315
G1 X43.825 Y163.815 E26.50224
G1 X46.858 Y165.899 E26.73132
G1 X49.996 Y167.822 E26.96041
G1 X53.230 Y169.578 E27.18950
G1 X56.552 Y171.162 E27.41858
G1 X59.952 Y172.571 E27.64767
G1 X63.421 Y173.799 E27.87676
G1 X66.950 Y174.844 E28.10584
G1 X70.528 Y175.703 E28.33493
G1 X74.147 Y176.374 E28.56401
G1 X77.795 Y176.854 E28.79310
G1 X81.464 Y177.143 E29.02219
G1 X85.093 Y177.238 E29.24816
G1 X88.722 Y177.143 E29.47413
G1 X92.391 Y176.854 E29.70322
G1 X96.039 Y176.374 E29.93230
G1 X99.658 Y175.703 E30.16139
G1 X103.236 Y174.844 E30.39047
G1 X106.765 Y173.799 E30.61956
G1 X110.234 Y172.571 E30.84865
G1 X113.634 Y171.162 E31.07774
G1 X116.956 Y169.578 E31.30682
G1 X120.190 Y167.822 E31.53591
G1 X123.328 Y165.899 E31.76499
G1 X126.361 Y163.815 E31.99408
G1 X129.280 Y161.574 E32.22316
G1 X132.079 Y159.184 E32.45225
G1 X134.748 Y156.651 E32.68134
G1 X137.282 Y153.981 E32.91042
G1 X139.672 Y151.183 E33.13951
G1 X141.912 Y148.263 E33.36859
G1 X143.996 Y145.230 E33.59768
G1 X145.919 Y142.093 E33.82677
G1 X147.675 Y138.858 E34.05586
G1 X149.260 Y135.537 E34.28494
G1 X150.668 Y132.137 E34.51402
G1 X151.897 Y128.668 E34.74311
G1 X152.942 Y125.139 E34.97220
G1 X153.801 Y121.561 E35.20128
G1 X154.471 Y117.942 E35.43037
G1 X154.952 Y114.293 E35.65946
G1 X155.241 Y110.625 E35.88854
G1 X155.337 Y106.946 E36.11763
G1 X155.241 Y103.267 E36.34672
G1 X154.952 Y99.598 E36.57580
G1 X154.471 Y95.949 E36.80489
G1 X153.810 Y92.380 E37.03086
G1 X152.107 Y85.287 E37.48496
G1 X150.021 Y78.244 E37.94217
G1 X147.569 Y71.321 E38.39939
G1 X144.758 Y64.535 E38.85661
G1 X141.775 Y58.279 E39.28804
G1 X132.851 Y62.769 E39.90988
G1 X124.125 Y45.428 E41.11829
G1 X131.774 Y41.580 E41.65130
G1 X130.094 Y39.135 E41.83596
G1 X128.059 Y36.483 E42.04402
G1 X128.112 Y36.440 E42.04828
G1 X127.747 Y35.921 E42.08777
G1 X127.588 Y35.621 E42.10892
G1 X127.468 Y35.303 E42.13007
G1 X127.389 Y34.973 E42.15122
G1 X127.352 Y34.635 E42.17237
G1 X127.357 Y34.295 E42.19353
G1 X127.405 Y33.959 E42.21468
G1 X127.594 Y33.266 E42.25939
G1 X131.380 Y38.200 E42.64651
G1 X133.208 Y40.858 E42.84731
G1 X141.466 Y36.703 E43.42283
G1 X150.192 Y54.044 E44.63124
G1 X143.195 Y57.564 E45.11882
G1 X146.211 Y63.888 E45.55494
G1 X149.054 Y70.751 E46.01734
G1 X151.534 Y77.753 E46.47974
G1 X153.643 Y84.875 E46.94213
G1 X155.347 Y91.961 E47.39580
G1 X155.307 Y92.408 E47.42371
G1 X155.430 Y92.383 E47.43149
G1 X156.042 Y95.701 E47.64148
G1 X156.534 Y99.432 E47.87575
G1 X156.829 Y103.184 E48.11002
G1 X156.927 Y106.946 E48.34429
G1 X156.829 Y110.708 E48.57856
G1 X156.534 Y114.460 E48.81283
G1 X156.042 Y118.191 E49.04710
G1 X155.357 Y121.891 E49.28137
G1 X154.478 Y125.551 E49.51564
G1 X153.409 Y129.159 E49.74991
G1 X152.153 Y132.707 E49.98418
G1 X150.713 Y136.184 E50.21845
G1 X149.092 Y139.581 E50.45272
G1 X147.297 Y142.888 E50.68699
G1 X145.330 Y146.097 E50.92126
G1 X143.199 Y149.198 E51.15553
G1 X140.908 Y152.184 E51.38980
G1 X138.329 Y155.188 E51.63627
G1 X135.873 Y157.776 E51.85832
G1 X133.143 Y160.366 E52.09259
G1 X130.126 Y162.930 E52.33906
G1 X127.296 Y165.101 E52.56112
G1 X124.194 Y167.233 E52.79539
G1 X120.813 Y169.293 E53.04185
G1 X117.678 Y170.995 E53.26391
G1 X114.281 Y172.615 E53.49818
G1 X110.619 Y174.121 E53.74464
G1 X107.257 Y175.312 E53.96670
G1 X103.648 Y176.381 E54.20097
G1 X99.989 Y177.259 E54.43524
G1 X96.288 Y177.945 E54.66951
G1 X92.557 Y178.436 E54.90378
G1 X88.805 Y178.732 E55.13805
G1 X85.241 Y178.827 E55.36002
G1 X84.812 Y178.470 E55.39478
G1 X84.389 Y178.336 F7800.000
G1 X84.222 Y178.258 F7800.000
G1 X81.410 Y178.185 E55.56994 F630.000
G1 X77.686 Y177.892 E55.80242
G1 X73.984 Y177.404 E56.03491
G1 X70.311 Y176.724 E56.26740
G1 X66.680 Y175.852 E56.49988
G1 X63.099 Y174.791 E56.73237
G1 X59.578 Y173.545 E56.96485
G1 X56.128 Y172.115 E57.19734
G1 X52.757 Y170.507 E57.42983
G1 X49.634 Y168.812 E57.65099
G1 X46.290 Y166.774 E57.89478
G1 X43.212 Y164.659 E58.12726
G1 X40.249 Y162.385 E58.35975
G1 X37.409 Y159.959 E58.59224
G1 X34.700 Y157.389 E58.82472
G1 X32.129 Y154.680 E59.05721
G1 X29.704 Y151.840 E59.28970
G1 X27.430 Y148.877 E59.52218
G1 X25.315 Y145.799 E59.75467
G1 X23.363 Y142.614 E59.98715
G1 X21.581 Y139.332 E60.21964
G1 X19.974 Y135.961 E60.45212
G1 X18.614 Y132.679 E60.67329
G1 X17.298 Y128.990 E60.91708
G1 X16.237 Y125.409 E61.14957
G1 X15.365 Y121.778 E61.38205
G1 X14.684 Y118.105 E61.61454
G1 X14.197 Y114.402 E61.84702
G1 X13.904 Y110.679 E62.07951
G1 X13.806 Y106.946 E62.31199
G1 X13.904 Y103.212 E62.54448
G1 X14.197 Y99.489 E62.77697
G1 X14.684 Y95.786 E63.00945
G1 X15.288 Y92.528 E63.21570
G1 X15.864 Y92.141 E63.25892
G1 X15.174 Y95.864 E63.49463
G1 X14.690 Y99.541 E63.72550
G1 X14.399 Y103.238 E63.95637
G1 X14.302 Y106.946 E64.18724
G1 X14.399 Y110.653 E64.41811
G1 X14.690 Y114.351 E64.64898
G1 X15.174 Y118.028 E64.87985
G1 X15.850 Y121.674 E65.11072
G1 X16.716 Y125.281 E65.34159
G1 X17.769 Y128.837 E65.57246
G1 X19.007 Y132.333 E65.80334
G1 X20.367 Y135.615 E66.02446
G1 X22.023 Y139.107 E66.26506
G1 X23.793 Y142.366 E66.49593
G1 X25.731 Y145.529 E66.72680
G1 X27.831 Y148.585 E66.95767
G1 X30.089 Y151.528 E67.18854
G1 X32.498 Y154.348 E67.41941
G1 X35.051 Y157.038 E67.65028
G1 X37.741 Y159.591 E67.88115
G1 X40.561 Y162.000 E68.11202
G1 X43.504 Y164.257 E68.34289
G1 X46.560 Y166.358 E68.57376
G1 X49.723 Y168.296 E68.80463
G1 X52.982 Y170.066 E69.03550
G1 X56.329 Y171.662 E69.26637
G1 X59.756 Y173.082 E69.49724
G1 X63.252 Y174.320 E69.72811
G1 X66.808 Y175.373 E69.95898
G1 X70.414 Y176.239 E70.18985
G1 X74.061 Y176.915 E70.42072
G1 X77.738 Y177.399 E70.65159
G1 X81.436 Y177.690 E70.88246
G1 X84.234 Y177.763 E71.05672
G1 X84.224 Y178.198 E71.08382
G1 F1860.000 E68.08382
G92 E0
G1 X28.158 Y57.539 F7800.000
G1 E3.10000 F1860.000
G1 X24.928 Y64.312 E3.56711 F630.000
G1 X22.106 Y71.124 E4.02611
G1 X19.645 Y78.075 E4.48512
G1 X17.550 Y85.145 E4.94411
G1 X16.014 Y91.546 E5.35389
G1 X15.540 Y91.387 E5.38501
G1 X17.072 Y85.017 E5.79284
G1 X19.173 Y77.922 E6.25347
G1 X21.643 Y70.947 E6.71408
G1 X24.475 Y64.111 E7.17470
G1 X27.716 Y57.317 E7.64327
G1 X20.729 Y53.801 E8.13017
G1 X28.963 Y37.437 E9.27046
G1 X37.159 Y41.562 E9.84163
G1 X39.249 Y38.522 E10.07126
G1 X41.268 Y35.890 E10.27773
G1 X41.613 Y36.144 E10.30441
G1 X41.331 Y36.546 E10.33501
G1 X41.367 Y36.575 E10.33791
G1 X39.650 Y38.813 E10.51349
G1 X37.606 Y41.786 E10.73809
G1 X45.326 Y45.671 E11.27607
G1 X37.092 Y62.035 E12.41636
G1 X28.212 Y57.566 E13.03519
G1 F1860.000 E10.03519
G92 E0
G1 X132.580 Y41.786 F7800.000
G1 E3.10000 F1860.000
G1 X130.536 Y38.813 E3.32460 F630.000
G1 X128.819 Y36.575 E3.50018
G1 X128.856 Y36.546 E3.50307
G1 X128.573 Y36.144 E3.53369
G1 X128.918 Y35.890 E3.56038
G1 X130.938 Y38.522 E3.76686
G1 X133.027 Y41.562 E3.99649
G1 X141.223 Y37.437 E4.56766
G1 X149.457 Y53.801 E5.70795
G1 X142.471 Y57.316 E6.19482
G1 X145.711 Y64.111 E6.66339
G1 X148.543 Y70.947 E7.12401
G1 X151.013 Y77.922 E7.58462
G1 X153.115 Y85.017 E8.04524
G1 X154.794 Y92.002 E8.49245
G1 X154.758 Y92.411 E8.51804
G1 X154.387 Y92.439 E8.54120
G1 X152.636 Y85.145 E9.00813
G1 X150.541 Y78.075 E9.46713
G1 X148.080 Y71.124 E9.92614
G1 X145.258 Y64.312 E10.38513
G1 X142.028 Y57.539 E10.85225
G1 X133.094 Y62.035 E11.47481
G1 X124.860 Y45.671 E12.61511
G1 X132.526 Y41.813 E13.14935
G1 F1860.000 E10.14935
G92 E0
G1 X154.505 Y93.126 F7800.000
G1 E3.10000 F1860.000
G1 X154.993 Y93.028 E3.13098 F630.000
G1 X155.502 Y95.786 E3.30553
