; generated by Slic3r 1.1.7 on 2015-01-18 at 22:30:35

; perimeters extrusion width = 0.40mm
; infill extrusion width = 0.44mm
; solid infill extrusion width = 0.44mm
; top infill extrusion width = 0.44mm

G21 ; set units to millimeters
M190 S60 ; wait for bed temperature to be reached
M104 S215 ; set temperature
G28 ; home all axes Start of G Code Slic3r
 
M109 S215 ; wait for temperature to be reached
G90 ; use absolute coordinates
G92 E0
M82 ; use absolute distances for extrusion
G1 F1860.000 E-3.00000
G92 E0
G1 Z0.294 F7800.000
G1 X37.159 Y27.056 F7800.000
G1 E3.10000 F1860.000
G1 X38.566 Y25.143 E3.24777 F1800.000
G1 X40.525 Y23.802 E3.39555
G1 X41.806 Y23.354 E3.48005
G1 X55.857 Y19.908 E4.38061
G1 X57.547 Y19.703 E4.48659
G1 X142.453 Y19.703 E9.77191
G1 X144.143 Y19.908 E9.87790
G1 X158.194 Y23.354 E10.77846 F1800.000
G1 X160.372 Y24.298 E10.92623
G1 X162.117 Y25.907 E11.07401
G1 X162.841 Y27.056 E11.15851
G1 X171.831 Y44.921 E12.40349
G1 X172.523 Y47.151 E12.54882
G1 X178.188 Y88.678 E15.15779
G1 X178.720 Y92.790 E15.41585
G1 X179.035 Y96.923 E15.67391
G1 X179.134 Y101.068 E15.93197
G1 X179.115 Y101.798 E15.97743
G1 X179.016 Y105.212 E16.19003
G1 X178.681 Y109.344 E16.44810
G1 X178.130 Y113.453 E16.70616
G1 X177.997 Y114.171 E16.75162
G1 X177.365 Y117.527 E16.96421
G1 X176.388 Y121.556 E17.22228
G1 X175.201 Y125.528 E17.48034
G1 X174.958 Y126.216 E17.52580
G1 X173.808 Y129.432 E17.73840
G1 X172.213 Y133.259 E17.99646
G1 X170.419 Y136.996 E18.25452
G1 X170.071 Y137.638 E18.29998
G1 X168.433 Y140.635 E18.51258
G1 X166.258 Y144.165 E18.77064
G1 X163.902 Y147.576 E19.02870
G1 X163.458 Y148.155 E19.07416
G1 X161.371 Y150.858 E19.28676
G1 X158.671 Y154.005 E19.54483
G1 X155.810 Y157.005 E19.80288
G1 X155.281 Y157.508 E19.84833
G1 X152.797 Y159.852 E20.06095
G1 X149.638 Y162.537 E20.31901
G1 X146.343 Y165.053 E20.57707
G1 X142.921 Y167.393 E20.83513
G1 X139.381 Y169.550 E21.09318
G1 X135.733 Y171.520 E21.35125
G1 X131.988 Y173.296 E21.60931
G1 X128.154 Y174.873 E21.86736
G1 X124.243 Y176.248 E22.12543
G1 X120.265 Y177.416 E22.38350
G1 X116.232 Y178.374 E22.64155
G1 X112.154 Y179.120 E22.89962
G1 X111.430 Y179.216 E22.94507
G1 X108.042 Y179.652 E23.15767
G1 X103.914 Y179.967 E23.41543
G1 X99.760 Y180.066 E23.67404
G1 X95.720 Y179.948 E23.92563
G1 X91.588 Y179.613 E24.18369
G1 X87.479 Y179.062 E24.44176
G1 X83.405 Y178.297 E24.69981
G1 X79.376 Y177.320 E24.95788
G1 X75.404 Y176.133 E25.21594
G1 X71.500 Y174.740 E25.47399
G1 X67.673 Y173.145 E25.73206
G1 X63.936 Y171.351 E25.99013
G1 X60.297 Y169.365 E26.24817
G1 X57.701 Y167.774 E26.43768
G1 X56.767 Y167.190 E26.50625
G1 X53.356 Y164.834 E26.76430
G1 X50.074 Y162.303 E27.02235
G1 X46.927 Y159.603 E27.28043
G1 X43.927 Y156.742 E27.53848
G1 X41.080 Y153.729 E27.79655
G1 X38.395 Y150.570 E28.05460
G1 X36.542 Y148.155 E28.24411
G1 X35.879 Y147.275 E28.31267
G1 X33.539 Y143.853 E28.57073
G1 X31.382 Y140.313 E28.82879
G1 X29.929 Y137.638 E29.01829
G1 X29.412 Y136.666 E29.08685
G1 X27.636 Y132.919 E29.34492
G1 X26.059 Y129.086 E29.60297
G1 X25.042 Y126.216 E29.79247
G1 X24.684 Y125.175 E29.86103
G1 X23.516 Y121.197 E30.11911
G1 X22.558 Y117.164 E30.37715
G1 X21.812 Y113.086 E30.63522
G1 X21.280 Y108.974 E30.89329
G1 X20.965 Y104.841 E31.15134
G1 X20.866 Y100.696 E31.40940
G1 X20.984 Y96.552 E31.66746
G1 X21.319 Y92.420 E31.92552
G1 X21.816 Y88.645 E32.16255
G1 X27.477 Y47.151 E34.76945
G1 X28.169 Y44.921 E34.91478
G1 X37.132 Y27.109 E36.15602
G1 X37.648 Y27.302 F7800.000
G1 X39.012 Y25.475 E36.29794 F1800.000
G1 X41.937 Y23.886 E36.50514
G1 X55.987 Y20.439 E37.40570
G1 X57.547 Y20.250 E37.50351
G1 X142.453 Y20.250 E42.78883
G1 X144.013 Y20.439 E42.88664
G1 X158.063 Y23.886 E43.78720 F1800.000
G1 X160.149 Y24.806 E43.92912
G1 X162.352 Y27.302 E44.13632
G1 X171.342 Y45.167 E45.38130
G1 X171.980 Y47.225 E45.51542
G1 X177.646 Y88.750 E48.12424
G1 X178.174 Y92.833 E48.38051
G1 X178.488 Y96.938 E48.63679
G1 X178.587 Y101.053 E48.89307
G1 X178.568 Y101.783 E48.93852
G1 X178.471 Y105.169 E49.14934
G1 X178.139 Y109.272 E49.40563
G1 X177.592 Y113.353 E49.66191
G1 X177.459 Y114.071 E49.70736
G1 X176.833 Y117.399 E49.91817
G1 X175.863 Y121.400 E50.17446
G1 X174.686 Y125.345 E50.43074
G1 X174.442 Y126.034 E50.47619
G1 X173.303 Y129.223 E50.68702
G1 X171.719 Y133.023 E50.94329
G1 X169.939 Y136.735 E51.19957
G1 X169.590 Y137.377 E51.24503
G1 X167.966 Y140.349 E51.45585
G1 X165.807 Y143.855 E51.71213
G1 X163.468 Y147.242 E51.96840
G1 X163.024 Y147.822 E52.01386
G1 X160.955 Y150.503 E52.22468
G1 X158.274 Y153.628 E52.48097
G1 X155.434 Y156.608 E52.73723
G1 X154.904 Y157.111 E52.78268
G1 X152.441 Y159.436 E52.99352
G1 X149.305 Y162.102 E53.24979
G1 X146.033 Y164.602 E53.50607
G1 X142.635 Y166.926 E53.76235
G1 X139.120 Y169.069 E54.01863
G1 X135.498 Y171.026 E54.27490
G1 X131.778 Y172.790 E54.53118
G1 X127.971 Y174.358 E54.78746
G1 X124.087 Y175.723 E55.04374
G1 X120.137 Y176.884 E55.30003
G1 X116.132 Y177.836 E55.55629
G1 X112.082 Y178.578 E55.81258
G1 X111.358 Y178.673 E55.85803
G1 X107.999 Y179.106 E56.06885
G1 X103.899 Y179.420 E56.32485
G1 X99.775 Y179.519 E56.58163
G1 X95.763 Y179.403 E56.83146
G1 X91.660 Y179.071 E57.08774
G1 X87.579 Y178.524 E57.34403
G1 X83.533 Y177.765 E57.60029
G1 X79.532 Y176.795 E57.85658
G1 X75.587 Y175.618 E58.11286
G1 X71.709 Y174.235 E58.36913
G1 X67.909 Y172.651 E58.62541
G1 X64.197 Y170.870 E58.88169
G1 X60.583 Y168.898 E59.13796
G1 X57.987 Y167.308 E59.32747
G1 X57.077 Y166.739 E59.39425
G1 X53.690 Y164.400 E59.65052
G1 X50.429 Y161.887 E59.90679
G1 X47.304 Y159.206 E60.16309
G1 X44.324 Y156.366 E60.41935
G1 X41.496 Y153.373 E60.67564
G1 X38.830 Y150.237 E60.93191
G1 X36.976 Y147.822 E61.12141
G1 X36.330 Y146.965 E61.18819
G1 X34.006 Y143.567 E61.44447
G1 X31.862 Y140.052 E61.70074
G1 X30.410 Y137.377 E61.89025
G1 X29.906 Y136.430 E61.95702
G1 X28.142 Y132.710 E62.21331
G1 X26.574 Y128.903 E62.46958
G1 X25.558 Y126.034 E62.65908
G1 X25.209 Y125.019 E62.72586
G1 X24.048 Y121.069 E62.98215
G1 X23.096 Y117.064 E63.23841
G1 X22.354 Y113.014 E63.49470
G1 X21.826 Y108.931 E63.75098
G1 X21.512 Y104.826 E64.00725
G1 X21.413 Y100.711 E64.26353
G1 X21.529 Y96.595 E64.51980
G1 X21.861 Y92.492 E64.77609
G1 X22.358 Y88.719 E65.01295
G1 X28.020 Y47.225 E67.61985
G1 X28.658 Y45.167 E67.75397
G1 X37.621 Y27.355 E68.99522
G1 F1860.000 E65.99522
G92 E0
G1 X156.681 Y52.215 F7800.000
G1 E3.10000 F1860.000
G1 X147.758 Y56.706 E3.72184 F441.000
G1 X139.032 Y39.365 E4.93026
G1 X146.681 Y35.516 E5.46326
G1 X145.000 Y33.071 E5.64793
G1 X142.966 Y30.419 E5.85599
G1 X143.019 Y30.377 E5.86024
G1 X142.654 Y29.858 E5.89973
G1 X142.495 Y29.557 E5.92088
G1 X142.375 Y29.240 E5.94203
G1 X142.296 Y28.909 E5.96318
G1 X142.258 Y28.571 E5.98434
G1 X142.264 Y28.232 E6.00549
G1 X142.311 Y27.895 E6.02664
G1 X142.473 Y27.306 E6.06468
G1 X146.218 Y32.187 E6.44764
G1 X148.037 Y34.833 E6.64757
G1 X156.373 Y30.639 E7.22848
G1 X165.099 Y47.980 E8.43690
G1 X158.025 Y51.539 E8.92981
G1 X161.040 Y57.859 E9.36568
G1 X163.881 Y64.718 E9.82779
G1 X166.359 Y71.716 E10.28992
G1 X168.467 Y78.834 E10.75203
G1 X170.177 Y85.951 E11.20770
G1 X170.865 Y89.650 E11.44191
G1 X171.355 Y93.377 E11.67590
G1 X171.650 Y97.124 E11.90989
G1 X171.749 Y100.882 E12.14388
G1 X171.650 Y104.640 E12.37787
G1 X171.355 Y108.387 E12.61186
G1 X170.865 Y112.114 E12.84585
G1 X170.180 Y115.810 E13.07984
G1 X169.302 Y119.465 E13.31383
G1 X168.234 Y123.069 E13.54782
G1 X166.980 Y126.612 E13.78181
G1 X165.541 Y130.085 E14.01580
G1 X163.923 Y133.478 E14.24979
G1 X162.129 Y136.781 E14.48378
G1 X160.165 Y139.986 E14.71777
G1 X158.036 Y143.084 E14.95176
G1 X155.748 Y146.066 E15.18575
G1 X153.307 Y148.925 E15.41974
G1 X150.719 Y151.651 E15.65373
G1 X147.993 Y154.239 E15.88772
G1 X145.134 Y156.680 E16.12171
G1 X142.152 Y158.968 E16.35570
G1 X139.054 Y161.097 E16.58969
G1 X135.849 Y163.061 E16.82368
G1 X132.546 Y164.855 E17.05767
G1 X129.153 Y166.473 E17.29166
G1 X125.680 Y167.912 E17.52565
G1 X122.137 Y169.166 E17.75964
G1 X118.533 Y170.234 E17.99363
G1 X114.878 Y171.112 E18.22762
G1 X111.182 Y171.797 E18.46161
G1 X107.455 Y172.287 E18.69560
G1 X103.708 Y172.582 E18.92960
G1 X103.005 Y172.601 E18.97337
G1 X100.106 Y172.677 E19.15384
G1 X99.669 Y172.418 E19.18552
G1 X99.663 Y172.672 E19.20138
G1 X96.292 Y172.582 E19.41127
G1 X92.545 Y172.287 E19.64526
G1 X88.818 Y171.797 E19.87925
G1 X85.122 Y171.112 E20.11324
G1 X81.467 Y170.234 E20.34723
G1 X77.863 Y169.166 E20.58122
G1 X74.320 Y167.912 E20.81521
G1 X70.847 Y166.473 E21.04920
G1 X67.454 Y164.855 E21.28319
G1 X64.151 Y163.061 E21.51718
G1 X60.946 Y161.097 E21.75117
G1 X57.848 Y158.968 E21.98516
G1 X54.866 Y156.680 E22.21915
G1 X52.007 Y154.239 E22.45314
G1 X49.281 Y151.651 E22.68713
G1 X46.693 Y148.925 E22.92112
G1 X44.252 Y146.066 E23.15511
G1 X41.964 Y143.084 E23.38910
G1 X39.835 Y139.986 E23.62309
G1 X37.871 Y136.781 E23.85708
G1 X36.077 Y133.478 E24.09107
G1 X34.459 Y130.085 E24.32506
G1 X33.020 Y126.612 E24.55905
G1 X32.007 Y123.750 E24.74807
G1 X31.766 Y123.069 E24.79304
G1 X30.698 Y119.465 E25.02703
G1 X29.820 Y115.810 E25.26102
G1 X29.135 Y112.114 E25.49501
G1 X28.645 Y108.387 E25.72900
G1 X28.350 Y104.640 E25.96299
G1 X28.251 Y100.882 E26.19698
G1 X28.350 Y97.124 E26.43097
G1 X28.645 Y93.377 E26.66496
G1 X29.135 Y89.650 E26.89895
G1 X29.794 Y86.096 E27.12399
G1 X30.055 Y85.749 E27.15101
G1 X29.883 Y85.695 E27.16222
G1 X31.533 Y78.834 E27.60150
G1 X33.641 Y71.716 E28.06362
G1 X36.119 Y64.718 E28.52574
G1 X38.960 Y57.859 E28.98786
G1 X41.975 Y51.539 E29.42372
G1 X34.901 Y47.980 E29.91665
G1 X43.627 Y30.639 E31.12506
G1 X51.963 Y34.833 E31.70597
G1 X53.782 Y32.187 E31.90590
G1 X57.527 Y27.306 E32.28886
G1 X57.689 Y27.895 E32.32690
G1 X57.736 Y28.232 E32.34806
G1 X57.742 Y28.571 E32.36921
G1 X57.704 Y28.909 E32.39036
G1 X57.625 Y29.240 E32.41151
G1 X57.505 Y29.557 E32.43266
G1 X57.346 Y29.858 E32.45381
G1 X56.981 Y30.377 E32.49330
G1 X57.034 Y30.419 E32.49756
G1 X55.000 Y33.071 E32.70562
G1 X53.319 Y35.516 E32.89029
G1 X60.968 Y39.365 E33.42329
G1 X52.242 Y56.706 E34.63170
G1 X43.319 Y52.215 E35.25354
G1 X40.335 Y58.471 E35.68498
G1 X37.524 Y65.257 E36.14219
G1 X35.072 Y72.181 E36.59941
G1 X32.986 Y79.223 E37.05662
G1 X31.283 Y86.316 E37.51072
G1 X30.622 Y89.886 E37.73670
G1 X30.141 Y93.534 E37.96578
G1 X29.853 Y97.203 E38.19487
G1 X29.756 Y100.882 E38.42395
G1 X29.853 Y104.561 E38.65304
G1 X30.141 Y108.230 E38.88212
G1 X30.622 Y111.878 E39.11121
G1 X31.292 Y115.497 E39.34030
G1 X32.134 Y119.002 E39.56471
G1 X33.197 Y122.604 E39.79846
G1 X34.425 Y126.073 E40.02755
G1 X35.833 Y129.473 E40.25664
G1 X37.418 Y132.795 E40.48572
G1 X39.174 Y136.029 E40.71481
G1 X41.097 Y139.167 E40.94389
G1 X43.181 Y142.200 E41.17298
G1 X45.421 Y145.119 E41.40207
G1 X47.812 Y147.918 E41.63115
G1 X50.345 Y150.587 E41.86024
G1 X53.014 Y153.120 E42.08932
G1 X55.813 Y155.511 E42.31841
G1 X58.732 Y157.751 E42.54749
G1 X61.765 Y159.835 E42.77658
G1 X64.903 Y161.758 E43.00567
G1 X68.137 Y163.514 E43.23476
G1 X71.391 Y165.066 E43.45917
G1 X74.859 Y166.507 E43.69292
G1 X78.328 Y167.735 E43.92201
G1 X81.857 Y168.781 E44.15110
G1 X85.435 Y169.640 E44.38018
G1 X89.054 Y170.310 E44.60927
G1 X92.702 Y170.791 E44.83835
G1 X96.371 Y171.080 E45.06744
G1 X100.000 Y171.175 E45.29341
G1 X103.629 Y171.080 E45.51938
G1 X107.298 Y170.791 E45.74847
G1 X110.946 Y170.310 E45.97755
G1 X114.565 Y169.640 E46.20664
G1 X118.143 Y168.781 E46.43573
G1 X121.672 Y167.735 E46.66481
G1 X125.141 Y166.507 E46.89390
G1 X128.541 Y165.099 E47.12299
G1 X131.863 Y163.514 E47.35207
G1 X135.097 Y161.758 E47.58116
G1 X138.235 Y159.835 E47.81024
G1 X141.268 Y157.751 E48.03933
G1 X144.187 Y155.511 E48.26842
G1 X146.986 Y153.120 E48.49750
G1 X149.655 Y150.587 E48.72659
G1 X152.188 Y147.918 E48.95568
G1 X154.579 Y145.119 E49.18476
G1 X156.819 Y142.200 E49.41385
G1 X158.903 Y139.167 E49.64293
G1 X160.826 Y136.029 E49.87202
G1 X162.582 Y132.795 E50.10111
G1 X164.167 Y129.473 E50.33019
G1 X165.575 Y126.073 E50.55927
G1 X166.803 Y122.604 E50.78836
G1 X167.849 Y119.075 E51.01745
G1 X168.708 Y115.497 E51.24654
G1 X169.378 Y111.878 E51.47562
G1 X169.859 Y108.230 E51.70471
G1 X170.147 Y104.561 E51.93379
G1 X170.244 Y100.882 E52.16288
G1 X170.147 Y97.203 E52.39197
G1 X169.859 Y93.534 E52.62105
G1 X169.378 Y89.886 E52.85014
G1 X168.717 Y86.316 E53.07611
G1 X167.014 Y79.223 E53.53021
G1 X164.928 Y72.181 E53.98742
G1 X162.476 Y65.257 E54.44464
G1 X159.665 Y58.471 E54.90186
G1 X156.707 Y52.270 E55.32956
G1 X156.504 Y51.857 F7800.000
G1 F1860.000 E52.32956
G92 E0
G1 X60.233 Y39.607 F7800.000
G1 E3.10000 F1860.000
G1 X51.999 Y55.971 E4.24029 F630.000
G1 X43.065 Y51.475 E4.86286
G1 X35.636 Y47.737 E5.38058
G1 X43.870 Y31.374 E6.52088
G1 X60.179 Y39.581 E7.65743
G1 F1860.000 E4.65743
G92 E0
G1 X139.767 Y39.607 F7800.000
G1 E3.10000 F1860.000
G1 X156.130 Y31.374 E4.24029 F630.000
G1 X164.364 Y47.737 E5.38058
G1 X148.001 Y55.971 E6.52088
G1 X139.794 Y39.661 E7.65743
G1 X140.325 Y39.759 F7800.000
G1 X153.399 Y52.833 E8.80842 F1500.000
G1 X153.920 Y52.571 E8.84470
G1 X140.839 Y39.490 E9.99627
G1 X141.359 Y39.228 E10.03256
G1 X154.440 Y52.309 E11.18412
G1 X154.961 Y52.047 E11.22041
G1 X141.880 Y38.966 E12.37197
G1 X142.401 Y38.704 E12.40826
G1 X155.482 Y51.785 E13.55983
G1 X156.002 Y51.523 E13.59611
G1 X142.921 Y38.442 E14.74768
G1 X143.442 Y38.180 E14.78397
G1 X156.523 Y51.261 E15.93553
G1 X157.044 Y50.999 E15.97182
G1 X143.963 Y37.918 E17.12339
G1 X144.484 Y37.656 E17.15967
G1 X157.565 Y50.737 E18.31124
G1 X158.085 Y50.475 E18.34752
G1 X145.004 Y37.394 E19.49909
G1 X145.525 Y37.132 E19.53538
G1 X158.606 Y50.213 E20.68694
G1 X159.127 Y49.951 E20.72323
G1 X146.046 Y36.870 E21.87480
G1 X146.566 Y36.608 E21.91108
G1 X159.647 Y49.689 E23.06265
G1 X160.168 Y49.427 E23.09894
G1 X147.087 Y36.346 E24.25050
G1 X147.608 Y36.084 E24.28679
G1 X160.689 Y49.165 E25.43835
G1 X161.210 Y48.903 E25.47464
G1 X148.129 Y35.822 E26.62621
G1 X148.649 Y35.560 E26.66249
G1 X161.730 Y48.641 E27.81406
G1 X162.251 Y48.379 E27.85035
G1 X149.170 Y35.298 E29.00191
G1 X149.691 Y35.036 E29.03820
G1 X162.772 Y48.117 E30.18976
G1 X163.292 Y47.855 E30.22605
G1 X150.211 Y34.774 E31.37762
G1 X150.732 Y34.512 E31.41390
G1 X163.807 Y47.586 E32.56488
G1 X163.134 Y46.131 F7800.000
G1 X151.253 Y34.250 E33.61085 F1500.000
G1 X151.774 Y33.988 E33.64713
G1 X162.342 Y44.555 E34.57747
G1 X161.549 Y42.980 F7800.000
G1 X152.294 Y33.726 E35.39217 F1500.000
G1 X152.815 Y33.464 E35.42845
G1 X160.756 Y41.404 E36.12752
G1 X159.963 Y39.829 F7800.000
G1 X153.336 Y33.201 E36.71096 F1500.000
G1 X153.857 Y32.939 E36.74725
G1 X159.170 Y38.253 E37.21505
G1 X158.378 Y36.678 F7800.000
G1 X154.377 Y32.677 E37.56723 F1500.000
G1 X154.898 Y32.415 E37.60351
G1 X157.585 Y35.102 E37.84005
G1 X156.792 Y33.527 F7800.000
G1 X155.419 Y32.153 E37.96096 F1500.000
G1 X155.999 Y31.951 E37.99924
G1 X155.939 Y31.891 E38.00452
G1 X140.997 Y41.214 F7800.000
G1 X152.878 Y53.095 E39.05048 F1500.000
G1 X152.357 Y53.357 E39.08676
G1 X141.790 Y42.789 E40.01710
G1 X142.582 Y44.365 F7800.000
G1 X151.837 Y53.619 E40.83179 F1500.000
G1 X151.316 Y53.881 E40.86808
G1 X143.375 Y45.940 E41.56715
G1 X144.168 Y47.516 F7800.000
G1 X150.795 Y54.143 E42.15058 F1500.000
G1 X150.275 Y54.405 E42.18687
G1 X144.961 Y49.091 E42.65468
G1 X145.753 Y50.667 F7800.000
G1 X149.754 Y54.667 E43.00685 F1500.000
G1 X149.233 Y54.929 E43.04314
G1 X146.546 Y52.242 E43.27968
G1 X147.339 Y53.818 F7800.000
G1 X148.712 Y55.191 E43.40059 F1500.000
G1 X148.192 Y55.453 E43.43687
G1 X148.132 Y55.393 E43.44215
G1 X147.515 Y35.402 F7800.000
G1 X145.609 Y32.629 E43.75535 F600.000
G1 X143.863 Y30.354 E44.02224
G1 X143.759 Y30.171 E44.04184
G1 X143.257 Y29.488 E44.12069
G1 X142.995 Y29.049 E44.16830
G1 X142.737 Y28.452 E44.22885
G1 X157.236 Y51.630 F7800.000
G1 X160.352 Y58.165 E44.90264 F600.000
G1 X163.174 Y64.976 E45.58870
G1 X165.643 Y71.948 E46.27710
G1 X167.741 Y79.028 E46.96434
G1 X169.438 Y86.099 E47.64103
G1 X170.121 Y89.768 E47.98837
G1 X170.607 Y93.456 E48.33456
G1 X170.899 Y97.164 E48.68072
G1 X170.996 Y100.882 E49.02689
G1 X170.978 Y101.585 E49.09229
