; generated by Slic3r 1.1.7 on 2015-01-19 at 18:04:59

; perimeters extrusion width = 0.40mm
; infill extrusion width = 0.44mm
; solid infill extrusion width = 0.44mm
; top infill extrusion width = 0.44mm

G21 ; set units to millimeters
M190 S60 ; wait for bed temperature to be reached
M104 S215 ; set temperature
G28 ; home all axes Start of G Code Slic3r
 
M109 S215 ; wait for temperature to be reached
G90 ; use absolute coordinates
G92 E0
M82 ; use absolute distances for extrusion
G1 F1860.000 E-3.00000
G92 E0
G1 Z0.294 F7800.000
G1 X20.764 Y30.332 F7800.000
G1 E3.10000 F1860.000
G1 X22.017 Y29.474 E3.19452 F1800.000
G1 X23.299 Y29.026 E3.27902
G1 X37.990 Y25.453 E4.22018
G1 X106.413 Y15.218 E8.52683
G1 X110.466 Y14.694 E8.78127
G1 X114.595 Y14.379 E9.03901
G1 X118.748 Y14.280 E9.29761
G1 X122.786 Y14.398 E9.54908
G1 X126.917 Y14.733 E9.80709 F1800.000
G1 X130.602 Y15.218 E10.03846
G1 X135.099 Y16.049 E10.32308
G1 X139.127 Y17.025 E10.58110
G1 X143.098 Y18.212 E10.83910
G1 X147.002 Y19.605 E11.09710
G1 X150.827 Y21.200 E11.35510
G1 X154.564 Y22.993 E11.61311
G1 X158.201 Y24.979 E11.87110
G1 X161.730 Y27.153 E12.12911
G1 X165.141 Y29.509 E12.38711
G1 X168.423 Y32.039 E12.64511
G1 X171.568 Y34.739 E12.90312
G1 X174.265 Y37.297 E13.13452
G1 X177.414 Y40.612 E13.41912
G1 X180.098 Y43.770 E13.67711
G1 X182.361 Y46.719 E13.90851
G1 X184.953 Y50.485 E14.19312
G1 X187.110 Y54.024 E14.45111
G1 X188.884 Y57.290 E14.68248
G1 X190.855 Y61.416 E14.96713
G1 X192.432 Y65.249 E15.22511
G1 X193.673 Y68.753 E15.45649
G1 X194.974 Y73.136 E15.74113
G1 X195.932 Y77.168 E15.99912
G1 X196.610 Y80.823 E16.23048
G1 X197.210 Y85.356 E16.51513
G1 X197.525 Y89.488 E16.77312
G1 X197.624 Y93.632 E17.03113
G1 X197.506 Y97.775 E17.28912
G1 X197.171 Y101.906 E17.54713
G1 X196.674 Y105.677 E17.78391
G1 X191.030 Y147.174 E20.39083
G1 X190.338 Y149.407 E20.53635
G1 X181.348 Y167.273 E21.78133
G1 X179.941 Y169.185 E21.92910
G1 X177.983 Y170.526 E22.07688
G1 X176.692 Y170.976 E22.16194
G1 X162.004 Y174.530 E23.10264
G1 X93.646 Y184.792 E27.40555
G1 X89.535 Y185.324 E27.66360
G1 X85.406 Y185.639 E27.92136
G1 X81.253 Y185.737 E28.17997
G1 X77.213 Y185.620 E28.43156
G1 X73.081 Y185.285 E28.68962
G1 X68.972 Y184.734 E28.94769
G1 X64.898 Y183.969 E29.20574
G1 X60.869 Y182.992 E29.46381
G1 X56.897 Y181.805 E29.72187
G1 X52.992 Y180.412 E29.97993
G1 X49.166 Y178.817 E30.23799
G1 X45.428 Y177.023 E30.49606
G1 X41.790 Y175.036 E30.75411
G1 X38.260 Y172.862 E31.01218
G1 X34.849 Y170.506 E31.27023
G1 X31.566 Y167.975 E31.52828
G1 X28.420 Y165.275 E31.78636
G1 X25.420 Y162.414 E32.04441
G1 X22.573 Y159.400 E32.30248
G1 X19.888 Y156.242 E32.56053
G1 X17.372 Y152.947 E32.81860
G1 X15.648 Y150.438 E33.00809
G1 X15.032 Y149.525 E33.07666
G1 X12.874 Y145.985 E33.33472
G1 X10.905 Y142.337 E33.59278
G1 X9.129 Y138.591 E33.85085
G1 X7.551 Y134.757 E34.10890
G1 X6.176 Y130.846 E34.36696
G1 X5.008 Y126.869 E34.62503
G1 X4.298 Y123.908 E34.81453
G1 X4.050 Y122.835 E34.88308
G1 X3.304 Y118.757 E35.14115
G1 X2.773 Y114.646 E35.39921
G1 X2.457 Y110.512 E35.65727
G1 X2.358 Y106.368 E35.91533
G1 X2.477 Y102.224 E36.17338
G1 X2.811 Y98.092 E36.43145
G1 X3.309 Y94.317 E36.66848
G1 X8.970 Y52.823 E39.27537
G1 X9.662 Y50.593 E39.42071
G1 X18.652 Y32.727 E40.66569
G1 X20.059 Y30.815 E40.81346
G1 X20.715 Y30.366 E40.86298
G1 X21.047 Y30.852 F7800.000
G1 X23.429 Y29.558 E41.03175 F1800.000
G1 X38.071 Y25.994 E41.96977
G1 X106.484 Y15.761 E46.27582
G1 X110.509 Y15.240 E46.52849
G1 X114.610 Y14.926 E46.78446
G1 X118.733 Y14.827 E47.04123
G1 X122.743 Y14.944 E47.29095
G1 X126.846 Y15.275 E47.54717 F1800.000
G1 X130.531 Y15.761 E47.77854
G1 X134.971 Y16.581 E48.05960
G1 X138.971 Y17.550 E48.31583
G1 X142.915 Y18.728 E48.57205
G1 X146.792 Y20.110 E48.82827
G1 X150.591 Y21.694 E49.08449
G1 X154.303 Y23.474 E49.34072
G1 X157.916 Y25.446 E49.59692
G1 X161.420 Y27.604 E49.85315
G1 X164.807 Y29.943 E50.10937
G1 X168.067 Y32.455 E50.36558
G1 X171.192 Y35.135 E50.62181
G1 X173.888 Y37.694 E50.85320
G1 X176.998 Y40.967 E51.13425
G1 X179.664 Y44.103 E51.39046
G1 X181.927 Y47.052 E51.62185
G1 X184.487 Y50.771 E51.90290
G1 X186.629 Y54.285 E52.15911
G1 X188.403 Y57.551 E52.39047
G1 X190.350 Y61.626 E52.67156
G1 X191.916 Y65.432 E52.92776
G1 X193.157 Y68.935 E53.15913
G1 X194.442 Y73.264 E53.44021
G1 X195.394 Y77.268 E53.69641
G1 X196.072 Y80.922 E53.92778
G1 X196.664 Y85.399 E54.20886
G1 X196.978 Y89.503 E54.46507
G1 X197.077 Y93.618 E54.72130
G1 X196.960 Y97.732 E54.97751
G1 X196.628 Y101.835 E55.23373
G1 X196.132 Y105.604 E55.47037
G1 X190.488 Y147.100 E58.07729
G1 X189.849 Y149.161 E58.21158
G1 X180.859 Y167.027 E59.45656
G1 X179.496 Y168.854 E59.59848
G1 X176.563 Y170.444 E59.80618
G1 X161.923 Y173.989 E60.74382
G1 X93.575 Y184.250 E65.04610
G1 X89.492 Y184.778 E65.30238
G1 X85.392 Y185.092 E65.55837
G1 X81.268 Y185.190 E65.81516
G1 X77.256 Y185.074 E66.06498
G1 X73.152 Y184.742 E66.32127
G1 X69.072 Y184.196 E66.57755
G1 X65.025 Y183.437 E66.83382
G1 X61.024 Y182.467 E67.09011
G1 X57.079 Y181.289 E67.34638
G1 X53.202 Y179.906 E67.60265
G1 X49.401 Y178.323 E67.85893
G1 X45.689 Y176.542 E68.11522
G1 X42.076 Y174.570 E68.37149
G1 X38.570 Y172.411 E68.62777
G1 X35.182 Y170.072 E68.88405
G1 X31.921 Y167.558 E69.14032
G1 X28.796 Y164.878 E69.39661
G1 X25.816 Y162.037 E69.65288
G1 X22.989 Y159.045 E69.90917
G1 X20.322 Y155.909 E70.16543
G1 X17.823 Y152.637 E70.42172
G1 X16.099 Y150.128 E70.61121
G1 X15.498 Y149.239 E70.67800
G1 X13.355 Y145.724 E70.93427
G1 X11.398 Y142.102 E71.19054
G1 X9.634 Y138.382 E71.44683
G1 X8.067 Y134.575 E71.70310
G1 X6.701 Y130.691 E71.95938
G1 X5.540 Y126.741 E72.21567
G1 X4.830 Y123.781 E72.40517
G1 X4.588 Y122.736 E72.47193
G1 X3.847 Y118.686 E72.72822
G1 X3.318 Y114.603 E72.98450
G1 X3.004 Y110.498 E73.24077
G1 X2.905 Y106.382 E73.49706
G1 X3.022 Y102.267 E73.75333
G1 X3.354 Y98.163 E74.00961
G1 X3.851 Y94.391 E74.24647
G1 X9.512 Y52.897 E76.85337
G1 X10.151 Y50.839 E76.98749
G1 X19.141 Y32.973 E78.23247
G1 X20.504 Y31.146 E78.37439
G1 X20.994 Y30.880 E78.40909
G1 F1860.000 E75.40909
G92 E0
G1 X138.174 Y57.887 F7800.000
G1 E3.10000 F1860.000
G1 X129.250 Y62.377 E3.72184 F441.000
G1 X120.525 Y45.036 E4.93026
G1 X128.173 Y41.187 E5.46326
G1 X126.493 Y38.743 E5.64793
G1 X124.458 Y36.091 E5.85599
G1 X124.512 Y36.048 E5.86024
G1 X124.147 Y35.529 E5.89973
G1 X123.988 Y35.229 E5.92088
G1 X123.868 Y34.911 E5.94203
G1 X123.788 Y34.581 E5.96318
G1 X123.751 Y34.243 E5.98434
G1 X123.756 Y33.903 E6.00549
G1 X123.804 Y33.567 E6.02664
G1 X123.965 Y32.977 E6.06468
G1 X127.710 Y37.858 E6.44764
G1 X129.530 Y40.505 E6.64757
G1 X137.866 Y36.311 E7.22848
G1 X146.591 Y53.651 E8.43690
G1 X139.518 Y57.211 E8.92981
G1 X142.532 Y63.531 E9.36568
G1 X145.373 Y70.389 E9.82779
G1 X147.851 Y77.387 E10.28992
G1 X149.960 Y84.505 E10.75203
G1 X151.669 Y91.623 E11.20770
G1 X152.357 Y95.322 E11.44191
G1 X152.848 Y99.049 E11.67590
G1 X153.143 Y102.796 E11.90989
G1 X153.241 Y106.554 E12.14388
G1 X153.143 Y110.311 E12.37787
G1 X152.848 Y114.059 E12.61186
G1 X152.357 Y117.785 E12.84585
G1 X151.672 Y121.481 E13.07984
G1 X150.795 Y125.136 E13.31383
G1 X149.727 Y128.741 E13.54782
G1 X148.472 Y132.284 E13.78181
G1 X147.034 Y135.757 E14.01580
G1 X145.415 Y139.150 E14.24979
G1 X143.622 Y142.453 E14.48378
G1 X141.658 Y145.658 E14.71777
G1 X139.529 Y148.756 E14.95176
G1 X137.240 Y151.738 E15.18575
G1 X134.799 Y154.596 E15.41974
G1 X132.212 Y157.323 E15.65373
G1 X129.485 Y159.910 E15.88772
G1 X126.627 Y162.352 E16.12171
G1 X123.645 Y164.640 E16.35570
G1 X120.547 Y166.769 E16.58969
G1 X117.342 Y168.733 E16.82368
G1 X114.038 Y170.527 E17.05767
G1 X110.646 Y172.145 E17.29166
G1 X107.173 Y173.583 E17.52565
G1 X103.630 Y174.838 E17.75964
G1 X100.025 Y175.906 E17.99363
G1 X96.370 Y176.783 E18.22762
G1 X92.674 Y177.468 E18.46161
G1 X88.948 Y177.959 E18.69560
G1 X85.200 Y178.254 E18.92960
G1 X84.497 Y178.273 E18.97337
G1 X81.599 Y178.348 E19.15384
G1 X81.161 Y178.089 E19.18552
G1 X81.156 Y178.344 E19.20138
G1 X77.785 Y178.254 E19.41127
G1 X74.038 Y177.959 E19.64526
G1 X70.311 Y177.468 E19.87925
G1 X66.615 Y176.783 E20.11324
G1 X62.960 Y175.906 E20.34723
G1 X59.356 Y174.838 E20.58122
G1 X55.812 Y173.583 E20.81521
G1 X52.339 Y172.145 E21.04920
G1 X48.947 Y170.527 E21.28319
G1 X45.643 Y168.733 E21.51718
G1 X42.438 Y166.769 E21.75117
G1 X39.340 Y164.640 E21.98516
G1 X36.358 Y162.352 E22.21915
G1 X33.500 Y159.910 E22.45314
G1 X30.773 Y157.323 E22.68713
G1 X28.186 Y154.596 E22.92112
G1 X25.745 Y151.738 E23.15511
G1 X23.456 Y148.756 E23.38910
G1 X21.327 Y145.658 E23.62309
G1 X19.363 Y142.453 E23.85708
G1 X17.570 Y139.150 E24.09107
G1 X15.951 Y135.757 E24.32506
G1 X14.513 Y132.284 E24.55905
G1 X13.499 Y129.422 E24.74807
G1 X13.258 Y128.741 E24.79304
G1 X12.190 Y125.136 E25.02703
G1 X11.313 Y121.481 E25.26102
G1 X10.628 Y117.785 E25.49501
G1 X10.137 Y114.059 E25.72900
G1 X9.842 Y110.311 E25.96299
G1 X9.744 Y106.554 E26.19698
G1 X9.842 Y102.796 E26.43097
G1 X10.137 Y99.049 E26.66496
G1 X10.628 Y95.322 E26.89895
G1 X11.287 Y91.767 E27.12399
G1 X11.547 Y91.420 E27.15101
G1 X11.375 Y91.366 E27.16222
G1 X13.025 Y84.505 E27.60150
G1 X15.134 Y77.387 E28.06362
G1 X17.612 Y70.389 E28.52574
G1 X20.453 Y63.531 E28.98786
G1 X23.467 Y57.211 E29.42372
G1 X16.394 Y53.651 E29.91665
G1 X25.119 Y36.311 E31.12506
G1 X33.456 Y40.505 E31.70597
G1 X35.275 Y37.858 E31.90590
G1 X39.020 Y32.977 E32.28886
G1 X39.181 Y33.567 E32.32690
G1 X39.229 Y33.903 E32.34806
G1 X39.234 Y34.243 E32.36921
G1 X39.197 Y34.581 E32.39036
G1 X39.117 Y34.911 E32.41151
G1 X38.997 Y35.229 E32.43266
G1 X38.838 Y35.529 E32.45381
G1 X38.473 Y36.048 E32.49330
G1 X38.527 Y36.091 E32.49756
G1 X36.492 Y38.743 E32.70562
G1 X34.812 Y41.187 E32.89029
G1 X42.460 Y45.036 E33.42329
G1 X33.735 Y62.377 E34.63170
G1 X24.811 Y57.887 E35.25354
G1 X21.827 Y64.143 E35.68498
G1 X19.017 Y70.928 E36.14219
G1 X16.565 Y77.852 E36.59941
G1 X14.479 Y84.895 E37.05662
G1 X12.776 Y91.988 E37.51072
G1 X12.114 Y95.557 E37.73670
G1 X11.634 Y99.206 E37.96578
G1 X11.345 Y102.875 E38.19487
G1 X11.249 Y106.554 E38.42395
G1 X11.345 Y110.233 E38.65304
G1 X11.634 Y113.901 E38.88212
G1 X12.114 Y117.550 E39.11121
G1 X12.785 Y121.169 E39.34030
G1 X13.626 Y124.674 E39.56471
G1 X14.689 Y128.276 E39.79846
G1 X15.918 Y131.745 E40.02755
G1 X17.326 Y135.145 E40.25664
G1 X18.910 Y138.466 E40.48572
G1 X20.666 Y141.701 E40.71481
G1 X22.589 Y144.838 E40.94389
G1 X24.674 Y147.871 E41.17298
G1 X26.914 Y150.791 E41.40207
G1 X29.304 Y153.589 E41.63115
G1 X31.837 Y156.259 E41.86024
G1 X34.507 Y158.792 E42.08932
G1 X37.305 Y161.182 E42.31841
G1 X40.225 Y163.423 E42.54749
G1 X43.258 Y165.507 E42.77658
G1 X46.396 Y167.430 E43.00567
G1 X49.630 Y169.186 E43.23476
G1 X52.884 Y170.738 E43.45917
G1 X56.351 Y172.179 E43.69292
G1 X59.821 Y173.407 E43.92201
G1 X63.349 Y174.452 E44.15110
G1 X66.928 Y175.311 E44.38018
G1 X70.546 Y175.982 E44.60927
G1 X74.195 Y176.462 E44.83835
G1 X77.864 Y176.751 E45.06744
G1 X81.493 Y176.846 E45.29341
G1 X85.121 Y176.751 E45.51938
G1 X88.790 Y176.462 E45.74847
G1 X92.439 Y175.982 E45.97755
G1 X96.057 Y175.311 E46.20664
G1 X99.636 Y174.452 E46.43573
G1 X103.165 Y173.407 E46.66481
G1 X106.634 Y172.179 E46.89390
G1 X110.034 Y170.770 E47.12299
G1 X113.355 Y169.186 E47.35207
G1 X116.589 Y167.430 E47.58116
G1 X119.727 Y165.507 E47.81024
G1 X122.760 Y163.423 E48.03933
G1 X125.680 Y161.182 E48.26842
G1 X128.478 Y158.792 E48.49750
G1 X131.148 Y156.259 E48.72659
G1 X133.681 Y153.589 E48.95568
G1 X136.071 Y150.791 E49.18476
G1 X138.311 Y147.871 E49.41385
G1 X140.396 Y144.838 E49.64293
G1 X142.319 Y141.701 E49.87202
G1 X144.075 Y138.466 E50.10111
G1 X145.659 Y135.145 E50.33019
G1 X147.067 Y131.745 E50.55927
G1 X148.296 Y128.276 E50.78836
G1 X149.341 Y124.747 E51.01745
G1 X150.200 Y121.169 E51.24654
G1 X150.871 Y117.550 E51.47562
G1 X151.351 Y113.901 E51.70471
G1 X151.640 Y110.233 E51.93379
G1 X151.736 Y106.554 E52.16288
G1 X151.640 Y102.875 E52.39197
G1 X151.351 Y99.206 E52.62105
G1 X150.871 Y95.557 E52.85014
G1 X150.209 Y91.988 E53.07611
G1 X148.506 Y84.895 E53.53021
G1 X146.420 Y77.852 E53.98742
G1 X143.969 Y70.928 E54.44464
G1 X141.158 Y64.143 E54.90186
G1 X138.200 Y57.941 E55.32956
G1 X137.997 Y57.528 F7800.000
G1 F1860.000 E52.32956
G92 E0
G1 X41.726 Y45.279 F7800.000
G1 E3.10000 F1860.000
G1 X33.492 Y61.643 E4.24029 F630.000
G1 X24.558 Y57.147 E4.86286
G1 X17.128 Y53.409 E5.38058
G1 X25.362 Y37.045 E6.52088
G1 X41.672 Y45.252 E7.65743
G1 F1860.000 E4.65743
G92 E0
G1 X121.259 Y45.279 F7800.000
G1 E3.10000 F1860.000
G1 X137.623 Y37.045 E4.24029 F630.000
G1 X145.857 Y53.409 E5.38058
G1 X129.493 Y61.643 E6.52088
G1 X121.286 Y45.333 E7.65743
G1 X121.817 Y45.430 F7800.000
G1 X134.891 Y58.505 E8.80842 F1500.000
G1 X135.412 Y58.243 E8.84470
G1 X122.331 Y45.162 E9.99627
G1 X122.852 Y44.900 E10.03256
G1 X135.933 Y57.981 E11.18412
G1 X136.454 Y57.719 E11.22041
G1 X123.373 Y44.638 E12.37197
G1 X123.893 Y44.375 E12.40826
G1 X136.974 Y57.457 E13.55983
G1 X137.495 Y57.194 E13.59611
G1 X124.414 Y44.113 E14.74768
G1 X124.935 Y43.851 E14.78397
G1 X138.016 Y56.932 E15.93553
G1 X138.536 Y56.670 E15.97182
G1 X125.455 Y43.589 E17.12339
G1 X125.976 Y43.327 E17.15967
G1 X139.057 Y56.408 E18.31124
G1 X139.578 Y56.146 E18.34752
G1 X126.497 Y43.065 E19.49909
G1 X127.018 Y42.803 E19.53538
G1 X140.099 Y55.884 E20.68694
G1 X140.619 Y55.622 E20.72323
G1 X127.538 Y42.541 E21.87480
G1 X128.059 Y42.279 E21.91108
G1 X141.140 Y55.360 E23.06265
G1 X141.661 Y55.098 E23.09894
G1 X128.580 Y42.017 E24.25050
G1 X129.100 Y41.755 E24.28679
G1 X142.181 Y54.836 E25.43835
G1 X142.702 Y54.574 E25.47464
G1 X129.621 Y41.493 E26.62621
G1 X130.142 Y41.231 E26.66249
G1 X143.223 Y54.312 E27.81406
G1 X143.744 Y54.050 E27.85035
G1 X130.663 Y40.969 E29.00191
G1 X131.183 Y40.707 E29.03820
G1 X144.264 Y53.788 E30.18976
G1 X144.785 Y53.526 E30.22605
G1 X131.704 Y40.445 E31.37762
G1 X132.225 Y40.183 E31.41390
G1 X145.299 Y53.258 E32.56488
G1 X144.627 Y51.803 F7800.000
G1 X132.745 Y39.921 E33.61085 F1500.000
G1 X133.266 Y39.659 E33.64713
G1 X143.834 Y50.227 E34.57747
G1 X143.041 Y48.652 F7800.000
G1 X133.787 Y39.397 E35.39217 F1500.000
G1 X134.308 Y39.135 E35.42845
G1 X142.249 Y47.076 E36.12752
G1 X141.456 Y45.501 F7800.000
G1 X134.828 Y38.873 E36.71096 F1500.000
G1 X135.349 Y38.611 E36.74725
G1 X140.663 Y43.925 E37.21505
G1 X139.870 Y42.350 F7800.000
G1 X135.870 Y38.349 E37.56723 F1500.000
G1 X136.390 Y38.087 E37.60351
G1 X139.077 Y40.774 E37.84005
G1 X138.285 Y39.199 F7800.000
G1 X136.911 Y37.825 E37.96096 F1500.000
G1 X137.492 Y37.623 E37.99924
G1 X137.432 Y37.563 E38.00452
G1 X122.489 Y46.885 F7800.000
G1 X134.371 Y58.767 E39.05048 F1500.000
G1 X133.850 Y59.029 E39.08676
G1 X123.282 Y48.461 E40.01710
G1 X124.075 Y50.036 F7800.000
G1 X133.329 Y59.291 E40.83179 F1500.000
G1 X132.809 Y59.553 E40.86808
G1 X124.868 Y51.612 E41.56715
G1 X125.660 Y53.187 F7800.000
G1 X132.288 Y59.815 E42.15058 F1500.000
G1 X131.767 Y60.077 E42.18687
G1 X126.453 Y54.763 E42.65468
G1 X127.246 Y56.338 F7800.000
G1 X131.246 Y60.339 E43.00685 F1500.000
G1 X130.726 Y60.601 E43.04314
G1 X128.039 Y57.914 E43.27968
G1 X128.832 Y59.489 F7800.000
G1 X130.205 Y60.863 E43.40059 F1500.000
G1 X129.684 Y61.125 E43.43687
G1 X129.624 Y61.065 E43.44215
G1 X129.008 Y41.074 F7800.000
G1 X127.102 Y38.300 E43.75535 F600.000
G1 X125.356 Y36.025 E44.02224
G1 X125.252 Y35.842 E44.04184
G1 X124.750 Y35.160 E44.12069
G1 X124.487 Y34.721 E44.16830
G1 X124.229 Y34.123 E44.22885
G1 X138.728 Y57.302 F7800.000
G1 X141.845 Y63.837 E44.90264 F600.000
G1 X144.666 Y70.647 E45.58870
G1 X147.136 Y77.620 E46.27710
G1 X149.233 Y84.700 E46.96434
G1 X150.931 Y91.770 E47.64103
G1 X151.614 Y95.439 E47.98837
G1 X152.099 Y99.127 E48.33456
G1 X152.391 Y102.835 E48.68072
G1 X152.489 Y106.554 E49.02689
G1 X152.470 Y107.256 E49.09229
G1 X152.391 Y110.272 E49.37305
G1 X152.100 Y113.968 E49.71805
G1 X151.614 Y117.668 E50.06537
G1 X150.933 Y121.337 E50.41270
G1 X150.068 Y124.942 E50.75770
G1 X149.015 Y128.496 E51.10269
G1 X147.770 Y132.014 E51.45003
G1 X146.341 Y135.462 E51.79735
G1 X144.745 Y138.808 E52.14235
