; generated by Slic3r 1.1.7 on 2015-01-18 at 22:28:12

; perimeters extrusion width = 0.40mm
; infill extrusion width = 0.44mm
; solid infill extrusion width = 0.44mm
; top infill extrusion width = 0.44mm

G21 ; set units to millimeters
M190 S60 ; wait for bed temperature to be reached
M104 S215 ; set temperature
G28 ; home all axes Start of G Code Slic3r
 
M109 S215 ; wait for temperature to be reached
G90 ; use absolute coordinates
G92 E0
M82 ; use absolute distances for extrusion
G1 F1860.000 E-3.00000
G92 E0
G1 Z0.294 F7800.000
G1 X23.466 Y38.019 F7800.000
G1 E3.10000 F1860.000
G1 X89.160 Y10.798 E7.52651 F1800.000
G1 X93.071 Y9.424 E7.78458
G1 X97.049 Y8.255 E8.04265
G1 X101.082 Y7.297 E8.30070
G1 X105.160 Y6.551 E8.55876
G1 X105.884 Y6.456 E8.60422
G1 X109.271 Y6.020 E8.81682
G1 X113.400 Y5.704 E9.07457
G1 X117.553 Y5.606 E9.33319
G1 X121.593 Y5.724 E9.58478
G1 X125.725 Y6.059 E9.84284 F1800.000
G1 X129.834 Y6.609 E10.10091
G1 X133.908 Y7.374 E10.35896
G1 X137.937 Y8.352 E10.61703
G1 X141.909 Y9.538 E10.87509
G1 X145.814 Y10.931 E11.13314
G1 X149.640 Y12.527 E11.39121
G1 X153.378 Y14.320 E11.64928
G1 X157.016 Y16.307 E11.90732
G1 X160.546 Y18.481 E12.16539
G1 X163.957 Y20.837 E12.42345
G1 X167.240 Y23.369 E12.68150
G1 X170.386 Y26.069 E12.93958
G1 X173.386 Y28.929 E13.19762
G1 X176.233 Y31.943 E13.45570
G1 X178.918 Y35.102 E13.71375
G1 X181.434 Y38.397 E13.97181
G1 X183.774 Y41.819 E14.22988
G1 X185.932 Y45.358 E14.48793
G1 X187.901 Y49.006 E14.74599
G1 X189.677 Y52.752 E15.00406
G1 X191.255 Y56.586 E15.26211
G1 X192.630 Y60.497 E15.52017
G1 X193.798 Y64.475 E15.77825
G1 X194.756 Y68.508 E16.03629
G1 X195.502 Y72.586 E16.29436
G1 X196.033 Y76.697 E16.55243
G1 X196.349 Y80.831 E16.81048
G1 X196.448 Y84.975 E17.06854
G1 X196.329 Y89.119 E17.32660
G1 X196.091 Y92.154 E17.51610
G1 X195.995 Y93.251 E17.58466
G1 X195.497 Y97.026 E17.82169
G1 X189.836 Y138.521 E20.42859
G1 X189.144 Y140.750 E20.57392
G1 X180.154 Y158.616 E21.81890
G1 X178.747 Y160.528 E21.96667
G1 X176.534 Y161.981 E22.13149
G1 X110.840 Y189.202 E26.55801
G1 X106.929 Y190.576 E26.81607
G1 X102.951 Y191.745 E27.07414
G1 X102.241 Y191.915 E27.11959
G1 X98.918 Y192.703 E27.33219
G1 X94.840 Y193.449 E27.59026
G1 X90.729 Y193.980 E27.84831
G1 X90.001 Y194.038 E27.89377
G1 X86.600 Y194.296 E28.10607
G1 X82.447 Y194.394 E28.36468
G1 X78.407 Y194.276 E28.61627
G1 X74.275 Y193.941 E28.87433
G1 X70.166 Y193.391 E29.13240
G1 X66.092 Y192.626 E29.39045
G1 X62.063 Y191.648 E29.64852
G1 X58.091 Y190.462 E29.90658
G1 X54.186 Y189.069 E30.16464
G1 X50.360 Y187.473 E30.42270
G1 X46.622 Y185.680 E30.68077
G1 X42.984 Y183.693 E30.93882
G1 X39.454 Y181.519 E31.19689
G1 X36.043 Y179.163 E31.45494
G1 X32.760 Y176.631 E31.71299
G1 X30.445 Y174.654 E31.90250
G1 X29.614 Y173.931 E31.97107
G1 X26.614 Y171.071 E32.22912
G1 X23.767 Y168.057 E32.48720
G1 X21.082 Y164.898 E32.74524
G1 X18.566 Y161.603 E33.00331
G1 X16.842 Y159.095 E33.19280
G1 X16.226 Y158.181 E33.26137
G1 X14.068 Y154.642 E33.51943
G1 X12.099 Y150.994 E33.77749
G1 X10.788 Y148.246 E33.96699
G1 X10.323 Y147.248 E34.03556
G1 X8.745 Y143.414 E34.29361
G1 X7.370 Y139.503 E34.55167
G1 X6.202 Y135.525 E34.80975
G1 X5.244 Y131.492 E35.06779
G1 X4.498 Y127.414 E35.32586
G1 X3.967 Y123.303 E35.58392
G1 X3.651 Y119.169 E35.84198
G1 X3.552 Y115.025 E36.10004
G1 X3.671 Y110.881 E36.35810
G1 X3.909 Y107.846 E36.54760
G1 X4.005 Y106.749 E36.61616
G1 X4.503 Y102.974 E36.85319
G1 X10.164 Y61.479 E39.46009
G1 X10.856 Y59.250 E39.60542
G1 X19.846 Y41.384 E40.85040
G1 X21.253 Y39.472 E40.99817
G1 X23.416 Y38.052 E41.15926
G1 X23.676 Y38.525 F7800.000
G1 X89.342 Y11.314 E45.58398 F1800.000
G1 X93.226 Y9.948 E45.84026
G1 X97.176 Y8.787 E46.09655
G1 X101.181 Y7.835 E46.35281
G1 X105.231 Y7.094 E46.60910
G1 X105.955 Y6.998 E46.65455
G1 X109.314 Y6.565 E46.86537
G1 X113.414 Y6.251 E47.12137
G1 X117.538 Y6.153 E47.37815
G1 X121.550 Y6.269 E47.62798
G1 X125.654 Y6.601 E47.88426 F1800.000
G1 X129.734 Y7.147 E48.14055
G1 X133.781 Y7.906 E48.39681
G1 X137.782 Y8.876 E48.65310
G1 X141.727 Y10.054 E48.90938
G1 X145.604 Y11.437 E49.16565
G1 X149.405 Y13.021 E49.42193
G1 X153.117 Y14.801 E49.67822
G1 X156.730 Y16.773 E49.93448
G1 X160.236 Y18.932 E50.19077
G1 X163.624 Y21.271 E50.44704
G1 X166.885 Y23.785 E50.70331
G1 X170.010 Y26.465 E50.95961
G1 X172.989 Y29.306 E51.21587
G1 X175.817 Y32.298 E51.47216
G1 X178.484 Y35.435 E51.72843
G1 X180.983 Y38.706 E51.98471
G1 X183.308 Y42.104 E52.24099
G1 X185.451 Y45.619 E52.49726
G1 X187.408 Y49.242 E52.75354
G1 X189.172 Y52.962 E53.00983
G1 X190.739 Y56.768 E53.26609
G1 X192.105 Y60.652 E53.52237
G1 X193.266 Y64.602 E53.77866
G1 X194.218 Y68.608 E54.03493
G1 X194.959 Y72.657 E54.29121
G1 X195.488 Y76.740 E54.54749
G1 X195.802 Y80.845 E54.80376
G1 X195.901 Y84.961 E55.06005
G1 X195.784 Y89.076 E55.31632
G1 X195.545 Y92.111 E55.50582
G1 X195.452 Y93.180 E55.57260
G1 X194.955 Y96.952 E55.80947
G1 X189.294 Y138.447 E58.41637
G1 X188.655 Y140.504 E58.55049
G1 X179.665 Y158.370 E59.79547
G1 X178.302 Y160.197 E59.93739
G1 X176.324 Y161.475 E60.08396
G1 X110.658 Y188.686 E64.50869
G1 X106.774 Y190.052 E64.76497
G1 X102.824 Y191.213 E65.02125
G1 X102.114 Y191.383 E65.06671
G1 X98.819 Y192.165 E65.27752
G1 X94.769 Y192.906 E65.53380
G1 X90.686 Y193.435 E65.79008
G1 X89.958 Y193.492 E65.83554
G1 X86.586 Y193.749 E66.04607
G1 X82.462 Y193.847 E66.30286
G1 X78.450 Y193.731 E66.55269
G1 X74.346 Y193.399 E66.80897
G1 X70.266 Y192.853 E67.06525
G1 X66.219 Y192.094 E67.32152
G1 X62.218 Y191.124 E67.57781
G1 X58.273 Y189.946 E67.83409
G1 X54.396 Y188.563 E68.09036
G1 X50.595 Y186.979 E68.34664
G1 X46.883 Y185.199 E68.60292
G1 X43.270 Y183.227 E68.85919
G1 X39.764 Y181.068 E69.11547
G1 X36.376 Y178.729 E69.37175
G1 X33.115 Y176.215 E69.62802
G1 X30.801 Y174.238 E69.81752
G1 X29.990 Y173.535 E69.88431
G1 X27.011 Y170.694 E70.14058
G1 X24.183 Y167.702 E70.39687
G1 X21.516 Y164.565 E70.65314
G1 X19.017 Y161.294 E70.90942
G1 X17.293 Y158.785 E71.09891
G1 X16.692 Y157.896 E71.16570
G1 X14.549 Y154.381 E71.42197
G1 X12.592 Y150.758 E71.67825
G1 X11.282 Y148.011 E71.86775
G1 X10.828 Y147.038 E71.93454
G1 X9.261 Y143.232 E72.19080
G1 X7.895 Y139.348 E72.44709
G1 X6.734 Y135.398 E72.70337
G1 X6.024 Y132.437 E72.89287
G1 X5.782 Y131.392 E72.95964
G1 X5.041 Y127.343 E73.21593
G1 X4.512 Y123.260 E73.47221
G1 X4.198 Y119.155 E73.72848
G1 X4.099 Y115.039 E73.98476
G1 X4.216 Y110.924 E74.24103
G1 X4.548 Y106.820 E74.49731
G1 X5.045 Y103.048 E74.73418
G1 X10.706 Y61.553 E77.34108
G1 X11.345 Y59.496 E77.47520
G1 X20.335 Y41.630 E78.72018
G1 X21.698 Y39.803 E78.86210
G1 X23.625 Y38.557 E79.00494
G1 F1860.000 E76.00494
G92 E0
G1 X139.368 Y66.544 F7800.000
G1 E3.10000 F1860.000
G1 X130.445 Y71.034 E3.72184 F441.000
G1 X121.719 Y53.693 E4.93026
G1 X129.367 Y49.844 E5.46326
G1 X127.687 Y47.399 E5.64793
G1 X125.652 Y44.748 E5.85599
G1 X125.706 Y44.705 E5.86024
G1 X125.341 Y44.186 E5.89973
G1 X125.182 Y43.886 E5.92088
G1 X125.062 Y43.568 E5.94203
G1 X124.982 Y43.238 E5.96318
G1 X124.945 Y42.900 E5.98434
G1 X124.950 Y42.560 E6.00549
G1 X124.998 Y42.224 E6.02664
G1 X125.159 Y41.634 E6.06468
G1 X128.904 Y46.515 E6.44764
G1 X130.724 Y49.162 E6.64757
G1 X139.060 Y44.967 E7.22848
G1 X147.785 Y62.308 E8.43690
G1 X140.712 Y65.867 E8.92981
G1 X143.726 Y72.187 E9.36568
G1 X146.567 Y79.046 E9.82779
G1 X149.045 Y86.044 E10.28992
G1 X151.154 Y93.162 E10.75203
G1 X152.863 Y100.279 E11.20770
G1 X153.551 Y103.979 E11.44191
G1 X154.042 Y107.705 E11.67590
G1 X154.337 Y111.453 E11.90989
G1 X154.435 Y115.210 E12.14388
G1 X154.337 Y118.968 E12.37787
G1 X154.042 Y122.715 E12.61186
G1 X153.551 Y126.442 E12.84585
G1 X152.866 Y130.138 E13.07984
G1 X151.989 Y133.793 E13.31383
G1 X150.921 Y137.397 E13.54782
G1 X149.666 Y140.941 E13.78181
G1 X148.228 Y144.413 E14.01580
G1 X146.609 Y147.806 E14.24979
G1 X144.816 Y151.110 E14.48378
G1 X142.852 Y154.315 E14.71777
G1 X140.723 Y157.412 E14.95176
G1 X138.434 Y160.395 E15.18575
G1 X135.993 Y163.253 E15.41974
G1 X133.406 Y165.980 E15.65373
G1 X130.679 Y168.567 E15.88772
G1 X127.821 Y171.008 E16.12171
G1 X124.839 Y173.297 E16.35570
G1 X121.741 Y175.426 E16.58969
G1 X118.536 Y177.390 E16.82368
G1 X115.232 Y179.183 E17.05767
G1 X111.840 Y180.802 E17.29166
G1 X108.367 Y182.240 E17.52565
G1 X104.824 Y183.495 E17.75964
G1 X101.219 Y184.562 E17.99363
G1 X97.564 Y185.440 E18.22762
G1 X93.868 Y186.125 E18.46161
G1 X90.142 Y186.616 E18.69560
G1 X86.394 Y186.910 E18.92960
G1 X85.691 Y186.929 E18.97337
G1 X82.793 Y187.005 E19.15384
G1 X82.355 Y186.746 E19.18552
G1 X82.350 Y187.001 E19.20138
G1 X78.979 Y186.910 E19.41127
G1 X75.232 Y186.616 E19.64526
G1 X71.505 Y186.125 E19.87925
G1 X67.809 Y185.440 E20.11324
G1 X64.154 Y184.562 E20.34723
G1 X60.550 Y183.495 E20.58122
G1 X57.006 Y182.240 E20.81521
G1 X53.534 Y180.802 E21.04920
G1 X50.141 Y179.183 E21.28319
G1 X46.837 Y177.390 E21.51718
G1 X43.632 Y175.426 E21.75117
G1 X40.534 Y173.297 E21.98516
G1 X37.552 Y171.008 E22.21915
G1 X34.694 Y168.567 E22.45314
G1 X31.967 Y165.980 E22.68713
G1 X29.380 Y163.253 E22.92112
G1 X26.939 Y160.395 E23.15511
G1 X24.650 Y157.412 E23.38910
G1 X22.521 Y154.315 E23.62309
G1 X20.557 Y151.110 E23.85708
G1 X18.764 Y147.806 E24.09107
G1 X17.145 Y144.413 E24.32506
G1 X15.707 Y140.941 E24.55905
G1 X14.693 Y138.078 E24.74807
G1 X14.452 Y137.397 E24.79304
G1 X13.384 Y133.793 E25.02703
G1 X12.507 Y130.138 E25.26102
G1 X11.822 Y126.442 E25.49501
G1 X11.331 Y122.715 E25.72900
G1 X11.036 Y118.968 E25.96299
G1 X10.938 Y115.210 E26.19698
G1 X11.036 Y111.453 E26.43097
G1 X11.331 Y107.705 E26.66496
G1 X11.822 Y103.979 E26.89895
G1 X12.481 Y100.424 E27.12399
G1 X12.741 Y100.077 E27.15101
G1 X12.569 Y100.023 E27.16222
G1 X14.219 Y93.162 E27.60150
G1 X16.328 Y86.044 E28.06362
G1 X18.806 Y79.046 E28.52574
G1 X21.647 Y72.187 E28.98786
G1 X24.661 Y65.868 E29.42372
G1 X17.588 Y62.308 E29.91665
G1 X26.313 Y44.967 E31.12506
G1 X34.650 Y49.162 E31.70597
G1 X36.469 Y46.515 E31.90590
G1 X40.214 Y41.634 E32.28886
G1 X40.375 Y42.224 E32.32690
G1 X40.423 Y42.560 E32.34806
G1 X40.428 Y42.900 E32.36921
G1 X40.391 Y43.238 E32.39036
G1 X40.311 Y43.568 E32.41151
G1 X40.191 Y43.886 E32.43266
G1 X40.032 Y44.186 E32.45381
G1 X39.667 Y44.705 E32.49330
G1 X39.721 Y44.748 E32.49756
G1 X37.686 Y47.399 E32.70562
G1 X36.006 Y49.844 E32.89029
G1 X43.654 Y53.693 E33.42329
G1 X34.929 Y71.034 E34.63170
G1 X26.005 Y66.544 E35.25354
G1 X23.021 Y72.799 E35.68498
G1 X20.211 Y79.585 E36.14219
G1 X17.759 Y86.509 E36.59941
G1 X15.673 Y93.551 E37.05662
G1 X13.970 Y100.645 E37.51072
G1 X13.308 Y104.214 E37.73670
G1 X12.828 Y107.863 E37.96578
G1 X12.539 Y111.531 E38.19487
G1 X12.443 Y115.210 E38.42395
G1 X12.539 Y118.889 E38.65304
G1 X12.828 Y122.558 E38.88212
G1 X13.308 Y126.207 E39.11121
G1 X13.979 Y129.825 E39.34030
G1 X14.820 Y133.331 E39.56471
G1 X15.883 Y136.932 E39.79846
G1 X17.112 Y140.401 E40.02755
G1 X18.520 Y143.801 E40.25664
G1 X20.104 Y147.123 E40.48572
G1 X21.860 Y150.357 E40.71481
G1 X23.783 Y153.495 E40.94389
G1 X25.868 Y156.528 E41.17298
G1 X28.108 Y159.448 E41.40207
G1 X30.498 Y162.246 E41.63115
G1 X33.031 Y164.916 E41.86024
G1 X35.701 Y167.449 E42.08932
G1 X38.499 Y169.839 E42.31841
G1 X41.419 Y172.079 E42.54749
G1 X44.452 Y174.164 E42.77658
G1 X47.590 Y176.087 E43.00567
G1 X50.824 Y177.843 E43.23476
G1 X54.078 Y179.395 E43.45917
G1 X57.545 Y180.835 E43.69292
G1 X61.015 Y182.064 E43.92201
G1 X64.543 Y183.109 E44.15110
G1 X68.122 Y183.968 E44.38018
G1 X71.740 Y184.639 E44.60927
G1 X75.389 Y185.119 E44.83835
G1 X79.058 Y185.408 E45.06744
G1 X82.687 Y185.503 E45.29341
G1 X86.315 Y185.408 E45.51938
G1 X89.984 Y185.119 E45.74847
G1 X93.633 Y184.639 E45.97755
G1 X97.251 Y183.968 E46.20664
G1 X100.830 Y183.109 E46.43573
G1 X104.359 Y182.064 E46.66481
G1 X107.828 Y180.835 E46.89390
G1 X111.228 Y179.427 E47.12299
G1 X114.549 Y177.843 E47.35207
G1 X117.783 Y176.087 E47.58116
G1 X120.921 Y174.164 E47.81024
G1 X123.954 Y172.079 E48.03933
G1 X126.874 Y169.839 E48.26842
G1 X129.672 Y167.449 E48.49750
G1 X132.342 Y164.916 E48.72659
G1 X134.875 Y162.246 E48.95568
G1 X137.265 Y159.448 E49.18476
G1 X139.505 Y156.528 E49.41385
G1 X141.590 Y153.495 E49.64293
G1 X143.513 Y150.357 E49.87202
G1 X145.269 Y147.123 E50.10111
G1 X146.853 Y143.801 E50.33019
G1 X148.261 Y140.401 E50.55927
G1 X149.490 Y136.932 E50.78836
G1 X150.535 Y133.404 E51.01745
G1 X151.394 Y129.825 E51.24654
G1 X152.065 Y126.207 E51.47562
G1 X152.545 Y122.558 E51.70471
G1 X152.834 Y118.889 E51.93379
G1 X152.930 Y115.210 E52.16288
G1 X152.834 Y111.531 E52.39197
G1 X152.545 Y107.863 E52.62105
G1 X152.065 Y104.214 E52.85014
G1 X151.403 Y100.645 E53.07611
G1 X149.700 Y93.551 E53.53021
G1 X147.614 Y86.509 E53.98742
G1 X145.163 Y79.585 E54.44464
G1 X142.352 Y72.799 E54.90186
G1 X139.394 Y66.598 E55.32956
G1 X139.191 Y66.185 F7800.000
G1 F1860.000 E52.32956
G92 E0
G1 X42.920 Y53.936 F7800.000
G1 E3.10000 F1860.000
G1 X34.686 Y70.299 E4.24029 F630.000
G1 X25.752 Y65.804 E4.86286
G1 X18.322 Y62.065 E5.38058
G1 X26.556 Y45.702 E6.52088
G1 X42.866 Y53.909 E7.65743
G1 F1860.000 E4.65743
G92 E0
G1 X122.453 Y53.936 F7800.000
G1 E3.10000 F1860.000
G1 X138.817 Y45.702 E4.24029 F630.000
G1 X147.051 Y62.065 E5.38058
G1 X130.687 Y70.299 E6.52088
G1 X122.480 Y53.989 E7.65743
G1 X123.011 Y54.087 F7800.000
G1 X136.085 Y67.161 E8.80842 F1500.000
G1 X136.606 Y66.899 E8.84470
G1 X123.525 Y53.818 E9.99627
G1 X124.046 Y53.556 E10.03256
G1 X137.127 Y66.637 E11.18412
G1 X137.648 Y66.375 E11.22041
G1 X124.567 Y53.294 E12.37197
G1 X125.087 Y53.032 E12.40826
G1 X138.168 Y66.113 E13.55983
G1 X138.689 Y65.851 E13.59611
G1 X125.608 Y52.770 E14.74768
G1 X126.129 Y52.508 E14.78397
G1 X139.210 Y65.589 E15.93553
G1 X139.730 Y65.327 E15.97182
G1 X126.649 Y52.246 E17.12339
G1 X127.170 Y51.984 E17.15967
G1 X140.251 Y65.065 E18.31124
G1 X140.772 Y64.803 E18.34752
G1 X127.691 Y51.722 E19.49909
G1 X128.212 Y51.460 E19.53538
G1 X141.293 Y64.541 E20.68694
G1 X141.813 Y64.279 E20.72323
G1 X128.732 Y51.198 E21.87480
G1 X129.253 Y50.936 E21.91108
G1 X142.334 Y64.017 E23.06265
G1 X142.855 Y63.755 E23.09894
G1 X129.774 Y50.674 E24.25050
G1 X130.294 Y50.412 E24.28679
G1 X143.375 Y63.493 E25.43835
G1 X143.896 Y63.231 E25.47464
G1 X130.815 Y50.150 E26.62621
G1 X131.336 Y49.888 E26.66249
G1 X144.417 Y62.969 E27.81406
G1 X144.938 Y62.707 E27.85035
G1 X131.857 Y49.626 E29.00191
G1 X132.377 Y49.364 E29.03820
G1 X145.458 Y62.445 E30.18976
G1 X145.979 Y62.183 E30.22605
G1 X132.898 Y49.102 E31.37762
G1 X133.419 Y48.840 E31.41390
G1 X146.493 Y61.914 E32.56488
G1 X145.821 Y60.459 F7800.000
G1 X133.939 Y48.578 E33.61085 F1500.000
G1 X134.460 Y48.316 E33.64713
G1 X145.028 Y58.884 E34.57747
G1 X144.235 Y57.308 F7800.000
G1 X134.981 Y48.054 E35.39217 F1500.000
G1 X135.502 Y47.792 E35.42845
G1 X143.443 Y55.733 E36.12752
G1 X142.650 Y54.157 F7800.000
G1 X136.022 Y47.530 E36.71096 F1500.000
G1 X136.543 Y47.268 E36.74725
G1 X141.857 Y52.582 E37.21505
G1 X141.064 Y51.006 F7800.000
G1 X137.064 Y47.006 E37.56723 F1500.000
G1 X137.585 Y46.744 E37.60351
G1 X140.271 Y49.431 E37.84005
G1 X139.479 Y47.855 F7800.000
G1 X138.105 Y46.482 E37.96096 F1500.000
G1 X138.686 Y46.280 E37.99924
G1 X138.626 Y46.220 E38.00452
G1 X123.683 Y55.542 F7800.000
G1 X135.565 Y67.423 E39.05048 F1500.000
G1 X135.044 Y67.685 E39.08676
G1 X124.476 Y57.117 E40.01710
G1 X125.269 Y58.693 F7800.000
G1 X134.523 Y67.947 E40.83179 F1500.000
G1 X134.003 Y68.209 E40.86808
G1 X126.062 Y60.268 E41.56715
G1 X126.854 Y61.844 F7800.000
G1 X133.482 Y68.471 E42.15058 F1500.000
G1 X132.961 Y68.733 E42.18687
G1 X127.647 Y63.419 E42.65468
G1 X128.440 Y64.995 F7800.000
G1 X132.440 Y68.995 E43.00685 F1500.000
G1 X131.920 Y69.257 E43.04314
G1 X129.233 Y66.570 E43.27968
G1 X130.026 Y68.146 F7800.000
G1 X131.399 Y69.519 E43.40059 F1500.000
G1 X130.878 Y69.781 E43.43687
G1 X130.818 Y69.722 E43.44215
G1 X130.202 Y49.731 F7800.000
G1 X128.296 Y46.957 E43.75535 F600.000
G1 X126.550 Y44.682 E44.02224
G1 X126.446 Y44.499 E44.04184
G1 X125.944 Y43.816 E44.12069
G1 X125.681 Y43.377 E44.16830
G1 X125.423 Y42.780 E44.22885
G1 X139.922 Y65.959 F7800.000
