; generated by Slic3r 1.1.7 on 2015-01-18 at 22:35:21

; perimeters extrusion width = 0.40mm
; infill extrusion width = 0.44mm
; solid infill extrusion width = 0.44mm
; top infill extrusion width = 0.44mm

G21 ; set units to millimeters
M190 S60 ; wait for bed temperature to be reached
M104 S215 ; set temperature
G28 ; home all axes Start of G Code Slic3r
 
M109 S215 ; wait for temperature to be reached
G90 ; use absolute coordinates
G92 E0
M82 ; use absolute distances for extrusion
G1 F1860.000 E-3.00000
G92 E0
G1 Z0.294 F7800.000
G1 X25.730 Y36.487 F7800.000
G1 E3.10000 F1860.000
G1 X28.173 Y34.944 E3.27983 F1800.000
G1 X84.682 Y13.783 E7.03602
G1 X88.593 Y12.409 E7.29409
G1 X92.571 Y11.240 E7.55216
G1 X96.604 Y10.282 E7.81021
G1 X100.682 Y9.536 E8.06827
G1 X101.406 Y9.441 E8.11373
G1 X104.793 Y9.005 E8.32633
G1 X108.922 Y8.689 E8.58408
G1 X113.075 Y8.591 E8.84270
G1 X117.115 Y8.709 E9.09429
G1 X121.247 Y9.044 E9.35235 F1800.000
G1 X125.356 Y9.594 E9.61042
G1 X129.431 Y10.359 E9.86847
G1 X133.460 Y11.337 E10.12654
G1 X137.432 Y12.523 E10.38460
G1 X141.336 Y13.916 E10.64265
G1 X145.163 Y15.512 E10.90072
G1 X148.900 Y17.305 E11.15879
G1 X152.539 Y19.292 E11.41683
G1 X156.068 Y21.466 E11.67490
G1 X159.479 Y23.822 E11.93296
G1 X162.762 Y26.354 E12.19101
G1 X165.909 Y29.054 E12.44909
G1 X168.909 Y31.914 E12.70713
G1 X171.756 Y34.928 E12.96521
G1 X174.440 Y38.087 E13.22326
G1 X176.956 Y41.382 E13.48132
G1 X179.297 Y44.804 E13.73939
G1 X181.454 Y48.343 E13.99744
G1 X183.424 Y51.991 E14.25550
G1 X185.200 Y55.737 E14.51357
G1 X186.777 Y59.571 E14.77162
G1 X187.793 Y62.441 E14.96112
G1 X188.152 Y63.482 E15.02969
G1 X189.320 Y67.460 E15.28776
G1 X190.278 Y71.493 E15.54580
G1 X191.024 Y75.571 E15.80387
G1 X191.556 Y79.682 E16.06194
G1 X191.871 Y83.816 E16.31999
G1 X191.970 Y87.960 E16.57806
G1 X191.852 Y92.104 E16.83611
G1 X191.517 Y96.236 E17.09417
G1 X191.020 Y100.012 E17.33120
G1 X185.358 Y141.506 E19.93810
G1 X184.666 Y143.735 E20.08343
G1 X175.677 Y161.601 E21.32841
G1 X174.270 Y163.513 E21.47618
G1 X171.830 Y165.055 E21.65581
G1 X115.328 Y186.244 E25.41220
G1 X111.416 Y187.619 E25.67036
G1 X107.437 Y188.787 E25.92852
G1 X105.669 Y189.212 E26.04170
G1 X103.402 Y189.746 E26.18666
G1 X99.322 Y190.492 E26.44482
G1 X95.210 Y191.024 E26.70297
G1 X93.397 Y191.166 E26.81616
G1 X91.079 Y191.339 E26.96082
G1 X86.926 Y191.437 E27.21943
G1 X82.883 Y191.320 E27.47121
G1 X78.750 Y190.985 E27.72937
G1 X74.639 Y190.434 E27.98753
G1 X70.563 Y189.669 E28.24567
G1 X66.533 Y188.691 E28.50384
G1 X62.559 Y187.504 E28.76199
G1 X58.653 Y186.110 E29.02014
G1 X54.826 Y184.514 E29.27830
G1 X51.087 Y182.720 E29.53646
G1 X47.447 Y180.733 E29.79460
G1 X43.916 Y178.558 E30.05276
G1 X40.504 Y176.201 E30.31091
G1 X37.220 Y173.669 E30.56906
G1 X35.731 Y172.397 E30.69093
G1 X34.072 Y170.968 E30.82723
G1 X31.071 Y168.106 E31.08537
G1 X28.223 Y165.091 E31.34354
G1 X25.537 Y161.931 E31.60169
G1 X23.020 Y158.635 E31.85984
G1 X21.911 Y157.022 E31.98171
G1 X20.679 Y155.212 E32.11800
G1 X18.521 Y151.671 E32.37615
G1 X16.551 Y148.022 E32.63430
G1 X14.774 Y144.274 E32.89246
G1 X13.196 Y140.439 E33.15061
G1 X12.542 Y138.594 E33.27248
G1 X11.821 Y136.527 E33.40877
G1 X10.652 Y132.548 E33.66694
G1 X9.694 Y128.513 E33.92507
G1 X9.337 Y126.588 E34.04694
G1 X8.947 Y124.433 E34.18324
G1 X8.416 Y120.321 E34.44139
G1 X8.100 Y116.186 E34.69954
G1 X8.049 Y114.229 E34.82141
G1 X8.001 Y112.040 E34.95770
G1 X8.119 Y107.894 E35.21585
G1 X8.454 Y103.761 E35.47401
G1 X8.952 Y99.979 E35.71143
G1 X14.642 Y58.490 E38.31829
G1 X15.334 Y56.265 E38.46332
G1 X24.323 Y38.399 E39.70830
G1 X25.695 Y36.535 E39.85234
G1 X26.175 Y36.819 F7800.000
G1 X28.365 Y35.456 E40.01287 F1800.000
G1 X84.865 Y14.299 E43.76845
G1 X88.749 Y12.933 E44.02473
G1 X92.699 Y11.773 E44.28102
G1 X96.704 Y10.820 E44.53728
G1 X100.754 Y10.079 E44.79357
G1 X101.477 Y9.983 E44.83902
G1 X104.836 Y9.550 E45.04984
G1 X108.937 Y9.236 E45.30583
G1 X113.061 Y9.138 E45.56262
G1 X117.072 Y9.254 E45.81245
G1 X121.176 Y9.586 E46.06873 F1800.000
G1 X125.257 Y10.132 E46.32501
G1 X129.303 Y10.891 E46.58128
G1 X133.304 Y11.861 E46.83757
G1 X137.249 Y13.039 E47.09385
G1 X141.127 Y14.422 E47.35012
G1 X144.927 Y16.006 E47.60640
G1 X148.639 Y17.786 E47.86268
G1 X152.253 Y19.759 E48.11895
G1 X155.759 Y21.917 E48.37524
G1 X159.146 Y24.257 E48.63151
G1 X162.407 Y26.770 E48.88778
G1 X165.532 Y29.451 E49.14407
G1 X168.512 Y32.291 E49.40034
G1 X171.339 Y35.284 E49.65663
G1 X174.006 Y38.420 E49.91290
G1 X176.505 Y41.692 E50.16918
G1 X178.830 Y45.090 E50.42546
G1 X180.973 Y48.604 E50.68173
G1 X182.930 Y52.227 E50.93801
G1 X184.694 Y55.947 E51.19430
G1 X186.261 Y59.754 E51.45056
G1 X187.278 Y62.623 E51.64006
G1 X187.627 Y63.637 E51.70684
G1 X188.788 Y67.588 E51.96313
G1 X189.740 Y71.593 E52.21940
G1 X190.482 Y75.642 E52.47568
G1 X191.010 Y79.725 E52.73196
G1 X191.324 Y83.830 E52.98823
G1 X191.423 Y87.946 E53.24452
G1 X191.306 Y92.061 E53.50079
G1 X190.974 Y96.165 E53.75707
G1 X190.478 Y99.938 E53.99393
G1 X184.816 Y141.432 E56.60083
G1 X184.178 Y143.489 E56.73496
G1 X175.188 Y161.355 E57.97994
G1 X173.824 Y163.182 E58.12185
G1 X171.638 Y164.542 E58.28211
G1 X115.146 Y185.728 E62.03788
G1 X111.260 Y187.094 E62.29425
G1 X107.309 Y188.255 E62.55063
G1 X105.541 Y188.680 E62.66381
G1 X103.302 Y189.208 E62.80699
G1 X99.251 Y189.950 E63.06337
G1 X95.167 Y190.478 E63.31974
G1 X93.354 Y190.621 E63.43292
G1 X91.065 Y190.792 E63.57583
G1 X86.941 Y190.890 E63.83262
G1 X82.926 Y190.775 E64.08262
G1 X78.821 Y190.442 E64.33900
G1 X74.739 Y189.896 E64.59538
G1 X70.691 Y189.137 E64.85174
G1 X66.688 Y188.167 E65.10812
G1 X62.742 Y186.988 E65.36449
G1 X58.863 Y185.605 E65.62086
G1 X55.061 Y184.021 E65.87723
G1 X51.348 Y182.239 E66.13361
G1 X47.733 Y180.266 E66.38997
G1 X44.226 Y178.107 E66.64635
G1 X40.837 Y175.767 E66.90272
G1 X37.575 Y173.253 E67.15908
G1 X36.086 Y171.981 E67.28095
G1 X34.449 Y170.571 E67.41547
G1 X31.468 Y167.729 E67.67183
G1 X28.639 Y164.736 E67.92821
G1 X25.971 Y161.598 E68.18458
G1 X23.471 Y158.325 E68.44095
G1 X22.362 Y156.712 E68.56281
G1 X21.146 Y154.926 E68.69732
G1 X19.002 Y151.410 E68.95369
G1 X17.044 Y147.786 E69.21006
G1 X15.279 Y144.065 E69.46644
G1 X13.712 Y140.257 E69.72280
G1 X13.058 Y138.411 E69.84467
G1 X12.345 Y136.371 E69.97918
G1 X11.184 Y132.420 E70.23556
G1 X10.232 Y128.413 E70.49192
G1 X9.875 Y126.488 E70.61379
G1 X9.490 Y124.362 E70.74830
G1 X8.961 Y120.278 E71.00467
G1 X8.647 Y116.171 E71.26104
G1 X8.596 Y114.214 E71.38290
G1 X8.548 Y112.054 E71.51742
G1 X8.665 Y107.937 E71.77378
G1 X8.997 Y103.832 E72.03016
G1 X9.495 Y100.054 E72.26739
G1 X15.184 Y58.564 E74.87426
G1 X15.822 Y56.511 E75.00810
G1 X24.812 Y38.645 E76.25308
G1 X26.139 Y36.867 E76.39119
G1 F1860.000 E73.39119
G92 E0
G1 X143.846 Y63.559 F7800.000
G1 E3.10000 F1860.000
G1 X134.922 Y68.049 E3.72184 F441.000
G1 X126.196 Y50.708 E4.93026
G1 X133.845 Y46.859 E5.46326
G1 X132.165 Y44.414 E5.64792
G1 X130.130 Y41.763 E5.85598
G1 X130.183 Y41.720 E5.86024
G1 X129.819 Y41.201 E5.89973
G1 X129.659 Y40.901 E5.92088
G1 X129.539 Y40.583 E5.94203
G1 X129.460 Y40.253 E5.96318
G1 X129.423 Y39.915 E5.98433
G1 X129.428 Y39.575 E6.00549
G1 X129.476 Y39.239 E6.02664
G1 X129.646 Y38.615 E6.06691
G1 X133.405 Y43.513 E6.45126
G1 X135.227 Y46.164 E6.65148
G1 X143.537 Y41.982 E7.23058
G1 X152.263 Y59.323 E8.43899
G1 X145.215 Y62.869 E8.93012
G1 X148.230 Y69.191 E9.36607
G1 X151.072 Y76.051 E9.82828
G1 X153.550 Y83.050 E10.29049
G1 X155.659 Y90.169 E10.75271
G1 X157.367 Y97.276 E11.20767
G1 X157.329 Y97.702 E11.23432
G1 X157.446 Y97.678 E11.24177
G1 X158.057 Y100.989 E11.45137
G1 X158.548 Y104.717 E11.68546
G1 X158.843 Y108.466 E11.91954
G1 X158.941 Y112.225 E12.15363
G1 X158.843 Y115.984 E12.38771
G1 X158.548 Y119.733 E12.62179
G1 X158.057 Y123.462 E12.85588
G1 X157.372 Y127.159 E13.08996
G1 X156.494 Y130.816 E13.32404
G1 X155.426 Y134.421 E13.55813
G1 X154.171 Y137.966 E13.79222
G1 X152.732 Y141.440 E14.02630
G1 X151.113 Y144.834 E14.26038
G1 X149.318 Y148.139 E14.49446
G1 X147.354 Y151.345 E14.72855
G1 X145.224 Y154.444 E14.96263
G1 X142.934 Y157.428 E15.19671
G1 X140.492 Y160.287 E15.43080
G1 X137.904 Y163.015 E15.66488
G1 X135.176 Y165.603 E15.89897
G1 X132.317 Y168.046 E16.13305
G1 X129.333 Y170.335 E16.36714
G1 X126.234 Y172.465 E16.60122
G1 X123.028 Y174.430 E16.83530
G1 X119.723 Y176.224 E17.06938
G1 X116.329 Y177.843 E17.30347
G1 X112.855 Y179.282 E17.53755
G1 X109.310 Y180.537 E17.77164
G1 X105.704 Y181.605 E18.00572
G1 X102.048 Y182.483 E18.23981
G1 X98.350 Y183.168 E18.47389
G1 X94.622 Y183.659 E18.70797
G1 X90.873 Y183.954 E18.94206
G1 X89.111 Y184.002 E19.05177
G1 X87.278 Y184.049 E19.16595
G1 X86.833 Y183.786 E19.19815
G1 X86.827 Y184.044 E19.21418
G1 X83.455 Y183.954 E19.42417
G1 X79.706 Y183.659 E19.65825
G1 X75.978 Y183.168 E19.89233
G1 X72.280 Y182.483 E20.12642
G1 X68.624 Y181.605 E20.36050
G1 X65.018 Y180.537 E20.59459
G1 X61.474 Y179.282 E20.82867
G1 X57.999 Y177.843 E21.06275
G1 X54.605 Y176.224 E21.29684
G1 X51.301 Y174.430 E21.53092
G1 X48.094 Y172.465 E21.76501
G1 X44.995 Y170.335 E21.99909
G1 X42.012 Y168.046 E22.23317
G1 X39.152 Y165.603 E22.46726
G1 X36.425 Y163.015 E22.70134
G1 X33.836 Y160.287 E22.93542
G1 X31.394 Y157.428 E23.16951
G1 X29.105 Y154.444 E23.40360
G1 X26.975 Y151.345 E23.63768
G1 X25.010 Y148.139 E23.87176
G1 X23.216 Y144.834 E24.10584
G1 X21.597 Y141.440 E24.33993
G1 X20.158 Y137.966 E24.57401
G1 X19.507 Y136.128 E24.69540
G1 X18.902 Y134.421 E24.80810
G1 X17.834 Y130.816 E25.04218
G1 X16.957 Y127.159 E25.27626
G1 X16.271 Y123.462 E25.51035
G1 X15.780 Y119.733 E25.74443
G1 X15.485 Y115.984 E25.97852
G1 X15.387 Y112.225 E26.21260
G1 X15.485 Y108.466 E26.44668
G1 X15.780 Y104.717 E26.68077
G1 X16.271 Y100.989 E26.91485
G1 X16.929 Y97.439 E27.13961
G1 X17.193 Y97.086 E27.16702
G1 X17.019 Y97.032 E27.17840
G1 X18.669 Y90.169 E27.61777
G1 X20.778 Y83.050 E28.07998
G1 X23.257 Y76.051 E28.54220
G1 X26.098 Y69.191 E29.00441
G1 X29.113 Y62.870 E29.44036
G1 X22.065 Y59.323 E29.93151
G1 X30.791 Y41.982 E31.13992
G1 X39.101 Y46.164 E31.71902
G1 X40.923 Y43.513 E31.91924
G1 X44.682 Y38.615 E32.30359
G1 X44.853 Y39.239 E32.34387
G1 X44.900 Y39.575 E32.36501
G1 X44.906 Y39.915 E32.38617
G1 X44.868 Y40.253 E32.40732
G1 X44.789 Y40.583 E32.42847
G1 X44.669 Y40.901 E32.44962
G1 X44.510 Y41.201 E32.47077
G1 X44.145 Y41.720 E32.51026
G1 X44.198 Y41.763 E32.51452
G1 X42.164 Y44.414 E32.72258
G1 X40.483 Y46.859 E32.90725
G1 X48.132 Y50.708 E33.44025
G1 X39.406 Y68.049 E34.64866
G1 X30.483 Y63.559 E35.27050
G1 X27.499 Y69.814 E35.70194
G1 X24.688 Y76.600 E36.15915
G1 X22.236 Y83.524 E36.61637
G1 X20.150 Y90.566 E37.07358
G1 X18.447 Y97.660 E37.52768
G1 X17.786 Y101.229 E37.75366
G1 X17.305 Y104.878 E37.98274
G1 X17.017 Y108.546 E38.21183
G1 X16.920 Y112.225 E38.44091
G1 X17.017 Y115.904 E38.67000
G1 X17.305 Y119.573 E38.89909
G1 X17.786 Y123.222 E39.12817
G1 X18.457 Y126.840 E39.35726
G1 X19.316 Y130.419 E39.58634
G1 X20.361 Y133.947 E39.81543
G1 X21.589 Y137.416 E40.04452
G1 X22.998 Y140.816 E40.27360
G1 X24.582 Y144.138 E40.50269
G1 X26.338 Y147.372 E40.73178
G1 X28.261 Y150.510 E40.96086
G1 X30.345 Y153.543 E41.18995
G1 X32.586 Y156.463 E41.41903
G1 X34.976 Y159.261 E41.64812
G1 X37.509 Y161.931 E41.87721
G1 X40.178 Y164.464 E42.10629
G1 X42.977 Y166.854 E42.33538
G1 X45.896 Y169.094 E42.56446
G1 X48.929 Y171.179 E42.79355
G1 X52.067 Y173.102 E43.02264
G1 X55.301 Y174.858 E43.25173
G1 X58.623 Y176.442 E43.48081
G1 X62.023 Y177.850 E43.70989
G1 X65.492 Y179.079 E43.93898
G1 X69.021 Y180.124 E44.16807
G1 X72.599 Y180.983 E44.39715
G1 X76.218 Y181.654 E44.62624
G1 X79.866 Y182.134 E44.85533
G1 X83.535 Y182.423 E45.08441
G1 X87.164 Y182.518 E45.31038
G1 X90.793 Y182.423 E45.53636
G1 X94.462 Y182.134 E45.76544
G1 X98.111 Y181.654 E45.99453
G1 X101.729 Y180.983 E46.22361
G1 X105.308 Y180.124 E46.45270
G1 X108.836 Y179.079 E46.68179
G1 X112.305 Y177.850 E46.91088
G1 X115.705 Y176.442 E47.13996
G1 X119.027 Y174.858 E47.36904
G1 X122.261 Y173.102 E47.59813
G1 X125.399 Y171.179 E47.82722
G1 X128.432 Y169.094 E48.05631
G1 X131.351 Y166.854 E48.28539
G1 X134.150 Y164.464 E48.51448
G1 X136.819 Y161.931 E48.74356
G1 X139.353 Y159.261 E48.97265
G1 X141.743 Y156.463 E49.20174
G1 X143.983 Y153.543 E49.43082
G1 X146.067 Y150.510 E49.65991
G1 X147.990 Y147.372 E49.88899
G1 X149.746 Y144.138 E50.11808
G1 X151.331 Y140.816 E50.34716
G1 X152.739 Y137.416 E50.57625
G1 X153.968 Y133.947 E50.80534
G1 X155.013 Y130.419 E51.03443
G1 X155.872 Y126.840 E51.26351
G1 X156.543 Y123.222 E51.49260
G1 X157.023 Y119.573 E51.72168
G1 X157.312 Y115.904 E51.95077
G1 X157.408 Y112.225 E52.17985
G1 X157.312 Y108.546 E52.40894
G1 X157.023 Y104.878 E52.63803
G1 X156.543 Y101.229 E52.86711
G1 X155.881 Y97.660 E53.09308
G1 X154.178 Y90.566 E53.54718
G1 X152.092 Y83.524 E54.00440
G1 X149.640 Y76.600 E54.46162
G1 X146.829 Y69.814 E54.91883
G1 X143.871 Y63.613 E55.34653
G1 X143.668 Y63.200 F7800.000
G1 F1860.000 E52.34653
G92 E0
G1 X17.898 Y97.623 F7800.000
G1 E3.10000 F1860.000
G1 X17.245 Y101.143 E3.32290 F630.000
G1 X16.761 Y104.820 E3.55377
G1 X16.470 Y108.518 E3.78464
G1 X16.373 Y112.225 E4.01551
G1 X16.470 Y115.933 E4.24638
G1 X16.761 Y119.630 E4.47725
G1 X17.245 Y123.307 E4.70812
G1 X17.921 Y126.954 E4.93899
G1 X18.787 Y130.560 E5.16985
G1 X19.840 Y134.116 E5.40073
G1 X21.078 Y137.613 E5.63160
G1 X22.498 Y141.039 E5.86247
G1 X24.094 Y144.386 E6.09334
G1 X25.864 Y147.646 E6.32421
G1 X27.802 Y150.808 E6.55508
G1 X29.902 Y153.865 E6.78595
G1 X32.160 Y156.807 E7.01682
G1 X34.569 Y159.627 E7.24769
G1 X37.122 Y162.318 E7.47856
G1 X39.812 Y164.870 E7.70943
G1 X42.632 Y167.279 E7.94030
G1 X45.575 Y169.537 E8.17117
G1 X48.631 Y171.638 E8.40204
G1 X51.794 Y173.576 E8.63291
G1 X55.053 Y175.345 E8.86378
G1 X58.400 Y176.942 E9.09465
G1 X61.827 Y178.361 E9.32551
G1 X65.323 Y179.599 E9.55639
G1 X68.879 Y180.653 E9.78726
G1 X72.485 Y181.518 E10.01813
G1 X76.132 Y182.194 E10.24900
G1 X79.809 Y182.678 E10.47987
G1 X83.507 Y182.969 E10.71074
G1 X86.302 Y183.043 E10.88478
G1 X86.292 Y183.482 E10.91213
G1 X83.484 Y183.408 E11.08701
G1 X79.763 Y183.115 E11.31930
G1 X76.064 Y182.628 E11.55160
G1 X72.394 Y181.948 E11.78390
G1 X68.766 Y181.076 E12.01620
G1 X65.187 Y180.017 E12.24851
G1 X61.670 Y178.771 E12.48081
G1 X58.222 Y177.343 E12.71310
G1 X54.854 Y175.736 E12.94541
G1 X51.574 Y173.956 E13.17771
G1 X48.392 Y172.006 E13.41000
G1 X45.317 Y169.892 E13.64230
G1 X42.356 Y167.620 E13.87460
G1 X39.519 Y165.197 E14.10691
G1 X36.812 Y162.628 E14.33920
G1 X34.243 Y159.921 E14.57150
G1 X31.819 Y157.083 E14.80381
G1 X30.641 Y155.547 E14.92430
G1 X29.547 Y154.123 E15.03611
G1 X27.434 Y151.047 E15.26840
G1 X25.484 Y147.865 E15.50070
G1 X23.703 Y144.586 E15.73300
G1 X22.097 Y141.217 E15.96531
G1 X20.669 Y137.770 E16.19760
G1 X19.423 Y134.252 E16.42990
G1 X18.363 Y130.674 E16.66220
G1 X17.492 Y127.045 E16.89450
G1 X16.812 Y123.376 E17.12681
G1 X16.325 Y119.676 E17.35910
G1 X16.032 Y115.956 E17.59140
G1 X15.934 Y112.225 E17.82370
G1 X16.032 Y108.495 E18.05600
G1 X16.325 Y104.775 E18.28830
G1 X16.812 Y101.075 E18.52060
G1 X17.444 Y97.664 E18.73650
G1 X17.580 Y97.483 E18.75061
G1 X17.843 Y97.598 E18.76848
G1 F1860.000 E15.76848
G92 E0
G1 X30.229 Y62.819 F7800.000
G1 E3.10000 F1860.000
G1 X26.999 Y69.592 E3.56711 F630.000
G1 X24.177 Y76.404 E4.02611
G1 X21.716 Y83.355 E4.48512
G1 X19.622 Y90.425 E4.94411
G1 X18.092 Y96.794 E5.35187
G1 X17.671 Y96.662 E5.37938
G1 X19.198 Y90.311 E5.78600
G1 X21.299 Y83.219 E6.24643
G1 X23.768 Y76.247 E6.70686
G1 X26.598 Y69.413 E7.16729
G1 X29.838 Y62.622 E7.63570
G1 X22.800 Y59.080 E8.12614
G1 X31.034 Y42.717 E9.26643
G1 X39.282 Y46.867 E9.84119
G1 X41.366 Y43.835 E10.07024
G1 X43.095 Y41.581 E10.24708
G1 X43.438 Y41.855 E10.27439
G1 X41.721 Y44.093 E10.44997
G1 X39.677 Y47.066 E10.67456
G1 X47.397 Y50.951 E11.21254
G1 X39.163 Y67.314 E12.35284
G1 X30.283 Y62.846 E12.97167
G1 F1860.000 E9.97167
G92 E0
G1 X23.535 Y58.837 F7800.000
G1 E3.10000 F1860.000
G1 X31.277 Y43.452 E4.17217 F630.000
G1 X39.493 Y47.586 E4.74474
G1 X46.663 Y51.194 E5.24434
G1 X38.921 Y66.579 E6.31651
