; generated by Slic3r 1.1.7 on 2014-12-05 at 10:36:43

; perimeters extrusion width = 0.42mm
; infill extrusion width = 0.74mm
; solid infill extrusion width = 0.71mm
; top infill extrusion width = 0.71mm

G21 ; set units to millimeters
M190 S60 ; wait for bed temperature to be reached
M104 S186 ; set temperature
G28 ; home all axes
M109 S186 ; wait for temperature to be reached
G90 ; use absolute coordinates
G92 E0
M82 ; use absolute distances for extrusion
M106 S255
G1 F1860.000 E-3.00000
G92 E0
G1 Z0.200 F6000.000
G1 X102.090 Y86.864 F6000.000
G1 E3.10000 F1860.000
G1 X103.181 Y85.785 E3.12840 F1167.515
G1 X103.328 Y85.667 E3.13187
G1 X104.649 Y84.817 E3.16094
G1 X104.815 Y84.734 E3.16437
G1 X107.142 Y84.006 E3.20949
G1 X109.580 Y84.066 E3.25460
G1 X111.547 Y84.734 E3.29302 F1167.515
G1 X111.712 Y84.817 E3.29646
G1 X113.034 Y85.667 E3.32553
G1 X113.180 Y85.785 E3.32900
G1 X114.271 Y86.863 E3.35738
G1 X114.393 Y87.011 E3.36091
G1 X115.225 Y88.259 E3.38866
G1 X115.315 Y88.428 E3.39221
G1 X115.872 Y89.788 E3.41939
G1 X115.928 Y89.974 E3.42299
G1 X116.207 Y91.398 E3.44984
G1 X116.226 Y91.592 E3.45344
G1 X116.226 Y93.036 E3.48015
G1 X116.207 Y93.229 E3.48375
G1 X115.928 Y94.654 E3.51060
G1 X115.872 Y94.840 E3.51420
G1 X115.315 Y96.199 E3.54138
G1 X115.225 Y96.369 E3.54493
G1 X114.393 Y97.617 E3.57269
G1 X114.271 Y97.764 E3.57621
G1 X113.180 Y98.843 E3.60460
G1 X113.034 Y98.960 E3.60807
G1 X111.712 Y99.811 E3.63714
G1 X111.547 Y99.894 E3.64058
G1 X109.219 Y100.621 E3.68569
G1 X106.781 Y100.562 E3.73080
G1 X104.815 Y99.894 E3.76921
G1 X104.649 Y99.811 E3.77266
G1 X103.328 Y98.960 E3.80173
G1 X103.181 Y98.843 E3.80520
G1 X102.090 Y97.764 E3.83360
G1 X101.969 Y97.617 E3.83712
G1 X101.137 Y96.369 E3.86485
G1 X101.047 Y96.200 E3.86841
G1 X100.489 Y94.839 E3.89561
G1 X100.433 Y94.654 E3.89920
G1 X100.154 Y93.230 E3.92604
G1 X100.135 Y93.036 E3.92964
G1 X100.135 Y91.592 E3.95636
G1 X100.154 Y91.398 E3.95996
G1 X100.433 Y89.974 E3.98680
G1 X100.489 Y89.789 E3.99039
G1 X101.047 Y88.428 E4.01759
G1 X101.137 Y88.258 E4.02115
G1 X102.050 Y86.913 E4.05123
G1 X102.281 Y87.021 F6000.000
G1 X103.336 Y85.978 E4.07869 F1167.515
G1 X103.482 Y85.860 E4.08216
G1 X104.760 Y85.038 E4.11027
G1 X104.926 Y84.954 E4.11370
G1 X107.217 Y84.246 E4.15806
G1 X109.613 Y84.324 E4.20242
G1 X111.435 Y84.954 E4.23809 F1167.515
G1 X111.601 Y85.038 E4.24153
G1 X112.879 Y85.860 E4.26964
G1 X113.025 Y85.978 E4.27311
G1 X114.081 Y87.021 E4.30056
G1 X114.202 Y87.168 E4.30408
G1 X115.006 Y88.375 E4.33092
G1 X115.096 Y88.544 E4.33447
G1 X115.635 Y89.859 E4.36075
G1 X115.691 Y90.045 E4.36435
G1 X115.961 Y91.422 E4.39032
G1 X115.980 Y91.616 E4.39392
G1 X115.980 Y93.012 E4.41974
G1 X115.961 Y93.206 E4.42334
G1 X115.691 Y94.583 E4.44931
G1 X115.635 Y94.769 E4.45290
G1 X115.096 Y96.083 E4.47919
G1 X115.006 Y96.253 E4.48274
G1 X114.202 Y97.460 E4.50957
G1 X114.081 Y97.607 E4.51310
G1 X113.025 Y98.650 E4.54055
G1 X112.879 Y98.768 E4.54402
G1 X111.601 Y99.590 E4.57213
G1 X111.435 Y99.673 E4.57557
G1 X109.145 Y100.382 E4.61992
G1 X106.748 Y100.303 E4.66428
G1 X104.926 Y99.673 E4.69995
G1 X104.760 Y99.590 E4.70339
G1 X103.482 Y98.768 E4.73150
G1 X103.336 Y98.650 E4.73497
G1 X102.281 Y97.607 E4.76243
G1 X102.160 Y97.460 E4.76595
G1 X101.355 Y96.254 E4.79277
G1 X101.265 Y96.084 E4.79632
G1 X100.726 Y94.768 E4.82263
G1 X100.670 Y94.583 E4.82622
G1 X100.400 Y93.206 E4.85217
G1 X100.381 Y93.012 E4.85577
G1 X100.381 Y91.616 E4.88161
G1 X100.400 Y91.422 E4.88521
G1 X100.670 Y90.045 E4.91117
G1 X100.726 Y89.859 E4.91475
G1 X101.265 Y88.544 E4.94106
G1 X101.355 Y88.374 E4.94461
G1 X102.241 Y87.070 E4.97378
G1 X102.471 Y87.178 F6000.000
G1 X103.491 Y86.170 E5.00030 F1167.515
G1 X103.637 Y86.053 E5.00377
G1 X104.871 Y85.259 E5.03092
G1 X105.037 Y85.175 E5.03435
G1 X107.290 Y84.485 E5.07794
G1 X109.644 Y84.583 E5.12153
G1 X111.324 Y85.175 E5.15449 F1167.515
G1 X111.490 Y85.259 E5.15792
G1 X112.724 Y86.053 E5.18507
G1 X112.871 Y86.170 E5.18854
G1 X113.890 Y87.178 E5.21505
G1 X114.011 Y87.325 E5.21858
G1 X114.788 Y88.490 E5.24450
G1 X114.878 Y88.660 E5.24805
G1 X115.399 Y89.930 E5.27343
G1 X115.454 Y90.116 E5.27703
G1 X115.715 Y91.446 E5.30211
G1 X115.734 Y91.640 E5.30571
G1 X115.734 Y92.988 E5.33065
G1 X115.715 Y93.182 E5.33425
G1 X115.454 Y94.512 E5.35933
G1 X115.399 Y94.698 E5.36293
G1 X114.878 Y95.968 E5.38831
G1 X114.788 Y96.137 E5.39186
G1 X114.011 Y97.303 E5.41778
G1 X113.890 Y97.450 E5.42131
G1 X112.871 Y98.457 E5.44782
G1 X112.724 Y98.575 E5.45129
G1 X111.490 Y99.369 E5.47844
G1 X111.324 Y99.453 E5.48187
G1 X109.071 Y100.142 E5.52546
G1 X106.717 Y100.044 E5.56905
G1 X105.038 Y99.453 E5.60200
G1 X104.871 Y99.369 E5.60544
G1 X103.637 Y98.575 E5.63259
G1 X103.491 Y98.457 E5.63606
G1 X102.471 Y97.450 E5.66258
G1 X102.351 Y97.303 E5.66610
G1 X101.574 Y96.138 E5.69201
G1 X101.484 Y95.968 E5.69556
G1 X100.963 Y94.697 E5.72097
G1 X100.907 Y94.512 E5.72455
G1 X100.646 Y93.182 E5.74962
G1 X100.627 Y92.988 E5.75322
G1 X100.627 Y91.639 E5.77818
G1 X100.646 Y91.446 E5.78178
G1 X100.907 Y90.116 E5.80685
G1 X100.963 Y89.930 E5.81043
G1 X101.484 Y88.660 E5.83584
G1 X101.574 Y88.490 E5.83939
G1 X102.431 Y87.227 E5.86764
G1 X102.662 Y87.335 F6000.000
G1 X103.646 Y86.363 E5.89322 F1167.515
G1 X103.792 Y86.245 E5.89670
G1 X104.983 Y85.479 E5.92289
G1 X105.148 Y85.396 E5.92632
G1 X107.363 Y84.725 E5.96912
G1 X109.674 Y84.843 E6.01193
G1 X111.213 Y85.396 E6.04219 F1167.515
G1 X111.379 Y85.479 E6.04563
G1 X112.569 Y86.245 E6.07182
G1 X112.716 Y86.363 E6.07529
G1 X113.699 Y87.335 E6.10086
G1 X113.820 Y87.482 E6.10439
G1 X114.569 Y88.606 E6.12939
G1 X114.659 Y88.776 E6.13294
G1 X115.162 Y90.000 E6.15743
G1 X115.217 Y90.187 E6.16102
G1 X115.469 Y91.470 E6.18521
G1 X115.488 Y91.663 E6.18881
G1 X115.488 Y92.964 E6.21288
G1 X115.469 Y93.158 E6.21648
G1 X115.218 Y94.441 E6.24067
G1 X115.162 Y94.627 E6.24426
G1 X114.659 Y95.852 E6.26875
G1 X114.569 Y96.021 E6.27230
G1 X113.820 Y97.146 E6.29730
G1 X113.699 Y97.293 E6.30083
G1 X112.716 Y98.265 E6.32640
G1 X112.569 Y98.382 E6.32987
G1 X111.379 Y99.148 E6.35606
G1 X111.213 Y99.232 E6.35950
G1 X108.999 Y99.902 E6.40230
G1 X106.688 Y99.785 E6.44511
G1 X105.149 Y99.232 E6.47536
G1 X104.982 Y99.148 E6.47881
G1 X103.792 Y98.382 E6.50499
G1 X103.646 Y98.265 E6.50847
G1 X102.662 Y97.293 E6.53405
G1 X102.542 Y97.146 E6.53757
G1 X101.792 Y96.022 E6.56255
G1 X101.702 Y95.852 E6.56611
G1 X101.199 Y94.626 E6.59062
G1 X101.144 Y94.441 E6.59420
G1 X100.892 Y93.158 E6.61839
G1 X100.873 Y92.964 E6.62199
G1 X100.873 Y91.663 E6.64606
G1 X100.892 Y91.470 E6.64966
G1 X101.144 Y90.187 E6.67384
G1 X101.199 Y90.001 E6.67742
G1 X101.702 Y88.775 E6.70194
G1 X101.792 Y88.606 E6.70549
G1 X102.622 Y87.384 E6.73282
G1 X102.853 Y87.492 F6000.000
G1 X103.801 Y86.556 E6.75746 F1167.515
G1 X103.947 Y86.438 E6.76094
G1 X105.094 Y85.700 E6.78616
G1 X105.260 Y85.617 E6.78960
G1 X107.435 Y84.966 E6.83161
G1 X109.701 Y85.103 E6.87361
G1 X111.102 Y85.617 E6.90121 F1167.515
G1 X111.268 Y85.700 E6.90465
G1 X112.415 Y86.438 E6.92988
G1 X112.561 Y86.556 E6.93335
G1 X113.508 Y87.492 E6.95798
G1 X113.629 Y87.639 E6.96151
G1 X114.351 Y88.722 E6.98559
G1 X114.441 Y88.892 E6.98914
G1 X114.925 Y90.071 E7.01273
G1 X114.981 Y90.258 E7.01633
G1 X115.223 Y91.494 E7.03963
G1 X115.242 Y91.687 E7.04323
G1 X115.242 Y92.940 E7.06641
G1 X115.223 Y93.134 E7.07001
G1 X114.981 Y94.370 E7.09331
G1 X114.925 Y94.556 E7.09691
G1 X114.441 Y95.736 E7.12050
G1 X114.351 Y95.906 E7.12405
G1 X113.629 Y96.989 E7.14814
G1 X113.508 Y97.136 E7.15166
G1 X112.561 Y98.072 E7.17629
G1 X112.415 Y98.190 E7.17977
G1 X111.268 Y98.927 E7.20500
G1 X111.102 Y99.011 E7.20843
G1 X108.927 Y99.662 E7.25044
G1 X106.660 Y99.524 E7.29244
G1 X105.260 Y99.011 E7.32004
G1 X105.094 Y98.927 E7.32348
G1 X103.947 Y98.190 E7.34870
G1 X103.801 Y98.072 E7.35218
G1 X102.853 Y97.135 E7.37682
G1 X102.732 Y96.989 E7.38034
G1 X102.011 Y95.906 E7.40441
G1 X101.921 Y95.736 E7.40797
G1 X101.436 Y94.556 E7.43158
G1 X101.381 Y94.370 E7.43516
G1 X101.138 Y93.134 E7.45846
G1 X101.119 Y92.940 E7.46206
G1 X101.119 Y91.687 E7.48525
G1 X101.138 Y91.493 E7.48885
G1 X101.381 Y90.258 E7.51214
G1 X101.436 Y90.072 E7.51573
G1 X101.921 Y88.891 E7.53934
G1 X102.011 Y88.722 E7.54289
G1 X102.813 Y87.541 E7.56931
G1 X103.044 Y87.649 F6000.000
G1 X103.955 Y86.748 E7.59301 F1167.515
G1 X104.102 Y86.631 E7.59649
G1 X105.205 Y85.921 E7.62075
G1 X105.371 Y85.838 E7.62419
G1 X107.506 Y85.206 E7.66538
G1 X109.727 Y85.364 E7.70657
G1 X110.991 Y85.838 E7.73154 F1167.515
G1 X111.156 Y85.921 E7.73497
G1 X112.260 Y86.631 E7.75924
G1 X112.406 Y86.748 E7.76271
G1 X113.317 Y87.649 E7.78641
G1 X113.438 Y87.796 E7.78993
G1 X114.133 Y88.838 E7.81310
G1 X114.223 Y89.008 E7.81665
G1 X114.688 Y90.142 E7.83934
G1 X114.744 Y90.328 E7.84294
G1 X114.977 Y91.517 E7.86536
G1 X114.996 Y91.711 E7.86896
G1 X114.996 Y92.916 E7.89125
G1 X114.977 Y93.110 E7.89485
G1 X114.744 Y94.299 E7.91727
G1 X114.688 Y94.485 E7.92086
G1 X114.223 Y95.620 E7.94356
G1 X114.133 Y95.790 E7.94711
G1 X113.438 Y96.832 E7.97028
G1 X113.317 Y96.979 E7.97380
G1 X112.406 Y97.879 E7.99750
G1 X112.260 Y97.997 E8.00097
G1 X111.156 Y98.707 E8.02524
G1 X110.991 Y98.790 E8.02867
G1 X108.855 Y99.421 E8.06987
G1 X106.634 Y99.263 E8.11106
G1 X105.371 Y98.790 E8.13601
G1 X105.205 Y98.707 E8.13946
G1 X104.102 Y97.997 E8.16372
G1 X103.955 Y97.879 E8.16720
G1 X103.044 Y96.978 E8.19090
G1 X102.923 Y96.832 E8.19442
G1 X102.229 Y95.790 E8.21758
G1 X102.139 Y95.620 E8.22113
G1 X101.673 Y94.485 E8.24384
G1 X101.618 Y94.299 E8.24743
G1 X101.384 Y93.110 E8.26984
G1 X101.366 Y92.917 E8.27344
G1 X101.366 Y91.711 E8.29574
G1 X101.384 Y91.517 E8.29934
G1 X101.618 Y90.329 E8.32175
G1 X101.673 Y90.143 E8.32534
G1 X102.139 Y89.007 E8.34805
G1 X102.229 Y88.837 E8.35160
G1 X103.004 Y87.698 E8.37710
G1 F1860.000 E5.37710
G92 E0
G1 X108.323 Y92.669 F6000.000
G1 E3.10000 F1860.000
G1 X108.181 Y92.842 E3.10415 F1167.515
G1 X108.038 Y92.669 E3.10829
G1 X107.945 Y92.440 E3.11287
G1 X107.932 Y92.314 E3.11522
G1 X107.981 Y92.067 E3.11987
G1 X108.038 Y91.958 E3.12215
G1 X108.181 Y91.785 E3.12629
G1 X108.323 Y91.958 E3.13044
G1 X108.417 Y92.187 E3.13502
G1 X108.429 Y92.314 E3.13737
G1 X108.417 Y92.440 E3.13972
G1 X108.353 Y92.614 E3.14314
G1 X108.181 Y93.099 F6000.000
G1 X108.069 Y93.042 E3.14544 F1167.515
G1 X107.939 Y92.938 E3.14853
G1 X107.832 Y92.807 E3.15167
G1 X107.751 Y92.655 E3.15485
G1 X107.701 Y92.488 E3.15807
G1 X107.684 Y92.314 E3.16131
G1 X107.701 Y92.139 E3.16455
G1 X107.751 Y91.973 E3.16777
G1 X107.832 Y91.821 E3.17096
G1 X107.939 Y91.690 E3.17410
G1 X108.069 Y91.585 E3.17718
G1 X108.181 Y91.529 E3.17949
G1 X108.292 Y91.585 E3.18180
G1 X108.422 Y91.690 E3.18488
G1 X108.530 Y91.821 E3.18802
G1 X108.611 Y91.973 E3.19120
G1 X108.660 Y92.139 E3.19442
G1 X108.677 Y92.314 E3.19767
G1 X108.660 Y92.488 E3.20091
G1 X108.611 Y92.655 E3.20413
G1 X108.530 Y92.807 E3.20731
G1 X108.422 Y92.938 E3.21045
G1 X108.237 Y93.070 E3.21466
G1 X108.131 Y92.984 F6000.000
G1 X108.167 Y92.490 F6000.000
G1 X108.120 Y92.442 E3.21590 F1167.515
G1 X108.246 Y92.171 E3.22144
G1 X108.197 Y92.122 E3.22272
M140 S50 ; set bed temperature
G1 F1860.000 E0.22272
G92 E0
G1 Z0.400 F6000.000
G1 X108.181 Y91.658 F6000.000
G1 E3.10000 F1860.000
G1 X108.366 Y91.807 E3.10746 F600.000
G1 X108.528 Y92.004 E3.11548
G1 X108.651 Y92.235 E3.12372
G1 X108.727 Y92.492 E3.13213
G1 X108.753 Y92.761 E3.14063
G1 X108.716 Y93.069 E3.15039
M106 S255
G1 X108.651 Y93.286 E3.16250 F600.000
G1 X108.528 Y93.518 E3.17650
G1 X108.366 Y93.715 E3.19013
G1 X108.181 Y93.864 E3.20280
G1 X107.996 Y93.715 E3.21546
G1 X107.834 Y93.518 E3.22909
G1 X107.711 Y93.286 E3.24309
G1 X107.646 Y93.069 E3.25520
M106 S255
G1 X107.608 Y92.761 E3.26496 F600.000
G1 X107.634 Y92.492 E3.27346
G1 X107.711 Y92.235 E3.28187
G1 X107.834 Y92.004 E3.29011
G1 X107.996 Y91.807 E3.29813
G1 X108.132 Y91.697 E3.30361
G1 X108.181 Y91.185 F6000.000
G1 X108.401 Y91.296 E3.31137 F600.000
G1 X108.662 Y91.506 E3.32191
G1 X108.808 Y91.683 E3.32909
M106 S255
G1 X108.879 Y91.769 E3.33508 F600.000
G1 X109.041 Y92.075 E3.35356
G1 X109.141 Y92.410 E3.37224
G1 X109.175 Y92.761 E3.39104
G1 X109.141 Y93.111 E3.40984
G1 X109.041 Y93.447 E3.42853
G1 X108.879 Y93.752 E3.44700
G1 X108.662 Y94.015 E3.46520
G1 X108.401 Y94.225 E3.48309
G1 X108.181 Y94.336 E3.49628
G1 X107.960 Y94.225 E3.50946
G1 X107.699 Y94.015 E3.52736
G1 X107.482 Y93.752 E3.54555
G1 X107.320 Y93.447 E3.56403
G1 X107.220 Y93.111 E3.58271
G1 X107.186 Y92.761 E3.60151
G1 X107.220 Y92.410 E3.62031
G1 X107.320 Y92.075 E3.63900
G1 X107.482 Y91.769 E3.65747
G1 X107.554 Y91.683 E3.66347
M106 S255
G1 X107.699 Y91.506 E3.67065 F600.000
G1 X107.960 Y91.296 E3.68118
G1 X108.124 Y91.214 E3.68696
G1 X107.706 Y91.512 F6000.000
G1 X108.168 Y92.124 F6000.000
M106 S255
G1 X108.211 Y92.144 E3.68950 F600.000
G1 X107.965 Y92.660 E3.72002
G1 X108.396 Y92.861 E3.74542
G1 X108.151 Y93.378 E3.77594
G1 X108.194 Y93.398 E3.77847
M106 S255
G1 F1860.000 E0.77847
G92 E0
G1 Z0.600 F6000.000
G1 X108.181 Y91.189 F6000.000
G1 E3.10000 F1860.000
G1 X108.342 Y91.270 E3.10566 F600.000
G1 X108.684 Y91.545 E3.11946
G1 X108.969 Y91.891 E3.13356
G1 X109.183 Y92.296 E3.14796
G1 X109.317 Y92.741 E3.16257
G1 X109.362 Y93.208 E3.17731
G1 X109.317 Y93.674 E3.19204
G1 X109.220 Y93.999 E3.20270
M106 S255
G1 X109.183 Y94.120 E3.20942 F600.000
G1 X108.969 Y94.525 E3.23388
G1 X108.684 Y94.871 E3.25784
G1 X108.342 Y95.146 E3.28127
G1 X108.181 Y95.227 E3.29090
G1 X108.020 Y95.146 E3.30052
G1 X107.678 Y94.871 E3.32395
G1 X107.393 Y94.525 E3.34791
G1 X107.178 Y94.120 E3.37237
G1 X107.142 Y93.999 E3.37909
M106 S255
G1 X107.045 Y93.674 E3.38975 F600.000
G1 X106.999 Y93.208 E3.40448
G1 X107.045 Y92.741 E3.41922
G1 X107.178 Y92.296 E3.43383
G1 X107.393 Y91.891 E3.44823
G1 X107.678 Y91.545 E3.46233
G1 X108.020 Y91.270 E3.47613
G1 X108.124 Y91.217 E3.47981
G1 X108.181 Y90.718 F6000.000
G1 X108.570 Y90.915 E3.49352 F600.000
G1 X108.981 Y91.244 E3.51007
G1 X109.249 Y91.570 E3.52333
M106 S255
G1 X109.320 Y91.657 E3.52933 F600.000
G1 X109.574 Y92.136 E3.55825
G1 X109.731 Y92.660 E3.58748
G1 X109.784 Y93.208 E3.61687
G1 X109.731 Y93.756 E3.64626
G1 X109.574 Y94.280 E3.67549
G1 X109.320 Y94.759 E3.70442
G1 X108.981 Y95.171 E3.73295
G1 X108.570 Y95.501 E3.76106
G1 X108.181 Y95.697 E3.78435
G1 X107.791 Y95.501 E3.80763
G1 X107.381 Y95.171 E3.83574
G1 X107.041 Y94.759 E3.86428
G1 X106.787 Y94.280 E3.89320
G1 X106.631 Y93.756 E3.92243
G1 X106.577 Y93.208 E3.95182
G1 X106.631 Y92.660 E3.98121
G1 X106.787 Y92.136 E4.01044
G1 X107.041 Y91.657 E4.03937
G1 X107.113 Y91.570 E4.04536
M106 S255
G1 X107.381 Y91.244 E4.05863 F600.000
G1 X107.791 Y90.915 E4.07518
G1 X108.124 Y90.747 E4.08690
G1 X107.392 Y91.256 F6000.000
G1 X108.164 Y91.598 F6000.000
M106 S255
G1 X108.429 Y91.784 E4.10420 F600.000
G1 X107.785 Y91.972 E4.14004
G1 X108.975 Y92.805 E4.21761
G1 X108.991 Y93.455 E4.25234
G1 X107.506 Y92.416 E4.34912
G1 X107.371 Y92.960 E4.37909
G1 X108.856 Y94.000 E4.47587
G1 X108.577 Y94.444 E4.50386
G1 X107.387 Y93.611 E4.58144
G1 X107.932 Y94.632 E4.64328
G1 X108.198 Y94.818 E4.66058
M106 S255
G1 F1860.000 E1.66058
G92 E0
G1 Z0.800 F6000.000
G1 X108.181 Y90.722 F6000.000
G1 E3.10000 F1860.000
G1 X108.511 Y90.888 E3.11161 F742.669
G1 X109.002 Y91.283 E3.13142
G1 X109.410 Y91.779 E3.15161
G1 X109.716 Y92.356 E3.17216
G1 X109.906 Y92.991 E3.19298
G1 X109.971 Y93.655 E3.21395
G1 X109.906 Y94.319 E3.23491
G1 X109.748 Y94.849 E3.25231
M106 S255
G1 X109.716 Y94.953 E3.25813 F600.000
G1 X109.410 Y95.531 E3.29304
G1 X109.002 Y96.027 E3.32733
G1 X108.511 Y96.422 E3.36098
G1 X108.181 Y96.588 E3.38070
G1 X107.851 Y96.422 E3.40043
G1 X107.360 Y96.027 E3.43408
G1 X106.951 Y95.531 E3.46837
G1 X106.645 Y94.953 E3.50328
G1 X106.614 Y94.849 E3.50910
M106 S255
G1 X106.455 Y94.319 E3.52649 F742.669
G1 X106.391 Y93.655 E3.54746
G1 X106.455 Y92.991 E3.56843
G1 X106.645 Y92.356 E3.58925
G1 X106.951 Y91.779 E3.60980
G1 X107.360 Y91.283 E3.62999
G1 X107.851 Y90.888 E3.64980
G1 X108.124 Y90.750 E3.65943
G1 X108.181 Y90.251 F6000.000
G1 X108.739 Y90.533 E3.67908 F742.669
G1 X109.299 Y90.982 E3.70164
