; generated by Slic3r 1.1.7 on 2015-04-02 at 14:30:38

; perimeters extrusion width = 0.40mm
; infill extrusion width = 0.42mm
; solid infill extrusion width = 0.42mm
; top infill extrusion width = 0.42mm
; support material extrusion width = 0.40mm

G21 ; set units to millimeters
M190 S110 ; wait for bed temperature to be reached
M104 S240 ; set temperature
M106 S255; Turn on Fan fully
G28 ; home all axes Start of G Code Slic3r
G1 Z20
M280 P0 S10 
G1 Z22
G29 ; AutoBed leveing
G1 X208 Y20 F4000
G1 Z4
 
  
M109 S240 ; wait for temperature to be reached
G90 ; use absolute coordinates
G92 E0
M82 ; use absolute distances for extrusion
M106 S127
G1 F1980.000 E-4.00000
G92 E0
G1 Z0.300 F6000.000
G1 X78.902 Y57.332 F6000.000
G1 E4.00000 F1980.000
G1 X79.776 Y56.282 E4.05804 F1650.000
G1 X80.781 Y55.237 E4.11963
G1 X82.159 Y54.017 E4.19784
G1 X83.630 Y52.939 E4.27533
G1 X85.183 Y52.011 E4.35221
G1 X86.810 Y51.238 E4.42873
G1 X88.498 Y50.627 E4.50500
G1 X90.240 Y50.180 E4.58139
G1 X91.997 Y49.906 E4.65697
G1 X93.783 Y49.800 E4.73296
G1 X95.572 Y49.866 E4.80905
G1 X97.357 Y50.101 E4.88553 F1650.000
G1 X99.046 Y50.482 E4.95911
G1 X100.350 Y50.887 E5.01713
G1 X101.717 Y51.424 E5.07951
G1 X103.467 Y52.284 E5.16237
G1 X105.064 Y53.269 E5.24207
G1 X128.008 Y69.960 E6.44759
G1 X129.604 Y71.612 E6.54516
G1 X130.542 Y73.708 E6.64274
G1 X130.743 Y75.332 E6.71226
G1 X130.743 Y143.558 E9.61100
G1 X130.346 Y145.820 E9.70858
G1 X129.203 Y147.812 E9.80616
G1 X127.449 Y149.295 E9.90373
G1 X125.296 Y150.093 E10.00131
G1 X124.100 Y150.201 E10.05231
G1 X93.801 Y150.194 E11.33965
G1 X91.963 Y150.083 E11.41787
G1 X90.162 Y149.805 E11.49532
G1 X88.406 Y149.363 E11.57224
G1 X86.708 Y148.758 E11.64883
G1 X85.084 Y147.998 E11.72500
G1 X83.543 Y147.087 E11.80106
G1 X82.099 Y146.033 E11.87700
G1 X80.762 Y144.845 E11.95299
G1 X79.542 Y143.533 E12.02914
G1 X78.449 Y142.107 E12.10545
G1 X77.522 Y140.642 E12.17914
G1 X76.887 Y139.434 E12.23711
G1 X76.307 Y138.106 E12.29867
G1 X75.706 Y136.364 E12.37696
G1 X75.273 Y134.593 E12.45442
G1 X75.083 Y133.432 E12.50440
G1 X75.010 Y132.809 E12.53106
G1 X74.916 Y131.188 E12.60004
G1 X74.919 Y68.925 E15.24547
G1 X74.948 Y67.892 E15.28934
G1 X75.000 Y67.133 E15.32166
G1 X75.135 Y66.048 E15.36815
G1 X75.252 Y65.361 E15.39774
G1 X75.675 Y63.616 E15.47405
G1 X76.257 Y61.937 E15.54954
G1 X77.003 Y60.306 E15.62575
G1 X77.904 Y58.747 E15.70224
G1 X78.867 Y57.381 E15.77325
G1 F1980.000 E11.77325
G92 E0
G1 X79.151 Y57.535 F6000.000
G1 E4.00000 F1980.000
G1 X80.011 Y56.502 E4.05710 F1650.000
G1 X80.998 Y55.475 E4.11761
G1 X82.353 Y54.273 E4.19456
G1 X83.799 Y53.212 E4.27079
G1 X85.326 Y52.299 E4.34638
G1 X86.925 Y51.539 E4.42159
G1 X88.583 Y50.937 E4.49655
G1 X90.295 Y50.497 E4.57162
G1 X92.022 Y50.226 E4.64589
G1 X93.776 Y50.122 E4.72057
G1 X95.535 Y50.185 E4.79536
G1 X97.290 Y50.416 E4.87056 F1650.000
G1 X98.954 Y50.790 E4.94303
G1 X100.237 Y51.188 E5.00012
G1 X101.580 Y51.714 E5.06138
G1 X103.302 Y52.560 E5.14291
G1 X104.875 Y53.529 E5.22137
G1 X127.819 Y70.220 E6.42688
G1 X129.368 Y71.838 E6.52205
G1 X130.256 Y73.894 E6.61722
G1 X130.422 Y75.332 E6.67871
G1 X130.422 Y143.558 E9.57745
G1 X130.025 Y145.763 E9.67262
G1 X128.884 Y147.690 E9.76779
G1 X127.143 Y149.099 E9.86296
G1 X124.100 Y149.880 E9.99641
G1 X93.815 Y149.873 E11.28315
G1 X92.007 Y149.765 E11.36011
G1 X90.235 Y149.492 E11.43628
G1 X88.509 Y149.058 E11.51191
G1 X86.839 Y148.465 E11.58719
G1 X85.235 Y147.714 E11.66246
G1 X83.728 Y146.824 E11.73680
G1 X82.309 Y145.789 E11.81143
G1 X80.994 Y144.623 E11.88611
G1 X79.794 Y143.333 E11.96096
G1 X78.712 Y141.922 E12.03648
G1 X77.805 Y140.489 E12.10857
G1 X77.180 Y139.301 E12.16561
G1 X76.609 Y137.997 E12.22609
G1 X76.017 Y136.283 E12.30312
G1 X75.590 Y134.542 E12.37930
G1 X75.400 Y133.381 E12.42928
G1 X75.331 Y132.787 E12.45467
G1 X75.238 Y131.188 E12.52271
G1 X75.240 Y68.934 E15.16776
G1 X75.269 Y67.901 E15.21163
G1 X75.319 Y67.173 E15.24264
G1 X75.454 Y66.087 E15.28913
G1 X75.565 Y65.431 E15.31740
G1 X75.981 Y63.716 E15.39239
G1 X76.552 Y62.066 E15.46658
G1 X77.284 Y60.462 E15.54150
G1 X78.169 Y58.929 E15.61669
G1 X79.117 Y57.584 E15.68660
G1 F1980.000 E11.68660
G92 E0
G1 X123.307 Y111.726 F6000.000
G1 E4.00000 F1980.000
G1 X94.118 Y111.726 E5.24017 F900.000
G1 X92.944 Y111.673 E5.29011
G1 X91.824 Y111.519 E5.33814
G1 X90.745 Y111.265 E5.38523
G1 X89.711 Y110.917 E5.43162
G1 X88.725 Y110.475 E5.47752
G1 X87.791 Y109.945 E5.52315
G1 X86.914 Y109.327 E5.56872
G1 X86.097 Y108.626 E5.61445
G1 X85.345 Y107.844 E5.66057
G1 X84.661 Y106.982 E5.70728
G1 X84.049 Y106.041 E5.75501
G1 X83.645 Y105.292 E5.79114
G1 X83.287 Y104.503 E5.82796
G1 X82.891 Y103.411 E5.87733
G1 X82.605 Y102.317 E5.92535
G1 X82.426 Y101.223 E5.97245
G1 X82.353 Y100.134 E6.01883
G1 X82.383 Y99.054 E6.06473
G1 X82.516 Y97.989 E6.11036
G1 X82.751 Y96.942 E6.15593
G1 X83.086 Y95.919 E6.20167
G1 X83.521 Y94.925 E6.24778
G1 X84.055 Y93.964 E6.29450
G1 X84.691 Y93.038 E6.34222
G1 X85.228 Y92.378 E6.37835
G1 X85.819 Y91.745 E6.41517
G1 X86.677 Y90.961 E6.46454
G1 X87.578 Y90.279 E6.51257
G1 X88.521 Y89.695 E6.55966
G1 X89.499 Y89.210 E6.60605
G1 X90.508 Y88.825 E6.65194
G1 X91.543 Y88.540 E6.69758
G1 X92.600 Y88.356 E6.74315
G1 X93.673 Y88.274 E6.78888
G1 X94.759 Y88.296 E6.83500
G1 X95.851 Y88.422 E6.88171
G1 X96.950 Y88.655 E6.92944
G1 X97.765 Y88.898 E6.96557
G1 X98.575 Y89.202 E7.00234
G1 X99.689 Y89.727 E7.05466
G1 X100.716 Y90.340 E7.10547
G1 X101.657 Y91.038 E7.15526
G1 X102.511 Y91.814 E7.20430
G1 X103.274 Y92.664 E7.25285
G1 X103.944 Y93.584 E7.30116
G1 X104.517 Y94.567 E7.34951
G1 X104.989 Y95.609 E7.39814
G1 X105.358 Y96.706 E7.44731
G1 X105.624 Y97.873 E7.49816
G1 X106.317 Y101.749 E7.66543
G1 X106.734 Y103.069 E7.72426
G1 X107.165 Y104.092 E7.77143
G1 X107.565 Y104.827 E7.80699
G1 X108.031 Y105.498 E7.84167
G1 X108.398 Y105.916 E7.86531
G1 X108.802 Y106.288 E7.88865
G1 X109.253 Y106.608 E7.91215
G1 X109.751 Y106.867 E7.93598
G1 X110.278 Y107.046 E7.95964
G1 X110.595 Y107.113 E7.97341
G1 X111.152 Y107.164 E7.99719
G1 X123.307 Y107.164 E8.51363
G1 X123.307 Y111.666 E8.70493
G1 F1980.000 E4.70493
G92 E0
G1 X123.629 Y112.048 F6000.000
G1 E4.00000 F1980.000
G1 X94.111 Y112.048 E5.25414 F900.000
G1 X92.915 Y111.994 E5.30502
G1 X91.765 Y111.835 E5.35431
G1 X90.657 Y111.575 E5.40269
G1 X89.593 Y111.216 E5.45037
G1 X88.579 Y110.762 E5.49758
G1 X87.619 Y110.216 E5.54452
G1 X86.716 Y109.581 E5.59141
G1 X85.876 Y108.860 E5.63846
G1 X85.102 Y108.055 E5.68588
G1 X84.400 Y107.170 E5.73389
G1 X83.773 Y106.205 E5.78281
G1 X83.357 Y105.435 E5.81997
G1 X82.989 Y104.625 E5.85780
G1 X82.584 Y103.506 E5.90833
G1 X82.290 Y102.384 E5.95763
G1 X82.107 Y101.260 E6.00600
G1 X82.031 Y100.140 E6.05369
G1 X82.062 Y99.030 E6.10090
G1 X82.199 Y97.933 E6.14784
G1 X82.440 Y96.856 E6.19473
G1 X82.785 Y95.804 E6.24178
G1 X83.232 Y94.782 E6.28920
G1 X83.782 Y93.794 E6.33720
G1 X84.433 Y92.845 E6.38613
G1 X84.985 Y92.167 E6.42328
G1 X85.593 Y91.516 E6.46111
G1 X86.471 Y90.714 E6.51165
G1 X87.396 Y90.013 E6.56094
G1 X88.364 Y89.414 E6.60932
G1 X89.370 Y88.915 E6.65701
G1 X90.408 Y88.519 E6.70421
G1 X91.473 Y88.226 E6.75116
G1 X92.560 Y88.037 E6.79805
G1 X93.664 Y87.952 E6.84509
G1 X94.780 Y87.975 E6.89252
G1 X95.903 Y88.104 E6.94052
G1 X97.029 Y88.343 E6.98944
G1 X97.867 Y88.593 E7.02660
G1 X98.700 Y88.906 E7.06440
G1 X99.840 Y89.443 E7.11795
G1 X100.894 Y90.072 E7.17010
G1 X101.862 Y90.789 E7.22125
G1 X102.740 Y91.587 E7.27167
G1 X103.525 Y92.462 E7.32161
G1 X104.214 Y93.408 E7.37132
G1 X104.803 Y94.419 E7.42106
G1 X105.289 Y95.492 E7.47108
G1 X105.668 Y96.619 E7.52163
G1 X105.939 Y97.809 E7.57349
G1 X106.630 Y101.672 E7.74020
G1 X107.036 Y102.958 E7.79751
G1 X107.455 Y103.952 E7.84337
G1 X107.839 Y104.658 E7.87751
G1 X108.284 Y105.299 E7.91066
G1 X108.628 Y105.691 E7.93280
G1 X109.005 Y106.037 E7.95455
G1 X109.421 Y106.333 E7.97625
G1 X109.877 Y106.570 E7.99808
G1 X110.363 Y106.735 E8.01990
G1 X110.643 Y106.795 E8.03205
G1 X111.167 Y106.842 E8.05439
G1 X123.629 Y106.842 E8.58387
G1 X123.629 Y111.988 E8.80249
G1 F1980.000 E4.80249
G92 E0
G1 X123.950 Y112.369 F6000.000
G1 E4.00000 F1980.000
G1 X94.104 Y112.369 E5.26811 F720.000
G1 X92.885 Y112.314 E5.31992
G1 X91.706 Y112.152 E5.37048
G1 X90.568 Y111.884 E5.42015
G1 X89.476 Y111.516 E5.46913
G1 X88.434 Y111.049 E5.51765
G1 X87.446 Y110.488 E5.56590
G1 X86.518 Y109.835 E5.61411
G1 X85.655 Y109.094 E5.66247
G1 X84.860 Y108.267 E5.71120
G1 X84.139 Y107.358 E5.76050
G1 X83.496 Y106.369 E5.81061
G1 X83.069 Y105.578 E5.84880
G1 X82.691 Y104.746 E5.88763
G1 X82.276 Y103.602 E5.93934
G1 X81.976 Y102.451 E5.98990
G1 X81.787 Y101.297 E6.03956
G1 X81.709 Y100.147 E6.08855
G1 X81.741 Y99.005 E6.13707
G1 X81.882 Y97.878 E6.18532
G1 X82.130 Y96.771 E6.23353
G1 X82.484 Y95.689 E6.28189
G1 X82.944 Y94.639 E6.33061
G1 X83.508 Y93.625 E6.37991
G1 X84.176 Y92.652 E6.43003
G1 X84.743 Y91.955 E6.46821
G1 X85.367 Y91.287 E6.50705
G1 X86.266 Y90.467 E6.55876
G1 X87.214 Y89.748 E6.60932
G1 X88.208 Y89.132 E6.65898
G1 X89.241 Y88.620 E6.70797
G1 X90.308 Y88.213 E6.75648
G1 X91.403 Y87.912 E6.80474
G1 X92.520 Y87.717 E6.85295
G1 X93.655 Y87.631 E6.90130
G1 X94.802 Y87.653 E6.95003
G1 X95.955 Y87.786 E6.99933
G1 X97.109 Y88.031 E7.04945
G1 X97.970 Y88.288 E7.08763
G1 X98.825 Y88.609 E7.12646
G1 X99.991 Y89.159 E7.18123
G1 X101.073 Y89.804 E7.23473
G1 X102.066 Y90.540 E7.28725
G1 X102.968 Y91.360 E7.33905
G1 X103.775 Y92.259 E7.39038
G1 X104.483 Y93.232 E7.44148
G1 X105.089 Y94.272 E7.49262
G1 X105.588 Y95.374 E7.54402
G1 X105.978 Y96.532 E7.59595
G1 X106.254 Y97.745 E7.64882
G1 X106.943 Y101.595 E7.81497
G1 X107.338 Y102.847 E7.87075
G1 X107.745 Y103.813 E7.91530
G1 X108.113 Y104.490 E7.94802
G1 X108.538 Y105.101 E7.97966
G1 X108.858 Y105.466 E8.00029
G1 X109.208 Y105.787 E8.02045
G1 X109.589 Y106.059 E8.04034
G1 X110.004 Y106.274 E8.06018
G1 X110.449 Y106.425 E8.08016
G1 X110.691 Y106.476 E8.09068
G1 X111.181 Y106.521 E8.11160
G1 X123.950 Y106.521 E8.65412
G1 X123.950 Y112.309 E8.90005
G1 F1980.000 E4.90005
G92 E0
G1 X123.604 Y112.169 F6000.000
G1 X123.054 Y107.377 F6000.000
G1 E4.00000 F1980.000
G1 X123.094 Y107.417 E4.00240 F900.000
G1 X123.094 Y107.873 E4.02179
G1 X122.598 Y107.377 E4.05162
G1 X122.142 Y107.377 E4.07101
G1 X123.094 Y108.330 E4.12825
G1 X123.094 Y108.786 E4.14764
G1 X121.685 Y107.377 E4.23230
G1 X121.229 Y107.377 E4.25169
G1 X123.094 Y109.242 E4.36378
G1 X123.094 Y109.699 E4.38317
G1 X120.773 Y107.377 E4.52267
G1 X120.316 Y107.377 E4.54206
G1 X123.094 Y110.155 E4.70899
G1 X123.094 Y110.611 E4.72838
G1 X119.860 Y107.377 E4.92272
G1 X119.403 Y107.377 E4.94211
G1 X123.094 Y111.068 E5.16388
G1 X123.069 Y111.499 E5.18222
G1 X118.947 Y107.377 E5.42989
G1 X118.491 Y107.377 E5.44928
G1 X122.627 Y111.513 E5.69782
G1 X122.171 Y111.513 E5.71721
G1 X118.034 Y107.377 E5.96576
G1 X117.578 Y107.377 E5.98515
G1 X121.715 Y111.513 E6.23370
G1 X121.258 Y111.513 E6.25309
G1 X117.122 Y107.377 E6.50163
G1 X116.665 Y107.377 E6.52102
G1 X120.802 Y111.513 E6.76957
G1 X120.346 Y111.513 E6.78896
G1 X116.209 Y107.377 E7.03751
G1 X115.753 Y107.377 E7.05690
G1 X119.889 Y111.513 E7.30544
G1 X119.433 Y111.513 E7.32483
G1 X115.296 Y107.377 E7.57338
G1 X114.840 Y107.377 E7.59277
G1 X118.976 Y111.513 E7.84132
G1 X118.520 Y111.513 E7.86071
G1 X114.384 Y107.377 E8.10925
G1 X113.927 Y107.377 E8.12864
G1 X118.064 Y111.513 E8.37719
G1 X117.607 Y111.513 E8.39658
G1 X113.471 Y107.377 E8.64513
G1 X113.015 Y107.377 E8.66452
G1 X117.151 Y111.513 E8.91306
G1 X116.695 Y111.513 E8.93245
G1 X112.558 Y107.377 E9.18100
G1 X112.102 Y107.377 E9.20039
G1 X116.238 Y111.513 E9.44894
G1 X115.782 Y111.513 E9.46833
G1 X111.646 Y107.377 E9.71687
G1 X111.189 Y107.377 E9.73626
G1 X115.326 Y111.513 E9.98481
G1 X114.869 Y111.513 E10.00420
G1 X110.692 Y107.336 E10.25520
G1 X110.115 Y107.216 E10.28023
G1 X114.413 Y111.513 E10.53846
G1 X113.957 Y111.513 E10.55785
G1 X109.334 Y106.890 E10.83563
G1 F1980.000 E6.83563
G92 E0
G1 X107.385 Y104.942 F6000.000
G1 E4.00000 F1980.000
G1 X91.277 Y88.834 E4.96789 F900.000
G1 X90.919 Y88.932 E4.98366
G1 X113.500 Y111.513 E6.34046
G1 X113.044 Y111.513 E6.35985
G1 X90.563 Y89.032 E7.71068
G1 X90.232 Y89.158 E7.72570
G1 X112.588 Y111.513 E9.06895
G1 X112.131 Y111.513 E9.08834
G1 X89.902 Y89.284 E10.42402
G1 X89.573 Y89.411 E10.43901
G1 X111.675 Y111.513 E11.76706
G1 X111.219 Y111.513 E11.78645
G1 X89.268 Y89.562 E13.10540
G1 X88.962 Y89.714 E13.11987
G1 X110.762 Y111.513 E14.42974
G1 X110.306 Y111.513 E14.44913
G1 X88.657 Y89.865 E15.74992
G1 X88.373 Y90.037 E15.76404
G1 X109.850 Y111.513 E17.05448
G1 X109.393 Y111.513 E17.07387
G1 X88.091 Y90.211 E18.35383
G1 X87.809 Y90.386 E18.36791
G1 X108.937 Y111.513 E19.63737
G1 X108.480 Y111.513 E19.65676
G1 X87.541 Y90.574 E20.91493
G1 X87.281 Y90.771 E20.92877
G1 X108.024 Y111.513 E22.17512
G1 X107.568 Y111.513 E22.19451
G1 X87.022 Y90.967 E23.42904
G1 X86.766 Y91.168 E23.44285
G1 X107.111 Y111.513 E24.66531
G1 X106.655 Y111.513 E24.68470
G1 X86.528 Y91.386 E25.89407
G1 X86.290 Y91.604 E25.90779
G1 X106.199 Y111.513 E27.10406
G1 X105.742 Y111.513 E27.12345
G1 X86.061 Y91.832 E28.30600
G1 X85.833 Y92.061 E28.31971
G1 X105.286 Y111.513 E29.48855
G1 X104.830 Y111.513 E29.50794
G1 X85.605 Y92.289 E30.66308
G1 X85.384 Y92.524 E30.67679
G1 X104.373 Y111.513 E31.81781
G1 X103.917 Y111.513 E31.83720
G1 X85.179 Y92.775 E32.96310
G1 X84.974 Y93.027 E32.97688
G1 X103.461 Y111.513 E34.08765
G1 X103.004 Y111.513 E34.10704
G1 X84.778 Y93.287 E35.20218
G1 X84.592 Y93.558 E35.21613
G1 X102.548 Y111.513 E36.29501
G1 X102.092 Y111.513 E36.31440
G1 X84.407 Y93.828 E37.37703
G1 X84.223 Y94.101 E37.39099
G1 X101.635 Y111.513 E38.43725
G1 X101.179 Y111.513 E38.45664
G1 X84.060 Y94.394 E39.48527
G1 X83.897 Y94.687 E39.49953
G1 X100.723 Y111.513 E40.51054
G1 X100.266 Y111.513 E40.52993
G1 X83.733 Y94.981 E41.52332
G1 X83.591 Y95.295 E41.53797
G1 X99.810 Y111.513 E42.51248
G1 X99.353 Y111.513 E42.53187
G1 X83.452 Y95.612 E43.48731
G1 X83.314 Y95.930 E43.50203
G1 X98.897 Y111.513 E44.43839
G1 X98.441 Y111.513 E44.45778
G1 X83.195 Y96.268 E45.37382
G1 X83.083 Y96.612 E45.38919
G1 X97.984 Y111.513 E46.28457
G1 X97.528 Y111.513 E46.30396
G1 X82.970 Y96.956 E47.17868
G1 X82.883 Y97.325 E47.19480
G1 X97.072 Y111.513 E48.04735
G1 X96.615 Y111.513 E48.06674
G1 X82.800 Y97.698 E48.89688
G1 X82.720 Y98.074 E48.91324
G1 X96.159 Y111.513 E49.72075
G1 X95.703 Y111.513 E49.74013
G1 X82.669 Y98.480 E50.52326
G1 X82.619 Y98.886 E50.54063
G1 X95.246 Y111.513 E51.29938
G1 X94.790 Y111.513 E51.31877
G1 X82.589 Y99.312 E52.05188
G1 X82.576 Y99.756 E52.07075
G1 X94.334 Y111.513 E52.77720
G1 X93.866 Y111.502 E52.79709
G1 X82.571 Y100.207 E53.47573
G1 X82.604 Y100.697 E53.49657
G1 X93.388 Y111.480 E54.14451
G1 X92.904 Y111.453 E54.16509
G1 X82.637 Y101.186 E54.78197
G1 X82.725 Y101.730 E54.80539
G1 X92.374 Y111.380 E55.38519
G1 X91.843 Y111.304 E55.40801
G1 X82.815 Y102.276 E55.95047
G1 X82.976 Y102.894 E55.97760
G1 X91.246 Y111.164 E56.47454
G1 X90.626 Y111.000 E56.50179
G1 X83.163 Y103.538 E56.95021
G1 F1980.000 E52.95021
G92 E0
G1 X83.422 Y104.253 F6000.000
G1 E4.00000 F1980.000
G1 X89.938 Y110.768 E4.39148 F900.000
G1 F1980.000 E0.39148
G92 E0
G1 X89.142 Y110.428 F6000.000
G1 E4.00000 F1980.000
G1 X83.774 Y105.061 E4.32252 F900.000
G1 F1980.000 E0.32252
G92 E0
G1 X84.315 Y106.058 F6000.000
G1 E4.00000 F1980.000
G1 X88.174 Y109.917 E4.23190 F900.000
G1 F1980.000 E0.23190
G92 E0
G1 X86.443 Y108.643 F6000.000
G1 E4.00000 F1980.000
G1 X85.542 Y107.742 E4.05415 F900.000
G1 F1980.000 E0.05415
G92 E0
G1 X91.639 Y88.739 F6000.000
G1 E4.00000 F1980.000
G1 X106.892 Y103.993 E4.91651 F900.000
G1 F1980.000 E0.91651
G92 E0
G1 X106.559 Y103.203 F6000.000
G1 E4.00000 F1980.000
G1 X92.028 Y88.672 E4.87312 F900.000
G1 X92.416 Y88.604 E4.88989
G1 X106.339 Y102.527 E5.72645
G1 X106.129 Y101.860 E5.75616
G1 X92.821 Y88.553 E6.55575
G1 X93.245 Y88.520 E6.57382
G1 X106.019 Y101.294 E7.34135
G1 X105.920 Y100.739 E7.36534
G1 X93.669 Y88.488 E8.10143
G1 X94.134 Y88.496 E8.12117
G1 X105.821 Y100.183 E8.82337
G1 X105.721 Y99.627 E8.84736
G1 X94.600 Y88.506 E9.51561
