; generated by Slic3r 1.1.7 on 2015-03-11 at 14:39:57

; perimeters extrusion width = 0.40mm
; infill extrusion width = 0.42mm
; solid infill extrusion width = 0.42mm
; top infill extrusion width = 0.42mm
; support material extrusion width = 0.40mm

G21 ; set units to millimeters
M190 S60 ; wait for bed temperature to be reached
M104 S215 ; set temperature
M106 S255; Turn on Fan fully
G28 ; home all axes Start of G Code Slic3r
 
  
M109 S215 ; wait for temperature to be reached
G90 ; use absolute coordinates
G92 E0
M82 ; use absolute distances for extrusion
G1 F1980.000 E-4.00000
G92 E0
G1 Z0.300 F6000.000
G1 X38.210 Y66.269 F6000.000
G1 E4.00000 F1980.000
G1 X40.363 Y65.472 E4.09208 F1650.000
G1 X41.559 Y65.363 E4.14021
G1 X158.443 Y65.379 E8.82659
G1 X160.705 Y65.777 E8.91867 F1650.000
G1 X162.696 Y66.921 E9.01075
G1 X164.179 Y68.674 E9.10283
G1 X164.976 Y70.828 E9.19491
G1 X165.084 Y72.022 E9.24298
G1 X165.084 Y127.978 E11.48648
G1 X164.687 Y130.240 E11.57856
G1 X163.544 Y132.232 E11.67064
G1 X161.790 Y133.715 E11.76272
G1 X159.637 Y134.512 E11.85480
G1 X158.443 Y134.621 E11.90287
G1 X41.559 Y134.637 E16.58925
G1 X39.297 Y134.240 E16.68133
G1 X37.305 Y133.096 E16.77341
G1 X35.822 Y131.343 E16.86549
G1 X35.024 Y129.189 E16.95757
G1 X34.916 Y127.994 E17.00570
G1 X34.916 Y72.006 E19.25046
G1 X35.313 Y69.744 E19.34254
G1 X36.456 Y67.753 E19.43462
G1 X38.164 Y66.308 E19.52430
G1 F1980.000 E15.52430
G92 E0
G1 X38.427 Y66.538 F6000.000
G1 E4.00000 F1980.000
G1 X38.516 Y66.465 E4.00461 F1650.000
G1 X41.559 Y65.685 E4.13055
G1 X158.443 Y65.701 E8.81693
G1 X160.647 Y66.098 E8.90674 F1650.000
G1 X162.574 Y67.239 E8.99654
G1 X163.983 Y68.981 E9.08635
G1 X164.763 Y72.022 E9.21224
G1 X164.763 Y127.978 E11.45575
G1 X164.366 Y130.182 E11.54555
G1 X163.225 Y132.110 E11.63536
G1 X161.484 Y133.519 E11.72517
G1 X158.443 Y134.299 E11.85106
G1 X41.559 Y134.315 E16.53743
G1 X39.354 Y133.918 E16.62724
G1 X37.427 Y132.778 E16.71705
G1 X36.018 Y131.036 E16.80686
G1 X35.237 Y127.994 E16.93280
G1 X35.237 Y72.006 E19.17756
G1 X35.634 Y69.802 E19.26737
G1 X36.775 Y67.874 E19.35718
G1 X38.380 Y66.575 E19.43997
G1 F1980.000 E15.43997
G92 E0
G1 X90.846 Y86.160 F6000.000
G1 E4.00000 F1980.000
G1 X90.623 Y86.283 E4.01020 F900.000
G1 X90.386 Y86.376 E4.02042
G1 X90.139 Y86.440 E4.03063
G1 X89.887 Y86.472 E4.04083
G1 X89.632 Y86.472 E4.05104
G1 X89.380 Y86.440 E4.06125
G1 X89.133 Y86.376 E4.07146
G1 X88.896 Y86.283 E4.08167
G1 X88.673 Y86.160 E4.09188
G1 X88.467 Y86.010 E4.10209
G1 X88.281 Y85.836 E4.11230
G1 X88.119 Y85.640 E4.12250
G1 X87.983 Y85.425 E4.13272
G1 X87.874 Y85.194 E4.14292
G1 X87.796 Y84.952 E4.15314
G1 X87.748 Y84.702 E4.16334
G1 X87.732 Y84.448 E4.17355
G1 X87.748 Y84.194 E4.18376
G1 X87.796 Y83.944 E4.19397
G1 X87.874 Y83.702 E4.20418
G1 X87.983 Y83.471 E4.21439
G1 X88.119 Y83.256 E4.22460
G1 X88.282 Y83.060 E4.23481
G1 X88.467 Y82.886 E4.24501
G1 X88.673 Y82.736 E4.25523
G1 X88.896 Y82.613 E4.26543
G1 X89.133 Y82.520 E4.27564
G1 X89.380 Y82.456 E4.28585
G1 X89.632 Y82.424 E4.29606
G1 X89.887 Y82.424 E4.30627
G1 X90.082 Y82.449 E4.31415
G1 X90.386 Y82.520 E4.32667 F900.000
G1 X90.623 Y82.613 E4.33688
G1 X90.846 Y82.736 E4.34709
G1 X91.052 Y82.886 E4.35730
G1 X91.238 Y83.060 E4.36751
G1 X91.400 Y83.256 E4.37771
G1 X91.536 Y83.471 E4.38793
G1 X91.645 Y83.702 E4.39814
G1 X91.723 Y83.944 E4.40835
G1 X91.771 Y84.194 E4.41855
G1 X91.787 Y84.448 E4.42876
G1 X91.771 Y84.702 E4.43897
G1 X91.723 Y84.952 E4.44918
G1 X91.645 Y85.194 E4.45939
G1 X91.536 Y85.425 E4.46960
G1 X91.400 Y85.640 E4.47981
G1 X91.238 Y85.836 E4.49002
G1 X91.052 Y86.010 E4.50023
G1 X90.894 Y86.125 E4.50803
G1 F1980.000 E0.50803
G92 E0
G1 X90.673 Y85.888 F6000.000
G1 E4.00000 F1980.000
G1 X90.486 Y85.991 E4.00858 F720.000
G1 X90.287 Y86.070 E4.01717
G1 X90.079 Y86.123 E4.02576
G1 X89.867 Y86.150 E4.03435
G1 X89.652 Y86.150 E4.04293
G1 X89.440 Y86.123 E4.05152
G1 X89.233 Y86.070 E4.06011
G1 X89.033 Y85.991 E4.06870
G1 X88.846 Y85.888 E4.07728
G1 X88.672 Y85.762 E4.08587
G1 X88.516 Y85.615 E4.09446
G1 X88.380 Y85.450 E4.10304
G1 X88.265 Y85.270 E4.11163
G1 X88.174 Y85.076 E4.12022
G1 X88.108 Y84.872 E4.12881
G1 X88.067 Y84.662 E4.13739
G1 X88.054 Y84.448 E4.14598
G1 X88.067 Y84.234 E4.15457
G1 X88.108 Y84.024 E4.16315
G1 X88.174 Y83.820 E4.17174
G1 X88.265 Y83.626 E4.18033
G1 X88.380 Y83.446 E4.18892
G1 X88.516 Y83.281 E4.19751
G1 X88.672 Y83.134 E4.20609
G1 X88.846 Y83.008 E4.21468
G1 X89.033 Y82.905 E4.22327
G1 X89.233 Y82.826 E4.23186
G1 X89.440 Y82.773 E4.24044
G1 X89.652 Y82.746 E4.24903
G1 X89.867 Y82.746 E4.25762 F720.000
G1 X90.079 Y82.773 E4.26620
G1 X90.287 Y82.826 E4.27479
G1 X90.486 Y82.905 E4.28338
G1 X90.673 Y83.008 E4.29196
G1 X90.847 Y83.134 E4.30055
G1 X91.003 Y83.281 E4.30914
G1 X91.139 Y83.446 E4.31773
G1 X91.254 Y83.626 E4.32632
G1 X91.345 Y83.820 E4.33490
G1 X91.411 Y84.024 E4.34349
G1 X91.452 Y84.234 E4.35208
G1 X91.465 Y84.448 E4.36066
G1 X91.452 Y84.662 E4.36925
G1 X91.411 Y84.872 E4.37784
G1 X91.345 Y85.076 E4.38643
G1 X91.254 Y85.270 E4.39501
G1 X91.139 Y85.450 E4.40360
G1 X91.003 Y85.615 E4.41219
G1 X90.722 Y85.853 E4.42693
G1 F1980.000 E0.42693
G92 E0
G1 X89.621 Y82.534 F6000.000
G1 X89.887 Y113.528 F6000.000
G1 E4.00000 F1980.000
G1 X90.082 Y113.553 E4.00789 F900.000
G1 X90.386 Y113.624 E4.02040 F900.000
G1 X90.623 Y113.717 E4.03062
G1 X90.846 Y113.840 E4.04082
G1 X91.052 Y113.990 E4.05103
G1 X91.238 Y114.164 E4.06124
G1 X91.400 Y114.360 E4.07145
G1 X91.536 Y114.575 E4.08166
G1 X91.645 Y114.806 E4.09187
G1 X91.723 Y115.048 E4.10208
G1 X91.771 Y115.298 E4.11229
G1 X91.787 Y115.552 E4.12249
G1 X91.771 Y115.806 E4.13270
G1 X91.723 Y116.056 E4.14291
G1 X91.645 Y116.298 E4.15312
G1 X91.536 Y116.529 E4.16333
G1 X91.400 Y116.744 E4.17354
G1 X91.238 Y116.940 E4.18375
G1 X91.052 Y117.114 E4.19396
G1 X90.846 Y117.264 E4.20417
G1 X90.623 Y117.387 E4.21437
G1 X90.386 Y117.480 E4.22459
G1 X90.139 Y117.544 E4.23480
G1 X89.887 Y117.576 E4.24500
G1 X89.632 Y117.576 E4.25521
G1 X89.380 Y117.544 E4.26542
G1 X89.133 Y117.480 E4.27563
G1 X88.896 Y117.387 E4.28584
G1 X88.673 Y117.264 E4.29604
G1 X88.467 Y117.114 E4.30626
G1 X88.281 Y116.940 E4.31647
G1 X88.119 Y116.744 E4.32667
G1 X87.983 Y116.529 E4.33689
G1 X87.874 Y116.298 E4.34709
G1 X87.796 Y116.056 E4.35731
G1 X87.748 Y115.806 E4.36751
G1 X87.732 Y115.552 E4.37772
G1 X87.748 Y115.298 E4.38793
G1 X87.796 Y115.048 E4.39814
G1 X87.874 Y114.806 E4.40835
G1 X87.983 Y114.575 E4.41856
G1 X88.119 Y114.360 E4.42877
G1 X88.281 Y114.164 E4.43897
G1 X88.467 Y113.990 E4.44918
G1 X88.673 Y113.840 E4.45940
G1 X88.896 Y113.717 E4.46960
G1 X89.133 Y113.624 E4.47981
G1 X89.380 Y113.560 E4.49002
G1 X89.632 Y113.528 E4.50023
G1 X89.827 Y113.528 E4.50803
G1 F1980.000 E0.50803
G92 E0
G1 X89.867 Y113.850 F6000.000
G1 E4.00000 F1980.000
G1 X90.079 Y113.877 E4.00859 F720.000
G1 X90.287 Y113.930 E4.01717
G1 X90.486 Y114.009 E4.02576
G1 X90.673 Y114.112 E4.03435
G1 X90.847 Y114.238 E4.04293
G1 X91.003 Y114.385 E4.05152
G1 X91.139 Y114.550 E4.06011
G1 X91.254 Y114.730 E4.06870
G1 X91.345 Y114.924 E4.07729
G1 X91.411 Y115.128 E4.08587
G1 X91.452 Y115.338 E4.09446
G1 X91.465 Y115.552 E4.10305
G1 X91.452 Y115.766 E4.11163
G1 X91.411 Y115.976 E4.12022
G1 X91.345 Y116.180 E4.12881
G1 X91.254 Y116.374 E4.13740
G1 X91.139 Y116.554 E4.14599
G1 X91.003 Y116.719 E4.15457
G1 X90.847 Y116.866 E4.16316
G1 X90.673 Y116.992 E4.17175
G1 X90.486 Y117.095 E4.18033
G1 X90.287 Y117.174 E4.18892
G1 X90.079 Y117.227 E4.19751
G1 X89.867 Y117.254 E4.20609
G1 X89.615 Y117.249 E4.21618
G1 X89.233 Y117.174 E4.23181
G1 X89.033 Y117.095 E4.24040
G1 X88.846 Y116.992 E4.24899
G1 X88.672 Y116.866 E4.25758
G1 X88.516 Y116.719 E4.26617
G1 X88.380 Y116.554 E4.27475
G1 X88.265 Y116.374 E4.28334
G1 X88.174 Y116.180 E4.29193
G1 X88.108 Y115.976 E4.30052
G1 X88.067 Y115.766 E4.30910
G1 X88.054 Y115.552 E4.31769
G1 X88.067 Y115.338 E4.32628
G1 X88.108 Y115.128 E4.33486
G1 X88.174 Y114.924 E4.34345
G1 X88.265 Y114.730 E4.35204
G1 X88.380 Y114.550 E4.36063
G1 X88.516 Y114.385 E4.36921
G1 X88.672 Y114.238 E4.37780
G1 X88.846 Y114.112 E4.38639
G1 X89.033 Y114.009 E4.39497
G1 X89.233 Y113.930 E4.40356
G1 X89.440 Y113.877 E4.41215
G1 X89.652 Y113.850 E4.42074
G1 X89.807 Y113.850 E4.42692 F720.000
G1 F1980.000 E0.42692
G92 E0
G1 X89.652 Y113.696 F6000.000
G1 X78.308 Y102.545 F6000.000
G1 E4.00000 F1980.000
G1 X74.254 Y102.545 E4.16251 F900.000
G1 X74.254 Y97.455 E4.36660
G1 X78.308 Y97.455 E4.52911
G1 X78.308 Y102.485 E4.73079
G1 F1980.000 E0.73079
G92 E0
G1 X77.986 Y102.224 F6000.000
G1 E4.00000 F1980.000
G1 X74.576 Y102.224 E4.13674 F720.000
G1 X74.576 Y97.776 E4.31504
G1 X77.986 Y97.776 E4.45178
G1 X77.986 Y102.164 E4.62768
G1 F1980.000 E0.62768
G92 E0
G1 X77.986 Y102.624 F6000.000
G1 X53.563 Y93.049 F6000.000
G1 E4.00000 F1980.000
G1 X59.905 Y93.049 E4.25427 F900.000
G1 X59.905 Y118.356 E5.26897
G1 X53.563 Y118.356 E5.52324
G1 X53.522 Y118.564 E5.53174
G1 X53.797 Y118.707 E5.54416
G1 X53.963 Y118.837 E5.55259
G1 X54.109 Y118.988 E5.56104
G1 X54.233 Y119.159 E5.56949
G1 X54.332 Y119.344 E5.57792
G1 X54.404 Y119.542 E5.58637
G1 X54.448 Y119.748 E5.59482
G1 X54.463 Y119.958 E5.60326
G1 X54.448 Y120.168 E5.61170
G1 X54.404 Y120.375 E5.62015
G1 X54.332 Y120.572 E5.62859
G1 X54.233 Y120.758 E5.63702
G1 X54.109 Y120.929 E5.64547
G1 X53.963 Y121.080 E5.65392
G1 X53.797 Y121.210 E5.66235
G1 X53.615 Y121.315 E5.67080
G1 X53.420 Y121.394 E5.67925
G1 X53.215 Y121.445 E5.68770
G1 X53.006 Y121.467 E5.69613
G1 X52.795 Y121.460 E5.70457
G1 X52.588 Y121.423 E5.71301
G1 X52.388 Y121.358 E5.72146
G1 X52.198 Y121.266 E5.72990
G1 X52.024 Y121.148 E5.73835
G1 X51.867 Y121.007 E5.74678
G1 X51.711 Y120.813 E5.75678
G1 X51.620 Y120.667 E5.76366
G1 X51.535 Y120.475 E5.77210
G1 X51.477 Y120.272 E5.78055
G1 X51.447 Y120.064 E5.78898
G1 X51.447 Y119.853 E5.79744
G1 X51.477 Y119.645 E5.80587
G1 X51.535 Y119.442 E5.81432
G1 X51.620 Y119.250 E5.82276
G1 X51.732 Y119.071 E5.83121
G1 X51.867 Y118.910 E5.83966
G1 X52.024 Y118.769 E5.84809
G1 X52.198 Y118.651 E5.85653
G1 X52.395 Y118.556 E5.86528
G1 X52.348 Y118.356 E5.87348
G1 X45.898 Y118.356 E6.13211
G1 X45.898 Y93.049 E7.14681
G1 X52.348 Y93.049 E7.40544
G1 X52.395 Y92.849 E7.41364
G1 X52.199 Y92.754 E7.42238
G1 X52.024 Y92.636 E7.43083
G1 X51.867 Y92.495 E7.43927
G1 X51.732 Y92.334 E7.44771
G1 X51.620 Y92.155 E7.45616
G1 X51.524 Y91.925 E7.46615
G1 X51.477 Y91.760 E7.47304
G1 X51.447 Y91.552 E7.48147
G1 X51.447 Y91.341 E7.48992
G1 X51.477 Y91.133 E7.49836
G1 X51.535 Y90.930 E7.50681
G1 X51.620 Y90.738 E7.51524
G1 X51.732 Y90.559 E7.52369
G1 X51.867 Y90.398 E7.53213
G1 X52.024 Y90.257 E7.54057
G1 X52.198 Y90.139 E7.54902
G1 X52.388 Y90.047 E7.55746
G1 X52.588 Y89.982 E7.56591
G1 X52.795 Y89.945 E7.57435
G1 X53.006 Y89.938 E7.58279
G1 X53.215 Y89.960 E7.59123
G1 X53.420 Y90.011 E7.59968
G1 X53.579 Y90.075 E7.60656
G1 X53.797 Y90.195 E7.61656
G1 X53.963 Y90.325 E7.62499
G1 X54.109 Y90.476 E7.63344
G1 X54.233 Y90.647 E7.64188
G1 X54.332 Y90.832 E7.65032
G1 X54.404 Y91.030 E7.65876
G1 X54.448 Y91.236 E7.66722
G1 X54.463 Y91.446 E7.67565
G1 X54.448 Y91.656 E7.68409
G1 X54.404 Y91.863 E7.69254
G1 X54.332 Y92.060 E7.70099
G1 X54.233 Y92.246 E7.70942
G1 X54.109 Y92.417 E7.71786
G1 X53.963 Y92.568 E7.72631
G1 X53.797 Y92.698 E7.73475
G1 X53.522 Y92.840 E7.74717
G1 X53.551 Y92.990 E7.75327
G1 F1980.000 E3.75327
G92 E0
G1 X53.364 Y92.558 F6000.000
G1 E4.00000 F1980.000
G1 X53.159 Y92.616 E4.00855 F720.000
G1 X52.829 Y92.627 E4.02180
G1 X52.650 Y92.593 E4.02909
G1 X52.360 Y92.475 E4.04168
G1 X52.222 Y92.382 E4.04832
G1 X51.993 Y92.144 E4.06157
G1 X51.838 Y91.852 E4.07482
G1 X51.792 Y91.693 E4.08146
G1 X51.769 Y91.529 E4.08810
G1 X51.792 Y91.200 E4.10135
G1 X51.838 Y91.040 E4.10799
G1 X51.993 Y90.749 E4.12124
G1 X52.222 Y90.511 E4.13449
G1 X52.360 Y90.418 E4.14113
G1 X52.666 Y90.294 E4.15438
G1 X52.978 Y90.261 E4.16697
G1 X53.159 Y90.277 E4.17426 F720.000
G1 X53.320 Y90.317 E4.18090
G1 X53.603 Y90.454 E4.19350
G1 X53.747 Y90.564 E4.20079
G1 X53.960 Y90.817 E4.21404
G1 X54.094 Y91.119 E4.22729
G1 X54.129 Y91.281 E4.23393
G1 X54.129 Y91.612 E4.24717
G1 X54.094 Y91.774 E4.25382
G1 X53.960 Y92.075 E4.26707
G1 X53.747 Y92.329 E4.28032
G1 X53.617 Y92.431 E4.28695
G1 X53.420 Y92.535 E4.29589
G1 F1980.000 E0.29589
G92 E0
G1 X53.139 Y90.346 F6000.000
G1 X59.583 Y93.370 F6000.000
G1 E4.00000 F1980.000
G1 X59.583 Y118.035 E4.98892 F720.000
G1 X46.219 Y118.035 E5.52473
G1 X46.219 Y93.370 E6.51364
G1 X59.523 Y93.370 E7.04704
G1 F1980.000 E3.04704
G92 E0
G1 X59.383 Y93.716 F6000.000
G1 X53.251 Y118.812 F6000.000
G1 E4.00000 F1980.000
G1 X53.474 Y118.891 E4.00947 F720.000
G1 X53.617 Y118.974 E4.01611
G1 X53.863 Y119.195 E4.02936
G1 X53.960 Y119.329 E4.03600
G1 X54.094 Y119.631 E4.04925
G1 X54.129 Y119.793 E4.05589
G1 X54.129 Y120.124 E4.06914
G1 X54.094 Y120.286 E4.07578
G1 X53.960 Y120.587 E4.08903
G1 X53.863 Y120.721 E4.09567
G1 X53.617 Y120.943 E4.10891
G1 X53.320 Y121.088 E4.12217
G1 X52.995 Y121.145 E4.13542
G1 X52.829 Y121.139 E4.14205
G1 X52.508 Y121.059 E4.15531
G1 X52.360 Y120.986 E4.16195
G1 X52.222 Y120.894 E4.16859
G1 X52.089 Y120.771 E4.17588
G1 X51.905 Y120.516 E4.18847
G1 X51.838 Y120.364 E4.19511
G1 X51.769 Y120.041 E4.20836
G1 X51.769 Y119.875 E4.21501
G1 X51.838 Y119.552 E4.22825
G1 X51.993 Y119.261 E4.24150
G1 X52.099 Y119.134 E4.24815
G1 X52.222 Y119.023 E4.25478
G1 X52.508 Y118.858 E4.26803
G1 X52.666 Y118.806 E4.27467
G1 X52.978 Y118.773 E4.28726
G1 X53.193 Y118.798 E4.29593 F720.000
G1 F1980.000 E0.29593
G92 E0
G1 X52.995 Y118.557 F6000.000
G1 X83.586 Y122.546 F6000.000
G1 E4.00000 F1980.000
G1 X83.586 Y127.522 E4.19953 F900.000
G1 X42.030 Y127.522 E5.86568
G1 X42.030 Y72.478 E8.07264
G1 X83.586 Y72.478 E9.73879
G1 X83.591 Y77.455 E9.93833
G1 X94.985 Y77.455 E10.39519
G1 X94.985 Y122.546 E12.20308
G1 X83.646 Y122.546 E12.65772
G1 F1980.000 E8.65772
G92 E0
G1 X83.907 Y122.867 F6000.000
G1 E4.00000 F1980.000
G1 X83.907 Y127.844 E4.19953 F720.000
G1 X41.709 Y127.844 E5.89146
G1 X41.709 Y72.156 E8.12420
G1 X83.907 Y72.156 E9.81611
G1 X83.912 Y77.133 E10.01565
G1 X95.307 Y77.133 E10.47251
G1 X95.307 Y122.867 E12.30618
G1 X83.967 Y122.867 E12.76082
G1 F1980.000 E8.76082
G92 E0
G1 X83.507 Y122.867 F6000.000
G1 X91.920 Y114.962 F6000.000
G1 E4.00000 F1980.000
G1 X94.772 Y117.815 E4.16176 F900.000
G1 X94.772 Y118.270 E4.18003
G1 X91.997 Y115.495 E4.33739
G1 X91.966 Y115.920 E4.35448
G1 X94.772 Y118.726 E4.51358
G1 X94.772 Y119.182 E4.53185
G1 X91.874 Y116.283 E4.69621
G1 X91.737 Y116.602 E4.71013
G1 X94.772 Y119.638 E4.88222
G1 X94.772 Y120.093 E4.90050
G1 X91.562 Y116.883 E5.08255
G1 X91.350 Y117.127 E5.09551
G1 X94.772 Y120.549 E5.28956
G1 X94.772 Y121.005 E5.30783
G1 X91.106 Y117.338 E5.51573
G1 X90.828 Y117.517 E5.52895
G1 X94.772 Y121.461 E5.75258
G1 X94.772 Y121.916 E5.77085
G1 X90.514 Y117.659 E6.01227
G1 X90.156 Y117.756 E6.02716
G1 X94.732 Y122.332 E6.28663
G1 X94.277 Y122.332 E6.30490
G1 X89.733 Y117.789 E6.56254
G1 X89.208 Y117.720 E6.58376
G1 X93.821 Y122.332 E6.84532
G1 X93.365 Y122.332 E6.86360
G1 X43.724 Y72.691 E9.67837
G1 X43.268 Y72.691 E9.69664
G1 X92.909 Y122.332 E12.51141
G1 X92.454 Y122.332 E12.52968
G1 X42.812 Y72.691 E15.34445
G1 X42.356 Y72.691 E15.36273
G1 X91.998 Y122.332 E18.17750
G1 X91.542 Y122.332 E18.19577
G1 X42.243 Y73.033 E20.99112
G1 X42.243 Y73.489 E21.00939
G1 X91.086 Y122.332 E23.77889
G1 X90.631 Y122.332 E23.79717
G1 X42.243 Y73.945 E26.54083
G1 X42.243 Y74.401 E26.55910
G1 X90.175 Y122.332 E29.27692
G1 X89.719 Y122.332 E29.29519
G1 X42.243 Y74.857 E31.98717
G1 X42.243 Y75.312 E32.00544
G1 X59.766 Y92.835 E32.99904
G1 X59.311 Y92.835 E33.01732
G1 X42.243 Y75.768 E33.98507
G1 X42.243 Y76.224 E34.00335
G1 X58.855 Y92.835 E34.94526
G1 X58.399 Y92.835 E34.96353
G1 X42.243 Y76.680 E35.87961
G1 X42.243 Y77.135 E35.89788
G1 X57.943 Y92.835 E36.78811
G1 X57.488 Y92.835 E36.80638
G1 X42.243 Y77.591 E37.67077
G1 X42.243 Y78.047 E37.68904
G1 X57.032 Y92.835 E38.52759
G1 X56.576 Y92.835 E38.54586
G1 X54.551 Y90.810 E38.66071
G1 X54.672 Y91.387 E38.68436
G1 X56.120 Y92.835 E38.76649
G1 X55.665 Y92.835 E38.78476
