; generated by Slic3r 1.1.7 on 2015-03-11 at 15:01:27

; perimeters extrusion width = 0.40mm
; infill extrusion width = 0.42mm
; solid infill extrusion width = 0.42mm
; top infill extrusion width = 0.42mm
; support material extrusion width = 0.40mm

G21 ; set units to millimeters
M190 S60 ; wait for bed temperature to be reached
M104 S215 ; set temperature
M106 S255; Turn on Fan fully
G28 ; home all axes Start of G Code Slic3r
 
  
M109 S215 ; wait for temperature to be reached
G90 ; use absolute coordinates
G92 E0
M82 ; use absolute distances for extrusion
G1 F1980.000 E-4.00000
G92 E0
G1 Z0.300 F6000.000
G1 X63.030 Y56.970 F6000.000
G1 E4.00000 F1980.000
G1 X64.607 Y55.299 E4.09208 F1650.000
G1 X67.781 Y54.030 E4.22915
G1 X96.911 Y50.564 E5.40533
G1 X137.132 Y50.564 E7.01795
G1 X139.394 Y50.961 E7.11003
G1 X141.385 Y52.105 E7.20211 F1650.000
G1 X142.869 Y53.858 E7.29419
G1 X143.774 Y57.096 E7.42899
G1 X144.340 Y91.015 E8.78913
G1 X144.340 Y138.562 E10.69552
G1 X143.943 Y140.824 E10.78760
G1 X142.799 Y142.816 E10.87968
G1 X141.046 Y144.299 E10.97176
G1 X138.128 Y145.191 E11.09409
G1 X72.673 Y149.436 E13.72398
G1 X62.303 Y149.436 E14.13976
G1 X60.041 Y149.039 E14.23184
G1 X58.049 Y147.895 E14.32392
G1 X56.566 Y146.142 E14.41600
G1 X55.768 Y143.988 E14.50808
G1 X55.660 Y142.793 E14.55621
G1 X55.660 Y86.795 E16.80141
G1 X55.843 Y85.246 E16.86393
G1 X62.117 Y59.077 E17.94291
G1 X63.007 Y57.025 E18.03259
G1 F1980.000 E14.03259
G92 E0
G1 X63.330 Y57.100 F6000.000
G1 E4.00000 F1980.000
G1 X64.888 Y55.492 E4.08981 F1650.000
G1 X67.820 Y54.349 E4.21596
G1 X96.911 Y50.886 E5.39059
G1 X137.132 Y50.886 E7.00321
G1 X139.336 Y51.282 E7.09302
G1 X141.264 Y52.423 E7.18282 F1650.000
G1 X142.673 Y54.164 E7.27263
G1 X143.452 Y57.101 E7.39446
G1 X144.018 Y91.015 E8.75439
G1 X144.018 Y138.562 E10.66077
G1 X143.622 Y140.767 E10.75058
G1 X142.481 Y142.695 E10.84039
G1 X140.740 Y144.104 E10.93020
G1 X138.107 Y144.871 E11.04012
G1 X72.673 Y149.114 E13.66918
G1 X62.303 Y149.114 E14.08496
G1 X60.099 Y148.718 E14.17477
G1 X58.171 Y147.577 E14.26458
G1 X56.762 Y145.836 E14.35438
G1 X55.982 Y142.793 E14.48032
G1 X55.982 Y86.795 E16.72552
G1 X56.156 Y85.321 E16.78502
G1 X62.430 Y59.152 E17.86400
G1 X63.305 Y57.155 E17.95140
G1 F1980.000 E13.95140
G92 E0
G1 X121.905 Y114.789 F6000.000
G1 E4.00000 F1980.000
G1 X101.593 Y94.477 E5.15170 F900.000
G1 X101.593 Y91.486 E5.27161
G1 X137.226 Y91.486 E6.70026
G1 X137.226 Y138.091 E8.56883
G1 X101.593 Y138.091 E9.99748
G1 X101.593 Y135.100 E10.11739
G1 X121.863 Y114.831 E11.26669
G1 F1980.000 E7.26669
G92 E0
G1 X121.450 Y114.789 F6000.000
G1 E4.00000 F1980.000
G1 X101.272 Y94.610 E5.14415 F720.000
G1 X101.272 Y91.165 E5.28229
G1 X137.547 Y91.165 E6.73671
G1 X137.547 Y138.412 E8.63107
G1 X101.272 Y138.412 E10.08549
G1 X101.272 Y134.967 E10.22363
G1 X121.408 Y114.831 E11.36537
G1 F1980.000 E7.36537
G92 E0
G1 X121.733 Y114.506 F6000.000
G1 X136.973 Y91.699 F6000.000
G1 E4.00000 F1980.000
G1 X137.013 Y91.739 E4.00227 F900.000
G1 X137.013 Y92.196 E4.02058
G1 X136.516 Y91.699 E4.04875
G1 X136.059 Y91.699 E4.06706
G1 X137.013 Y92.653 E4.12113
G1 X137.013 Y93.110 E4.13944
G1 X135.602 Y91.699 E4.21941
G1 X135.145 Y91.699 E4.23772
G1 X137.013 Y93.567 E4.34359
G1 X137.013 Y94.023 E4.36190
G1 X134.689 Y91.699 E4.49367
G1 X134.232 Y91.699 E4.51198
G1 X137.013 Y94.480 E4.66965
G1 X137.013 Y94.937 E4.68796
G1 X133.775 Y91.699 E4.87153
G1 X133.318 Y91.699 E4.88984
G1 X137.013 Y95.394 E5.09931
G1 X137.013 Y95.850 E5.11762
G1 X132.862 Y91.699 E5.35298
G1 X132.405 Y91.699 E5.37130
G1 X137.013 Y96.307 E5.63256
G1 X137.013 Y96.764 E5.65088
G1 X131.948 Y91.699 E5.93804
G1 X131.491 Y91.699 E5.95635
G1 X137.013 Y97.221 E6.26942
G1 X137.013 Y97.677 E6.28773
G1 X131.035 Y91.699 E6.62669
G1 X130.578 Y91.699 E6.64500
G1 X137.013 Y98.134 E7.00987
G1 X137.013 Y98.591 E7.02818
G1 X130.121 Y91.699 E7.41894
G1 X129.664 Y91.699 E7.43726
G1 X137.013 Y99.048 E7.85392
G1 X137.013 Y99.504 E7.87223
G1 X129.207 Y91.699 E8.31479
G1 X128.751 Y91.699 E8.33310
G1 X137.013 Y99.961 E8.80156
G1 X137.013 Y100.418 E8.81988
G1 X128.294 Y91.699 E9.31424
G1 X127.837 Y91.699 E9.33255
G1 X137.013 Y100.875 E9.85281
G1 X137.013 Y101.332 E9.87112
G1 X127.380 Y91.699 E10.41728
G1 X126.924 Y91.699 E10.43560
G1 X137.013 Y101.788 E11.00765
G1 X137.013 Y102.245 E11.02597
G1 X126.467 Y91.699 E11.62392
G1 X126.010 Y91.699 E11.64224
G1 X137.013 Y102.702 E12.26610
G1 X137.013 Y103.159 E12.28441
G1 X125.553 Y91.699 E12.93417
G1 X125.097 Y91.699 E12.95248
G1 X137.013 Y103.615 E13.62814
G1 X137.013 Y104.072 E13.64645
G1 X124.640 Y91.699 E14.34801
G1 X124.183 Y91.699 E14.36632
G1 X137.013 Y104.529 E15.09377
G1 X137.013 Y104.986 E15.11209
G1 X123.726 Y91.699 E15.86544
G1 X123.270 Y91.699 E15.88376
G1 X137.013 Y105.442 E16.66301
G1 X137.013 Y105.899 E16.68132
G1 X122.813 Y91.699 E17.48648
G1 X122.356 Y91.699 E17.50479
G1 X137.013 Y106.356 E18.33585
G1 X137.013 Y106.813 E18.35416
G1 X121.899 Y91.699 E19.21111
G1 X121.442 Y91.699 E19.22943
G1 X137.013 Y107.270 E20.11228
G1 X137.013 Y107.726 E20.13059
G1 X120.986 Y91.699 E21.03934
G1 X120.529 Y91.699 E21.05766
G1 X137.013 Y108.183 E21.99231
G1 X137.013 Y108.640 E22.01062
G1 X120.072 Y91.699 E22.97117
G1 X119.615 Y91.699 E22.98949
G1 X137.013 Y109.097 E23.97594
G1 X137.013 Y109.553 E23.99425
G1 X119.159 Y91.699 E25.00660
G1 X118.702 Y91.699 E25.02492
G1 X137.013 Y110.010 E26.06317
G1 X137.013 Y110.467 E26.08148
G1 X118.245 Y91.699 E27.14563
G1 X117.788 Y91.699 E27.16394
G1 X137.013 Y110.924 E28.25399
G1 X137.013 Y111.380 E28.27231
G1 X117.332 Y91.699 E29.38825
G1 X116.875 Y91.699 E29.40657
G1 X137.013 Y111.837 E30.54842
G1 X137.013 Y112.294 E30.56673
G1 X116.418 Y91.699 E31.73448
G1 X115.961 Y91.699 E31.75279
G1 X137.013 Y112.751 E32.94644
G1 X137.013 Y113.207 E32.96475
G1 X115.504 Y91.699 E34.18430
G1 X115.048 Y91.699 E34.20261
G1 X137.013 Y113.664 E35.44806
G1 X137.013 Y114.121 E35.46637
G1 X114.591 Y91.699 E36.73772
G1 X114.134 Y91.699 E36.75603
G1 X137.013 Y114.578 E38.05328
G1 X137.013 Y115.035 E38.07159
G1 X113.677 Y91.699 E39.39474
G1 X113.221 Y91.699 E39.41305
G1 X137.013 Y115.491 E40.76209
G1 X137.013 Y115.948 E40.78041
G1 X112.764 Y91.699 E42.15535
G1 X112.307 Y91.699 E42.17366
G1 X137.013 Y116.405 E43.57451
G1 X137.013 Y116.862 E43.59282
G1 X111.850 Y91.699 E45.01956
G1 X111.394 Y91.699 E45.03788
G1 X137.013 Y117.318 E46.49052
G1 X137.013 Y117.775 E46.50883
G1 X110.937 Y91.699 E47.98738
G1 X110.480 Y91.699 E48.00569
G1 X137.013 Y118.232 E49.51013
G1 X137.013 Y118.689 E49.52844
G1 X110.023 Y91.699 E51.05879
G1 X109.567 Y91.699 E51.07710
G1 X137.013 Y119.145 E52.63334
G1 X137.013 Y119.602 E52.65165
G1 X109.110 Y91.699 E54.23379
G1 X108.653 Y91.699 E54.25211
G1 X137.013 Y120.059 E55.86015
G1 X137.013 Y120.516 E55.87846
G1 X108.196 Y91.699 E57.51240
G1 X107.739 Y91.699 E57.53071
G1 X137.013 Y120.973 E59.19055
G1 X137.013 Y121.429 E59.20887
G1 X107.283 Y91.699 E60.89460
G1 X106.826 Y91.699 E60.91292
G1 X137.013 Y121.886 E62.62456
G1 X137.013 Y122.343 E62.64287
G1 X106.369 Y91.699 E64.38041
G1 X105.912 Y91.699 E64.39872
G1 X137.013 Y122.800 E66.16216
G1 X137.013 Y123.256 E66.18047
G1 X105.456 Y91.699 E67.96981
G1 X104.999 Y91.699 E67.98812
G1 X137.013 Y123.713 E69.80336
G1 X137.013 Y124.170 E69.82167
G1 X104.542 Y91.699 E71.66281
G1 X104.085 Y91.699 E71.68112
G1 X137.013 Y124.627 E73.54816
G1 X137.013 Y125.083 E73.56647
G1 X103.629 Y91.699 E75.45940
G1 X103.172 Y91.699 E75.47772
G1 X137.013 Y125.540 E77.39655
G1 X137.013 Y125.997 E77.41487
G1 X102.715 Y91.699 E79.35960
G1 X102.258 Y91.699 E79.37791
G1 X137.013 Y126.454 E81.34855
G1 X137.013 Y126.910 E81.36686
G1 X101.824 Y91.722 E83.36212
G1 X101.807 Y92.161 E83.37974
G1 X137.013 Y127.367 E85.37599
G1 X137.013 Y127.824 E85.39430
G1 X101.807 Y92.618 E87.39055
G1 X101.807 Y93.075 E87.40886
G1 X137.013 Y128.281 E89.40511
G1 X137.013 Y128.738 E89.42342
G1 X101.807 Y93.532 E91.41967
G1 X101.807 Y93.988 E91.43798
G1 X137.013 Y129.194 E93.43423
G1 X137.013 Y129.651 E93.45254
G1 X122.178 Y114.817 E94.29368
G1 X121.950 Y115.045 E94.30663
G1 X137.013 Y130.108 E95.16071
G1 X137.013 Y130.565 E95.17902
G1 X121.721 Y115.274 E96.04606
G1 X121.493 Y115.502 E96.05901
G1 X137.013 Y131.021 E96.93899
G1 X137.013 Y131.478 E96.95730
G1 X121.265 Y115.730 E97.85023
G1 X121.036 Y115.959 E97.86318
G1 X137.013 Y131.935 E98.76907
G1 X137.013 Y132.392 E98.78738
G1 X120.808 Y116.187 E99.70621
G1 X120.580 Y116.415 E99.71916
G1 X137.013 Y132.848 E100.65094
G1 X137.013 Y133.305 E100.66926
G1 X120.351 Y116.644 E101.61399
G1 X120.123 Y116.872 E101.62694
G1 X137.013 Y133.762 E102.58462
G1 X137.013 Y134.219 E102.60293
G1 X119.894 Y117.101 E103.57356
G1 X119.666 Y117.329 E103.58651
G1 X137.013 Y134.676 E104.57009
G1 X137.013 Y135.132 E104.58841
G1 X119.438 Y117.557 E105.58494
G1 X119.209 Y117.786 E105.59789
G1 X137.013 Y135.589 E106.60737
G1 X137.013 Y136.046 E106.62568
G1 X118.981 Y118.014 E107.64811
G1 X118.752 Y118.243 E107.66106
G1 X137.013 Y136.503 E108.69644
G1 X137.013 Y136.959 E108.71475
G1 X118.524 Y118.471 E109.76308
G1 X118.296 Y118.699 E109.77603
G1 X137.013 Y137.416 E110.83731
G1 X136.995 Y137.855 E110.85494
G1 X118.067 Y118.928 E111.92818
G1 X117.839 Y119.156 E111.94113
G1 X136.561 Y137.878 E113.00269
G1 X136.104 Y137.878 E113.02101
G1 X117.611 Y119.384 E114.06962
G1 X117.382 Y119.613 E114.08257
G1 X135.647 Y137.878 E115.11824
G1 X135.191 Y137.878 E115.13655
G1 X117.154 Y119.841 E116.15927
G1 X116.925 Y120.070 E116.17222
G1 X134.734 Y137.878 E117.18199
G1 X134.277 Y137.878 E117.20030
G1 X116.697 Y120.298 E118.19712
G1 X116.469 Y120.526 E118.21007
G1 X133.820 Y137.878 E119.19393
G1 X133.363 Y137.878 E119.21225
G1 X116.240 Y120.755 E120.18316
G1 X116.012 Y120.983 E120.19611
G1 X132.907 Y137.878 E121.15408
G1 X132.450 Y137.878 E121.17239
G1 X115.783 Y121.212 E122.11741
G1 X115.555 Y121.440 E122.13036
G1 X131.993 Y137.878 E123.06243
G1 X131.536 Y137.878 E123.08074
G1 X115.327 Y121.668 E123.99986
G1 X115.098 Y121.897 E124.01281
G1 X131.080 Y137.878 E124.91898
G1 X130.623 Y137.878 E124.93729
G1 X114.870 Y122.125 E125.83051
G1 X114.642 Y122.353 E125.84346
G1 X130.166 Y137.878 E126.72373
G1 X129.709 Y137.878 E126.74205
G1 X114.413 Y122.582 E127.60936
G1 X114.185 Y122.810 E127.62231
G1 X129.253 Y137.878 E128.47668
G1 X128.796 Y137.878 E128.49500
G1 X113.956 Y123.039 E129.33642
G1 X113.728 Y123.267 E129.34937
G1 X128.339 Y137.878 E130.17784
G1 X127.882 Y137.878 E130.19615
G1 X113.500 Y123.495 E131.01167
G1 X113.271 Y123.724 E131.02462
G1 X127.425 Y137.878 E131.82719
G1 X126.969 Y137.878 E131.84550
G1 X113.043 Y123.952 E132.63512
G1 X112.814 Y124.181 E132.64807
G1 X126.512 Y137.878 E133.42475
G1 X126.055 Y137.878 E133.44306
G1 X112.586 Y124.409 E134.20678
G1 X112.358 Y124.637 E134.21973
G1 X125.598 Y137.878 E134.97050
G1 X125.142 Y137.878 E134.98881
G1 X112.129 Y124.866 E135.72664
G1 X111.901 Y125.094 E135.73959
G1 X124.685 Y137.878 E136.46446
G1 X124.228 Y137.878 E136.48277
G1 X111.673 Y125.322 E137.19469
G1 X111.444 Y125.551 E137.20764
G1 X123.771 Y137.878 E137.90662
G1 X123.315 Y137.878 E137.92493
G1 X111.216 Y125.779 E138.61095
G1 X110.987 Y126.008 E138.62390
G1 X122.858 Y137.878 E139.29697
G1 X122.401 Y137.878 E139.31529
G1 X110.759 Y126.236 E139.97541
G1 X110.531 Y126.464 E139.98836
G1 X121.944 Y137.878 E140.63553
G1 X121.488 Y137.878 E140.65385
G1 X110.302 Y126.693 E141.28807
G1 X110.074 Y126.921 E141.30102
G1 X121.031 Y137.878 E141.92229
G1 X120.574 Y137.878 E141.94061
G1 X109.846 Y127.149 E142.54893
G1 X109.617 Y127.378 E142.56188
G1 X120.117 Y137.878 E143.15726
G1 X119.660 Y137.878 E143.17557
G1 X109.389 Y127.606 E143.75799
G1 X109.160 Y127.835 E143.77094
G1 X119.204 Y137.878 E144.34042
G1 X118.747 Y137.878 E144.35873
G1 X108.932 Y128.063 E144.91526
G1 X108.704 Y128.291 E144.92821
G1 X118.290 Y137.878 E145.47178
G1 X117.833 Y137.878 E145.49009
G1 X108.475 Y128.520 E146.02072
G1 X108.247 Y128.748 E146.03367
G1 X117.377 Y137.878 E146.55134
G1 X116.920 Y137.878 E146.56966
G1 X108.018 Y128.977 E147.07438
G1 X107.790 Y129.205 E147.08733
G1 X116.463 Y137.878 E147.57911
G1 X116.006 Y137.878 E147.59742
G1 X107.562 Y129.433 E148.07625
G1 X107.333 Y129.662 E148.08920
G1 X115.550 Y137.878 E148.55508
G1 X115.093 Y137.878 E148.57339
G1 X107.105 Y129.890 E149.02632
G1 X106.877 Y130.118 E149.03927
G1 X114.636 Y137.878 E149.47924
G1 X114.179 Y137.878 E149.49756
G1 X106.648 Y130.347 E149.92458
G1 X106.420 Y130.575 E149.93753
G1 X113.722 Y137.878 E150.35161
G1 X113.266 Y137.878 E150.36992
G1 X106.191 Y130.804 E150.77105
G1 X105.963 Y131.032 E150.78400
G1 X112.809 Y137.878 E151.17218
G1 X112.352 Y137.878 E151.19049
G1 X105.735 Y131.260 E151.56572
G1 X105.506 Y131.489 E151.57867
G1 X111.895 Y137.878 E151.94095
G1 X111.439 Y137.878 E151.95926
G1 X105.278 Y131.717 E152.30859
G1 X105.049 Y131.946 E152.32154
G1 X110.982 Y137.878 E152.65792
G1 X110.525 Y137.878 E152.67623
G1 X104.821 Y132.174 E152.99966
G1 X104.593 Y132.402 E153.01261
G1 X110.068 Y137.878 E153.32309
G1 X109.612 Y137.878 E153.34140
G1 X104.364 Y132.631 E153.63893
G1 X104.136 Y132.859 E153.65188
G1 X109.155 Y137.878 E153.93646
G1 X108.698 Y137.878 E153.95478
G1 X103.908 Y133.087 E154.22641
G1 X103.679 Y133.316 E154.23936
G1 X108.241 Y137.878 E154.49804
G1 X107.785 Y137.878 E154.51635
G1 X103.451 Y133.544 E154.76208
G1 X103.222 Y133.773 E154.77503
G1 X107.328 Y137.878 E155.00781
G1 X106.871 Y137.878 E155.02612
G1 X102.994 Y134.001 E155.24595
G1 X102.766 Y134.229 E155.25890
G1 X106.414 Y137.878 E155.46578
G1 X105.957 Y137.878 E155.48410
G1 X102.537 Y134.458 E155.67803
G1 X102.309 Y134.686 E155.69098
G1 X105.501 Y137.878 E155.87196
G1 X105.044 Y137.878 E155.89027
G1 X102.080 Y134.915 E156.05831
G1 X101.852 Y135.143 E156.07126
G1 X104.587 Y137.878 E156.22634
G1 X104.130 Y137.878 E156.24465
G1 X101.807 Y135.554 E156.37642
G1 X101.807 Y136.011 E156.39473
G1 X103.674 Y137.878 E156.50060
G1 X103.217 Y137.878 E156.51891
G1 X101.807 Y136.468 E156.59888
G1 X101.807 Y136.924 E156.61719
G1 X102.760 Y137.878 E156.67126
G1 X102.303 Y137.878 E156.68957
G1 X101.807 Y137.381 E156.71774
G1 X101.807 Y137.838 E156.73605
G1 X101.847 Y137.878 E156.73832
G1 F1980.000 E152.73832
G92 E0
G1 X100.350 Y70.980 F6000.000
G1 E4.00000 F1980.000
G1 X100.350 Y81.315 E4.41435 F900.000
G1 X97.383 Y81.315 E4.53333
G1 X97.383 Y57.679 E5.48101
G1 X100.350 Y57.679 E5.59999
G1 X100.350 Y68.013 E6.01434
G1 X133.693 Y68.013 E7.35120
G1 X133.693 Y57.679 E7.76556
G1 X136.660 Y57.679 E7.88453
G1 X136.660 Y81.315 E8.83222
G1 X133.693 Y81.315 E8.95119
G1 X133.693 Y70.980 E9.36555
G1 X100.410 Y70.980 E10.70000
G1 F1980.000 E6.70000
G92 E0
G1 X100.671 Y71.302 F6000.000
G1 E4.00000 F1980.000
G1 X100.671 Y81.636 E4.41435 F720.000
G1 X97.061 Y81.636 E4.55911
G1 X97.061 Y57.357 E5.53257
G1 X100.671 Y57.357 E5.67732
G1 X100.671 Y67.692 E6.09168
G1 X133.371 Y67.692 E7.40276
G1 X133.371 Y57.357 E7.81711
G1 X136.982 Y57.357 E7.96186
G1 X136.982 Y81.636 E8.93533
G1 X133.371 Y81.636 E9.08008
G1 X133.371 Y71.302 E9.49443
G1 X100.731 Y71.302 E10.80311
G1 F1980.000 E6.80311
G92 E0
G1 X100.271 Y71.302 F6000.000
G1 X100.137 Y68.108 F6000.000
G1 E4.00000 F1980.000
G1 X97.596 Y65.566 E4.14410 F900.000
G1 X97.596 Y65.111 E4.16237
G1 X100.137 Y67.652 E4.30647
G1 X100.137 Y67.196 E4.32474
G1 X97.596 Y64.655 E4.46884
G1 X97.596 Y64.199 E4.48712
G1 X100.137 Y66.741 E4.63122
G1 X100.137 Y66.285 E4.64949
G1 X97.596 Y63.743 E4.79359
G1 X97.596 Y63.288 E4.81186
G1 X100.137 Y65.829 E4.95596
G1 X100.137 Y65.373 E4.97423
G1 X97.596 Y62.832 E5.11833
G1 X97.596 Y62.376 E5.13660
G1 X100.137 Y64.918 E5.28070
G1 X100.137 Y64.462 E5.29898
G1 X97.596 Y61.920 E5.44308
G1 X97.596 Y61.465 E5.46135
G1 X100.137 Y64.006 E5.60545
G1 X100.137 Y63.550 E5.62372
G1 X97.596 Y61.009 E5.76782
G1 X97.596 Y60.553 E5.78609
G1 X100.137 Y63.095 E5.93019
G1 X100.137 Y62.639 E5.94846
G1 X97.596 Y60.097 E6.09256
G1 X97.596 Y59.642 E6.11084
G1 X100.137 Y62.183 E6.25494
G1 X100.137 Y61.727 E6.27321
G1 X97.596 Y59.186 E6.41731
G1 X97.596 Y58.730 E6.43558
G1 X100.137 Y61.272 E6.57968
G1 X100.137 Y60.816 E6.59795
G1 X97.596 Y58.274 E6.74205
