; generated by Slic3r 1.1.7 on 2014-11-28 at 16:39:39

; perimeters extrusion width = 0.40mm
; infill extrusion width = 0.67mm
; solid infill extrusion width = 0.67mm
; top infill extrusion width = 0.67mm

G21 ; set units to millimeters
M107
M190 S100 ; wait for bed temperature to be reached
M104 S240 ; set temperature
G28 ; home all axes
M109 S240 ; wait for temperature to be reached
G90 ; use absolute coordinates
G92 E0
M82 ; use absolute distances for extrusion
G1 F3000.000 E-4.00000
G1 Z0.500 F7800.000
G92 E0
G1 X45.444 Y17.773 F7800.000
G1 Z0.200 F7800.000
G1 E4.00000 F3000.000
G1 X57.403 Y-12.806 E5.09207 F360.000
G1 X58.155 Y-14.092 E5.14162
G1 X59.269 Y-15.458 E5.20026
G1 X60.011 Y-16.212 E5.23542
G1 X61.435 Y-17.373 E5.29656
G1 X62.586 Y-18.069 E5.34128
G1 X90.799 Y-30.098 E6.36138
G1 X91.762 Y-30.394 E6.39491
G1 X94.480 Y-30.924 E6.48702
G1 X96.685 Y-30.838 E6.56040
G1 X100.297 Y-29.795 E6.68545 F360.000
G1 X128.379 Y-18.084 E7.69743
G1 X129.565 Y-17.373 E7.74340
G1 X131.675 Y-15.526 E7.83667
G1 X132.845 Y-14.092 E7.89825
G1 X133.597 Y-12.806 E7.94779
G1 X146.194 Y19.552 E9.10271
G1 X146.716 Y22.250 E9.19410
G1 X146.773 Y24.106 E9.25585
G1 X146.663 Y25.287 E9.29531
G1 X146.265 Y27.093 E9.35683
G1 X145.783 Y28.373 E9.40231
G1 X132.621 Y52.171 E10.30683
G1 X131.468 Y53.632 E10.36873
G1 X130.298 Y54.694 E10.42127
G1 X127.832 Y56.264 E10.51851
G1 X100.592 Y70.911 E11.54719
G1 X99.238 Y71.394 E11.59501
G1 X96.520 Y71.924 E11.68712
G1 X94.315 Y71.838 E11.76050
G1 X91.265 Y70.990 E11.86581
G1 X90.307 Y70.609 E11.90007
G1 X62.842 Y56.072 E12.93362
G1 X60.702 Y54.694 E13.01830
G1 X59.532 Y53.632 E13.07085
G1 X57.942 Y51.510 E13.15903
G1 X45.217 Y28.373 E14.03729
G1 X44.735 Y27.093 E14.08277
G1 X44.337 Y25.287 E14.14429
G1 X44.227 Y24.106 E14.18375
G1 X44.281 Y22.338 E14.24256
G1 X44.401 Y21.335 E14.27615
G1 X44.786 Y19.637 E14.33408
G1 X45.016 Y18.867 E14.36082
G1 X45.422 Y17.829 E14.39788
G1 X45.816 Y17.919 F7800.000
G1 X57.776 Y-12.660 E15.48995 F360.000
G1 X58.464 Y-13.839 E15.53536
G1 X59.579 Y-15.205 E15.59401
G1 X60.263 Y-15.902 E15.62648
G1 X61.688 Y-17.063 E15.68762
G1 X62.743 Y-17.701 E15.72861
G1 X91.839 Y-30.002 E16.77928
G1 X94.557 Y-30.532 E16.87139
G1 X96.578 Y-30.452 E16.93866
G1 X100.143 Y-29.426 E17.06206 F360.000
G1 X128.225 Y-17.714 E18.07404
G1 X129.312 Y-17.063 E18.11618
G1 X131.365 Y-15.273 E18.20677
G1 X132.536 Y-13.839 E18.26835
G1 X133.224 Y-12.660 E18.31376
G1 X145.804 Y19.641 E19.46670
G1 X146.316 Y22.263 E19.55554
G1 X146.373 Y24.118 E19.61729
G1 X146.272 Y25.201 E19.65346
G1 X145.874 Y27.007 E19.71498
G1 X145.433 Y28.180 E19.75667
G1 X132.307 Y51.923 E20.65900
G1 X131.154 Y53.384 E20.72090
G1 X130.082 Y54.358 E20.76906
G1 X127.643 Y55.912 E20.86525
G1 X100.402 Y70.558 E21.89393
G1 X99.161 Y71.002 E21.93777
G1 X96.443 Y71.532 E22.02988
G1 X94.422 Y71.452 E22.09715
G1 X91.372 Y70.604 E22.20245
G1 X90.494 Y70.255 E22.23386
G1 X63.059 Y55.736 E23.26627
G1 X60.918 Y54.358 E23.35095
G1 X59.846 Y53.384 E23.39912
G1 X58.292 Y51.318 E23.48511
G1 X45.567 Y28.180 E24.36337
G1 X45.126 Y27.007 E24.40505
G1 X44.728 Y25.201 E24.46657
G1 X44.627 Y24.118 E24.50275
G1 X44.681 Y22.351 E24.56156
G1 X44.791 Y21.424 E24.59260
G1 X45.176 Y19.726 E24.65052
G1 X45.389 Y19.012 E24.67528
G1 X45.795 Y17.975 E24.71233
G1 F3000.000 E20.71233
G1 Z0.500 F7800.000
G92 E0
G1 X71.409 Y42.018 F7800.000
G1 Z0.200 F7800.000
G1 E4.00000 F3000.000
G1 X71.917 Y41.670 E4.02048 F360.000
G1 X71.367 Y40.130 E4.07486
G1 X70.221 Y37.114 E4.18217
G1 X69.896 Y33.151 E4.31445
G1 X70.923 Y30.128 E4.42064
G1 X74.064 Y26.923 E4.56990
G1 X79.113 Y23.704 E4.76904
G1 X81.759 Y22.037 E4.87306
G1 X82.385 Y21.681 E4.89700
G1 X82.459 Y21.609 E4.90043
G1 X82.615 Y21.349 E4.91053
G1 X82.476 Y20.985 E4.92350
G1 X80.802 Y20.480 E4.98166
G1 X77.018 Y20.430 E5.10750
G1 X74.418 Y20.832 E5.19501
G1 X72.028 Y21.530 E5.27781
G1 X70.600 Y22.223 E5.33061
G1 X69.334 Y23.417 E5.38852
G1 X67.635 Y25.157 E5.46941
G1 X65.731 Y26.930 E5.55592
G1 X63.638 Y28.652 E5.64606
G1 X61.896 Y29.697 E5.71363
G1 X59.554 Y30.531 E5.79634
G1 X58.045 Y30.908 E5.84805
G1 X55.231 Y30.831 E5.94167
G1 X53.617 Y30.439 E5.99694
G1 X51.870 Y29.540 E6.06225
G1 X50.492 Y28.382 E6.12212
G1 X49.241 Y26.145 E6.20739
G1 X48.826 Y24.285 E6.27077
G1 X48.884 Y22.363 E6.33471
G1 X49.307 Y20.526 E6.39743
G1 X50.249 Y18.958 E6.45826
G1 X51.524 Y17.700 E6.51783
G1 X53.377 Y16.840 E6.58575
G1 X55.812 Y16.518 E6.66747
G1 X58.027 Y17.307 E6.74568
G1 X60.073 Y19.156 E6.83737
G1 X60.101 Y19.200 E6.83910
G1 X60.797 Y21.343 E6.91406
G1 X60.941 Y23.065 E6.97153
G1 X60.896 Y23.161 E6.97507
G1 X60.408 Y23.504 E6.99489
G1 X60.291 Y23.509 E6.99880
G1 X59.772 Y23.205 E7.01881
G1 X59.721 Y23.132 E7.02177
G1 X59.465 Y21.676 E7.07094
G1 X58.703 Y20.294 E7.12341
G1 X58.642 Y20.226 E7.12647
G1 X57.095 Y19.158 E7.18899
G1 X55.592 Y18.631 E7.24195
G1 X55.500 Y18.622 E7.24502
G1 X54.050 Y18.799 E7.29363
G1 X53.966 Y18.829 E7.29657
G1 X53.130 Y19.360 E7.32951
G1 X52.173 Y20.230 E7.37254
G1 X51.441 Y21.513 E7.42166
G1 X51.107 Y22.572 E7.45858
G1 X51.008 Y23.716 E7.49679
G1 X51.221 Y24.891 E7.53651
G1 X52.113 Y26.687 E7.60319
G1 X52.170 Y26.756 E7.60618
G1 X53.221 Y27.574 E7.65047
G1 X54.275 Y28.193 E7.69115
G1 X55.325 Y28.496 E7.72749
G1 X57.022 Y28.579 E7.78398
G1 X58.072 Y28.371 E7.81961
G1 X59.738 Y27.814 E7.87802
G1 X61.276 Y26.989 E7.93606
G1 X63.316 Y25.437 E8.02131
G1 X65.030 Y23.516 E8.10697
G1 X66.808 Y21.261 E8.20247
G1 X69.033 Y19.135 E8.30483
G1 X71.530 Y17.440 E8.40518
G1 X74.129 Y16.075 E8.50283
G1 X77.015 Y14.868 E8.60689
G1 X80.787 Y13.728 E8.73794
G1 X81.339 Y13.647 E8.75650
G1 X81.395 Y13.017 E8.77753
G1 X78.344 Y11.996 E8.88454
G1 X74.724 Y9.998 E9.02208
G1 X72.335 Y8.224 E9.12105
G1 X72.302 Y8.182 E9.12282
G1 X71.093 Y5.337 E9.22563
G1 X70.924 Y2.781 E9.31082
G1 X71.637 Y0.270 E9.39764
G1 X72.258 Y-2.459 E9.49073
G1 X73.036 Y-5.285 E9.58821
G1 X73.274 Y-7.997 E9.67878
G1 X72.947 Y-9.525 E9.73073
G1 X72.310 Y-10.761 E9.77699
G1 X71.519 Y-11.531 E9.81370
G1 X71.458 Y-11.572 E9.81614
G1 X70.189 Y-12.101 E9.86189
G1 X68.304 Y-12.494 E9.92594
G1 X68.225 Y-12.495 E9.92854
G1 X66.734 Y-12.217 E9.97900
G1 X65.498 Y-11.794 E10.02244
G1 X65.433 Y-11.757 E10.02493
G1 X64.527 Y-10.982 E10.06460
G1 X63.796 Y-10.069 E10.10349
G1 X63.758 Y-9.989 E10.10642
G1 X63.402 Y-8.477 E10.15811
G1 X63.425 Y-7.234 E10.19944
G1 X63.651 Y-6.276 E10.23220
G1 X63.691 Y-6.196 E10.23517
G1 X64.612 Y-5.060 E10.28380
G1 X64.685 Y-5.003 E10.28686
G1 X66.130 Y-4.337 E10.33980
G1 X67.986 Y-4.032 E10.40235
G1 X68.078 Y-4.038 E10.40541
G1 X69.583 Y-4.503 E10.45782
G1 X70.842 Y-5.430 E10.50981
G1 X70.983 Y-5.424 E10.51453
G1 X71.753 Y-4.746 E10.54865
G1 X71.752 Y-4.564 E10.55473
G1 X70.329 Y-3.350 E10.61693
G1 X68.322 Y-2.279 E10.69258
G1 X68.271 Y-2.267 E10.69432
G1 X65.555 Y-2.350 E10.78471
G1 X63.375 Y-3.331 E10.86421
G1 X61.846 Y-5.254 E10.94595
G1 X61.117 Y-7.128 E11.01281
G1 X61.104 Y-8.959 E11.07371
G1 X61.686 Y-11.130 E11.14846
G1 X62.910 Y-12.640 E11.21312
G1 X64.380 Y-13.833 E11.27610
G1 X66.279 Y-14.594 E11.34414
G1 X68.254 Y-14.910 E11.41066
G1 X70.758 Y-14.511 E11.49499
G1 X72.825 Y-13.526 E11.57115
G1 X74.328 Y-12.154 E11.63884
G1 X75.307 Y-10.283 E11.70908
G1 X75.844 Y-8.186 E11.78109
G1 X75.700 Y-4.951 E11.88879
G1 X75.150 Y-1.886 E11.99236
G1 X75.188 Y0.766 E12.08056
G1 X75.181 Y2.562 E12.14030
G1 X75.601 Y4.064 E12.19218
G1 X75.646 Y4.146 E12.19529
G1 X76.570 Y5.132 E12.24023
G1 X77.620 Y5.654 E12.27923
G1 X79.586 Y6.082 E12.34617
G1 X82.572 Y6.062 E12.44547
G1 X86.250 Y5.934 E12.56786
G1 X88.455 Y5.597 E12.64206
G1 X90.782 Y4.469 E12.72808
G1 X94.932 Y2.057 E12.88772
G1 X97.857 Y0.144 E13.00396
G1 X97.920 Y0.078 E13.00699
G1 X99.263 Y-2.173 E13.09418
G1 X99.291 Y-2.294 E13.09833
G1 X99.133 Y-4.232 E13.16299
G1 X98.689 Y-5.601 E13.21085
G1 X98.630 Y-5.689 E13.21437
G1 X97.284 Y-6.886 E13.27430
G1 X96.043 Y-7.714 E13.32392
G1 X93.714 Y-9.074 E13.41360
G1 X91.115 Y-10.429 E13.51111
G1 X89.030 Y-12.478 E13.60834
G1 X87.915 Y-15.041 E13.70130
G1 X87.577 Y-17.732 E13.79150
G1 X88.137 Y-21.550 E13.91986
G1 X88.158 Y-21.599 E13.92162
G1 X90.287 Y-24.286 E14.03563
G1 X92.623 Y-25.875 E14.12962
G1 X95.430 Y-26.412 E14.22469
G1 X98.521 Y-25.553 E14.33140
G1 X100.100 Y-24.365 E14.39710
G1 X101.219 Y-22.848 E14.45979
G1 X101.857 Y-20.891 E14.52825
G1 X101.955 Y-18.402 E14.61111
G1 X100.946 Y-16.369 E14.68660
G1 X98.987 Y-14.796 E14.77017
G1 X98.932 Y-14.774 E14.77212
G1 X96.790 Y-14.572 E14.84368
G1 X95.235 Y-14.790 E14.89592
G1 X95.141 Y-14.880 E14.90025
G1 X95.036 Y-15.483 E14.92059
G1 X95.048 Y-15.552 E14.92292
G1 X95.324 Y-16.033 E14.94138
G1 X95.424 Y-16.087 E14.94518
G1 X96.609 Y-16.012 E14.98468
G1 X96.687 Y-16.022 E14.98730
G1 X97.972 Y-16.461 E15.03245
G1 X98.059 Y-16.519 E15.03593
G1 X99.147 Y-17.771 E15.09109
G1 X99.750 Y-19.080 E15.13902
G1 X99.768 Y-19.173 E15.14217
G1 X99.712 Y-20.581 E15.18906
G1 X99.690 Y-20.665 E15.19192
G1 X99.226 Y-21.572 E15.22581
G1 X98.399 Y-22.593 E15.26953
G1 X98.342 Y-22.641 E15.27198
G1 X97.056 Y-23.369 E15.32114
G1 X95.360 Y-23.725 E15.37879
G1 X95.282 Y-23.726 E15.38139
G1 X93.379 Y-23.377 E15.44574
G1 X93.300 Y-23.344 E15.44857
G1 X91.599 Y-22.169 E15.51734
G1 X91.530 Y-22.087 E15.52089
G1 X90.590 Y-20.063 E15.59512
G1 X90.572 Y-19.982 E15.59787
G1 X90.525 Y-17.937 E15.66591
G1 X90.856 Y-16.654 E15.70998
G1 X90.891 Y-16.583 E15.71261
G1 X91.879 Y-15.298 E15.76651
G1 X93.567 Y-13.782 E15.84198
G1 X98.309 Y-11.608 E16.01549
G1 X100.358 Y-10.494 E16.09306
G1 X102.723 Y-8.881 E16.18829
G1 X105.218 Y-6.140 E16.31155
G1 X106.176 Y-2.499 E16.43678
G1 X105.965 Y1.178 E16.55929
G1 X105.366 Y3.763 E16.64755
G1 X105.375 Y3.885 E16.65161
G1 X105.644 Y4.563 E16.67589
G1 X105.752 Y4.676 E16.68110
G1 X108.744 Y6.011 E16.79006
G1 X111.628 Y6.348 E16.88664
G1 X113.422 Y5.930 E16.94789
G1 X114.459 Y5.350 E16.98742
G1 X115.330 Y4.402 E17.03022
G1 X115.376 Y4.320 E17.03336
G1 X115.789 Y2.852 E17.08409
G1 X115.781 Y0.929 E17.14805
G1 X115.822 Y-1.855 E17.24065
G1 X115.300 Y-4.952 E17.34509
G1 X115.156 Y-8.186 E17.45277
G1 X115.693 Y-10.283 E17.52478
G1 X116.672 Y-12.154 E17.59501
G1 X118.175 Y-13.526 E17.66271
G1 X120.242 Y-14.511 E17.73887
G1 X122.746 Y-14.910 E17.82320
G1 X124.721 Y-14.594 E17.88972
G1 X126.620 Y-13.833 E17.95776
G1 X128.090 Y-12.640 E18.02073
G1 X129.314 Y-11.130 E18.08540
G1 X129.896 Y-8.959 E18.16015
G1 X129.883 Y-7.128 E18.22105
G1 X129.154 Y-5.254 E18.28791
G1 X127.625 Y-3.331 E18.36965
G1 X125.445 Y-2.350 E18.44915
G1 X122.729 Y-2.267 E18.53954
G1 X122.678 Y-2.279 E18.54128
G1 X120.671 Y-3.350 E18.61693
G1 X119.248 Y-4.564 E18.67913
G1 X119.247 Y-4.746 E18.68521
G1 X120.017 Y-5.424 E18.71933
G1 X120.158 Y-5.430 E18.72405
G1 X121.417 Y-4.503 E18.77604
G1 X122.922 Y-4.038 E18.82845
G1 X123.014 Y-4.032 E18.83151
G1 X124.870 Y-4.337 E18.89406
G1 X126.315 Y-5.003 E18.94700
G1 X126.388 Y-5.060 E18.95006
G1 X127.309 Y-6.196 E18.99869
G1 X127.349 Y-6.276 E19.00166
G1 X127.575 Y-7.234 E19.03442
G1 X127.598 Y-8.477 E19.07575
G1 X127.242 Y-9.989 E19.12744
G1 X127.204 Y-10.069 E19.13037
G1 X126.473 Y-10.982 E19.16926
G1 X125.567 Y-11.757 E19.20893
G1 X125.502 Y-11.794 E19.21142
G1 X124.266 Y-12.217 E19.25486
G1 X122.775 Y-12.495 E19.30532
G1 X122.696 Y-12.494 E19.30792
G1 X120.811 Y-12.101 E19.37197
G1 X119.542 Y-11.572 E19.41772
G1 X119.481 Y-11.531 E19.42016
G1 X118.690 Y-10.761 E19.45687
G1 X118.053 Y-9.525 E19.50313
G1 X117.726 Y-7.997 E19.55508
G1 X117.963 Y-5.285 E19.64565
G1 X118.720 Y-2.424 E19.74406
G1 X119.338 Y0.420 E19.84087
G1 X120.054 Y2.985 E19.92944
G1 X119.885 Y5.591 E20.01629
G1 X118.724 Y8.460 E20.11923
G1 X116.700 Y10.360 E20.21157
G1 X113.156 Y12.229 E20.34481
G1 X109.877 Y13.018 E20.45701
G1 X109.882 Y13.654 E20.47817
G1 X110.213 Y13.728 E20.48946
G1 X113.985 Y14.868 E20.62051
G1 X116.871 Y16.075 E20.72457
G1 X119.470 Y17.440 E20.82221
G1 X121.967 Y19.135 E20.92256
G1 X124.192 Y21.261 E21.02493
G1 X125.970 Y23.516 E21.12043
G1 X127.684 Y25.437 E21.20609
G1 X129.698 Y26.972 E21.29029
G1 X131.230 Y27.800 E21.34823
G1 X132.928 Y28.371 E21.40778
G1 X133.929 Y28.575 E21.44178
G1 X135.629 Y28.503 E21.49839
G1 X136.677 Y28.213 E21.53455
G1 X137.801 Y27.559 E21.57780
G1 X138.830 Y26.756 E21.62122
G1 X138.887 Y26.687 E21.62420
G1 X139.779 Y24.891 E21.69088
G1 X139.990 Y23.768 E21.72888
G1 X139.901 Y22.615 E21.76734
G1 X139.559 Y21.513 E21.80574
G1 X138.866 Y20.280 E21.85277
G1 X137.842 Y19.339 E21.89905
G1 X137.034 Y18.829 E21.93082
G1 X136.950 Y18.799 E21.93377
G1 X135.500 Y18.622 E21.98238
G1 X135.408 Y18.631 E21.98544
G1 X133.857 Y19.182 E22.04020
G1 X132.358 Y20.226 E22.10093
G1 X132.297 Y20.294 E22.10399
G1 X131.535 Y21.676 E22.15646
G1 X131.279 Y23.132 E22.20563
G1 X131.228 Y23.205 E22.20859
G1 X130.709 Y23.509 E22.22860
G1 X130.592 Y23.504 E22.23250
G1 X130.104 Y23.161 E22.25232
G1 X130.059 Y23.065 E22.25586
G1 X130.203 Y21.343 E22.31334
G1 X130.899 Y19.200 E22.38829
G1 X130.927 Y19.156 E22.39003
G1 X132.939 Y17.328 E22.48044
G1 X135.140 Y16.524 E22.55837
G1 X137.623 Y16.840 E22.64164
G1 X139.447 Y17.681 E22.70844
G1 X140.735 Y18.938 E22.76830
G1 X141.693 Y20.526 E22.82997
G1 X142.118 Y22.382 E22.89332
G1 X142.176 Y24.260 E22.95580
G1 X141.770 Y26.117 E23.01904
G1 X140.508 Y28.382 E23.10528
G1 X139.111 Y29.553 E23.16588
G1 X137.361 Y30.447 E23.23124
G1 X135.748 Y30.833 E23.28642
G1 X132.928 Y30.905 E23.38025
G1 X131.446 Y30.531 E23.43106
G1 X129.104 Y29.697 E23.51377
G1 X127.362 Y28.652 E23.58134
G1 X125.269 Y26.930 E23.67147
G1 X123.365 Y25.157 E23.75799
G1 X121.666 Y23.417 E23.83888
G1 X120.400 Y22.223 E23.89678
G1 X118.972 Y21.530 E23.94958
G1 X116.582 Y20.832 E24.03239
G1 X113.982 Y20.430 E24.11990
G1 X110.142 Y20.489 E24.24762
G1 X108.524 Y20.985 E24.30389
G1 X108.385 Y21.349 E24.31687
G1 X108.541 Y21.609 E24.32697
G1 X108.615 Y21.681 E24.33039
G1 X109.241 Y22.037 E24.35434
G1 X111.887 Y23.704 E24.45836
G1 X116.936 Y26.923 E24.65750
G1 X120.077 Y30.128 E24.80676
G1 X121.104 Y33.151 E24.91294
G1 X120.785 Y37.087 E25.04430
G1 X119.633 Y40.130 E25.15253
G1 X119.083 Y41.670 E25.20691
G1 X119.591 Y42.018 E25.22740
G1 X120.689 Y41.076 E25.27551
G1 X122.678 Y40.017 E25.35045
G1 X122.729 Y40.005 E25.35219
G1 X125.445 Y40.088 E25.44258
G1 X127.625 Y41.069 E25.52208
G1 X129.154 Y42.993 E25.60382
G1 X129.892 Y44.900 E25.67182
G1 X129.923 Y46.985 E25.74119
G1 X129.033 Y49.284 E25.82317
G1 X127.846 Y50.795 E25.88708
G1 X125.614 Y52.230 E25.97535
G1 X123.294 Y52.644 E26.05373
G1 X121.305 Y52.584 E26.11993
G1 X118.970 Y51.462 E26.20609
G1 X116.949 Y49.673 E26.29585
G1 X115.903 Y47.877 E26.36499
G1 X115.238 Y45.930 E26.43340
G1 X115.312 Y42.673 E26.54179
G1 X115.958 Y39.530 E26.64850
G1 X116.772 Y36.555 E26.75109
G1 X116.951 Y33.315 E26.85901
G1 X116.933 Y33.218 E26.86228
G1 X116.084 Y31.390 E26.92930
G1 X116.017 Y31.309 E26.93282
G1 X114.202 Y30.046 E27.00635
G1 X112.559 Y29.485 E27.06409
G1 X110.763 Y29.374 E27.12394
G1 X108.497 Y29.746 E27.20032
G1 X105.647 Y31.326 E27.30872
G1 X105.563 Y31.413 E27.31274
G1 X104.774 Y32.985 E27.37124
G1 X103.109 Y35.768 E27.47909
G1 X101.994 Y37.443 E27.54604
G1 X99.955 Y39.252 E27.63670
G1 X98.854 Y39.583 E27.67491
G1 X96.701 Y40.137 E27.74887
G1 X96.550 Y40.280 E27.75578
G1 X95.830 Y42.586 E27.83614
G1 X95.241 Y44.382 E27.89899
G1 X95.231 Y44.455 E27.90144
G1 X95.352 Y46.606 E27.97311
G1 X96.297 Y48.793 E28.05233
G1 X97.219 Y50.118 E28.10605
G1 X97.276 Y50.173 E28.10866
G1 X99.565 Y51.637 E28.19903
G1 X101.892 Y53.652 E28.30142
G1 X103.083 Y56.132 E28.39294
G1 X103.422 Y58.799 E28.48234
G1 X102.863 Y62.550 E28.60847
G1 X102.842 Y62.598 E28.61022
G1 X100.713 Y65.284 E28.72423
G1 X98.377 Y66.875 E28.81825
G1 X95.570 Y67.412 E28.91332
G1 X92.479 Y66.553 E29.02002
G1 X90.880 Y65.344 E29.08668
G1 X89.767 Y63.820 E29.14947
G1 X89.143 Y61.891 E29.21687
G1 X89.056 Y59.353 E29.30135
G1 X90.054 Y57.369 E29.37523
G1 X92.013 Y55.796 E29.45880
G1 X92.068 Y55.774 E29.46075
G1 X94.186 Y55.572 E29.53151
G1 X95.963 Y55.791 E29.59106
G1 X96.065 Y55.930 E29.59679
G1 X95.871 Y56.994 E29.63278
G1 X95.752 Y57.088 E29.63782
