; generated by Slic3r 1.1.7 on 2014-12-05 at 06:52:37

; perimeters extrusion width = 0.42mm
; infill extrusion width = 0.74mm
; solid infill extrusion width = 0.71mm
; top infill extrusion width = 0.71mm

G21 ; set units to millimeters
M190 S60 ; wait for bed temperature to be reached
M104 S186 ; set temperature
G28 ; home all axes
M109 S186 ; wait for temperature to be reached
G90 ; use absolute coordinates
G92 E0
M82 ; use absolute distances for extrusion
M106 S127
G1 F1860.000 E-3.00000
G92 E0
G1 Z0.200 F6000.000
G1 X62.871 Y62.891 F6000.000
G1 E3.10000 F1860.000
G1 X63.596 Y62.167 E3.11896 F1200.000
G1 X65.020 Y61.005 E3.15297
G1 X66.518 Y60.100 E3.18534
G1 X94.731 Y48.070 E3.75275
G1 X95.985 Y47.685 E3.77702
G1 X98.703 Y47.155 E3.82826
G1 X101.573 Y47.268 E3.88138
G1 X105.354 Y48.369 E3.95425 F1200.000
G1 X133.436 Y60.081 E4.51714
G1 X134.980 Y61.005 E4.55042
G1 X136.404 Y62.167 E4.58443
G1 X137.296 Y63.059 E4.60777
G1 X138.467 Y64.493 E4.64202
G1 X139.445 Y66.167 E4.67788
G1 X152.106 Y98.732 E5.32427
G1 X152.511 Y100.515 E5.35810
G1 X152.663 Y101.706 E5.38030
G1 X152.720 Y103.561 E5.41465
G1 X152.576 Y105.099 E5.44322
G1 X152.178 Y106.905 E5.47744
G1 X151.551 Y108.570 E5.51036
G1 X138.257 Y132.567 E6.01789
G1 X137.104 Y134.028 E6.05231
G1 X135.582 Y135.411 E6.09035
G1 X133.018 Y137.039 E6.14654
G1 X105.777 Y151.685 E6.71872
G1 X104.015 Y152.315 E6.75334
G1 X101.297 Y152.845 E6.80458
G1 X98.427 Y152.732 E6.85771
G1 X95.377 Y151.884 E6.91628
G1 X94.131 Y151.388 E6.94108
G1 X66.559 Y136.789 E7.51827
G1 X64.418 Y135.411 E7.56537
G1 X62.896 Y134.028 E7.60341
G1 X61.173 Y131.708 E7.65687
G1 X48.449 Y108.570 E8.14538
G1 X47.822 Y106.905 E8.17831
G1 X47.424 Y105.099 E8.21253
G1 X47.280 Y103.561 E8.24109
G1 X47.337 Y101.705 E8.27544
G1 X47.489 Y100.515 E8.29764
G1 X47.875 Y98.817 E8.32986
G1 X48.168 Y97.839 E8.34874
G1 X60.555 Y66.167 E8.97790
G1 X61.533 Y64.493 E9.01377
G1 X62.704 Y63.059 E9.04802
G1 X62.826 Y62.936 E9.05123
G1 F1860.000 E6.05123
G92 E0
G1 X106.190 Y107.250 F6000.000
G1 E3.10000 F1860.000
G1 X104.395 Y108.286 E3.13833 F1200.000
G1 X102.375 Y108.747 E3.17667
G1 X100.309 Y108.592 E3.21500
G1 X98.380 Y107.835 E3.25333
G1 X96.760 Y106.543 E3.29166
G1 X96.257 Y105.806 E3.30818
G1 X95.593 Y104.831 E3.33000
G1 X94.982 Y102.851 E3.36833
G1 X94.982 Y100.779 E3.40666
G1 X95.593 Y98.799 E3.44500
G1 X96.760 Y97.087 E3.48333
G1 X98.380 Y95.795 E3.52166
G1 X100.309 Y95.038 E3.55999
G1 X102.375 Y94.883 E3.59833
G1 X102.901 Y95.003 E3.60830
G1 X104.395 Y95.344 E3.63666 F1200.000
G1 X106.190 Y96.380 E3.67499
G1 X107.599 Y97.899 E3.71333
G1 X108.498 Y99.766 E3.75166
G1 X108.807 Y101.815 E3.78999
G1 X108.498 Y103.864 E3.82833
G1 X107.599 Y105.731 E3.86666
G1 X106.232 Y107.203 E3.90383
G1 X106.034 Y107.054 F6000.000
G1 X104.274 Y108.060 E3.94132 F1200.000
G1 X102.356 Y108.497 E3.97771
G1 X100.364 Y108.348 E4.01466
G1 X98.505 Y107.618 E4.05162
G1 X96.943 Y106.373 E4.08857
G1 X95.818 Y104.723 E4.12553
G1 X95.229 Y102.814 E4.16248
G1 X95.229 Y100.816 E4.19943
G1 X95.818 Y98.908 E4.23639
G1 X96.943 Y97.257 E4.27334
G1 X98.505 Y96.012 E4.31030
G1 X100.364 Y95.282 E4.34725
G1 X101.926 Y95.165 E4.37622
G1 X102.356 Y95.133 E4.38421 F1200.000
G1 X104.304 Y95.577 E4.42116
G1 X106.034 Y96.576 E4.45811
G1 X107.392 Y98.040 E4.49507
G1 X108.259 Y99.840 E4.53202
G1 X108.557 Y101.815 E4.56898
G1 X108.259 Y103.790 E4.60593
G1 X107.392 Y105.590 E4.64289
G1 X106.077 Y107.008 E4.67867
G1 F1860.000 E1.67867
G92 E0
G1 X101.838 Y94.754 F6000.000
G1 X112.138 Y100.670 F6000.000
G1 E3.10000 F1860.000
G1 X112.674 Y101.560 E3.11922 F1200.000
G1 X113.458 Y102.006 E3.13590
G1 X121.098 Y106.857 E3.30334
G1 X124.092 Y109.901 E3.38233
G1 X125.051 Y112.699 E3.43705
G1 X124.745 Y116.479 E3.50722
G1 X123.618 Y119.443 E3.56587
G1 X122.551 Y122.436 E3.62467
G1 X122.396 Y125.308 E3.67786
G1 X122.734 Y126.814 E3.70643
G1 X123.498 Y128.220 E3.73603
G1 X124.673 Y129.424 E3.76715
G1 X126.307 Y130.195 E3.80058
G1 X127.899 Y130.291 E3.83009
G1 X129.841 Y129.867 E3.86686
G1 X131.226 Y128.848 E3.89866
G1 X132.088 Y127.783 E3.92401
G1 X132.704 Y126.054 E3.95796
G1 X132.631 Y124.373 E3.98908
G1 X132.339 Y123.218 E4.01112
G1 X131.203 Y121.818 E4.04448
G1 X129.506 Y121.036 E4.07906
G1 X127.428 Y120.702 E4.11798
G1 X125.633 Y121.256 E4.15274
G1 X124.906 Y121.790 E4.16943
G1 X124.787 Y121.641 E4.17295
G1 X125.490 Y121.036 E4.19011
G1 X127.330 Y120.056 E4.22868
G1 X129.840 Y120.132 E4.27514
G1 X131.764 Y120.995 E4.31414
G1 X133.183 Y122.780 E4.35634
G1 X133.846 Y124.488 E4.39022
G1 X133.874 Y126.406 E4.42571
G1 X133.048 Y128.523 E4.46775
G1 X131.963 Y129.898 E4.50015
G1 X129.930 Y131.207 E4.54489
G1 X127.744 Y131.597 E4.58598
G1 X125.916 Y131.540 E4.61979
G1 X123.786 Y130.511 E4.66356
G1 X121.866 Y128.811 E4.71101
G1 X120.898 Y127.140 E4.74674
G1 X120.287 Y125.363 E4.78151
G1 X120.356 Y122.243 E4.83924
G1 X120.991 Y119.154 E4.89758
G1 X121.821 Y116.122 E4.95574
G1 X122.008 Y112.658 E5.01992
G1 X120.996 Y110.477 E5.06439
G1 X118.980 Y109.064 E5.10994
G1 X117.195 Y108.445 E5.14489
G1 X115.214 Y108.323 E5.18161
G1 X112.847 Y108.704 E5.22597
G1 X109.678 Y110.460 E5.29299
G1 X108.795 Y112.218 E5.32939
G1 X107.145 Y114.978 E5.38887
G1 X106.071 Y116.591 E5.42473
G1 X104.165 Y118.277 E5.47180
G1 X103.211 Y118.554 E5.49018
G1 X100.654 Y119.212 E5.53903
G1 X99.808 Y121.920 E5.59150
G1 X99.178 Y123.843 E5.62895
G1 X99.307 Y126.407 E5.67645
G1 X99.386 Y126.407 E5.67792
G1 X100.325 Y128.579 E5.72169
G1 X101.356 Y130.054 E5.75498
G1 X103.732 Y131.573 E5.80715
G1 X105.939 Y133.473 E5.86103
G1 X107.058 Y135.804 E5.90887
G1 X107.372 Y138.279 E5.95503
G1 X106.840 Y141.851 E6.02185
G1 X104.827 Y144.391 E6.08181
G1 X102.682 Y145.856 E6.12985
G1 X100.115 Y146.357 E6.17824
G1 X97.207 Y145.548 E6.23407
G1 X95.782 Y144.468 E6.26715
G1 X94.765 Y143.082 E6.29895
G1 X94.182 Y141.282 E6.33396
G1 X94.096 Y138.995 E6.37630
G1 X94.973 Y137.234 E6.41269
G1 X96.752 Y135.806 E6.45490
G1 X98.689 Y135.621 E6.49089
G1 X99.945 Y135.778 E6.51431
G1 X99.901 Y136.020 E6.51887
G1 X98.775 Y135.957 E6.53972
G1 X97.162 Y136.508 E6.57127
G1 X95.901 Y137.943 E6.60660
G1 X95.178 Y139.514 E6.63861
G1 X95.247 Y141.266 E6.67104
G1 X95.798 Y142.355 E6.69361
G1 X96.764 Y143.546 E6.72199
G1 X98.215 Y144.380 E6.75295
G1 X99.869 Y144.727 E6.78421
G1 X99.869 Y144.847 E6.78642
G1 X102.378 Y144.386 E6.83363
G1 X104.380 Y143.002 E6.87864
G1 X105.472 Y140.651 E6.92659
G1 X105.524 Y138.358 E6.96902
G1 X105.132 Y136.906 E6.99685
G1 X103.973 Y135.471 E7.03098
G1 X101.884 Y133.649 E7.08227
G1 X99.796 Y132.542 E7.12598
G1 X97.488 Y130.874 E7.17867
G1 X95.939 Y128.881 E7.22537
G1 X94.593 Y126.542 E7.27528
G1 X93.840 Y124.122 E7.32218
G1 X93.637 Y120.514 E7.38902
G1 X94.101 Y117.703 E7.44173
G1 X93.268 Y116.249 E7.47274
G1 X92.102 Y114.132 E7.51745
G1 X91.845 Y111.893 E7.55913
G1 X90.270 Y110.126 E7.60293
G1 X87.139 Y108.702 E7.66656
G1 X84.786 Y108.323 E7.71066
G1 X82.805 Y108.445 E7.74738
G1 X81.020 Y109.064 E7.78233
G1 X79.004 Y110.477 E7.82788
G1 X77.992 Y112.658 E7.87235
G1 X78.179 Y116.122 E7.93653
G1 X79.009 Y119.154 E7.99469
G1 X79.644 Y122.243 E8.05303
G1 X79.713 Y125.363 E8.11076
G1 X79.102 Y127.140 E8.14553
G1 X78.134 Y128.811 E8.18126
G1 X76.214 Y130.511 E8.22871
G1 X74.084 Y131.540 E8.27248
G1 X72.256 Y131.597 E8.30629
G1 X70.070 Y131.207 E8.34738
G1 X68.037 Y129.898 E8.39212
G1 X66.952 Y128.523 E8.42452
G1 X66.126 Y126.406 E8.46656
G1 X66.154 Y124.488 E8.50205
G1 X66.817 Y122.780 E8.53593
G1 X68.236 Y120.995 E8.57813
G1 X70.160 Y120.132 E8.61713
G1 X72.670 Y120.056 E8.66359
G1 X74.510 Y121.036 E8.70216
G1 X75.213 Y121.641 E8.71932
G1 X75.094 Y121.790 E8.72284
G1 X74.367 Y121.256 E8.73953
G1 X72.572 Y120.702 E8.77429
G1 X70.494 Y121.036 E8.81322
G1 X68.797 Y121.818 E8.84779
G1 X67.661 Y123.218 E8.88116
G1 X67.369 Y124.373 E8.90319
G1 X67.296 Y126.054 E8.93431
G1 X67.912 Y127.783 E8.96826
G1 X68.774 Y128.848 E8.99362
G1 X70.159 Y129.867 E9.02542
G1 X72.101 Y130.291 E9.06219
G1 X73.693 Y130.195 E9.09170
G1 X75.327 Y129.424 E9.12512
G1 X76.502 Y128.220 E9.15624
G1 X77.266 Y126.814 E9.18585
G1 X77.604 Y125.308 E9.21441
G1 X77.449 Y122.436 E9.26761
G1 X76.382 Y119.443 E9.32640
G1 X75.255 Y116.479 E9.38506
G1 X74.949 Y112.699 E9.45522
G1 X75.908 Y109.901 E9.50995
G1 X78.902 Y106.857 E9.58894
G1 X86.542 Y102.006 E9.75637
G1 X87.326 Y101.560 E9.77306
G1 X87.862 Y100.670 E9.79227
G1 X87.207 Y99.983 E9.80982
G1 X85.416 Y99.434 E9.84448
G1 X81.463 Y99.382 E9.91762
G1 X78.786 Y99.798 E9.96773
G1 X76.347 Y100.510 E10.01473
G1 X74.810 Y101.244 E10.04625
G1 X73.453 Y102.524 E10.08076
G1 X71.754 Y104.264 E10.12575
G1 X69.868 Y106.020 E10.17343
G1 X67.828 Y107.700 E10.22231
G1 X66.170 Y108.696 E10.25809
G1 X63.890 Y109.509 E10.30288
G1 X62.498 Y109.859 E10.32943
G1 X59.814 Y109.788 E10.37911
G1 X58.319 Y109.428 E10.40756
G1 X56.683 Y108.588 E10.44158
G1 X55.430 Y107.543 E10.47176
G1 X54.251 Y105.435 E10.51645
G1 X53.873 Y103.721 E10.54892
G1 X53.928 Y101.942 E10.58185
G1 X54.313 Y100.246 E10.61402
G1 X55.189 Y98.788 E10.64548
G1 X56.353 Y97.645 E10.67568
G1 X58.016 Y96.874 E10.70959
G1 X60.276 Y96.575 E10.75177
G1 X62.258 Y97.292 E10.79076
G1 X64.117 Y98.981 E10.83723
G1 X64.760 Y100.962 E10.87577
G1 X64.830 Y101.805 E10.89141
G1 X64.641 Y101.829 E10.89492
G1 X64.506 Y101.023 E10.91003
G1 X63.598 Y99.377 E10.94482
G1 X61.872 Y98.175 E10.98372
G1 X60.108 Y97.557 E11.01831
G1 X58.317 Y97.777 E11.05170
G1 X57.311 Y98.411 E11.07369
G1 X56.216 Y99.406 E11.10106
G1 X55.443 Y100.773 E11.13012
G1 X55.060 Y101.987 E11.15366
G1 X54.954 Y103.269 E11.17746
G1 X55.184 Y104.539 E11.20135
G1 X56.199 Y106.583 E11.24355
G1 X57.401 Y107.521 E11.27177
G1 X58.581 Y108.214 E11.29709
G1 X59.760 Y108.546 E11.31974
G1 X61.589 Y108.630 E11.35362
G1 X62.703 Y108.404 E11.37464
G1 X64.473 Y107.813 E11.40916
G1 X66.087 Y106.943 E11.44309
G1 X68.205 Y105.329 E11.49235
G1 X69.946 Y103.372 E11.54082
G1 X71.709 Y101.134 E11.59351
G1 X73.884 Y99.056 E11.64917
G1 X76.316 Y97.407 E11.70352
G1 X78.858 Y96.072 E11.75664
G1 X81.705 Y94.882 E11.81373
G1 X85.413 Y93.761 E11.88539
G1 X88.394 Y93.328 E11.94113
G1 X86.526 Y92.151 E11.98200
G1 X83.073 Y90.997 E12.04934
G1 X79.514 Y89.033 E12.12453
G1 X77.258 Y87.357 E12.17654
G1 X76.127 Y84.693 E12.23009
G1 X75.972 Y82.356 E12.27341
G1 X76.668 Y79.900 E12.32063
G1 X77.288 Y77.177 E12.37231
G1 X78.082 Y74.295 E12.42762
G1 X78.329 Y71.436 E12.48070
G1 X77.960 Y69.761 E12.51243
G1 X77.238 Y68.376 E12.54132
G1 X76.298 Y67.478 E12.56538
G1 X74.871 Y66.878 E12.59401
G1 X72.770 Y66.440 E12.63371
G1 X71.080 Y66.755 E12.66553
G1 X69.687 Y67.235 E12.69279
G1 X68.644 Y68.120 E12.71809
G1 X67.764 Y69.220 E12.74415
G1 X67.353 Y70.938 E12.77683
G1 X67.379 Y72.358 E12.80310
G1 X67.659 Y73.517 E12.82517
G1 X68.797 Y74.920 E12.85858
G1 X70.494 Y75.702 E12.89316
G1 X72.572 Y76.036 E12.93208
G1 X74.369 Y75.482 E12.96687
G1 X75.228 Y74.839 E12.98674
G1 X75.348 Y74.988 E12.99028
G1 X74.511 Y75.702 E13.01064
G1 X72.670 Y76.683 E13.04922
G1 X70.160 Y76.606 E13.09568
G1 X68.236 Y75.744 E13.13468
G1 X66.817 Y73.958 E13.17687
G1 X66.157 Y72.251 E13.21073
G1 X66.148 Y70.625 E13.24082
G1 X66.690 Y68.604 E13.27952
G1 X67.791 Y67.255 E13.31174
G1 X69.147 Y66.149 E13.34411
G1 X70.936 Y65.432 E13.37978
G1 X72.739 Y65.141 E13.41355
G1 X75.081 Y65.511 E13.45742
G1 X77.029 Y66.439 E13.49734
G1 X78.401 Y67.696 E13.53176
G1 X79.290 Y69.403 E13.56737
G1 X79.794 Y71.357 E13.60470
G1 X79.655 Y74.495 E13.66281
G1 X79.102 Y77.549 E13.72024
G1 X79.141 Y80.270 E13.77057
G1 X79.134 Y82.166 E13.80565
G1 X79.623 Y83.885 E13.83872
G1 X80.702 Y85.059 E13.86822
G1 X81.910 Y85.668 E13.89326
G1 X84.006 Y86.129 E13.93296
G1 X87.081 Y86.109 E13.98983
G1 X90.811 Y85.980 E14.05889
G1 X93.091 Y85.639 E14.10153
G1 X95.534 Y84.456 E14.15175
G1 X99.723 Y82.021 E14.24139
G1 X102.801 Y80.007 E14.30944
G1 X104.356 Y77.401 E14.36559
G1 X104.171 Y75.135 E14.40765
G1 X103.645 Y73.536 E14.43879
G1 X102.108 Y72.170 E14.47683
G1 X100.828 Y71.318 E14.50528
G1 X98.483 Y69.949 E14.55551
G1 X95.927 Y68.616 E14.60885
G1 X93.997 Y66.724 E14.65886
G1 X92.943 Y64.300 E14.70776
G1 X92.628 Y61.761 E14.75509
G1 X93.161 Y58.147 E14.82266
G1 X95.173 Y55.607 E14.88262
G1 X97.318 Y54.144 E14.93065
G1 X99.885 Y53.643 E14.97904
G1 X102.793 Y54.452 E15.03487
G1 X104.218 Y55.532 E15.06795
G1 X105.235 Y56.918 E15.09975
G1 X105.818 Y58.718 E15.13476
G1 X105.904 Y61.005 E15.17710
G1 X105.027 Y62.766 E15.21349
G1 X103.248 Y64.194 E15.25570
G1 X101.314 Y64.378 E15.29164
G1 X100.125 Y64.212 E15.31384
G1 X100.102 Y64.081 E15.31631
G1 X100.162 Y63.976 E15.31854
G1 X101.223 Y64.044 E15.33821
G1 X102.838 Y63.492 E15.36978
G1 X104.099 Y62.057 E15.40512
G1 X104.822 Y60.485 E15.43713
G1 X104.752 Y58.734 E15.46956
G1 X104.202 Y57.646 E15.49212
G1 X103.236 Y56.454 E15.52049
G1 X101.785 Y55.620 E15.55146
G1 X99.828 Y55.209 E15.58845
G1 X97.622 Y55.614 E15.62995
G1 X95.620 Y56.997 E15.67495
G1 X94.528 Y59.349 E15.72292
G1 X94.476 Y61.656 E15.76562
G1 X94.866 Y63.130 E15.79383
G1 X95.961 Y64.561 E15.82717
G1 X97.733 Y66.167 E15.87141
G1 X102.561 Y68.381 E15.96968
G1 X104.568 Y69.471 E16.01192
G1 X106.872 Y71.042 E16.06351
G1 X109.240 Y73.647 E16.12863
G1 X110.126 Y77.040 E16.19351
G1 X109.921 Y80.609 E16.25965
G1 X109.279 Y83.368 E16.31206
G1 X109.749 Y84.551 E16.33560
G1 X113.127 Y86.058 E16.40404
G1 X116.198 Y86.407 E16.46121
G1 X118.149 Y85.938 E16.49834
G1 X119.280 Y85.309 E16.52228
G1 X120.354 Y84.141 E16.55164
G1 X120.844 Y82.398 E16.58514
G1 X120.829 Y80.432 E16.62152
G1 X120.870 Y77.584 E16.67420
G1 X120.346 Y74.496 E16.73214
G1 X120.206 Y71.357 E16.79028
G1 X120.710 Y69.403 E16.82762
G1 X121.599 Y67.696 E16.86322
G1 X122.971 Y66.439 E16.89764
G1 X124.919 Y65.511 E16.93757
G1 X127.261 Y65.141 E16.98143
G1 X129.064 Y65.432 E17.01521
G1 X130.853 Y66.149 E17.05087
G1 X132.209 Y67.255 E17.08325
G1 X133.310 Y68.604 E17.11547
G1 X133.852 Y70.625 E17.15416
G1 X133.843 Y72.251 E17.18425
G1 X133.183 Y73.958 E17.21811
G1 X131.764 Y75.744 E17.26031
G1 X129.840 Y76.606 E17.29931
G1 X127.330 Y76.683 E17.34576
G1 X125.489 Y75.702 E17.38435
G1 X124.652 Y74.988 E17.40470
G1 X124.772 Y74.839 E17.40825
G1 X125.631 Y75.482 E17.42811
G1 X127.428 Y76.036 E17.46290
G1 X129.506 Y75.702 E17.50182
G1 X131.203 Y74.920 E17.53640
G1 X132.341 Y73.517 E17.56981
G1 X132.621 Y72.358 E17.59188
G1 X132.647 Y70.938 E17.61815
G1 X132.236 Y69.220 E17.65083
G1 X131.356 Y68.120 E17.67689
G1 X130.457 Y67.357 E17.69870
G1 X130.457 Y67.284 E17.70005
G1 X128.920 Y66.755 E17.73011
G1 X127.230 Y66.440 E17.76193
G1 X125.129 Y66.878 E17.80164
G1 X123.702 Y67.478 E17.83026
G1 X122.762 Y68.376 E17.85433
G1 X122.040 Y69.761 E17.88321
G1 X121.671 Y71.436 E17.91495
G1 X121.918 Y74.293 E17.96800
G1 X122.688 Y77.206 E18.02375
G1 X123.305 Y80.047 E18.07752
G1 X124.006 Y82.559 E18.12578
G1 X123.851 Y84.952 E18.17015
G1 X122.754 Y87.663 E18.22425
G1 X120.870 Y89.419 E18.27188
G1 X117.451 Y91.218 E18.34337
G1 X113.532 Y92.158 E18.41793
G1 X112.290 Y92.892 E18.44462
G1 X112.399 Y93.444 E18.45502
G1 X114.587 Y93.761 E18.49593
G1 X118.295 Y94.882 E18.56759
G1 X121.142 Y96.072 E18.62468
G1 X123.684 Y97.407 E18.67780
G1 X126.116 Y99.056 E18.73215
G1 X128.291 Y101.134 E18.78781
G1 X130.054 Y103.372 E18.84050
G1 X131.795 Y105.328 E18.88897
G1 X133.913 Y106.943 E18.93823
G1 X135.527 Y107.812 E18.97216
G1 X137.297 Y108.404 E19.00668
G1 X138.411 Y108.630 E19.02770
G1 X140.240 Y108.546 E19.06158
G1 X140.912 Y108.357 E19.07450
G1 X140.912 Y108.511 E19.07736
G1 X142.599 Y107.521 E19.11354
G1 X143.801 Y106.583 E19.14176
G1 X144.816 Y104.539 E19.18396
G1 X145.046 Y103.269 E19.20785
G1 X144.940 Y101.987 E19.23165
G1 X144.557 Y100.773 E19.25519
G1 X143.784 Y99.406 E19.28425
G1 X142.689 Y98.411 E19.31162
G1 X141.683 Y97.777 E19.33361
G1 X139.892 Y97.557 E19.36700
G1 X138.128 Y98.175 E19.40159
G1 X136.402 Y99.377 E19.44049
G1 X135.494 Y101.023 E19.47528
G1 X135.359 Y101.829 E19.49039
G1 X135.170 Y101.805 E19.49389
G1 X135.240 Y100.962 E19.50954
G1 X135.883 Y98.981 E19.54808
G1 X137.742 Y97.292 E19.59454
G1 X139.724 Y96.575 E19.63354
G1 X141.984 Y96.874 E19.67572
