; generated by Slic3r 1.1.7 on 2014-12-07 at 14:15:26

; perimeters extrusion width = 0.42mm
; infill extrusion width = 0.74mm
; solid infill extrusion width = 0.71mm
; top infill extrusion width = 0.71mm
; support material extrusion width = 0.42mm

G21 ; set units to millimeters
M190 S60 ; wait for bed temperature to be reached
M104 S186 ; set temperature
G28 ; home all axes
M109 S186 ; wait for temperature to be reached
G90 ; use absolute coordinates
G92 E0
M82 ; use absolute distances for extrusion
M106 S127
G1 F1860.000 E-3.00000
G92 E0
G1 Z0.200 F6000.000
G1 X43.860 Y54.914 F6000.000
G1 E3.10000 F1860.000
G1 X44.883 Y54.173 E3.12338 F1200.000
G1 X48.547 Y52.049 E3.20173
G1 X49.783 Y51.502 E3.22673
G1 X54.192 Y50.095 E3.31235
G1 X55.485 Y49.829 E3.33676
G1 X61.313 Y49.291 E3.44505
G1 X143.637 Y49.321 E4.96807
G1 X148.861 Y49.829 E5.06516 F1200.000
G1 X150.153 Y50.095 E5.08957
G1 X154.563 Y51.502 E5.17519
G1 X155.798 Y52.049 E5.20018
G1 X159.462 Y54.173 E5.27854
G1 X160.485 Y54.914 E5.30192
G1 X164.224 Y58.376 E5.39618
G1 X166.556 Y61.338 E5.46591
G1 X167.111 Y62.150 E5.48412
G1 X168.914 Y65.288 E5.55107
G1 X181.293 Y88.317 E6.03477
G1 X181.705 Y89.275 E6.05405
G1 X182.074 Y90.271 E6.07370
G1 X182.412 Y91.312 E6.09395
G1 X182.717 Y92.394 E6.11475
G1 X182.986 Y93.511 E6.13601
G1 X183.147 Y94.316 E6.15119
G1 X183.351 Y95.711 E6.17729
G1 X187.050 Y133.912 E6.88732
G1 X187.113 Y135.254 E6.91217
G1 X187.108 Y136.044 E6.92679
G1 X187.065 Y136.752 E6.93990
G1 X186.992 Y137.368 E6.95137
G1 X186.598 Y138.929 E6.98116
G1 X186.450 Y139.305 E6.98865
G1 X185.254 Y141.221 E7.03042
G1 X185.056 Y141.438 E7.03585
G1 X184.401 Y142.060 E7.05256
G1 X184.175 Y142.246 E7.05799
G1 X183.500 Y142.729 E7.07334
G1 X182.617 Y143.230 E7.09211
G1 X181.795 Y143.589 E7.10872
G1 X181.479 Y143.704 E7.11494
G1 X181.048 Y143.845 E7.12332
G1 X180.373 Y144.028 E7.13627
G1 X179.758 Y144.165 E7.14792
G1 X178.651 Y144.359 E7.16872
G1 X176.892 Y144.616 E7.20160
G1 X174.771 Y144.868 E7.24113
G1 X170.025 Y145.385 E7.32945
G1 X163.098 Y146.100 E7.45827
G1 X154.454 Y146.942 E7.61894
G1 X144.557 Y147.840 E7.80279
G1 X133.872 Y148.726 E8.00115
G1 X123.160 Y149.505 E8.19984
G1 X112.306 Y150.154 E8.40101
G1 X101.662 Y150.591 E8.59808
G1 X92.803 Y150.706 E8.76199
G1 X92.332 Y150.705 E8.77070
G1 X85.009 Y150.460 E8.90627
G1 X84.351 Y150.417 E8.91847
G1 X58.135 Y147.386 E9.40669
G1 X53.676 Y146.847 E9.48979
G1 X48.734 Y146.033 E9.58245
G1 X48.240 Y145.939 E9.59175
G1 X43.459 Y144.851 E9.68245
G1 X42.946 Y144.719 E9.69225
G1 X37.440 Y143.041 E9.79875
G1 X32.295 Y141.055 E9.90078
G1 X31.735 Y140.818 E9.91203
G1 X26.392 Y138.252 E10.02168
G1 X25.843 Y137.966 E10.03312
G1 X20.178 Y134.667 E10.15441
G1 X18.732 Y133.506 E10.18871
G1 X18.093 Y132.814 E10.20615
G1 X16.899 Y130.934 E10.24734
G1 X16.532 Y129.662 E10.27185
G1 X12.990 Y109.455 E10.65138
G1 X12.913 Y108.615 E10.66698
G1 X13.395 Y105.572 E10.72397
G1 X14.064 Y104.091 E10.75405
G1 X35.395 Y65.352 E11.57219
G1 X37.742 Y61.398 E11.65725
G1 X40.074 Y58.437 E11.72698
G1 X40.873 Y57.577 E11.74869
G1 X43.813 Y54.956 E11.82156
G1 F1860.000 E8.82156
G92 E0
G1 X171.028 Y134.583 F6000.000
G1 E3.10000 F1860.000
G1 X176.707 Y133.579 E3.20670 F1200.000
G1 X175.673 Y127.727 E3.31665
G1 X176.597 Y127.512 E3.33421
G1 X177.458 Y127.381 E3.35032
G1 X177.887 Y127.351 E3.35828
G1 X178.284 Y127.356 E3.36563
G1 X178.625 Y127.401 E3.37198
G1 X178.880 Y127.484 E3.37695
G1 X179.034 Y127.590 E3.38040
G1 X179.195 Y127.849 E3.38605
G1 X179.405 Y128.397 E3.39691
G1 X179.626 Y129.164 E3.41167
G1 X179.842 Y130.085 E3.42918
G1 X180.043 Y131.109 E3.44848
G1 X180.220 Y132.184 E3.46864
G1 X180.364 Y133.262 E3.48875
G1 X180.467 Y134.291 E3.50788
G1 X180.519 Y135.221 E3.52512
G1 X180.514 Y135.997 E3.53947
G1 X180.449 Y136.548 E3.54974
G1 X180.340 Y136.823 E3.55521
G1 X180.198 Y136.979 E3.55911
G1 X180.004 Y137.138 E3.56375
G1 X179.780 Y137.277 E3.56863
G1 X179.521 Y137.399 E3.57393
G1 X178.893 Y137.602 E3.58615
G1 X178.113 Y137.765 E3.60088
G1 X176.108 Y138.068 E3.63838
G1 X174.054 Y138.313 E3.67665
G1 X169.347 Y138.826 E3.76426
G1 X162.458 Y139.537 E3.89239
G1 X153.856 Y140.374 E4.05227
G1 X144.011 Y141.269 E4.23515
G1 X133.391 Y142.149 E4.43230
G1 X122.465 Y142.944 E4.63497
G1 X111.702 Y143.583 E4.83444
G1 X101.572 Y143.997 E5.02201
G1 X92.545 Y144.114 E5.18903
G1 X85.096 Y143.865 E5.32691
G1 X79.683 Y143.180 E5.42784
G1 X75.765 Y142.471 E5.50151
G1 X71.727 Y141.969 E5.57678
G1 X67.582 Y141.590 E5.65380
G1 X63.317 Y141.243 E5.73295
G1 X58.922 Y140.839 E5.81461
G1 X54.385 Y140.290 E5.89916
G1 X49.694 Y139.507 E5.98714
G1 X44.837 Y138.402 E6.07929
G1 X39.802 Y136.885 E6.17657
G1 X34.577 Y134.868 E6.28018
G1 X29.150 Y132.261 E6.39157
G1 X23.542 Y128.995 E6.51163
G1 X23.019 Y128.428 E6.52591
G1 X22.960 Y127.793 E6.53769
G1 X23.310 Y126.982 E6.55404
G1 X24.064 Y126.057 E6.57611
G1 X25.149 Y125.108 E6.60279
G1 X26.479 Y124.200 E6.63259
G1 X27.970 Y123.390 E6.66397
G1 X29.535 Y122.730 E6.69538
G1 X31.088 Y122.272 E6.72535
G1 X32.541 Y122.063 E6.75251
G1 X33.801 Y122.144 E6.77585
G1 X34.820 Y122.549 E6.79614
G1 X35.911 Y123.295 E6.82060
G1 X40.759 Y126.700 E6.93019
G1 X42.738 Y128.034 E6.97436
G1 X44.834 Y129.383 E7.02047
G1 X47.007 Y130.698 E7.06745
G1 X49.218 Y131.927 E7.11426
G1 X51.430 Y133.021 E7.15991
G1 X53.606 Y133.929 E7.20353
G1 X55.709 Y134.600 E7.24438
G1 X57.689 Y134.978 E7.28166
G1 X61.339 Y135.434 E7.34971
G1 X63.062 Y135.616 E7.38176
G1 X64.819 Y135.720 E7.41433
G1 X66.682 Y135.708 E7.44880
G1 X68.721 Y135.544 E7.48664
G1 X71.007 Y135.193 E7.52942
G1 X73.611 Y134.620 E7.57876
G1 X76.608 Y133.789 E7.63630
G1 X80.072 Y132.665 E7.70367
G1 X84.078 Y131.212 E7.78249
G1 X88.679 Y129.403 E7.87396
G1 X91.410 Y128.633 E7.92645
G1 X95.040 Y128.100 E7.99433
G1 X99.364 Y127.773 E8.07455
G1 X104.157 Y127.620 E8.16327
G1 X109.200 Y127.610 E8.25657
G1 X114.275 Y127.709 E8.35047
G1 X119.163 Y127.884 E8.44097
G1 X123.649 Y128.101 E8.52405
G1 X127.515 Y128.329 E8.59569
G1 X133.234 Y128.735 E8.70176
G1 X140.180 Y128.975 E8.83035
G1 X146.868 Y129.181 E8.95413
G1 X153.935 Y129.360 E9.08492
G1 X157.198 Y129.420 E9.14530
G1 X160.061 Y129.450 E9.19826
G1 X162.705 Y129.441 E9.24718
G1 X163.932 Y129.388 E9.26990
G1 X165.996 Y129.225 E9.30820
G1 X167.626 Y129.064 E9.33850
G1 X168.852 Y128.918 E9.36135
G1 X170.008 Y128.748 E9.38295
G1 X171.017 Y134.521 E9.49136
G1 X171.229 Y134.296 F6000.000
G1 X176.421 Y133.379 E9.58891 F1200.000
G1 X175.390 Y127.549 E9.69844
G1 X176.550 Y127.269 E9.72052
G1 X177.434 Y127.135 E9.73705
G1 X177.880 Y127.103 E9.74533
G1 X178.302 Y127.109 E9.75314
G1 X178.680 Y127.159 E9.76018
G1 X178.991 Y127.260 E9.76623
G1 X179.217 Y127.415 E9.77130
G1 X179.418 Y127.738 E9.77835
G1 X179.639 Y128.319 E9.78984
G1 X179.865 Y129.101 E9.80490
G1 X180.084 Y130.033 E9.82261
G1 X180.286 Y131.065 E9.84207
G1 X180.465 Y132.148 E9.86237
G1 X180.610 Y133.233 E9.88262
G1 X180.713 Y134.272 E9.90194
G1 X180.766 Y135.215 E9.91941
G1 X180.761 Y136.012 E9.93416
G1 X180.690 Y136.609 E9.94528
G1 X180.553 Y136.956 E9.95219
G1 X180.369 Y137.158 E9.95725
G1 X180.148 Y137.339 E9.96252
G1 X179.898 Y137.494 E9.96797
G1 X179.616 Y137.628 E9.97374
G1 X178.954 Y137.842 E9.98662
G1 X178.156 Y138.008 E10.00169
G1 X176.141 Y138.313 E10.03940
G1 X174.082 Y138.558 E10.07776
G1 X169.373 Y139.072 E10.16540
G1 X162.482 Y139.783 E10.29355
G1 X153.879 Y140.621 E10.45346
G1 X144.033 Y141.515 E10.63638
G1 X133.410 Y142.395 E10.83356
G1 X122.482 Y143.190 E11.03629
G1 X111.715 Y143.830 E11.23583
G1 X101.578 Y144.244 E11.42351
G1 X92.542 Y144.361 E11.59069
G1 X85.076 Y144.112 E11.72890
G1 X79.646 Y143.425 E11.83016
G1 X75.728 Y142.715 E11.90382
G1 X71.701 Y142.215 E11.97889
G1 X67.560 Y141.836 E12.05581
G1 X63.290 Y141.489 E12.13508
G1 X58.896 Y141.085 E12.21671
G1 X54.350 Y140.535 E12.30143
G1 X49.646 Y139.750 E12.38965
G1 X44.774 Y138.641 E12.48209
G1 X39.722 Y137.119 E12.57970
G1 X34.479 Y135.095 E12.68367
G1 X29.034 Y132.480 E12.79542
G1 X23.386 Y129.190 E12.91635
G1 X22.781 Y128.534 E12.93286
G1 X22.709 Y127.753 E12.94736
G1 X23.096 Y126.852 E12.96551
G1 X23.885 Y125.885 E12.98861
G1 X24.997 Y124.912 E13.01594
G1 X26.350 Y123.989 E13.04625
G1 X27.862 Y123.167 E13.07809
G1 X29.451 Y122.497 E13.10999
G1 X31.035 Y122.030 E13.14054
G1 X32.532 Y121.815 E13.16850
G1 X33.855 Y121.899 E13.19304
G1 X34.937 Y122.329 E13.21457
G1 X36.052 Y123.092 E13.23957
G1 X40.898 Y126.496 E13.34913
G1 X42.874 Y127.828 E13.39321
G1 X44.965 Y129.174 E13.43921
G1 X47.131 Y130.484 E13.48604
G1 X49.333 Y131.708 E13.53266
G1 X51.533 Y132.796 E13.57806
G1 X53.691 Y133.697 E13.62133
G1 X55.770 Y134.360 E13.66171
G1 X57.727 Y134.734 E13.69856
G1 X61.368 Y135.188 E13.76644
G1 X63.082 Y135.370 E13.79833
G1 X64.826 Y135.473 E13.83064
G1 X66.672 Y135.461 E13.86479
G1 X68.692 Y135.299 E13.90230
G1 X70.961 Y134.950 E13.94476
G1 X73.552 Y134.380 E13.99383
G1 X76.537 Y133.552 E14.05115
G1 X79.992 Y132.431 E14.11835
G1 X83.990 Y130.981 E14.19703
G1 X88.600 Y129.168 E14.28867
G1 X91.358 Y128.391 E14.34168
G1 X95.013 Y127.854 E14.41001
G1 X99.351 Y127.526 E14.49049
G1 X104.153 Y127.373 E14.57938
G1 X109.202 Y127.363 E14.67280
G1 X114.281 Y127.462 E14.76678
G1 X119.174 Y127.637 E14.85735
G1 X123.662 Y127.855 E14.94049
G1 X127.530 Y128.082 E15.01217
G1 X133.248 Y128.488 E15.11822
G1 X140.188 Y128.728 E15.24669
G1 X146.875 Y128.934 E15.37045
G1 X153.940 Y129.113 E15.50121
G1 X157.202 Y129.173 E15.56155
G1 X160.062 Y129.203 E15.61447
G1 X162.458 Y129.195 E15.65880
G1 X163.919 Y129.141 E15.68584
G1 X165.974 Y128.978 E15.72398
G1 X167.599 Y128.818 E15.75419
G1 X168.820 Y128.673 E15.77694
G1 X170.209 Y128.463 E15.80292
G1 X171.218 Y134.234 E15.91132
G1 X171.302 Y134.710 F6000.000
G1 F1860.000 E12.91132
G92 E0
G1 X169.651 Y128.961 F6000.000
G1 E3.10000 F1860.000
G1 X169.933 Y129.243 E3.10735 F1200.000
G1 X170.007 Y129.667 E3.11532
G1 X169.346 Y129.006 E3.13259
G1 X169.041 Y129.051 E3.13830
G1 X170.081 Y130.091 E3.16549
G1 X170.155 Y130.515 E3.17346
G1 X168.733 Y129.092 E3.21067
G1 X168.420 Y129.130 E3.21649
G1 X170.229 Y130.938 E3.26382
G1 X170.303 Y131.362 E3.27178
G1 X168.108 Y129.167 E3.32922
G1 X167.795 Y129.204 E3.33505
G1 X170.377 Y131.786 E3.40261
G1 X170.452 Y132.210 E3.41057
G1 X167.479 Y129.238 E3.48833
G1 X167.161 Y129.270 E3.49425
G1 X170.526 Y132.634 E3.58228
G1 X170.600 Y133.058 E3.59024
G1 X166.843 Y129.301 E3.68855
G1 X166.524 Y129.333 E3.69447
G1 X170.674 Y133.482 E3.80304
G1 X170.748 Y133.906 E3.81101
G1 X166.206 Y129.364 E3.92985
G1 X165.885 Y129.393 E3.93581
G1 X170.822 Y134.330 E4.06499
G1 X170.896 Y134.754 E4.07295
G1 X165.561 Y129.419 E4.21256
G1 F1860.000 E1.21256
G92 E0
G1 X178.362 Y127.527 F6000.000
G1 E3.10000 F1860.000
G1 X179.235 Y128.399 E3.12283 F1200.000
G1 X179.383 Y128.897 E3.13244
G1 X177.997 Y127.511 E3.16871
G1 X177.662 Y127.526 E3.17491
G1 X179.512 Y129.376 E3.22331
G1 X179.619 Y129.833 E3.23199
G1 X177.345 Y127.559 E3.29149
G1 X177.042 Y127.605 E3.29717
G1 X179.718 Y130.282 E3.36720
G1 X179.804 Y130.718 E3.37541
G1 X176.738 Y127.652 E3.45563
G1 X176.447 Y127.710 E3.46112
G1 X179.889 Y131.152 E3.55118
G1 X179.958 Y131.571 E3.55903
G1 X176.163 Y127.776 E3.65831
G1 X175.879 Y127.842 E3.66370
G1 X180.027 Y131.990 E3.77222
G1 X180.089 Y132.402 E3.77992
G1 X175.925 Y128.238 E3.88886
G1 X176.000 Y128.663 E3.89685
G1 X180.143 Y132.805 E4.00524
G1 X180.197 Y133.209 E4.01278
G1 X176.075 Y129.088 E4.12062
G1 X176.150 Y129.513 E4.12860
G1 X180.238 Y133.601 E4.23556
G1 X180.277 Y133.989 E4.24278
G1 X176.225 Y129.938 E4.34878
G1 X176.300 Y130.363 E4.35677
G1 X180.312 Y134.374 E4.46172
G1 X180.333 Y134.745 E4.46859
G1 X176.375 Y130.788 E4.57213
G1 X176.451 Y131.213 E4.58011
G1 X180.354 Y135.116 E4.68223
G1 X180.358 Y135.470 E4.68878
G1 X176.526 Y131.638 E4.78905
G1 X176.601 Y132.063 E4.79704
G1 X180.356 Y135.817 E4.89528
G1 X180.336 Y136.147 E4.90139
G1 X176.676 Y132.488 E4.99714
G1 X176.751 Y132.913 E5.00512
G1 X180.299 Y136.460 E5.09793
G1 X180.206 Y136.717 E5.10299
G1 X176.826 Y133.338 E5.19140
G1 X176.854 Y133.715 E5.19841
G1 X180.031 Y136.892 E5.28152
G1 X179.841 Y137.052 E5.28611
G1 X176.557 Y133.768 E5.37203
G1 X176.260 Y133.820 E5.37761
G1 X179.617 Y137.178 E5.46546
G1 X179.373 Y137.284 E5.47038
G1 X175.962 Y133.873 E5.55962
G1 X175.665 Y133.925 E5.56520
G1 X179.113 Y137.374 E5.65542
G1 X178.840 Y137.450 E5.66067
G1 X175.368 Y133.978 E5.75152
G1 X175.070 Y134.030 E5.75711
G1 X178.551 Y137.511 E5.84817
G1 X178.261 Y137.571 E5.85364
G1 X174.773 Y134.083 E5.94490
G1 X174.476 Y134.135 E5.95049
G1 X177.966 Y137.626 E6.04181
G1 X177.662 Y137.672 E6.04749
G1 X174.178 Y134.188 E6.13864
G1 X173.881 Y134.241 E6.14423
G1 X177.358 Y137.718 E6.23521
G1 X177.055 Y137.764 E6.24090
G1 X173.584 Y134.293 E6.33171
G1 X173.286 Y134.346 E6.33730
G1 X176.751 Y137.810 E6.42794
G1 X176.447 Y137.856 E6.43362
G1 X172.989 Y134.398 E6.52410
G1 X172.692 Y134.451 E6.52968
G1 X176.143 Y137.902 E6.61999
G1 X175.832 Y137.941 E6.62578
G1 X172.394 Y134.503 E6.71573
G1 X172.097 Y134.556 E6.72131
G1 X175.519 Y137.978 E6.81086
G1 X175.207 Y138.015 E6.81668
G1 X171.800 Y134.608 E6.90582
G1 X171.502 Y134.661 E6.91141
G1 X174.894 Y138.053 E7.00015
G1 X174.581 Y138.090 E7.00598
G1 X171.205 Y134.713 E7.09432
G1 X170.908 Y134.766 E7.09990
G1 X174.269 Y138.127 E7.18784
G1 X173.955 Y138.163 E7.19368
G1 X165.236 Y129.444 E7.42179
G1 X164.912 Y129.470 E7.42781
G1 X173.640 Y138.198 E7.65616
G1 X173.324 Y138.232 E7.66203
G1 X164.588 Y129.496 E7.89061
G1 X164.264 Y129.521 E7.89662
G1 X173.009 Y138.266 E8.12543
G1 X172.694 Y138.301 E8.13130
G1 X163.939 Y129.547 E8.36034
G1 X163.604 Y129.561 E8.36655
G1 X172.378 Y138.335 E8.59610
G1 X172.063 Y138.370 E8.60197
G1 X163.269 Y129.576 E8.83205
G1 X162.933 Y129.590 E8.83826
G1 X171.747 Y138.404 E9.06885
G1 X171.432 Y138.438 E9.07472
G1 X162.594 Y129.601 E9.30595
G1 X162.245 Y129.602 E9.31240
G1 X171.116 Y138.473 E9.54449
G1 X170.801 Y138.507 E9.55036
G1 X161.897 Y129.603 E9.78333
G1 X161.548 Y129.604 E9.78978
G1 X170.485 Y138.542 E10.02360
G1 X170.170 Y138.576 E10.02948
G1 X161.199 Y129.605 E10.26417
G1 X160.851 Y129.607 E10.27062
G1 X169.854 Y138.610 E10.50618
G1 X169.539 Y138.645 E10.51205
G1 X160.502 Y129.608 E10.74848
G1 X160.154 Y129.609 E10.75493
G1 X169.223 Y138.678 E10.99221
G1 X168.906 Y138.711 E10.99811
G1 X159.801 Y129.607 E11.23631
G1 X159.448 Y129.603 E11.24285
G1 X168.589 Y138.744 E11.48201
G1 X168.271 Y138.777 E11.48790
G1 X159.094 Y129.599 E11.72801
G1 X158.741 Y129.596 E11.73455
G1 X167.954 Y138.809 E11.97561
G1 X167.637 Y138.842 E11.98151
G1 X158.387 Y129.592 E12.22352
G1 X158.034 Y129.588 E12.23006
G1 X167.320 Y138.875 E12.47302
G1 X167.003 Y138.908 E12.47892
G1 X157.680 Y129.585 E12.72284
G1 X157.327 Y129.581 E12.72938
G1 X166.686 Y138.940 E12.97424
G1 X166.369 Y138.973 E12.98014
G1 X156.971 Y129.576 E13.22601
G1 X156.615 Y129.569 E13.23261
G1 X166.052 Y139.006 E13.47950
G1 X165.734 Y139.038 E13.48540
G1 X156.258 Y129.562 E13.73332
G1 X155.902 Y129.556 E13.73992
G1 X165.417 Y139.071 E13.98887
G1 X165.100 Y139.104 E13.99477
G1 X155.546 Y129.549 E14.24475
G1 X155.189 Y129.543 E14.25134
G1 X164.783 Y139.137 E14.50235
G1 X164.466 Y139.169 E14.50825
G1 X154.833 Y129.536 E14.76028
G1 X154.476 Y129.530 E14.76687
G1 X164.149 Y139.202 E15.01994
G1 X163.832 Y139.235 E15.02583
G1 X154.120 Y129.523 E15.27992
G1 X153.762 Y129.515 E15.28654
G1 X163.514 Y139.267 E15.54169
G1 X163.197 Y139.300 E15.54759
G1 X153.403 Y129.506 E15.80383
G1 X153.044 Y129.497 E15.81047
G1 X162.880 Y139.333 E16.06781
G1 X162.563 Y139.366 E16.07371
G1 X152.685 Y129.488 E16.33214
G1 X152.327 Y129.479 E16.33878
G1 X162.245 Y139.397 E16.59828
G1 X161.926 Y139.428 E16.60421
G1 X151.968 Y129.470 E16.86476
G1 X151.609 Y129.461 E16.87140
G1 X161.607 Y139.459 E17.13300
G1 X161.289 Y139.490 E17.13892
G1 X151.250 Y129.452 E17.40157
G1 X150.891 Y129.442 E17.40822
G1 X160.970 Y139.522 E17.67192
G1 X160.651 Y139.553 E17.67784
G1 X150.532 Y129.433 E17.94260
G1 X150.173 Y129.424 E17.94924
G1 X160.332 Y139.584 E18.21504
G1 X160.013 Y139.615 E18.22097
G1 X149.814 Y129.415 E18.48782
G1 X149.455 Y129.406 E18.49446
