; generated by Slic3r 1.1.7 on 2015-03-07 at 20:39:04

; perimeters extrusion width = 0.40mm
; infill extrusion width = 0.42mm
; solid infill extrusion width = 0.42mm
; top infill extrusion width = 0.42mm
; support material extrusion width = 0.40mm

G21 ; set units to millimeters
M190 S60 ; wait for bed temperature to be reached
M104 S215 ; set temperature
M106 S255; Turn on Fan fully
G28 ; home all axes Start of G Code Slic3r
 
  
M109 S215 ; wait for temperature to be reached
G90 ; use absolute coordinates
G92 E0
M82 ; use absolute distances for extrusion
G1 F1980.000 E-4.00000
G92 E0
G1 Z0.300 F6000.000
G1 X50.263 Y61.348 F6000.000
G1 E4.00000 F1980.000
G1 X52.380 Y59.820 E4.10467 F1650.000
G1 X53.906 Y58.997 E4.17420
G1 X56.346 Y58.069 E4.27887
G1 X58.033 Y57.669 E4.34839
G1 X61.305 Y57.370 E4.48010
G1 X114.347 Y57.455 E6.60679
G1 X116.924 Y57.871 E6.71146 F1650.000
G1 X118.585 Y58.369 E6.78099
G1 X120.967 Y59.438 E6.88565
G1 X122.443 Y60.348 E6.95518
G1 X124.968 Y62.450 E7.08689
G1 X151.648 Y89.250 E8.60313
G1 X153.176 Y91.367 E8.70780
G1 X153.999 Y92.893 E8.77732
G1 X154.068 Y93.076 E8.78517
G1 X154.927 Y95.333 E8.88199
G1 X155.326 Y97.021 E8.95151
G1 X155.592 Y99.618 E9.05618
G1 X155.541 Y101.351 E9.12572
G1 X155.125 Y103.928 E9.23038
G1 X154.627 Y105.589 E9.29991
G1 X153.558 Y107.971 E9.40458
G1 X152.648 Y109.447 E9.47410
G1 X150.546 Y111.972 E9.60582
G1 X123.746 Y138.652 E11.12205
G1 X121.629 Y140.180 E11.22671
G1 X120.103 Y141.003 E11.29624
G1 X117.662 Y141.931 E11.40091
G1 X115.975 Y142.331 E11.47045
G1 X113.573 Y142.576 E11.56727
G1 X112.704 Y142.630 E11.60218
G1 X59.662 Y142.545 E13.72886
G1 X57.085 Y142.129 E13.83352
G1 X55.423 Y141.631 E13.90305
G1 X53.042 Y140.562 E14.00772
G1 X51.566 Y139.652 E14.07725
G1 X51.414 Y139.528 E14.08510
G1 X49.542 Y138.003 E14.18192
G1 X48.352 Y136.741 E14.25145
G1 X46.824 Y134.625 E14.35611
G1 X46.001 Y133.098 E14.42564
G1 X45.073 Y130.658 E14.53031
G1 X44.673 Y128.971 E14.59984
G1 X44.374 Y125.699 E14.73155
G1 X44.459 Y72.657 E16.85823
G1 X44.875 Y70.080 E16.96290
G1 X45.373 Y68.419 E17.03243
G1 X46.442 Y66.037 E17.13710
G1 X47.352 Y64.562 E17.20662
G1 X49.001 Y62.538 E17.31129
G1 X50.219 Y61.389 E17.37842
G1 F1980.000 E13.37842
G92 E0
G1 X50.451 Y61.609 F6000.000
G1 E4.00000 F1980.000
G1 X52.568 Y60.081 E4.10467 F1650.000
G1 X54.020 Y59.297 E4.17084
G1 X56.460 Y58.369 E4.27550
G1 X58.066 Y57.989 E4.34166
G1 X61.305 Y57.691 E4.47207
G1 X114.296 Y57.772 E6.59669
G1 X116.873 Y58.188 E6.70136 F1650.000
G1 X118.454 Y58.662 E6.76753
G1 X120.835 Y59.731 E6.87219
G1 X122.240 Y60.597 E6.93835
G1 X124.740 Y62.677 E7.06876
G1 X151.387 Y89.438 E8.58294
G1 X152.915 Y91.555 E8.68761
G1 X153.698 Y93.008 E8.75377
G1 X153.768 Y93.191 E8.76162
G1 X154.626 Y95.448 E8.85844
G1 X155.007 Y97.053 E8.92459
G1 X155.272 Y99.650 E9.02927
G1 X155.224 Y101.300 E9.09544
G1 X154.807 Y103.877 E9.20010
G1 X154.334 Y105.458 E9.26626
G1 X153.265 Y107.839 E9.37093
G1 X152.398 Y109.244 E9.43709
G1 X150.319 Y111.745 E9.56750
G1 X123.557 Y138.391 E11.08167
G1 X121.441 Y139.919 E11.18634
G1 X119.988 Y140.702 E11.25250
G1 X117.548 Y141.631 E11.35717
G1 X115.942 Y142.011 E11.42335
G1 X113.540 Y142.256 E11.52016
G1 X112.704 Y142.309 E11.55376
G1 X59.713 Y142.228 E13.67839
G1 X57.136 Y141.812 E13.78306
G1 X55.555 Y141.338 E13.84922
G1 X53.173 Y140.269 E13.95389
G1 X51.769 Y139.403 E14.02005
G1 X51.617 Y139.279 E14.02790
G1 X49.745 Y137.754 E14.12472
G1 X48.613 Y136.553 E14.19088
G1 X47.085 Y134.437 E14.29555
G1 X46.302 Y132.984 E14.36171
G1 X45.374 Y130.544 E14.46638
G1 X44.993 Y128.938 E14.53255
G1 X44.696 Y125.699 E14.66295
G1 X44.776 Y72.709 E16.78758
G1 X45.193 Y70.131 E16.89225
G1 X45.666 Y68.551 E16.95841
G1 X46.735 Y66.169 E17.06308
G1 X47.602 Y64.765 E17.12924
G1 X49.251 Y62.741 E17.23391
G1 X50.407 Y61.650 E17.29767
G1 F1980.000 E13.29767
G92 E0
G1 X89.646 Y102.970 F6000.000
G1 E4.00000 F1980.000
G1 X88.788 Y103.553 E4.04161 F900.000
G1 X87.807 Y103.894 E4.08322
G1 X86.772 Y103.969 E4.12483
G1 X85.753 Y103.773 E4.16644
G1 X84.819 Y103.321 E4.20805
G1 X84.034 Y102.642 E4.24966
G1 X83.451 Y101.783 E4.29128
G1 X83.111 Y100.803 E4.33289
G1 X83.036 Y99.768 E4.37449
G1 X83.231 Y98.749 E4.41611
G1 X83.683 Y97.815 E4.45772
G1 X84.362 Y97.030 E4.49933
G1 X85.221 Y96.447 E4.54094
G1 X86.201 Y96.106 E4.58255
G1 X87.236 Y96.031 E4.62416
G1 X87.372 Y96.057 E4.62970
G1 X88.256 Y96.227 E4.66577 F900.000
G1 X89.190 Y96.679 E4.70738
G1 X89.975 Y97.358 E4.74899
G1 X90.557 Y98.217 E4.79060
G1 X90.898 Y99.197 E4.83221
G1 X90.973 Y100.232 E4.87383
G1 X90.778 Y101.251 E4.91544
G1 X90.325 Y102.185 E4.95705
G1 X89.686 Y102.925 E4.99625
G1 F1980.000 E0.99625
G92 E0
G1 X89.431 Y102.728 F6000.000
G1 E4.00000 F1980.000
G1 X88.642 Y103.263 E4.03822 F720.000
G1 X87.742 Y103.576 E4.07643
G1 X86.791 Y103.645 E4.11465
G1 X85.855 Y103.466 E4.15287
G1 X84.997 Y103.050 E4.19108
G1 X84.276 Y102.427 E4.22930
G1 X83.741 Y101.638 E4.26752
G1 X83.428 Y100.737 E4.30574
G1 X83.359 Y99.787 E4.34395
G1 X83.539 Y98.851 E4.38217
G1 X83.954 Y97.993 E4.42039
G1 X84.578 Y97.272 E4.45860
G1 X85.366 Y96.737 E4.49682
G1 X86.267 Y96.424 E4.53504
G1 X87.122 Y96.362 E4.56941
G1 X87.217 Y96.355 E4.57325 F720.000
G1 X88.154 Y96.534 E4.61147
G1 X89.011 Y96.950 E4.64969
G1 X89.732 Y97.573 E4.68791
G1 X90.268 Y98.362 E4.72612
G1 X90.580 Y99.263 E4.76434
G1 X90.649 Y100.213 E4.80256
G1 X90.470 Y101.149 E4.84077
G1 X90.054 Y102.007 E4.87899
G1 X89.470 Y102.683 E4.91480
G1 F1980.000 E0.91480
G92 E0
G1 X87.102 Y96.268 F6000.000
G1 X92.832 Y107.439 F6000.000
G1 E4.00000 F1980.000
G1 X91.524 Y108.384 E4.06471 F900.000
G1 X89.200 Y109.268 E4.16440
G1 X86.726 Y109.520 E4.26409
G1 X84.272 Y109.124 E4.36378
G1 X82.003 Y108.106 E4.46347
G1 X80.076 Y106.535 E4.56316
G1 X78.620 Y104.519 E4.66284
G1 X77.736 Y102.195 E4.76253
G1 X77.484 Y99.722 E4.86222
G1 X77.880 Y97.267 E4.96191
G1 X78.898 Y94.999 E5.06160
G1 X80.469 Y93.071 E5.16130
G1 X82.485 Y91.616 E5.26098
G1 X84.809 Y90.732 E5.36067
G1 X87.149 Y90.493 E5.45500
G1 X87.282 Y90.480 E5.46036 F900.000
G1 X89.737 Y90.876 E5.56005
G1 X92.005 Y91.894 E5.65974
G1 X93.933 Y93.465 E5.75943
G1 X95.388 Y95.481 E5.85913
G1 X96.272 Y97.805 E5.95881
G1 X96.525 Y100.278 E6.05850
G1 X96.128 Y102.733 E6.15819
G1 X95.110 Y105.001 E6.25788
G1 X93.540 Y106.929 E6.35757
G1 X92.881 Y107.404 E6.39015
G1 F1980.000 E2.39015
G92 E0
G1 X93.020 Y107.700 F6000.000
G1 E4.00000 F1980.000
G1 X91.677 Y108.669 E4.06640 F720.000
G1 X89.274 Y109.584 E4.16949
G1 X86.717 Y109.844 E4.27257
G1 X84.178 Y109.435 E4.37565
G1 X81.833 Y108.382 E4.47874
G1 X79.840 Y106.758 E4.58182
G1 X78.335 Y104.673 E4.68490
G1 X77.421 Y102.270 E4.78799
G1 X77.160 Y99.712 E4.89107
G1 X77.570 Y97.174 E4.99415
G1 X78.623 Y94.829 E5.09724
G1 X80.247 Y92.835 E5.20032
G1 X82.331 Y91.331 E5.30341
G1 X84.734 Y90.417 E5.40649
G1 X87.292 Y90.156 E5.50957
G1 X89.656 Y90.537 E5.60560
G1 X89.830 Y90.565 E5.61266 F720.000
G1 X92.176 Y91.618 E5.71574
G1 X94.169 Y93.242 E5.81882
G1 X95.674 Y95.327 E5.92191
G1 X96.588 Y97.730 E6.02499
G1 X96.849 Y100.288 E6.12807
G1 X96.439 Y102.826 E6.23116
G1 X95.386 Y105.171 E6.33424
G1 X93.762 Y107.165 E6.43732
G1 X93.069 Y107.665 E6.47160
G1 F1980.000 E2.47160
G92 E0
G1 X89.806 Y90.629 F6000.000
G1 X90.802 Y91.588 F6000.000
G1 E4.00000 F1980.000
G1 X95.446 Y96.232 E4.26333 F900.000
G1 F1980.000 E0.26333
G92 E0
G1 X95.729 Y96.975 F6000.000
G1 E4.00000 F1980.000
G1 X89.966 Y91.212 E4.32677 F900.000
G1 X89.317 Y91.024 E4.35387
G1 X96.012 Y97.719 E4.73348
G1 X96.106 Y98.274 E4.75605
G1 X88.767 Y90.935 E5.17217
G1 X88.218 Y90.846 E5.19449
G1 X96.158 Y98.787 E5.64473
G1 X96.211 Y99.300 E5.66541
G1 X87.668 Y90.758 E6.14978
G1 X87.156 Y90.707 E6.17041
G1 X96.263 Y99.813 E6.68677
G1 X96.303 Y100.314 E6.70692
G1 X86.738 Y90.749 E7.24926
G1 X86.320 Y90.792 E7.26611
G1 X96.239 Y100.711 E7.82852
G1 X96.175 Y101.107 E7.84463
G1 X85.902 Y90.835 E8.42712
G1 X85.484 Y90.877 E8.44397
G1 X96.111 Y101.504 E9.04653
G1 X96.047 Y101.901 E9.06264
G1 X85.066 Y90.920 E9.68528
G1 X84.690 Y91.005 E9.70072
G1 X95.983 Y102.297 E10.34102
G1 X95.914 Y102.690 E10.35698
G1 X84.357 Y91.132 E11.01232
G1 X84.023 Y91.259 E11.02664
G1 X89.222 Y96.458 E11.32142
G1 F1980.000 E7.32142
G92 E0
G1 X88.328 Y96.025 F6000.000
G1 E4.00000 F1980.000
G1 X83.689 Y91.386 E4.26303 F900.000
G1 X83.355 Y91.513 E4.27735
G1 X87.756 Y95.914 E4.52689
G1 X87.202 Y95.820 E4.54944
G1 X83.021 Y91.640 E4.78647
G1 X82.688 Y91.767 E4.80079
G1 X86.772 Y95.851 E5.03239
G1 X86.343 Y95.883 E5.04966
G1 X82.400 Y91.940 E5.27321
G1 X82.132 Y92.133 E5.28644
G1 X85.963 Y95.964 E5.50364
G1 X85.621 Y96.082 E5.51815
G1 X81.865 Y92.326 E5.73113
G1 X81.597 Y92.520 E5.74436
G1 X85.279 Y96.201 E5.95312
G1 X84.974 Y96.357 E5.96685
G1 X81.330 Y92.713 E6.17348
G1 X81.062 Y92.906 E6.18672
G1 X84.699 Y96.543 E6.39296
G1 X84.425 Y96.729 E6.40626
G1 X80.795 Y93.099 E6.61211
G1 X80.554 Y93.319 E6.62518
G1 X84.166 Y96.931 E6.82999
G1 X83.952 Y97.178 E6.84309
G1 X80.340 Y93.567 E7.04787
G1 X80.134 Y93.820 E7.06100
G1 X83.738 Y97.425 E7.26540
G1 X83.525 Y97.672 E7.27850
G1 X79.927 Y94.074 E7.48251
G1 X79.720 Y94.328 E7.49564
G1 X83.368 Y97.977 E7.70251
G1 X83.218 Y98.287 E7.71634
G1 X79.513 Y94.582 E7.92641
G1 X79.306 Y94.836 E7.93954
G1 X83.067 Y98.597 E8.15282
G1 X82.973 Y98.963 E8.16798
G1 X79.099 Y95.090 E8.38762
G1 X78.951 Y95.402 E8.40148
G1 X82.899 Y99.350 E8.62533
G1 X82.825 Y99.737 E8.64112
G1 X78.808 Y95.720 E8.86886
G1 X78.665 Y96.038 E8.88283
G1 X82.855 Y100.228 E9.12041
G1 X82.891 Y100.725 E9.14038
G1 X78.523 Y96.356 E9.38810
G1 X78.380 Y96.674 E9.40208
G1 X83.086 Y101.380 E9.66890
G1 F1980.000 E5.66890
G92 E0
G1 X83.543 Y102.298 F6000.000
G1 E4.00000 F1980.000
G1 X78.237 Y96.992 E4.30085 F900.000
G1 X78.094 Y97.310 E4.31483
G1 X89.652 Y108.868 E4.97017
G1 X89.318 Y108.995 E4.98449
G1 X78.026 Y97.703 E5.62479
G1 X77.962 Y98.099 E5.64090
G1 X88.943 Y109.080 E6.26354
G1 X88.525 Y109.123 E6.28039
G1 X77.898 Y98.496 E6.88295
G1 X77.834 Y98.893 E6.89906
G1 X88.106 Y109.165 E7.48155
G1 X87.688 Y109.208 E7.49840
G1 X77.770 Y99.289 E8.06082
G1 X77.705 Y99.686 E8.07693
G1 X87.270 Y109.251 E8.61927
G1 X86.852 Y109.293 E8.63612
G1 X77.745 Y100.187 E9.15249
G1 X77.798 Y100.700 E9.17317
G1 X86.340 Y109.242 E9.65754
G1 X85.791 Y109.154 E9.67986
G1 X77.850 Y101.213 E10.13010
G1 X77.902 Y101.726 E10.15078
G1 X85.241 Y109.065 E10.56690
G1 X84.692 Y108.976 E10.58922
G1 X77.997 Y102.281 E10.96884
G1 F1980.000 E6.96884
G92 E0
G1 X78.280 Y103.025 F6000.000
G1 E4.00000 F1980.000
G1 X84.043 Y108.788 E4.32678 F900.000
G1 F1980.000 E0.32678
G92 E0
G1 X83.207 Y108.413 F6000.000
G1 E4.00000 F1980.000
G1 X78.563 Y103.768 E4.26333 F900.000
G1 F1980.000 E0.26333
G92 E0
G1 X78.962 Y104.628 F6000.000
G1 E4.00000 F1980.000
G1 X82.371 Y108.037 E4.19330 F900.000
G1 F1980.000 E0.19330
G92 E0
G1 X80.386 Y106.513 F6000.000
G1 E4.00000 F1980.000
G1 X80.158 Y106.285 E4.01293 F900.000
G1 F1980.000 E0.01293
G92 E0
G1 X84.787 Y103.542 F6000.000
G1 E4.00000 F1980.000
G1 X89.986 Y108.741 E4.29478 F900.000
G1 X90.320 Y108.614 E4.30909
G1 X85.681 Y103.975 E4.57212
G1 X86.252 Y104.086 E4.59547
G1 X90.653 Y108.487 E4.84501
G1 X90.987 Y108.360 E4.85933
G1 X86.807 Y104.180 E5.09636
G1 X87.236 Y104.149 E5.11363
G1 X91.321 Y108.233 E5.34523
G1 X91.609 Y108.060 E5.35869
G1 X87.666 Y104.117 E5.58224
G1 X88.046 Y104.036 E5.59781
G1 X91.876 Y107.867 E5.81500
G1 X92.144 Y107.674 E5.82823
G1 X88.388 Y103.918 E6.04121
G1 X88.730 Y103.799 E6.05572
G1 X92.411 Y107.480 E6.26448
G1 X92.679 Y107.287 E6.27771
G1 X89.035 Y103.643 E6.48435
G1 X89.309 Y103.457 E6.49765
G1 X92.946 Y107.094 E6.70389
G1 X93.214 Y106.901 E6.71712
G1 X89.584 Y103.271 E6.92297
G1 X89.843 Y103.069 E6.93614
G1 X93.455 Y106.681 E7.14095
G1 X93.668 Y106.434 E7.15404
G1 X90.057 Y102.822 E7.35883
G1 X90.270 Y102.575 E7.37193
G1 X93.875 Y106.180 E7.57633
G1 X94.082 Y105.926 E7.58946
G1 X90.484 Y102.328 E7.79348
G1 X90.640 Y102.023 E7.80719
G1 X94.289 Y105.672 E8.01406
G1 X94.496 Y105.418 E8.02720
G1 X90.791 Y101.713 E8.23727
G1 X90.941 Y101.403 E8.25110
G1 X94.703 Y105.164 E8.46437
G1 X94.909 Y104.910 E8.47751
G1 X91.036 Y101.037 E8.69715
G1 X91.110 Y100.650 E8.71293
G1 X95.058 Y104.598 E8.93678
G1 X95.200 Y104.280 E8.95075
G1 X91.184 Y100.263 E9.17849
G1 X91.153 Y99.772 E9.19824
G1 X95.343 Y103.962 E9.43582
G1 X95.486 Y103.644 E9.44980
G1 X91.117 Y99.275 E9.69751
G1 X90.923 Y98.620 E9.72490
G1 X95.629 Y103.326 E9.99172
G1 X95.771 Y103.008 E10.00570
G1 X90.465 Y97.702 E10.30655
G1 F1980.000 E6.30655
G92 E0
G1 X95.047 Y95.372 F6000.000
G1 E4.00000 F1980.000
G1 X91.638 Y91.963 E4.19329 F900.000
G1 F1980.000 E0.19329
G92 E0
G1 X93.623 Y93.487 F6000.000
G1 E4.00000 F1980.000
G1 X93.851 Y93.715 E4.01293 F900.000
G1 F1980.000 E0.01293
G92 E0
G1 X89.646 Y128.962 F6000.000
G1 E4.00000 F1980.000
G1 X88.788 Y129.545 E4.04161 F900.000
G1 X87.807 Y129.885 E4.08322
G1 X86.772 Y129.960 E4.12483
G1 X85.753 Y129.765 E4.16644
G1 X84.819 Y129.312 E4.20805
G1 X84.034 Y128.634 E4.24966
G1 X83.451 Y127.775 E4.29128
G1 X83.111 Y126.794 E4.33289
G1 X83.036 Y125.759 E4.37449
G1 X83.231 Y124.740 E4.41611
G1 X83.683 Y123.806 E4.45772
G1 X84.362 Y123.021 E4.49933
G1 X85.221 Y122.438 E4.54094
G1 X86.201 Y122.098 E4.58255
G1 X87.236 Y122.023 E4.62416
G1 X87.372 Y122.049 E4.62970
G1 X88.256 Y122.218 E4.66577 F900.000
G1 X89.190 Y122.671 E4.70738
G1 X89.975 Y123.349 E4.74899
G1 X90.557 Y124.208 E4.79060
G1 X90.898 Y125.189 E4.83221
G1 X90.973 Y126.224 E4.87383
G1 X90.778 Y127.243 E4.91544
G1 X90.325 Y128.177 E4.95705
G1 X89.686 Y128.917 E4.99625
G1 F1980.000 E0.99625
G92 E0
G1 X89.431 Y128.720 F6000.000
G1 E4.00000 F1980.000
G1 X88.642 Y129.255 E4.03822 F720.000
G1 X87.742 Y129.567 E4.07643
G1 X86.791 Y129.637 E4.11465
G1 X85.855 Y129.457 E4.15287
G1 X84.997 Y129.042 E4.19108
G1 X84.276 Y128.418 E4.22930
G1 X83.741 Y127.629 E4.26752
G1 X83.428 Y126.729 E4.30574
G1 X83.359 Y125.778 E4.34395
G1 X83.539 Y124.842 E4.38217
G1 X83.954 Y123.984 E4.42039
G1 X84.578 Y123.263 E4.45860
G1 X85.366 Y122.728 E4.49682
G1 X86.267 Y122.415 E4.53504
G1 X87.122 Y122.353 E4.56941
G1 X87.217 Y122.346 E4.57325 F720.000
G1 X88.154 Y122.526 E4.61147
G1 X89.011 Y122.941 E4.64969
G1 X89.732 Y123.565 E4.68791
G1 X90.268 Y124.354 E4.72612
G1 X90.580 Y125.254 E4.76434
G1 X90.649 Y126.205 E4.80256
G1 X90.470 Y127.141 E4.84077
G1 X90.054 Y127.999 E4.87899
G1 X89.470 Y128.674 E4.91480
G1 F1980.000 E0.91480
G92 E0
G1 X87.102 Y122.260 F6000.000
G1 X92.832 Y133.431 F6000.000
G1 E4.00000 F1980.000
G1 X91.524 Y134.375 E4.06471 F900.000
G1 X89.200 Y135.260 E4.16440
G1 X86.726 Y135.512 E4.26409
G1 X84.272 Y135.115 E4.36378
G1 X82.003 Y134.097 E4.46347
G1 X80.076 Y132.527 E4.56316
G1 X78.620 Y130.511 E4.66284
G1 X77.736 Y128.187 E4.76253
G1 X77.484 Y125.713 E4.86222
G1 X77.880 Y123.259 E4.96191
G1 X78.898 Y120.990 E5.06160
G1 X80.469 Y119.063 E5.16130
G1 X82.485 Y117.607 E5.26098
G1 X84.809 Y116.723 E5.36067
G1 X87.149 Y116.485 E5.45500
G1 X87.282 Y116.471 E5.46036 F900.000
G1 X89.737 Y116.867 E5.56005
G1 X92.005 Y117.886 E5.65974
G1 X93.933 Y119.456 E5.75943
G1 X95.388 Y121.472 E5.85913
G1 X96.272 Y123.796 E5.95881
G1 X96.525 Y126.270 E6.05850
G1 X96.128 Y128.724 E6.15819
G1 X95.110 Y130.993 E6.25788
G1 X93.540 Y132.920 E6.35757
G1 X92.881 Y133.396 E6.39015
G1 F1980.000 E2.39015
G92 E0
G1 X93.020 Y133.691 F6000.000
G1 E4.00000 F1980.000
G1 X91.677 Y134.661 E4.06640 F720.000
G1 X89.274 Y135.575 E4.16949
G1 X86.717 Y135.836 E4.27257
G1 X84.178 Y135.426 E4.37565
G1 X81.833 Y134.373 E4.47874
G1 X79.840 Y132.749 E4.58182
G1 X78.335 Y130.665 E4.68490
G1 X77.421 Y128.262 E4.78799
G1 X77.160 Y125.704 E4.89107
G1 X77.570 Y123.166 E4.99415
G1 X78.623 Y120.820 E5.09724
G1 X80.247 Y118.827 E5.20032
G1 X82.331 Y117.322 E5.30341
G1 X84.734 Y116.408 E5.40649
G1 X87.292 Y116.147 E5.50957
G1 X89.656 Y116.529 E5.60560
G1 X89.830 Y116.557 E5.61266 F720.000
G1 X92.176 Y117.610 E5.71574
G1 X94.169 Y119.234 E5.81882
G1 X95.674 Y121.318 E5.92191
G1 X96.588 Y123.721 E6.02499
G1 X96.849 Y126.279 E6.12807
G1 X96.439 Y128.817 E6.23116
G1 X95.386 Y131.163 E6.33424
G1 X93.762 Y133.156 E6.43732
