; generated by Slic3r 1.1.7 on 2014-12-31 at 23:20:29

; perimeters extrusion width = 0.40mm
; infill extrusion width = 0.44mm
; solid infill extrusion width = 0.44mm
; top infill extrusion width = 0.44mm

G21 ; set units to millimeters
M190 S110 ; wait for bed temperature to be reached
M104 S220 ; set temperature
G28 ; home all axes Start of G Code Slic3r
 
M109 S220 ; wait for temperature to be reached
G90 ; use absolute coordinates
G92 E0
M82 ; use absolute distances for extrusion
M106 S127
G1 F1860.000 E-3.00000
G92 E0
G1 Z0.294 F7800.000
G1 X48.841 Y49.076 F7800.000
G1 E3.10000 F1860.000
G1 X62.994 Y34.990 E4.34297 F1800.000
G1 X65.111 Y33.462 E4.50547
G1 X66.741 Y32.584 E4.62076
G1 X69.181 Y31.656 E4.78327
G1 X70.983 Y31.229 E4.89854
G1 X73.390 Y30.983 E5.04912
G1 X74.301 Y30.927 E5.10593
G1 X153.406 Y31.018 E10.03017
G1 X155.983 Y31.434 E10.19267 F1800.000
G1 X157.757 Y31.965 E10.30796
G1 X160.139 Y33.034 E10.47046
G1 X161.715 Y34.007 E10.58574
G1 X163.739 Y35.656 E10.74824
G1 X165.010 Y37.003 E10.86354
G1 X166.538 Y39.120 E11.02605
G1 X167.416 Y40.750 E11.14132
G1 X168.344 Y43.190 E11.30382
G1 X168.771 Y44.992 E11.41910
G1 X169.073 Y48.309 E11.62645
G1 X168.982 Y153.406 E18.16864
G1 X168.566 Y155.983 E18.33114
G1 X168.035 Y157.757 E18.44642
G1 X167.044 Y159.964 E18.59700
G1 X166.966 Y160.139 E18.60893
G1 X165.993 Y161.715 E18.72421
G1 X164.344 Y163.739 E18.88671
G1 X162.997 Y165.010 E19.00200
G1 X160.880 Y166.538 E19.16450
G1 X159.250 Y167.416 E19.27978
G1 X156.810 Y168.345 E19.44229
G1 X155.008 Y168.771 E19.55758
G1 X151.691 Y169.073 E19.76492
G1 X46.594 Y168.982 E26.30711
G1 X44.017 Y168.566 E26.46961
G1 X42.243 Y168.035 E26.58489
G1 X39.861 Y166.966 E26.74739
G1 X38.285 Y165.993 E26.86268
G1 X36.261 Y164.344 E27.02518
G1 X34.990 Y162.997 E27.14046
G1 X33.462 Y160.880 E27.30297
G1 X32.584 Y159.250 E27.41825
G1 X31.656 Y156.810 E27.58075
G1 X31.229 Y155.008 E27.69605
G1 X30.927 Y151.691 E27.90339
G1 X31.018 Y72.585 E32.82763
G1 X31.434 Y70.008 E32.99013
G1 X31.965 Y68.234 E33.10542
G1 X33.034 Y65.853 E33.26792
G1 X34.007 Y64.277 E33.38320
G1 X36.139 Y61.717 E33.59055
G1 X48.799 Y49.118 E34.70237
G1 X49.225 Y49.461 F7800.000
G1 X63.315 Y35.434 E35.93999 F1800.000
G1 X65.431 Y33.906 E36.10249
G1 X66.936 Y33.095 E36.20889
G1 X69.376 Y32.167 E36.37139
G1 X71.039 Y31.773 E36.47778
G1 X73.445 Y31.527 E36.62835
G1 X74.301 Y31.474 E36.68170
G1 X153.319 Y31.558 E41.60051
G1 X155.896 Y31.974 E41.76301 F1800.000
G1 X157.533 Y32.465 E41.86940
G1 X159.915 Y33.534 E42.03191
G1 X161.369 Y34.431 E42.13829
G1 X163.393 Y36.080 E42.30080
G1 X164.566 Y37.323 E42.40720
G1 X166.094 Y39.440 E42.56971
G1 X166.905 Y40.945 E42.67610
G1 X167.833 Y43.384 E42.83860
G1 X168.227 Y45.047 E42.94499
G1 X168.526 Y48.309 E43.14887
G1 X168.442 Y153.319 E49.68563
G1 X168.026 Y155.896 E49.84813
G1 X167.536 Y157.533 E49.95452
G1 X166.545 Y159.740 E50.10510
G1 X166.466 Y159.915 E50.11703
G1 X165.569 Y161.369 E50.22342
G1 X163.920 Y163.393 E50.38592
G1 X162.677 Y164.566 E50.49231
G1 X160.560 Y166.094 E50.65481
G1 X159.056 Y166.905 E50.76120
G1 X156.616 Y167.833 E50.92371
G1 X154.952 Y168.227 E51.03012
G1 X151.691 Y168.526 E51.23399
G1 X46.681 Y168.442 E57.77075
G1 X44.104 Y168.026 E57.93325
G1 X42.467 Y167.535 E58.03964
G1 X40.085 Y166.466 E58.20214
G1 X38.631 Y165.569 E58.30854
G1 X36.607 Y163.920 E58.47104
G1 X35.434 Y162.677 E58.57743
G1 X33.906 Y160.560 E58.73993
G1 X33.095 Y159.056 E58.84632
G1 X32.167 Y156.616 E59.00883
G1 X31.773 Y154.952 E59.11523
G1 X31.474 Y151.691 E59.31911
G1 X31.558 Y72.673 E64.23792
G1 X31.974 Y70.095 E64.40043
G1 X32.465 Y68.458 E64.50682
G1 X33.534 Y66.077 E64.66932
G1 X34.431 Y64.622 E64.77571
G1 X36.526 Y62.104 E64.97960
G1 X49.183 Y49.504 E66.09135
G1 F1860.000 E63.09135
G92 E0
G1 X106.658 Y107.059 F7800.000
G1 E3.10000 F1860.000
G1 X104.604 Y108.542 E3.25769 F441.000
G1 X102.237 Y109.443 E3.41538
G1 X99.717 Y109.700 E3.57307
G1 X97.216 Y109.296 E3.73075
G1 X94.905 Y108.258 E3.88845
G1 X92.941 Y106.658 E4.04613
G1 X91.458 Y104.604 E4.20382
G1 X90.557 Y102.237 E4.36151
G1 X90.300 Y99.717 E4.51920
G1 X90.704 Y97.216 E4.67689
G1 X91.742 Y94.905 E4.83458
G1 X93.342 Y92.941 E4.99227
G1 X95.396 Y91.458 E5.14995
G1 X97.763 Y90.558 E5.30764
G1 X100.283 Y90.300 E5.46533
G1 X102.633 Y90.680 E5.61349
G1 X102.784 Y90.704 E5.62302 F441.000
G1 X105.095 Y91.742 E5.78071
G1 X107.059 Y93.342 E5.93840
G1 X108.542 Y95.396 E6.09609
G1 X109.442 Y97.763 E6.25378
G1 X109.700 Y100.283 E6.41146
G1 X109.296 Y102.784 E6.56915
G1 X108.258 Y105.095 E6.72684
G1 X106.696 Y107.013 E6.88079
G1 X102.767 Y90.754 F7800.000
G1 X106.280 Y106.658 F7800.000
G1 X104.342 Y108.056 E7.02951 F630.000
G1 X102.109 Y108.905 E7.17824
G1 X99.733 Y109.148 E7.32696
G1 X97.374 Y108.767 E7.47567
G1 X95.194 Y107.789 E7.62440
G1 X93.342 Y106.280 E7.77312
G1 X91.944 Y104.342 E7.92184
G1 X91.095 Y102.109 E8.07056
G1 X90.852 Y99.733 E8.21928
G1 X91.233 Y97.374 E8.36800
G1 X92.211 Y95.195 E8.51672
G1 X93.720 Y93.342 E8.66544
G1 X95.657 Y91.944 E8.81416
G1 X97.890 Y91.095 E8.96288
G1 X100.187 Y90.860 E9.10656
G1 X100.267 Y90.852 E9.11160 F630.000
G1 X102.626 Y91.233 E9.26032
G1 X104.805 Y92.211 E9.40904
G1 X106.658 Y93.720 E9.55776
G1 X108.056 Y95.658 E9.70648
G1 X108.905 Y97.891 E9.85520
G1 X109.148 Y100.267 E10.00392
G1 X108.767 Y102.626 E10.15264
G1 X107.789 Y104.806 E10.30136
G1 X106.317 Y106.611 E10.44634
G1 X102.523 Y102.837 F7800.000
G1 X101.703 Y103.393 E10.50803 F441.000
G1 X100.767 Y103.718 E10.56972
G1 X99.778 Y103.790 E10.63141
G1 X98.805 Y103.603 E10.69310
G1 X97.913 Y103.171 E10.75479
G1 X97.163 Y102.523 E10.81648
G1 X96.607 Y101.703 E10.87817
G1 X96.282 Y100.767 E10.93986
G1 X96.210 Y99.778 E11.00155
G1 X96.397 Y98.805 E11.06324
G1 X96.829 Y97.913 E11.12493
G1 X97.477 Y97.163 E11.18662
G1 X98.297 Y96.607 E11.24831
G1 X99.233 Y96.282 E11.31000
G1 X100.109 Y96.218 E11.36464
G1 X100.222 Y96.210 E11.37169 F441.000
G1 X101.195 Y96.397 E11.43338
G1 X102.087 Y96.829 E11.49507
G1 X102.837 Y97.477 E11.55676
G1 X103.393 Y98.297 E11.61845
G1 X103.718 Y99.233 E11.68014
G1 X103.790 Y100.222 E11.74183
G1 X103.603 Y101.195 E11.80352
G1 X103.171 Y102.087 E11.86521
G1 X102.562 Y102.791 E11.92316
G1 F1860.000 E8.92316
G92 E0
G1 X100.085 Y96.108 F7800.000
G1 X102.830 Y103.289 F7800.000
G1 E3.10000 F1860.000
G1 X101.950 Y103.886 E3.16617 F630.000
G1 X100.878 Y104.259 E3.23683
G1 X99.746 Y104.341 E3.30749
G1 X98.631 Y104.127 E3.37815
G1 X97.610 Y103.632 E3.44881
G1 X96.751 Y102.890 E3.51947
G1 X96.114 Y101.950 E3.59013
G1 X95.741 Y100.878 E3.66078
G1 X95.659 Y99.746 E3.73144
G1 X95.873 Y98.631 E3.80210
G1 X96.368 Y97.610 E3.87276
G1 X97.110 Y96.751 E3.94342
G1 X98.050 Y96.114 E4.01408
G1 X99.122 Y95.741 E4.08473
G1 X100.254 Y95.659 E4.15539
G1 X100.436 Y95.694 E4.16692
G1 X101.369 Y95.873 E4.22605 F630.000
G1 X102.390 Y96.368 E4.29671
G1 X103.249 Y97.110 E4.36737
G1 X103.886 Y98.050 E4.43803
G1 X104.259 Y99.122 E4.50868
G1 X104.341 Y100.254 E4.57934
G1 X104.127 Y101.369 E4.65000
G1 X103.632 Y102.390 E4.72066
G1 X102.880 Y103.256 E4.79204
G1 X108.417 Y102.431 F7800.000
G1 X104.417 Y98.431 E5.14414 F1500.000
G1 X104.662 Y99.474 E5.21079
G1 X108.187 Y102.999 E5.52111
G1 X107.940 Y103.550 E5.55870
G1 X104.711 Y100.321 E5.84289
G1 X104.583 Y100.991 E5.88534
G1 X107.692 Y104.101 E6.15906
G1 X107.436 Y104.642 E6.19637
G1 X104.421 Y101.627 E6.46182
G1 X104.160 Y102.165 E6.49901
G1 X107.077 Y105.082 E6.75584
G1 X106.719 Y105.522 E6.79115
G1 X103.879 Y102.681 E7.04122
G1 X103.508 Y103.109 E7.07644
G1 X106.361 Y105.962 E7.32754
G1 X105.986 Y106.385 E7.36274
G1 X103.137 Y103.536 E7.61355
G1 X102.662 Y103.859 E7.64933
G1 X105.534 Y106.731 E7.90219
G1 X105.070 Y107.066 E7.93778
G1 X102.186 Y104.181 E8.19170
G1 X101.610 Y104.403 E8.23015
G1 X104.607 Y107.401 E8.49401
G1 X104.139 Y107.731 E8.52966
G1 X101.017 Y104.609 E8.80446
G1 X100.289 Y104.679 E8.85000
G1 X103.561 Y107.950 E9.13800
G1 X102.982 Y108.170 E9.17651
G1 X99.486 Y104.675 E9.48427
G1 X98.492 Y104.478 E9.54737
G1 X102.404 Y108.390 E9.89178
G1 X101.776 Y108.561 E9.93227
G1 X91.472 Y98.256 E10.83940
G1 X91.583 Y97.569 E10.88273
G1 X95.583 Y101.569 E11.23482
G1 X95.338 Y100.526 E11.30147
G1 X91.813 Y97.001 E11.61180
G1 X92.060 Y96.450 E11.64938
G1 X95.289 Y99.679 E11.93357
G1 X95.417 Y99.009 E11.97603
G1 X92.308 Y95.900 E12.24975
G1 X92.564 Y95.358 E12.28706
G1 X95.579 Y98.373 E12.55250
G1 X95.840 Y97.835 E12.58969
G1 X92.923 Y94.918 E12.84651
G1 X93.281 Y94.478 E12.88183
G1 X96.121 Y97.319 E13.13189
G1 X96.492 Y96.891 E13.16712
G1 X93.639 Y94.038 E13.41821
G1 X94.014 Y93.615 E13.45341
G1 X96.863 Y96.464 E13.70422
G1 X97.338 Y96.141 E13.73999
G1 X94.466 Y93.269 E13.99286
G1 X94.930 Y92.934 E14.02845
G1 X97.814 Y95.819 E14.28237
G1 X98.390 Y95.597 E14.32081
G1 X95.393 Y92.599 E14.58468
G1 X95.861 Y92.269 E14.62033
G1 X98.983 Y95.391 E14.89513
G1 X99.711 Y95.321 E14.94067
G1 X96.439 Y92.050 E15.22867
G1 X97.018 Y91.830 E15.26718
G1 X100.514 Y95.326 E15.57494
G1 X101.508 Y95.522 E15.63804
G1 X97.596 Y91.610 E15.98244
G1 X98.224 Y91.439 E16.02293
G1 X108.528 Y101.744 E16.93006
G1 X108.639 Y101.056 E16.97339
G1 X98.948 Y91.365 E17.82652
G1 X99.672 Y91.291 E17.87184
G1 X108.750 Y100.369 E18.67099
G1 X108.692 Y99.513 E18.72438
G1 X100.441 Y91.262 E19.45082
G1 X101.392 Y91.415 E19.51084
G1 X108.602 Y98.625 E20.14550
G1 X108.402 Y97.627 E20.20884
G1 X102.344 Y91.569 E20.74213
G1 X103.703 Y92.129 F7800.000
G1 X107.912 Y96.339 E21.11271 F1500.000
G1 X106.455 Y94.084 F7800.000
G1 X106.227 Y93.856 E21.13278 F1500.000
G1 X101.052 Y108.635 F7800.000
G1 X91.361 Y98.944 E21.98592 F1500.000
G1 X91.250 Y99.631 E22.02925
G1 X100.328 Y108.709 E22.82840
G1 X99.560 Y108.738 E22.87626
G1 X91.308 Y100.487 E23.60271
G1 X91.398 Y101.375 E23.65832
G1 X98.608 Y108.585 E24.29299
G1 X97.656 Y108.431 E24.35301
G1 X91.598 Y102.373 E24.88631
G1 X92.088 Y103.661 F7800.000
G1 X96.297 Y107.871 E25.25690 F1500.000
G1 X93.773 Y106.144 F7800.000
G1 X93.545 Y105.916 E25.27697 F1500.000
G1 F1860.000 E22.27697
G92 E0
G1 X105.931 Y133.576 F7800.000
G1 E3.10000 F1860.000
G1 X104.604 Y134.533 E3.20184 F441.000
G1 X102.237 Y135.434 E3.35953
G1 X99.717 Y135.691 E3.51722
G1 X97.216 Y135.287 E3.67490
G1 X94.905 Y134.250 E3.83260
G1 X92.941 Y132.650 E3.99028
G1 X91.458 Y130.596 E4.14797
G1 X90.557 Y128.228 E4.30566
G1 X90.300 Y125.708 E4.46335
G1 X90.704 Y123.207 E4.62104
G1 X91.742 Y120.896 E4.77873
G1 X93.342 Y118.932 E4.93642
G1 X95.396 Y117.450 E5.09410
G1 X97.763 Y116.549 E5.25179
G1 X100.283 Y116.292 E5.40948
G1 X102.633 Y116.671 E5.55764
G1 X102.784 Y116.696 E5.56717 F441.000
G1 X105.095 Y117.733 E5.72486
G1 X107.059 Y119.333 E5.88255
G1 X108.542 Y121.387 E6.04024
G1 X109.442 Y123.755 E6.19792
G1 X109.700 Y126.275 E6.35561
G1 X109.296 Y128.776 E6.51330
G1 X108.258 Y131.087 E6.67099
G1 X106.658 Y133.051 E6.82868
G1 X105.979 Y133.541 E6.88079
G1 X102.764 Y116.751 F7800.000
G1 X105.611 Y133.132 F7800.000
G1 X104.342 Y134.047 E6.97815 F630.000
G1 X102.109 Y134.897 E7.12687
G1 X99.733 Y135.139 E7.27559
G1 X97.374 Y134.759 E7.42431
G1 X95.194 Y133.780 E7.57303
G1 X93.342 Y132.271 E7.72175
G1 X91.944 Y130.334 E7.87047
G1 X91.095 Y128.101 E8.01919
G1 X90.852 Y125.724 E8.16791
G1 X91.220 Y123.446 E8.31159
G1 X91.233 Y123.366 E8.31663
G1 X92.211 Y121.186 E8.46535
G1 X93.720 Y119.334 E8.61407
G1 X95.657 Y117.935 E8.76279
G1 X97.890 Y117.086 E8.91151
G1 X100.187 Y116.852 E9.05519
G1 X100.267 Y116.844 E9.06023 F630.000
G1 X102.626 Y117.224 E9.20895
G1 X104.805 Y118.203 E9.35767
G1 X106.658 Y119.712 E9.50639
G1 X108.056 Y121.649 E9.65511
G1 X108.905 Y123.882 E9.80383
G1 X109.148 Y126.259 E9.95255
G1 X108.767 Y128.617 E10.10127
G1 X107.789 Y130.797 E10.24999
G1 X106.280 Y132.649 E10.39871
G1 X105.659 Y133.097 E10.44634
G1 X102.523 Y128.828 F7800.000
G1 X101.703 Y129.384 E10.50803 F441.000
G1 X100.767 Y129.709 E10.56972
G1 X99.778 Y129.781 E10.63141
G1 X98.805 Y129.595 E10.69310
G1 X97.913 Y129.163 E10.75479
G1 X97.163 Y128.515 E10.81648
G1 X96.607 Y127.694 E10.87817
G1 X96.282 Y126.758 E10.93986
G1 X96.210 Y125.770 E11.00155
G1 X96.397 Y124.796 E11.06324
G1 X96.829 Y123.905 E11.12493
G1 X97.477 Y123.155 E11.18662
G1 X98.297 Y122.599 E11.24831
G1 X99.233 Y122.273 E11.31000
G1 X100.109 Y122.210 E11.36464
G1 X100.222 Y122.202 E11.37169 F441.000
G1 X101.195 Y122.388 E11.43338
G1 X102.087 Y122.820 E11.49507
G1 X102.837 Y123.468 E11.55676
G1 X103.393 Y124.289 E11.61845
G1 X103.718 Y125.225 E11.68014
G1 X103.790 Y126.213 E11.74183
G1 X103.603 Y127.186 E11.80352
G1 X103.171 Y128.078 E11.86521
G1 X102.562 Y128.783 E11.92316
G1 F1860.000 E8.92316
G92 E0
G1 X100.085 Y122.099 F7800.000
G1 X102.830 Y129.281 F7800.000
G1 E3.10000 F1860.000
G1 X101.950 Y129.878 E3.16617 F630.000
G1 X100.878 Y130.250 E3.23683
G1 X99.746 Y130.332 E3.30749
G1 X98.631 Y130.119 E3.37815
G1 X97.610 Y129.624 E3.44881
G1 X96.751 Y128.881 E3.51947
G1 X96.114 Y127.942 E3.59013
G1 X95.741 Y126.870 E3.66078
G1 X95.659 Y125.738 E3.73144
G1 X95.873 Y124.623 E3.80210
G1 X96.368 Y123.601 E3.87276
G1 X97.110 Y122.743 E3.94342
G1 X98.050 Y122.105 E4.01408
G1 X99.122 Y121.733 E4.08473
G1 X100.254 Y121.651 E4.15539
G1 X100.436 Y121.686 E4.16692
G1 X101.369 Y121.864 E4.22605 F630.000
G1 X102.390 Y122.359 E4.29671
G1 X103.249 Y123.102 E4.36737
G1 X103.886 Y124.041 E4.43803
G1 X104.259 Y125.113 E4.50868
G1 X104.341 Y126.245 E4.57934
G1 X104.127 Y127.360 E4.65000
G1 X103.632 Y128.382 E4.72066
G1 X102.880 Y129.247 E4.79204
G1 X108.417 Y128.422 F7800.000
G1 X104.417 Y124.423 E5.14414 F1500.000
G1 X104.662 Y125.465 E5.21079
G1 X108.187 Y128.990 E5.52111
G1 X107.940 Y129.541 E5.55870
G1 X104.711 Y126.313 E5.84289
G1 X104.583 Y126.983 E5.88534
G1 X107.692 Y130.092 E6.15906
G1 X107.436 Y130.634 E6.19637
G1 X104.421 Y127.618 E6.46182
G1 X104.160 Y128.156 E6.49901
G1 X107.077 Y131.074 E6.75584
G1 X106.719 Y131.513 E6.79115
G1 X103.879 Y128.673 E7.04122
G1 X103.508 Y129.101 E7.07644
G1 X106.361 Y131.953 E7.32754
G1 X105.986 Y132.377 E7.36274
G1 X103.137 Y129.528 E7.61355
G1 X102.662 Y129.850 E7.64933
G1 X105.534 Y132.723 E7.90219
G1 X105.070 Y133.057 E7.93778
G1 X102.186 Y130.173 E8.19170
G1 X101.610 Y130.395 E8.23015
G1 X104.607 Y133.392 E8.49401
G1 X104.139 Y133.722 E8.52966
G1 X101.017 Y130.600 E8.80446
G1 X100.289 Y130.670 E8.85000
G1 X103.561 Y133.942 E9.13800
G1 X102.982 Y134.162 E9.17651
G1 X99.486 Y130.666 E9.48427
G1 X98.492 Y130.470 E9.54737
G1 X102.404 Y134.382 E9.89178
G1 X101.776 Y134.552 E9.93227
G1 X91.472 Y124.248 E10.83940
G1 X91.583 Y123.561 E10.88273
G1 X95.583 Y127.560 E11.23482
G1 X95.338 Y126.518 E11.30147
G1 X91.813 Y122.993 E11.61180
G1 X92.060 Y122.442 E11.64938
G1 X95.289 Y125.670 E11.93357
G1 X95.417 Y125.000 E11.97603
G1 X92.308 Y121.891 E12.24975
G1 X92.564 Y121.349 E12.28706
G1 X95.579 Y124.364 E12.55250
G1 X95.840 Y123.827 E12.58969
G1 X92.923 Y120.909 E12.84651
G1 X93.281 Y120.470 E12.88183
G1 X96.121 Y123.310 E13.13189
G1 X96.492 Y122.882 E13.16712
G1 X93.639 Y120.030 E13.41821
G1 X94.014 Y119.606 E13.45341
G1 X96.863 Y122.455 E13.70422
G1 X97.338 Y122.133 E13.73999
G1 X94.466 Y119.260 E13.99286
G1 X94.930 Y118.926 E14.02845
G1 X97.814 Y121.810 E14.28237
G1 X98.390 Y121.588 E14.32081
G1 X95.393 Y118.591 E14.58468
G1 X95.861 Y118.261 E14.62033
G1 X98.983 Y121.382 E14.89513
G1 X99.711 Y121.312 E14.94067
G1 X96.439 Y118.041 E15.22867
G1 X97.018 Y117.821 E15.26718
G1 X100.514 Y121.317 E15.57494
G1 X101.508 Y121.513 E15.63804
G1 X97.596 Y117.601 E15.98244
G1 X98.224 Y117.431 E16.02293
G1 X108.528 Y127.735 E16.93006
G1 X108.639 Y127.048 E16.97339
G1 X98.948 Y117.357 E17.82652
G1 X99.672 Y117.283 E17.87184
G1 X108.750 Y126.361 E18.67099
G1 X108.692 Y125.505 E18.72438
G1 X100.441 Y117.253 E19.45082
G1 X101.392 Y117.407 E19.51084
G1 X108.602 Y124.616 E20.14550
G1 X108.402 Y123.618 E20.20884
G1 X102.344 Y117.561 E20.74213
G1 X103.703 Y118.121 F7800.000
G1 X107.912 Y122.330 E21.11271 F1500.000
G1 X106.455 Y120.075 F7800.000
G1 X106.227 Y119.847 E21.13278 F1500.000
G1 X101.052 Y134.626 F7800.000
G1 X91.361 Y124.935 E21.98592 F1500.000
G1 X91.250 Y125.622 E22.02925
G1 X100.328 Y134.700 E22.82840
