; generated by Slic3r 1.1.7 on 2015-01-30 at 13:18:32

; perimeters extrusion width = 0.40mm
; infill extrusion width = 0.42mm
; solid infill extrusion width = 0.42mm
; top infill extrusion width = 0.42mm

G21 ; set units to millimeters
M190 S70 ; wait for bed temperature to be reached
M104 S240 ; set temperature
G28 ; home all axes Start of G Code Slic3r
 
M109 S240 ; wait for temperature to be reached
G90 ; use absolute coordinates
G92 E0
M82 ; use absolute distances for extrusion
M106 S127
G1 F1860.000 E-3.00000
G92 E0
G1 Z0.300 F7800.000
G1 X21.600 Y20.311 F7800.000
G1 E3.10000 F1860.000
G1 X22.951 Y19.036 E3.21884 F1800.000
G1 X25.067 Y17.508 E3.38588
G1 X26.702 Y16.627 E3.50472
G1 X29.142 Y15.699 E3.67176
G1 X30.949 Y15.271 E3.79059
G1 X33.892 Y14.979 E3.97981
G1 X85.434 Y12.262 E7.28244
G1 X109.219 Y12.635 E8.80462
G1 X129.995 Y15.220 E10.14429 F1800.000
G1 X131.527 Y15.586 E10.24506
G1 X169.027 Y29.086 E12.79537
G1 X171.098 Y30.253 E12.94748
G1 X172.537 Y31.833 E13.08421
G1 X184.537 Y49.833 E14.46849
G1 X185.506 Y52.004 E14.62060
G1 X185.725 Y53.473 E14.71563
G1 X188.437 Y116.303 E18.73975
G1 X189.417 Y140.332 E20.27865
G1 X189.332 Y141.757 E20.36996
G1 X188.916 Y144.334 E20.53700
G1 X188.383 Y146.113 E20.65583
G1 X187.314 Y148.495 E20.82288
G1 X186.339 Y150.075 E20.94171
G1 X184.690 Y152.099 E21.10876
G1 X183.845 Y152.972 E21.18651
G1 X148.861 Y183.373 E24.15218
G1 X146.745 Y184.901 E24.31922
G1 X145.110 Y185.782 E24.43805
G1 X142.670 Y186.711 E24.60511
G1 X140.863 Y187.139 E24.72395
G1 X137.565 Y187.440 E24.93583
G1 X38.798 Y187.648 E31.25581
G1 X36.220 Y187.232 E31.42285
G1 X34.441 Y186.699 E31.54168
G1 X32.060 Y185.630 E31.70873
G1 X30.479 Y184.655 E31.82756
G1 X28.455 Y183.006 E31.99461
G1 X27.181 Y181.655 E32.11344
G1 X25.466 Y179.266 E32.30161
G1 X13.078 Y160.311 E33.75057
G1 X12.384 Y158.948 E33.84842
G1 X11.456 Y156.508 E34.01547
G1 X11.028 Y154.701 E34.13431
G1 X10.726 Y151.404 E34.34618
G1 X10.577 Y102.784 E37.45725
G1 X10.931 Y78.402 E39.01759
G1 X16.958 Y30.653 E42.09722
G1 X17.374 Y28.075 E42.26426
G1 X17.907 Y26.296 E42.38310
G1 X18.976 Y23.915 E42.55014
G1 X19.951 Y22.334 E42.66897
G1 X21.562 Y20.357 E42.83217
G1 X22.032 Y20.662 F7800.000
G1 X23.277 Y19.488 E42.94171 F1800.000
G1 X25.394 Y17.960 E43.10875
G1 X26.900 Y17.148 E43.21829
G1 X29.340 Y16.220 E43.38533
G1 X31.006 Y15.825 E43.49485
G1 X33.921 Y15.535 E43.68233
G1 X85.426 Y12.819 E46.98258
G1 X109.150 Y13.188 E48.50085
G1 X129.927 Y15.772 E49.84052 F1800.000
G1 X131.338 Y16.110 E49.93340
G1 X168.838 Y29.610 E52.48370
G1 X170.818 Y30.744 E52.62970
G1 X172.073 Y32.142 E52.74991
G1 X184.073 Y50.142 E54.13419
G1 X184.989 Y52.232 E54.28018
G1 X185.168 Y53.497 E54.36192
G1 X187.880 Y116.325 E58.38595
G1 X188.861 Y140.355 E59.92486
G1 X188.782 Y141.668 E60.00901
G1 X188.366 Y144.245 E60.17606
G1 X187.875 Y145.885 E60.28558
G1 X186.806 Y148.266 E60.45263
G1 X185.907 Y149.723 E60.56215
G1 X183.479 Y152.552 E60.80069
G1 X148.535 Y182.921 E63.76313
G1 X146.419 Y184.450 E63.93017
G1 X144.912 Y185.262 E64.03969
G1 X142.472 Y186.190 E64.20674
G1 X140.806 Y186.584 E64.31628
G1 X137.564 Y186.883 E64.52464
G1 X38.886 Y187.098 E70.83884
G1 X36.309 Y186.682 E71.00588
G1 X34.670 Y186.191 E71.11540
G1 X32.288 Y185.122 E71.28245
G1 X30.831 Y184.223 E71.39197
G1 X28.807 Y182.574 E71.55902
G1 X27.633 Y181.329 E71.66855
G1 X25.932 Y178.961 E71.85507
G1 X13.544 Y160.006 E73.30403
G1 X12.905 Y158.750 E73.39422
G1 X11.976 Y156.310 E73.56126
G1 X11.582 Y154.644 E73.67080
G1 X11.283 Y151.402 E73.87916
G1 X11.134 Y102.791 E76.98967
G1 X11.484 Y78.472 E78.54599
G1 X17.508 Y30.741 E81.62438
G1 X17.924 Y28.164 E81.79143
G1 X18.415 Y26.525 E81.90096
G1 X19.484 Y24.143 E82.06800
G1 X20.383 Y22.686 E82.17753
G1 X21.994 Y20.709 E82.34073
G1 F1860.000 E79.34073
G92 E0
G1 X95.876 Y59.752 F7800.000
G1 E3.10000 F1860.000
G1 X93.823 Y61.233 E3.26199 F441.000
G1 X91.457 Y62.134 E3.42398
G1 X88.938 Y62.390 E3.58597
G1 X86.439 Y61.987 E3.74795
G1 X84.130 Y60.950 E3.90994
G1 X82.167 Y59.351 E4.07193
G1 X80.685 Y57.299 E4.23391
G1 X79.785 Y54.932 E4.39590
G1 X79.528 Y52.414 E4.55789
G1 X79.932 Y49.915 E4.71988
G1 X80.969 Y47.605 E4.88187
G1 X82.568 Y45.643 E5.04386
G1 X84.620 Y44.161 E5.20584
G1 X86.986 Y43.261 E5.36783
G1 X89.505 Y43.004 E5.52982
G1 X91.850 Y43.383 E5.68180
G1 X92.004 Y43.408 E5.69181 F441.000
G1 X94.314 Y44.444 E5.85379
G1 X96.276 Y46.043 E6.01578
G1 X97.758 Y48.096 E6.17777
G1 X98.658 Y50.462 E6.33976
G1 X98.915 Y52.980 E6.50175
G1 X98.511 Y55.480 E6.66373
G1 X97.475 Y57.789 E6.82572
G1 X95.914 Y59.705 E6.98387
G1 X91.986 Y43.458 F7800.000
G1 X95.490 Y59.343 F7800.000
G1 X93.556 Y60.739 E7.13647 F630.000
G1 X91.327 Y61.587 E7.28907
G1 X88.955 Y61.829 E7.44168
G1 X86.601 Y61.449 E7.59428
G1 X84.425 Y60.472 E7.74688
G1 X82.576 Y58.966 E7.89948
G1 X81.180 Y57.032 E8.05208
G1 X80.332 Y54.803 E8.20468
G1 X80.090 Y52.430 E8.35729
G1 X80.470 Y50.076 E8.50989
G1 X81.447 Y47.900 E8.66249
G1 X82.953 Y46.051 E8.81509
G1 X84.887 Y44.656 E8.96769
G1 X87.116 Y43.808 E9.12029
G1 X89.406 Y43.574 E9.26759
G1 X89.489 Y43.566 E9.27290 F630.000
G1 X91.843 Y43.946 E9.42550
G1 X94.019 Y44.922 E9.57810
G1 X95.867 Y46.429 E9.73071
G1 X97.263 Y48.363 E9.88331
G1 X98.111 Y50.592 E10.03591
G1 X98.353 Y52.964 E10.18851
G1 X97.973 Y55.318 E10.34111
G1 X96.997 Y57.494 E10.49372
G1 X95.528 Y59.296 E10.64248
G1 X91.749 Y55.538 F7800.000
G1 X90.927 Y56.096 E10.70600 F441.000
G1 X89.990 Y56.421 E10.76951
G1 X89.000 Y56.493 E10.83303
G1 X88.025 Y56.307 E10.89655
G1 X87.131 Y55.874 E10.96007
G1 X87.044 Y55.798 E10.96747
G1 X86.380 Y55.224 E11.02359
G1 X85.823 Y54.403 E11.08711
G1 X85.498 Y53.465 E11.15063
G1 X85.426 Y52.475 E11.21415
G1 X85.612 Y51.500 E11.27767
G1 X86.045 Y50.607 E11.34119
G1 X86.694 Y49.856 E11.40471
G1 X87.516 Y49.299 E11.46823
G1 X88.454 Y48.973 E11.53175
G1 X89.328 Y48.910 E11.58787
G1 X89.444 Y48.901 E11.59526 F441.000
G1 X90.419 Y49.088 E11.65879
G1 X91.312 Y49.521 E11.72231
G1 X92.063 Y50.170 E11.78583
G1 X92.620 Y50.991 E11.84934
G1 X92.946 Y51.929 E11.91286
G1 X93.018 Y52.919 E11.97638
G1 X92.831 Y53.894 E12.03990
G1 X92.398 Y54.788 E12.10342
G1 X91.788 Y55.493 E12.16310
G1 F1860.000 E9.16310
G92 E0
G1 X89.304 Y48.796 F7800.000
G1 X92.170 Y55.903 F7800.000
G1 E3.10000 F1860.000
G1 X92.122 Y55.958 E3.10469 F630.000
G1 X91.179 Y56.598 E3.17760
G1 X90.103 Y56.972 E3.25050
G1 X88.967 Y57.054 E3.32341
G1 X87.848 Y56.840 E3.39631
G1 X86.823 Y56.343 E3.46921
G1 X85.961 Y55.598 E3.54212
G1 X85.321 Y54.655 E3.61503
G1 X84.947 Y53.579 E3.68794
G1 X84.865 Y52.442 E3.76084
G1 X85.079 Y51.323 E3.83374
G1 X85.576 Y50.298 E3.90665
G1 X86.321 Y49.436 E3.97955
G1 X87.264 Y48.796 E4.05246
G1 X88.340 Y48.423 E4.12537
G1 X89.477 Y48.340 E4.19827
G1 X89.662 Y48.376 E4.21036
G1 X90.596 Y48.555 E4.27118 F630.000
G1 X91.621 Y49.051 E4.34408
G1 X92.483 Y49.797 E4.41699
G1 X93.122 Y50.739 E4.48989
G1 X93.496 Y51.816 E4.56280
G1 X93.579 Y52.952 E4.63570
G1 X93.364 Y54.071 E4.70861
G1 X92.868 Y55.096 E4.78151
G1 X92.210 Y55.857 E4.84589
G1 X97.616 Y55.121 F7800.000
G1 X93.686 Y51.191 E5.20156 F1500.000
G1 X93.910 Y52.211 E5.26840
G1 X97.387 Y55.688 E5.58302
G1 X97.140 Y56.237 E5.62155
G1 X93.951 Y53.049 E5.91011
G1 X93.823 Y53.717 E5.95364
G1 X96.893 Y56.787 E6.23147
G1 X96.638 Y57.327 E6.26971
G1 X93.657 Y54.347 E6.53940
G1 X93.398 Y54.883 E6.57753
G1 X96.280 Y57.766 E6.83839
G1 X95.923 Y58.204 E6.87459
G1 X93.115 Y55.397 E7.12864
G1 X92.746 Y55.824 E7.16476
G1 X95.565 Y58.643 E7.41987
G1 X95.192 Y59.065 E7.45595
G1 X92.376 Y56.250 E7.71073
G1 X91.902 Y56.572 E7.74741
G1 X94.741 Y59.410 E8.00429
G1 X94.279 Y59.744 E8.04078
G1 X91.428 Y56.893 E8.29875
G1 X90.855 Y57.117 E8.33808
G1 X93.816 Y60.078 E8.60602
G1 X93.349 Y60.407 E8.64257
G1 X90.265 Y57.322 E8.92173
G1 X89.544 Y57.397 E8.96811
G1 X92.773 Y60.626 E9.26032
G1 X92.196 Y60.846 E9.29979
G1 X88.755 Y57.404 E9.61120
G1 X87.770 Y57.216 E9.67535
G1 X91.619 Y61.065 E10.02368
G1 X90.993 Y61.235 E10.06519
G1 X80.717 Y50.958 E10.99516
G1 X80.827 Y50.273 E11.03958
G1 X84.758 Y54.203 E11.39526
G1 X84.534 Y53.183 E11.46210
G1 X81.057 Y49.707 E11.77671
G1 X81.304 Y49.157 E11.81524
G1 X84.492 Y52.346 E12.10381
G1 X84.620 Y51.678 E12.14733
G1 X81.550 Y48.608 E12.42516
G1 X81.806 Y48.067 E12.46341
G1 X84.786 Y51.048 E12.73309
G1 X85.046 Y50.511 E12.77122
G1 X82.163 Y47.629 E13.03207
G1 X82.521 Y47.190 E13.06828
G1 X85.328 Y49.998 E13.32233
G1 X85.697 Y49.571 E13.35844
G1 X82.878 Y46.752 E13.61355
G1 X83.252 Y46.329 E13.64963
G1 X86.067 Y49.145 E13.90441
G1 X86.541 Y48.823 E13.94108
G1 X83.703 Y45.984 E14.19797
G1 X84.165 Y45.650 E14.23445
G1 X87.016 Y48.501 E14.49243
G1 X87.588 Y48.278 E14.53175
G1 X84.627 Y45.317 E14.79970
G1 X85.094 Y44.987 E14.83625
G1 X88.179 Y48.072 E15.11541
G1 X88.900 Y47.997 E15.16178
G1 X85.671 Y44.768 E15.45399
G1 X86.247 Y44.549 E15.49347
G1 X89.689 Y47.990 E15.80487
G1 X90.673 Y48.179 E15.86903
G1 X86.824 Y44.329 E16.21735
G1 X87.450 Y44.159 E16.25886
G1 X97.727 Y54.436 E17.18883
G1 X97.837 Y53.751 E17.23325
G1 X88.172 Y44.086 E18.10786
G1 X88.895 Y44.012 E18.15432
G1 X97.948 Y53.065 E18.97359
G1 X97.891 Y52.212 E19.02832
G1 X89.661 Y43.982 E19.77306
G1 X90.610 Y44.136 E19.83459
G1 X97.800 Y51.326 E20.48523
G1 X97.601 Y50.331 E20.55017
G1 X91.560 Y44.289 E21.09689
G1 X92.914 Y44.847 F7800.000
G1 X97.113 Y49.046 E21.47682 F1500.000
G1 X95.660 Y46.797 F7800.000
G1 X95.432 Y46.569 E21.49745 F1500.000
G1 X90.271 Y61.309 F7800.000
G1 X80.606 Y51.644 E22.37207 F1500.000
G1 X80.495 Y52.329 E22.41649
G1 X89.549 Y61.382 E23.23576
G1 X88.782 Y61.412 E23.28483
G1 X80.553 Y53.182 E24.02957
G1 X80.643 Y54.069 E24.08658
G1 X87.833 Y61.259 E24.73723
G1 X86.884 Y61.106 E24.79877
G1 X80.842 Y55.064 E25.34550
G1 X81.331 Y56.349 F7800.000
G1 X85.529 Y60.547 E25.72543 F1500.000
G1 X83.012 Y58.825 F7800.000
G1 X82.784 Y58.597 E25.74607 F1500.000
G1 F1860.000 E22.74607
G92 E0
G1 X100.917 Y82.004 F7800.000
G1 E3.10000 F1860.000
G1 X99.473 Y83.046 E3.21391 F441.000
G1 X97.107 Y83.946 E3.37590
G1 X94.589 Y84.203 E3.53789
G1 X92.090 Y83.799 E3.69987
G1 X89.780 Y82.763 E3.86186
G1 X87.818 Y81.163 E4.02385
G1 X86.336 Y79.111 E4.18584
G1 X85.436 Y76.745 E4.34783
G1 X85.179 Y74.226 E4.50981
G1 X85.582 Y71.727 E4.67180
G1 X86.619 Y69.418 E4.83379
G1 X88.218 Y67.455 E4.99578
G1 X90.271 Y65.973 E5.15777
G1 X92.637 Y65.073 E5.31975
G1 X95.155 Y64.816 E5.48174
G1 X97.500 Y65.195 E5.63373
G1 X97.654 Y65.220 E5.64373 F441.000
G1 X99.964 Y66.257 E5.80572
G1 X101.927 Y67.856 E5.96770
G1 X103.408 Y69.908 E6.12969
G1 X104.308 Y72.274 E6.29168
G1 X104.565 Y74.793 E6.45367
G1 X104.162 Y77.292 E6.61565
G1 X103.125 Y79.602 E6.77765
G1 X101.526 Y81.564 E6.93963
G1 X100.965 Y81.969 E6.98387
G1 X97.633 Y65.277 F7800.000
G1 X100.591 Y81.552 F7800.000
G1 X99.207 Y82.551 E7.09309 F630.000
G1 X96.978 Y83.399 E7.24569
G1 X94.605 Y83.641 E7.39829
G1 X92.251 Y83.261 E7.55089
G1 X90.075 Y82.284 E7.70350
G1 X88.226 Y80.778 E7.85610
G1 X86.830 Y78.844 E8.00870
G1 X85.982 Y76.615 E8.16130
G1 X85.740 Y74.243 E8.31390
G1 X86.121 Y71.888 E8.46650
G1 X87.097 Y69.713 E8.61911
G1 X88.604 Y67.864 E8.77171
G1 X90.537 Y66.468 E8.92431
G1 X92.766 Y65.620 E9.07691
G1 X95.056 Y65.386 E9.22421
G1 X95.139 Y65.378 E9.22951 F630.000
G1 X97.493 Y65.758 E9.38212
G1 X99.669 Y66.735 E9.53472
G1 X101.518 Y68.241 E9.68732
G1 X102.914 Y70.175 E9.83992
G1 X103.762 Y72.404 E9.99252
G1 X104.004 Y74.776 E10.14513
G1 X103.623 Y77.131 E10.29773
G1 X102.647 Y79.307 E10.45033
G1 X101.140 Y81.155 E10.60293
G1 X100.639 Y81.517 E10.64248
G1 X97.399 Y77.351 F7800.000
G1 X96.578 Y77.908 E10.70600 F441.000
G1 X95.640 Y78.234 E10.76951
G1 X94.650 Y78.306 E10.83303
G1 X93.675 Y78.119 E10.89655
G1 X92.782 Y77.686 E10.96007
G1 X92.694 Y77.610 E10.96747
G1 X92.031 Y77.037 E11.02359
G1 X91.473 Y76.215 E11.08711
G1 X91.148 Y75.278 E11.15063
G1 X91.076 Y74.288 E11.21415
G1 X91.263 Y73.313 E11.27767
G1 X91.696 Y72.419 E11.34119
G1 X92.345 Y71.668 E11.40471
G1 X93.166 Y71.111 E11.46823
G1 X94.104 Y70.785 E11.53175
G1 X94.979 Y70.722 E11.58787
G1 X95.094 Y70.713 E11.59526 F441.000
G1 X96.069 Y70.900 E11.65879
G1 X96.962 Y71.333 E11.72231
G1 X97.713 Y71.982 E11.78583
G1 X98.271 Y72.804 E11.84934
G1 X98.596 Y73.742 E11.91286
G1 X98.668 Y74.732 E11.97638
G1 X98.481 Y75.707 E12.03990
G1 X98.049 Y76.600 E12.10342
G1 X97.439 Y77.305 E12.16310
G1 F1860.000 E9.16310
G92 E0
G1 X94.955 Y70.609 F7800.000
G1 X97.821 Y77.715 F7800.000
G1 E3.10000 F1860.000
G1 X97.773 Y77.771 E3.10469 F630.000
G1 X96.830 Y78.410 E3.17760
G1 X95.754 Y78.784 E3.25050
G1 X94.617 Y78.867 E3.32341
G1 X93.498 Y78.652 E3.39631
G1 X92.473 Y78.155 E3.46921
G1 X91.611 Y77.410 E3.54212
G1 X90.971 Y76.467 E3.61503
G1 X90.598 Y75.391 E3.68794
G1 X90.515 Y74.255 E3.76084
G1 X90.729 Y73.136 E3.83374
G1 X91.226 Y72.110 E3.90665
G1 X91.971 Y71.248 E3.97955
G1 X92.914 Y70.609 E4.05246
G1 X93.991 Y70.235 E4.12537
G1 X95.127 Y70.153 E4.19827
G1 X95.312 Y70.188 E4.21036
G1 X96.246 Y70.367 E4.27118 F630.000
G1 X97.271 Y70.864 E4.34408
G1 X98.133 Y71.609 E4.41699
G1 X98.773 Y72.552 E4.48989
G1 X99.147 Y73.628 E4.56280
G1 X99.229 Y74.764 E4.63570
G1 X99.015 Y75.883 E4.70861
G1 X98.518 Y76.909 E4.78151
G1 X97.860 Y77.670 E4.84589
G1 X103.266 Y76.934 F7800.000
G1 X99.336 Y73.003 E5.20156 F1500.000
G1 X99.560 Y74.024 E5.26840
G1 X103.037 Y77.500 E5.58302
G1 X102.790 Y78.050 E5.62155
G1 X99.601 Y74.861 E5.91011
G1 X99.473 Y75.529 E5.95364
G1 X102.544 Y78.599 E6.23147
G1 X102.288 Y79.139 E6.26971
G1 X99.308 Y76.159 E6.53940
G1 X99.048 Y76.695 E6.57753
G1 X101.930 Y79.578 E6.83839
G1 X101.573 Y80.017 E6.87459
G1 X98.766 Y77.209 E7.12864
G1 X98.397 Y77.636 E7.16476
G1 X101.216 Y80.455 E7.41987
G1 X100.842 Y80.878 E7.45595
G1 X98.027 Y78.062 E7.71073
G1 X97.552 Y78.384 E7.74741
G1 X100.391 Y81.223 E8.00429
G1 X99.929 Y81.556 E8.04078
G1 X97.078 Y78.706 E8.29875
G1 X96.506 Y78.929 E8.33808
G1 X99.467 Y81.890 E8.60602
G1 X99.000 Y82.219 E8.64257
G1 X95.915 Y79.134 E8.92173
G1 X95.194 Y79.210 E8.96811
G1 X98.423 Y82.439 E9.26032
G1 X97.846 Y82.658 E9.29979
G1 X94.405 Y79.217 E9.61120
G1 X93.421 Y79.028 E9.67535
G1 X97.270 Y82.877 E10.02368
G1 X96.644 Y83.047 E10.06519
G1 X86.367 Y72.771 E10.99516
G1 X86.478 Y72.085 E11.03958
G1 X90.408 Y76.016 E11.39526
G1 X90.184 Y74.996 E11.46210
G1 X86.707 Y71.519 E11.77671
G1 X86.954 Y70.969 E11.81524
G1 X90.143 Y74.158 E12.10381
G1 X90.271 Y73.490 E12.14733
G1 X87.201 Y70.420 E12.42516
G1 X87.456 Y69.880 E12.46341
G1 X90.436 Y72.860 E12.73309
G1 X90.696 Y72.324 E12.77122
G1 X87.814 Y69.441 E13.03207
G1 X88.171 Y69.003 E13.06828
G1 X90.978 Y71.810 E13.32233
G1 X91.348 Y71.383 E13.35844
G1 X88.528 Y68.564 E13.61355
G1 X88.902 Y68.141 E13.64963
G1 X91.717 Y70.957 E13.90441
G1 X92.192 Y70.635 E13.94108
G1 X89.353 Y67.796 E14.19797
G1 X89.815 Y67.463 E14.23445
G1 X92.666 Y70.313 E14.49243
G1 X93.238 Y70.090 E14.53175
G1 X90.277 Y67.129 E14.79970
G1 X90.744 Y66.800 E14.83625
G1 X93.829 Y69.885 E15.11541
G1 X94.550 Y69.810 E15.16178
G1 X91.321 Y66.580 E15.45399
G1 X91.898 Y66.361 E15.49347
G1 X95.339 Y69.802 E15.80487
G1 X96.324 Y69.991 E15.86903
G1 X92.474 Y66.142 E16.21735
G1 X93.100 Y65.972 E16.25886
G1 X103.377 Y76.248 E17.18883
G1 X103.488 Y75.563 E17.23325
G1 X93.823 Y65.898 E18.10786
G1 X94.545 Y65.824 E18.15432
G1 X103.598 Y74.878 E18.97359
G1 X103.541 Y74.024 E19.02832
G1 X95.311 Y65.795 E19.77306
G1 X96.261 Y65.948 E19.83459
G1 X103.451 Y73.138 E20.48523
G1 X103.252 Y72.143 E20.55017
G1 X97.210 Y66.101 E21.09689
G1 X98.565 Y66.660 F7800.000
G1 X102.763 Y70.858 E21.47682 F1500.000
G1 X101.310 Y68.609 F7800.000
G1 X101.082 Y68.381 E21.49745 F1500.000
G1 X95.921 Y83.121 F7800.000
G1 X86.256 Y73.456 E22.37207 F1500.000
G1 X86.146 Y74.141 E22.41649
G1 X95.199 Y83.195 E23.23576
G1 X94.433 Y83.225 E23.28483
G1 X86.203 Y74.995 E24.02957
G1 X86.293 Y75.881 E24.08658
G1 X93.483 Y83.071 E24.73723
G1 X92.534 Y82.918 E24.79877
G1 X86.492 Y76.876 E25.34550
G1 X86.981 Y78.161 F7800.000
G1 X91.180 Y82.359 E25.72543 F1500.000
G1 X88.662 Y80.638 F7800.000
G1 X88.434 Y80.410 E25.74607 F1500.000
G1 F1860.000 E22.74607
G92 E0
