; generated by Slic3r 1.1.7 on 2015-01-04 at 14:38:47

; perimeters extrusion width = 0.40mm
; infill extrusion width = 0.44mm
; solid infill extrusion width = 0.44mm
; top infill extrusion width = 0.44mm

G21 ; set units to millimeters
M190 S110 ; wait for bed temperature to be reached
M104 S220 ; set temperature
G28 ; home all axes Start of G Code Slic3r
 
M109 S220 ; wait for temperature to be reached
G90 ; use absolute coordinates
G92 E0
M82 ; use absolute distances for extrusion
M106 S127
G1 F1860.000 E-3.00000
G92 E0
G1 Z0.294 F7800.000
G1 X61.647 Y62.253 F7800.000
G1 E3.10000 F1860.000
G1 X62.994 Y60.982 E3.21529 F1800.000
G1 X65.111 Y59.454 E3.37779
G1 X66.741 Y58.575 E3.49308
G1 X69.181 Y57.647 E3.65558
G1 X70.983 Y57.220 E3.77086
G1 X73.390 Y56.975 E3.92144
G1 X74.301 Y56.918 E3.97824
G1 X127.415 Y57.009 E7.28454
G1 X129.992 Y57.425 E7.44705 F1800.000
G1 X131.766 Y57.957 E7.56233
G1 X134.147 Y59.026 E7.72484
G1 X135.723 Y59.998 E7.84011
G1 X137.747 Y61.647 E8.00262
G1 X139.018 Y62.995 E8.11791
G1 X140.546 Y65.111 E8.28042
G1 X141.425 Y66.741 E8.39570
G1 X142.353 Y69.181 E8.55820
G1 X142.780 Y70.983 E8.67348
G1 X143.082 Y74.301 E8.88083
G1 X142.991 Y127.415 E12.18713
G1 X142.575 Y129.992 E12.34963
G1 X142.043 Y131.766 E12.46491
G1 X140.974 Y134.148 E12.62742
G1 X140.002 Y135.724 E12.74270
G1 X138.353 Y137.747 E12.90521
G1 X137.006 Y139.018 E13.02049
G1 X134.889 Y140.546 E13.18299
G1 X133.259 Y141.425 E13.29827
G1 X130.819 Y142.353 E13.46078
G1 X129.016 Y142.780 E13.57608
G1 X125.699 Y143.082 E13.78341
G1 X72.585 Y142.991 E17.08971
G1 X70.008 Y142.575 E17.25221
G1 X68.234 Y142.043 E17.36749
G1 X65.853 Y140.974 E17.53000
G1 X64.276 Y140.002 E17.64529
G1 X62.253 Y138.353 E17.80779
G1 X60.982 Y137.006 E17.92307
G1 X59.454 Y134.889 E18.08558
G1 X58.575 Y133.259 E18.20086
G1 X57.647 Y130.819 E18.36336
G1 X57.220 Y129.016 E18.47866
G1 X56.918 Y125.699 E18.68599
G1 X57.009 Y72.585 E21.99229
G1 X57.425 Y70.008 E22.15480
G1 X57.957 Y68.234 E22.27008
G1 X59.026 Y65.853 E22.43259
G1 X59.998 Y64.277 E22.54786
G1 X61.609 Y62.299 E22.70663
G1 X62.071 Y62.598 F7800.000
G1 X63.315 Y61.426 E22.81303 F1800.000
G1 X65.431 Y59.898 E22.97553
G1 X66.936 Y59.086 E23.08193
G1 X69.376 Y58.158 E23.24443
G1 X71.039 Y57.764 E23.35082
G1 X73.445 Y57.519 E23.50139
G1 X74.301 Y57.466 E23.55474
G1 X127.327 Y57.549 E26.85561
G1 X129.904 Y57.966 E27.01811 F1800.000
G1 X131.542 Y58.456 E27.12450
G1 X133.923 Y59.525 E27.28701
G1 X135.378 Y60.422 E27.39339
G1 X137.402 Y62.071 E27.55589
G1 X138.575 Y63.315 E27.66230
G1 X140.103 Y65.432 E27.82481
G1 X140.913 Y66.936 E27.93119
G1 X141.842 Y69.376 E28.09370
G1 X142.236 Y71.039 E28.20008
G1 X142.534 Y74.301 E28.40397
G1 X142.451 Y127.327 E31.70484
G1 X142.034 Y129.905 E31.86734
G1 X141.544 Y131.542 E31.97373
G1 X140.475 Y133.923 E32.13624
G1 X139.578 Y135.378 E32.24263
G1 X137.929 Y137.402 E32.40513
G1 X136.685 Y138.574 E32.51153
G1 X134.569 Y140.102 E32.67403
G1 X133.064 Y140.913 E32.78042
G1 X130.624 Y141.842 E32.94293
G1 X128.961 Y142.236 E33.04933
G1 X125.699 Y142.534 E33.25321
G1 X72.673 Y142.451 E36.55408
G1 X70.095 Y142.034 E36.71658
G1 X68.458 Y141.544 E36.82297
G1 X66.077 Y140.475 E36.98547
G1 X64.622 Y139.578 E37.09187
G1 X62.598 Y137.929 E37.25437
G1 X61.426 Y136.685 E37.36076
G1 X59.897 Y134.569 E37.52326
G1 X59.087 Y133.064 E37.62965
G1 X58.158 Y130.624 E37.79215
G1 X57.764 Y128.961 E37.89856
G1 X57.466 Y125.699 E38.10244
G1 X57.549 Y72.673 E41.40331
G1 X57.966 Y70.095 E41.56581
G1 X58.456 Y68.458 E41.67220
G1 X59.525 Y66.077 E41.83471
G1 X60.422 Y64.622 E41.94109
G1 X62.033 Y62.645 E42.09986
G1 F1860.000 E39.09986
G92 E0
G1 X106.658 Y107.059 F7800.000
G1 E3.10000 F1860.000
G1 X104.604 Y108.542 E3.25769 F441.000
G1 X102.237 Y109.443 E3.41538
G1 X99.717 Y109.700 E3.57307
G1 X97.216 Y109.296 E3.73075
G1 X94.905 Y108.258 E3.88845
G1 X92.941 Y106.658 E4.04613
G1 X91.458 Y104.604 E4.20382
G1 X90.557 Y102.237 E4.36151
G1 X90.300 Y99.717 E4.51920
G1 X90.704 Y97.216 E4.67689
G1 X91.742 Y94.905 E4.83458
G1 X93.342 Y92.941 E4.99227
G1 X95.396 Y91.458 E5.14995
G1 X97.763 Y90.558 E5.30764
G1 X100.283 Y90.300 E5.46533
G1 X102.633 Y90.680 E5.61349
G1 X102.784 Y90.704 E5.62302 F441.000
G1 X105.095 Y91.742 E5.78071
G1 X107.059 Y93.342 E5.93840
G1 X108.542 Y95.396 E6.09609
G1 X109.442 Y97.763 E6.25378
G1 X109.700 Y100.283 E6.41146
G1 X109.296 Y102.784 E6.56915
G1 X108.258 Y105.095 E6.72684
G1 X106.696 Y107.013 E6.88079
G1 X102.767 Y90.754 F7800.000
G1 X106.280 Y106.658 F7800.000
G1 X104.342 Y108.056 E7.02951 F630.000
G1 X102.109 Y108.905 E7.17824
G1 X99.733 Y109.148 E7.32696
G1 X97.374 Y108.767 E7.47567
G1 X95.194 Y107.789 E7.62440
G1 X93.342 Y106.280 E7.77312
G1 X91.944 Y104.342 E7.92184
G1 X91.095 Y102.110 E8.07056
G1 X90.852 Y99.733 E8.21928
G1 X91.233 Y97.374 E8.36800
G1 X92.211 Y95.195 E8.51672
G1 X93.720 Y93.342 E8.66544
G1 X95.657 Y91.944 E8.81416
G1 X97.890 Y91.095 E8.96288
G1 X100.187 Y90.860 E9.10656
G1 X100.267 Y90.852 E9.11160 F630.000
G1 X102.626 Y91.233 E9.26032
G1 X104.805 Y92.211 E9.40904
G1 X106.658 Y93.720 E9.55776
G1 X108.056 Y95.658 E9.70648
G1 X108.905 Y97.891 E9.85520
G1 X109.148 Y100.267 E10.00392
G1 X108.767 Y102.626 E10.15264
G1 X107.789 Y104.806 E10.30136
G1 X106.317 Y106.611 E10.44634
G1 X102.523 Y102.837 F7800.000
G1 X101.703 Y103.393 E10.50803 F441.000
G1 X100.767 Y103.718 E10.56972
G1 X99.778 Y103.790 E10.63141
G1 X98.805 Y103.603 E10.69310
G1 X97.913 Y103.171 E10.75479
G1 X97.163 Y102.523 E10.81648
G1 X96.607 Y101.703 E10.87817
G1 X96.282 Y100.767 E10.93986
G1 X96.210 Y99.778 E11.00155
G1 X96.397 Y98.805 E11.06324
G1 X96.829 Y97.913 E11.12493
G1 X97.477 Y97.163 E11.18662
G1 X98.297 Y96.607 E11.24831
G1 X99.233 Y96.282 E11.31000
G1 X100.109 Y96.218 E11.36464
G1 X100.222 Y96.210 E11.37169 F441.000
G1 X101.195 Y96.397 E11.43338
G1 X102.087 Y96.829 E11.49507
G1 X102.837 Y97.477 E11.55676
G1 X103.393 Y98.297 E11.61845
G1 X103.718 Y99.233 E11.68014
G1 X103.790 Y100.222 E11.74183
G1 X103.603 Y101.195 E11.80352
G1 X103.171 Y102.087 E11.86521
G1 X102.562 Y102.791 E11.92316
G1 F1860.000 E8.92316
G92 E0
G1 X100.085 Y96.108 F7800.000
G1 X102.830 Y103.289 F7800.000
G1 E3.10000 F1860.000
G1 X101.950 Y103.886 E3.16617 F630.000
G1 X100.878 Y104.259 E3.23683
G1 X99.746 Y104.341 E3.30749
G1 X98.631 Y104.127 E3.37815
G1 X97.610 Y103.632 E3.44881
G1 X96.751 Y102.890 E3.51947
G1 X96.114 Y101.950 E3.59013
G1 X95.741 Y100.878 E3.66078
G1 X95.659 Y99.746 E3.73144
G1 X95.873 Y98.631 E3.80210
G1 X96.368 Y97.610 E3.87276
G1 X97.110 Y96.751 E3.94342
G1 X98.050 Y96.114 E4.01408
G1 X99.122 Y95.741 E4.08473
G1 X100.254 Y95.659 E4.15539
G1 X100.436 Y95.694 E4.16692
G1 X101.369 Y95.873 E4.22605 F630.000
G1 X102.390 Y96.368 E4.29671
G1 X103.249 Y97.110 E4.36737
G1 X103.886 Y98.050 E4.43803
G1 X104.259 Y99.122 E4.50868
G1 X104.341 Y100.254 E4.57934
G1 X104.127 Y101.369 E4.65000
G1 X103.632 Y102.390 E4.72066
G1 X102.880 Y103.256 E4.79204
G1 X108.417 Y102.431 F7800.000
G1 X104.417 Y98.431 E5.14414 F1500.000
G1 X104.662 Y99.474 E5.21079
G1 X108.187 Y102.999 E5.52111
G1 X107.940 Y103.550 E5.55870
G1 X104.711 Y100.321 E5.84289
G1 X104.583 Y100.991 E5.88534
G1 X107.692 Y104.101 E6.15906
G1 X107.436 Y104.642 E6.19637
G1 X104.421 Y101.627 E6.46182
G1 X104.160 Y102.165 E6.49901
G1 X107.077 Y105.082 E6.75584
G1 X106.719 Y105.522 E6.79115
G1 X103.879 Y102.681 E7.04122
G1 X103.508 Y103.109 E7.07644
G1 X106.361 Y105.962 E7.32754
G1 X105.986 Y106.385 E7.36274
G1 X103.137 Y103.536 E7.61355
G1 X102.662 Y103.859 E7.64933
G1 X105.534 Y106.731 E7.90219
G1 X105.070 Y107.066 E7.93778
G1 X102.186 Y104.181 E8.19170
G1 X101.610 Y104.403 E8.23015
G1 X104.607 Y107.401 E8.49401
G1 X104.139 Y107.731 E8.52966
G1 X101.017 Y104.609 E8.80446
G1 X100.289 Y104.679 E8.85000
G1 X103.561 Y107.950 E9.13800
G1 X102.982 Y108.170 E9.17651
G1 X99.486 Y104.675 E9.48427
G1 X98.492 Y104.478 E9.54737
G1 X102.404 Y108.390 E9.89178
G1 X101.776 Y108.561 E9.93227
G1 X91.472 Y98.256 E10.83940
G1 X91.583 Y97.569 E10.88273
G1 X95.583 Y101.569 E11.23482
G1 X95.338 Y100.526 E11.30147
G1 X91.813 Y97.001 E11.61180
G1 X92.060 Y96.450 E11.64938
G1 X95.289 Y99.679 E11.93357
G1 X95.417 Y99.009 E11.97603
G1 X92.308 Y95.900 E12.24975
G1 X92.564 Y95.358 E12.28706
G1 X95.579 Y98.373 E12.55250
G1 X95.840 Y97.835 E12.58969
G1 X92.923 Y94.918 E12.84651
G1 X93.281 Y94.478 E12.88183
G1 X96.121 Y97.319 E13.13189
G1 X96.492 Y96.891 E13.16712
G1 X93.639 Y94.038 E13.41821
G1 X94.014 Y93.615 E13.45341
G1 X96.863 Y96.464 E13.70422
G1 X97.338 Y96.141 E13.73999
G1 X94.466 Y93.269 E13.99286
G1 X94.930 Y92.934 E14.02845
G1 X97.814 Y95.819 E14.28237
G1 X98.390 Y95.597 E14.32081
G1 X95.393 Y92.599 E14.58468
G1 X95.861 Y92.269 E14.62033
G1 X98.983 Y95.391 E14.89513
G1 X99.711 Y95.321 E14.94067
G1 X96.439 Y92.050 E15.22867
G1 X97.018 Y91.830 E15.26718
G1 X100.514 Y95.326 E15.57494
G1 X101.508 Y95.522 E15.63804
G1 X97.596 Y91.610 E15.98244
G1 X98.224 Y91.439 E16.02293
G1 X108.528 Y101.744 E16.93006
G1 X108.639 Y101.056 E16.97339
G1 X98.948 Y91.365 E17.82652
G1 X99.672 Y91.291 E17.87184
G1 X108.750 Y100.369 E18.67099
G1 X108.692 Y99.513 E18.72438
G1 X100.440 Y91.262 E19.45082
G1 X101.392 Y91.415 E19.51084
G1 X108.602 Y98.625 E20.14550
G1 X108.402 Y97.627 E20.20884
G1 X102.344 Y91.569 E20.74213
G1 X103.703 Y92.129 F7800.000
G1 X107.912 Y96.339 E21.11271 F1500.000
G1 X106.455 Y94.084 F7800.000
G1 X106.227 Y93.856 E21.13278 F1500.000
G1 X101.052 Y108.635 F7800.000
G1 X91.361 Y98.944 E21.98592 F1500.000
G1 X91.250 Y99.631 E22.02925
G1 X100.328 Y108.709 E22.82840
G1 X99.560 Y108.738 E22.87626
G1 X91.308 Y100.487 E23.60271
G1 X91.398 Y101.375 E23.65832
G1 X98.608 Y108.585 E24.29299
G1 X97.656 Y108.431 E24.35301
G1 X91.598 Y102.373 E24.88631
G1 X92.088 Y103.661 F7800.000
G1 X96.297 Y107.871 E25.25690 F1500.000
G1 X93.773 Y106.144 F7800.000
G1 X93.545 Y105.916 E25.27697 F1500.000
G1 F1860.000 E22.27697
G92 E0
G1 X105.931 Y81.593 F7800.000
G1 E3.10000 F1860.000
G1 X104.604 Y82.550 E3.20184 F441.000
G1 X102.237 Y83.451 E3.35953
G1 X99.717 Y83.708 E3.51722
G1 X97.216 Y83.304 E3.67490
G1 X94.905 Y82.267 E3.83260
G1 X92.941 Y80.667 E3.99028
G1 X91.458 Y78.613 E4.14797
G1 X90.557 Y76.245 E4.30566
G1 X90.300 Y73.725 E4.46335
G1 X90.704 Y71.224 E4.62104
G1 X91.742 Y68.913 E4.77873
G1 X93.342 Y66.949 E4.93642
G1 X95.396 Y65.467 E5.09410
G1 X97.763 Y64.566 E5.25179
G1 X100.283 Y64.309 E5.40948
G1 X102.633 Y64.688 E5.55764
G1 X102.784 Y64.713 E5.56717 F441.000
G1 X105.095 Y65.750 E5.72486
G1 X107.059 Y67.350 E5.88255
G1 X108.542 Y69.404 E6.04024
G1 X109.442 Y71.772 E6.19792
G1 X109.700 Y74.292 E6.35561
G1 X109.296 Y76.793 E6.51330
G1 X108.258 Y79.104 E6.67099
G1 X106.658 Y81.068 E6.82868
G1 X105.979 Y81.558 E6.88079
G1 X102.764 Y64.768 F7800.000
G1 X105.611 Y81.149 F7800.000
G1 X104.342 Y82.065 E6.97815 F630.000
G1 X102.109 Y82.914 E7.12687
G1 X99.733 Y83.156 E7.27559
G1 X97.374 Y82.776 E7.42431
G1 X95.194 Y81.797 E7.57303
G1 X93.342 Y80.288 E7.72175
G1 X91.944 Y78.351 E7.87047
G1 X91.095 Y76.118 E8.01919
G1 X90.852 Y73.741 E8.16791
G1 X91.220 Y71.463 E8.31159
G1 X91.233 Y71.383 E8.31663
G1 X92.211 Y69.203 E8.46535
G1 X93.720 Y67.351 E8.61407
G1 X95.657 Y65.953 E8.76279
G1 X97.890 Y65.103 E8.91151
G1 X100.187 Y64.869 E9.05519
G1 X100.267 Y64.861 E9.06023 F630.000
G1 X102.626 Y65.241 E9.20895
G1 X104.805 Y66.220 E9.35767
G1 X106.658 Y67.729 E9.50639
G1 X108.056 Y69.666 E9.65511
G1 X108.905 Y71.899 E9.80383
G1 X109.148 Y74.276 E9.95255
G1 X108.767 Y76.634 E10.10127
G1 X107.789 Y78.814 E10.24999
G1 X106.280 Y80.666 E10.39871
G1 X105.659 Y81.114 E10.44634
G1 X102.523 Y76.845 F7800.000
G1 X101.703 Y77.401 E10.50803 F441.000
G1 X100.767 Y77.727 E10.56972
G1 X99.778 Y77.798 E10.63141
G1 X98.805 Y77.612 E10.69310
G1 X97.913 Y77.180 E10.75479
G1 X97.163 Y76.532 E10.81648
G1 X96.607 Y75.711 E10.87817
G1 X96.282 Y74.775 E10.93986
G1 X96.210 Y73.787 E11.00155
G1 X96.397 Y72.814 E11.06324
G1 X96.829 Y71.922 E11.12493
G1 X97.477 Y71.172 E11.18662
G1 X98.297 Y70.616 E11.24831
G1 X99.233 Y70.291 E11.31000
G1 X100.109 Y70.227 E11.36464
G1 X100.222 Y70.219 E11.37169 F441.000
G1 X101.195 Y70.405 E11.43338
G1 X102.087 Y70.837 E11.49507
G1 X102.837 Y71.486 E11.55676
G1 X103.393 Y72.306 E11.61845
G1 X103.718 Y73.242 E11.68014
G1 X103.790 Y74.230 E11.74183
G1 X103.603 Y75.204 E11.80352
G1 X103.171 Y76.095 E11.86521
G1 X102.562 Y76.800 E11.92316
G1 F1860.000 E8.92316
G92 E0
G1 X100.085 Y70.116 F7800.000
G1 X102.830 Y77.298 F7800.000
G1 E3.10000 F1860.000
G1 X101.950 Y77.895 E3.16617 F630.000
G1 X100.878 Y78.267 E3.23683
G1 X99.746 Y78.349 E3.30749
G1 X98.631 Y78.136 E3.37815
G1 X97.610 Y77.641 E3.44881
G1 X96.751 Y76.898 E3.51947
G1 X96.114 Y75.959 E3.59013
G1 X95.741 Y74.887 E3.66078
G1 X95.659 Y73.755 E3.73144
G1 X95.873 Y72.640 E3.80210
G1 X96.368 Y71.618 E3.87276
G1 X97.110 Y70.760 E3.94342
G1 X98.050 Y70.122 E4.01408
G1 X99.122 Y69.750 E4.08473
G1 X100.254 Y69.668 E4.15539
G1 X100.436 Y69.703 E4.16692
G1 X101.369 Y69.881 E4.22605 F630.000
G1 X102.390 Y70.376 E4.29671
G1 X103.249 Y71.119 E4.36737
G1 X103.886 Y72.058 E4.43803
G1 X104.259 Y73.130 E4.50868
G1 X104.341 Y74.262 E4.57934
G1 X104.127 Y75.377 E4.65000
G1 X103.632 Y76.399 E4.72066
G1 X102.880 Y77.264 E4.79204
G1 X108.417 Y76.439 F7800.000
G1 X104.417 Y72.440 E5.14414 F1500.000
G1 X104.662 Y73.482 E5.21079
G1 X108.187 Y77.007 E5.52111
G1 X107.940 Y77.558 E5.55870
G1 X104.711 Y74.330 E5.84289
G1 X104.583 Y75.000 E5.88534
G1 X107.692 Y78.109 E6.15906
G1 X107.436 Y78.651 E6.19637
G1 X104.421 Y75.636 E6.46182
G1 X104.160 Y76.173 E6.49901
G1 X107.077 Y79.091 E6.75584
G1 X106.719 Y79.530 E6.79115
G1 X103.879 Y76.690 E7.04122
G1 X103.508 Y77.118 E7.07644
G1 X106.361 Y79.970 E7.32754
G1 X105.986 Y80.394 E7.36274
G1 X103.137 Y77.545 E7.61355
G1 X102.662 Y77.867 E7.64933
G1 X105.534 Y80.740 E7.90219
G1 X105.070 Y81.074 E7.93778
G1 X102.186 Y78.190 E8.19170
G1 X101.610 Y78.412 E8.23015
G1 X104.607 Y81.409 E8.49401
G1 X104.139 Y81.739 E8.52966
G1 X101.017 Y78.618 E8.80446
G1 X100.289 Y78.688 E8.85000
G1 X103.561 Y81.959 E9.13800
G1 X102.982 Y82.179 E9.17651
G1 X99.486 Y78.683 E9.48427
G1 X98.492 Y78.487 E9.54737
G1 X102.404 Y82.399 E9.89178
G1 X101.776 Y82.569 E9.93227
G1 X91.472 Y72.265 E10.83940
G1 X91.583 Y71.578 E10.88273
G1 X95.583 Y75.577 E11.23482
G1 X95.338 Y74.535 E11.30147
G1 X91.813 Y71.010 E11.61180
G1 X92.060 Y70.459 E11.64938
G1 X95.289 Y73.687 E11.93357
G1 X95.417 Y73.017 E11.97603
G1 X92.308 Y69.908 E12.24975
G1 X92.564 Y69.366 E12.28706
G1 X95.579 Y72.382 E12.55250
G1 X95.840 Y71.844 E12.58969
G1 X92.923 Y68.927 E12.84651
G1 X93.281 Y68.487 E12.88183
G1 X96.121 Y71.327 E13.13189
G1 X96.492 Y70.899 E13.16712
G1 X93.639 Y68.047 E13.41821
G1 X94.014 Y67.623 E13.45341
G1 X96.863 Y70.472 E13.70422
G1 X97.338 Y70.150 E13.73999
G1 X94.466 Y67.277 E13.99286
G1 X94.930 Y66.943 E14.02845
G1 X97.814 Y69.827 E14.28237
G1 X98.390 Y69.605 E14.32081
G1 X95.393 Y66.608 E14.58468
G1 X95.861 Y66.278 E14.62033
G1 X98.983 Y69.400 E14.89513
G1 X99.711 Y69.330 E14.94067
G1 X96.439 Y66.058 E15.22867
G1 X97.018 Y65.838 E15.26718
G1 X100.514 Y69.334 E15.57494
G1 X101.508 Y69.530 E15.63804
G1 X97.596 Y65.618 E15.98244
G1 X98.224 Y65.448 E16.02293
G1 X108.528 Y75.752 E16.93006
G1 X108.639 Y75.065 E16.97339
G1 X98.948 Y65.374 E17.82652
G1 X99.672 Y65.300 E17.87184
G1 X108.750 Y74.378 E18.67099
G1 X108.692 Y73.522 E18.72438
G1 X100.440 Y65.270 E19.45082
G1 X101.392 Y65.424 E19.51084
G1 X108.602 Y72.633 E20.14550
G1 X108.402 Y71.635 E20.20884
G1 X102.344 Y65.578 E20.74213
G1 X103.703 Y66.138 F7800.000
G1 X107.912 Y70.347 E21.11271 F1500.000
G1 X106.455 Y68.092 F7800.000
G1 X106.227 Y67.864 E21.13278 F1500.000
G1 X101.052 Y82.643 F7800.000
G1 X91.361 Y72.952 E21.98592 F1500.000
G1 X91.250 Y73.639 E22.02925
G1 X100.328 Y82.717 E22.82840
G1 X99.560 Y82.747 E22.87626
G1 X91.308 Y74.495 E23.60271
G1 X91.398 Y75.384 E23.65832
G1 X98.608 Y82.593 E24.29299
G1 X97.656 Y82.440 E24.35301
G1 X91.598 Y76.382 E24.88631
G1 X92.088 Y77.670 F7800.000
G1 X96.297 Y81.879 E25.25690 F1500.000
G1 X93.773 Y80.153 F7800.000
G1 X93.545 Y79.925 E25.27697 F1500.000
G1 F1860.000 E22.27697
G92 E0
