; generated by Slic3r 1.1.7 on 2015-01-04 at 14:38:34

; perimeters extrusion width = 0.40mm
; infill extrusion width = 0.44mm
; solid infill extrusion width = 0.44mm
; top infill extrusion width = 0.44mm

G21 ; set units to millimeters
M190 S110 ; wait for bed temperature to be reached
M104 S220 ; set temperature
G28 ; home all axes Start of G Code Slic3r
 
M109 S220 ; wait for temperature to be reached
G90 ; use absolute coordinates
G92 E0
M82 ; use absolute distances for extrusion
M106 S127
G1 F1860.000 E-3.00000
G92 E0
G1 Z0.294 F7800.000
G1 X61.311 Y49.955 F7800.000
G1 E3.10000 F1860.000
G1 X62.106 Y48.980 E3.17834 F1800.000
G1 X63.453 Y47.709 E3.29363
G1 X65.569 Y46.181 E3.45613
G1 X67.200 Y45.302 E3.57143
G1 X69.640 Y44.374 E3.73393
G1 X71.442 Y43.947 E3.84921
G1 X73.848 Y43.702 E3.99978
G1 X74.759 Y43.646 E4.05659
G1 X127.873 Y43.736 E7.36289
G1 X130.450 Y44.152 E7.52539 F1800.000
G1 X132.224 Y44.684 E7.64068
G1 X134.606 Y45.753 E7.80318
G1 X136.182 Y46.725 E7.91846
G1 X138.206 Y48.374 E8.08096
G1 X139.477 Y49.722 E8.19626
G1 X141.005 Y51.838 E8.35877
G1 X141.883 Y53.468 E8.47404
G1 X142.811 Y55.908 E8.63655
G1 X143.238 Y57.710 E8.75183
G1 X143.540 Y61.028 E8.95917
G1 X143.536 Y113.244 E12.20960
G1 X142.575 Y140.688 E13.91897
G1 X142.159 Y143.265 E14.08147
G1 X141.627 Y145.039 E14.19675
G1 X140.637 Y147.246 E14.34733
G1 X140.558 Y147.421 E14.35927
G1 X139.586 Y148.997 E14.47455
G1 X137.937 Y151.020 E14.63705
G1 X136.590 Y152.291 E14.75233
G1 X134.473 Y153.819 E14.91483
G1 X132.843 Y154.698 E15.03011
G1 X130.403 Y155.626 E15.19262
G1 X128.601 Y156.053 E15.30792
G1 X125.284 Y156.354 E15.51525
G1 X72.127 Y156.264 E18.82421
G1 X69.550 Y155.848 E18.98671
G1 X67.776 Y155.316 E19.10199
G1 X65.394 Y154.247 E19.26449
G1 X63.818 Y153.275 E19.37978
G1 X61.794 Y151.626 E19.54228
G1 X60.523 Y150.278 E19.65757
G1 X58.995 Y148.162 E19.82007
G1 X58.117 Y146.532 E19.93535
G1 X57.189 Y144.092 E20.09785
G1 X56.762 Y142.289 E20.21315
G1 X56.461 Y138.890 E20.42562
G1 X57.468 Y59.312 E25.37961
G1 X57.884 Y56.735 E25.54212
G1 X58.415 Y54.961 E25.65740
G1 X59.484 Y52.580 E25.81990
G1 X60.457 Y51.004 E25.93518
G1 X61.273 Y50.002 E26.01560
G1 X61.735 Y50.301 F7800.000
G1 X62.530 Y49.325 E26.09395 F1800.000
G1 X63.773 Y48.153 E26.20035
G1 X65.890 Y46.625 E26.36285
G1 X67.394 Y45.814 E26.46925
G1 X69.834 Y44.885 E26.63175
G1 X71.497 Y44.492 E26.73813
G1 X73.904 Y44.246 E26.88871
G1 X74.759 Y44.193 E26.94205
G1 X127.786 Y44.276 E30.24292
G1 X130.363 Y44.693 E30.40543 F1800.000
G1 X132.000 Y45.183 E30.51182
G1 X134.382 Y46.252 E30.67432
G1 X135.836 Y47.149 E30.78071
G1 X137.860 Y48.798 E30.94321
G1 X139.033 Y50.042 E31.04962
G1 X140.561 Y52.159 E31.21213
G1 X141.372 Y53.663 E31.31851
G1 X142.300 Y56.103 E31.48101
G1 X142.694 Y57.766 E31.58740
G1 X142.993 Y61.028 E31.79129
G1 X142.989 Y113.226 E35.04059
G1 X142.035 Y140.600 E36.74565
G1 X141.619 Y143.177 E36.90815
G1 X141.128 Y144.815 E37.01453
G1 X140.138 Y147.022 E37.16512
G1 X140.059 Y147.196 E37.17705
G1 X139.162 Y148.651 E37.28344
G1 X137.513 Y150.675 E37.44594
G1 X136.269 Y151.847 E37.55233
G1 X134.153 Y153.375 E37.71483
G1 X132.648 Y154.186 E37.82122
G1 X130.208 Y155.115 E37.98373
G1 X128.545 Y155.509 E38.09013
G1 X125.284 Y155.807 E38.29401
G1 X72.214 Y155.724 E41.59753
G1 X69.637 Y155.307 E41.76003
G1 X68.000 Y154.817 E41.86642
G1 X65.618 Y153.748 E42.02893
G1 X64.164 Y152.850 E42.13532
G1 X62.140 Y151.201 E42.29782
G1 X60.967 Y149.958 E42.40421
G1 X59.439 Y147.842 E42.56672
G1 X58.628 Y146.337 E42.67311
G1 X57.700 Y143.897 E42.83561
G1 X57.306 Y142.234 E42.94201
G1 X57.008 Y138.896 E43.15063
G1 X58.008 Y59.400 E48.09958
G1 X58.424 Y56.823 E48.26209
G1 X58.914 Y55.185 E48.36848
G1 X59.983 Y52.804 E48.53098
G1 X60.881 Y51.349 E48.63737
G1 X61.697 Y50.348 E48.71779
G1 F1860.000 E45.71779
G92 E0
G1 X107.117 Y93.786 F7800.000
G1 E3.10000 F1860.000
G1 X105.063 Y95.269 E3.25769 F441.000
G1 X102.695 Y96.170 E3.41538
G1 X100.175 Y96.427 E3.57307
G1 X97.674 Y96.023 E3.73075
G1 X95.363 Y94.985 E3.88845
G1 X93.399 Y93.385 E4.04613
G1 X91.917 Y91.331 E4.20382
G1 X91.016 Y88.964 E4.36151
G1 X90.759 Y86.444 E4.51920
G1 X91.163 Y83.943 E4.67689
G1 X92.200 Y81.632 E4.83458
G1 X93.800 Y79.668 E4.99227
G1 X95.854 Y78.185 E5.14995
G1 X98.222 Y77.285 E5.30764
G1 X100.742 Y77.027 E5.46533
G1 X103.092 Y77.407 E5.61349
G1 X103.243 Y77.431 E5.62302 F441.000
G1 X105.554 Y78.469 E5.78071
G1 X107.518 Y80.069 E5.93840
G1 X109.000 Y82.123 E6.09609
G1 X109.901 Y84.490 E6.25378
G1 X110.158 Y87.011 E6.41146
G1 X109.754 Y89.511 E6.56915
G1 X108.717 Y91.822 E6.72684
G1 X107.155 Y93.740 E6.88079
G1 X103.225 Y77.481 F7800.000
G1 X106.738 Y93.385 F7800.000
G1 X104.801 Y94.783 E7.02951 F630.000
G1 X102.568 Y95.633 E7.17824
G1 X100.191 Y95.875 E7.32696
G1 X97.833 Y95.494 E7.47567
G1 X95.653 Y94.516 E7.62440
G1 X93.801 Y93.007 E7.77312
G1 X92.402 Y91.070 E7.92184
G1 X91.553 Y88.837 E8.07056
G1 X91.310 Y86.460 E8.21928
G1 X91.691 Y84.101 E8.36800
G1 X92.670 Y81.922 E8.51672
G1 X94.179 Y80.069 E8.66544
G1 X96.116 Y78.671 E8.81416
G1 X98.349 Y77.822 E8.96288
G1 X100.645 Y77.587 E9.10656
G1 X100.726 Y77.579 E9.11160 F630.000
G1 X103.084 Y77.960 E9.26032
G1 X105.264 Y78.938 E9.40904
G1 X107.116 Y80.448 E9.55776
G1 X108.514 Y82.385 E9.70648
G1 X109.364 Y84.618 E9.85520
G1 X109.606 Y86.994 E10.00392
G1 X109.225 Y89.353 E10.15264
G1 X108.247 Y91.533 E10.30136
G1 X106.776 Y93.338 E10.44634
G1 X102.981 Y89.564 F7800.000
G1 X102.161 Y90.120 E10.50803 F441.000
G1 X101.225 Y90.445 E10.56972
G1 X100.237 Y90.517 E10.63141
G1 X99.263 Y90.330 E10.69310
G1 X98.372 Y89.898 E10.75479
G1 X97.622 Y89.250 E10.81648
G1 X97.066 Y88.430 E10.87817
G1 X96.740 Y87.494 E10.93986
G1 X96.669 Y86.505 E11.00155
G1 X96.855 Y85.532 E11.06324
G1 X97.287 Y84.640 E11.12493
G1 X97.935 Y83.891 E11.18662
G1 X98.756 Y83.334 E11.24831
G1 X99.692 Y83.009 E11.31000
G1 X100.567 Y82.946 E11.36464
G1 X100.680 Y82.937 E11.37169 F441.000
G1 X101.653 Y83.124 E11.43338
G1 X102.545 Y83.556 E11.49507
G1 X103.295 Y84.204 E11.55676
G1 X103.851 Y85.024 E11.61845
G1 X104.176 Y85.960 E11.68014
G1 X104.248 Y86.949 E11.74183
G1 X104.062 Y87.922 E11.80352
G1 X103.630 Y88.814 E11.86521
G1 X103.021 Y89.518 E11.92316
G1 F1860.000 E8.92316
G92 E0
G1 X100.544 Y82.835 F7800.000
G1 X103.289 Y90.016 F7800.000
G1 E3.10000 F1860.000
G1 X102.409 Y90.613 E3.16617 F630.000
G1 X101.337 Y90.986 E3.23683
G1 X100.205 Y91.068 E3.30749
G1 X99.090 Y90.854 E3.37815
G1 X98.068 Y90.359 E3.44881
G1 X97.210 Y89.617 E3.51947
G1 X96.572 Y88.678 E3.59013
G1 X96.200 Y87.605 E3.66078
G1 X96.118 Y86.473 E3.73144
G1 X96.331 Y85.358 E3.80210
G1 X96.826 Y84.337 E3.87276
G1 X97.569 Y83.478 E3.94342
G1 X98.508 Y82.841 E4.01408
G1 X99.580 Y82.469 E4.08473
G1 X100.712 Y82.386 E4.15539
G1 X100.894 Y82.421 E4.16692
G1 X101.827 Y82.600 E4.22605 F630.000
G1 X102.849 Y83.095 E4.29671
G1 X103.707 Y83.837 E4.36737
G1 X104.345 Y84.777 E4.43803
G1 X104.717 Y85.849 E4.50868
G1 X104.799 Y86.981 E4.57934
G1 X104.586 Y88.096 E4.65000
G1 X104.091 Y89.117 E4.72066
G1 X103.338 Y89.983 E4.79204
G1 X108.875 Y89.158 F7800.000
G1 X104.876 Y85.158 E5.14414 F1500.000
G1 X105.120 Y86.201 E5.21079
G1 X108.645 Y89.726 E5.52111
G1 X108.398 Y90.277 E5.55870
G1 X105.170 Y87.048 E5.84289
G1 X105.041 Y87.718 E5.88534
G1 X108.151 Y90.828 E6.15906
G1 X107.894 Y91.369 E6.19637
G1 X104.879 Y88.354 E6.46182
G1 X104.618 Y88.892 E6.49901
G1 X107.536 Y91.809 E6.75584
G1 X107.178 Y92.249 E6.79115
G1 X104.337 Y89.408 E7.04122
G1 X103.967 Y89.836 E7.07644
G1 X106.819 Y92.689 E7.32754
G1 X106.445 Y93.112 E7.36274
G1 X103.596 Y90.263 E7.61355
G1 X103.120 Y90.586 E7.64933
G1 X105.992 Y93.458 E7.90219
G1 X105.529 Y93.793 E7.93778
G1 X102.644 Y90.909 E8.19170
G1 X102.068 Y91.130 E8.23015
G1 X105.065 Y94.128 E8.49401
G1 X104.597 Y94.458 E8.52966
G1 X101.476 Y91.336 E8.80446
G1 X100.747 Y91.406 E8.85000
G1 X104.019 Y94.678 E9.13800
G1 X103.441 Y94.897 E9.17651
G1 X99.945 Y91.402 E9.48427
G1 X98.950 Y91.205 E9.54737
G1 X102.863 Y95.117 E9.89178
G1 X102.235 Y95.288 E9.93227
G1 X91.930 Y84.984 E10.83940
G1 X92.041 Y84.296 E10.88273
G1 X96.041 Y88.296 E11.23482
G1 X95.797 Y87.253 E11.30147
G1 X92.272 Y83.728 E11.61180
G1 X92.519 Y83.177 E11.64938
G1 X95.747 Y86.406 E11.93357
G1 X95.875 Y85.736 E11.97603
G1 X92.766 Y82.627 E12.24975
G1 X93.023 Y82.085 E12.28706
G1 X96.038 Y85.100 E12.55250
G1 X96.298 Y84.562 E12.58969
G1 X93.381 Y81.645 E12.84651
G1 X93.739 Y81.205 E12.88183
G1 X96.580 Y84.046 E13.13189
G1 X96.950 Y83.618 E13.16712
G1 X94.098 Y80.765 E13.41821
G1 X94.472 Y80.342 E13.45341
G1 X97.321 Y83.191 E13.70422
G1 X97.797 Y82.868 E13.73999
G1 X94.924 Y79.996 E13.99286
G1 X95.388 Y79.661 E14.02845
G1 X98.272 Y82.546 E14.28237
G1 X98.849 Y82.324 E14.32081
G1 X95.851 Y79.327 E14.58468
G1 X96.320 Y78.997 E14.62033
G1 X99.441 Y82.118 E14.89513
G1 X100.169 Y82.048 E14.94067
G1 X96.898 Y78.777 E15.22867
G1 X97.476 Y78.557 E15.26718
G1 X100.972 Y82.053 E15.57494
G1 X101.967 Y82.249 E15.63804
G1 X98.054 Y78.337 E15.98244
G1 X98.682 Y78.166 E16.02293
G1 X108.986 Y88.471 E16.93006
G1 X109.097 Y87.783 E16.97339
G1 X99.406 Y78.092 E17.82652
G1 X100.131 Y78.018 E17.87184
G1 X109.208 Y87.096 E18.67099
G1 X109.151 Y86.241 E18.72438
G1 X100.899 Y77.989 E19.45082
G1 X101.851 Y78.142 E19.51084
G1 X109.060 Y85.352 E20.14550
G1 X108.860 Y84.354 E20.20884
G1 X102.803 Y78.296 E20.74213
G1 X104.161 Y78.856 F7800.000
G1 X108.371 Y83.066 E21.11271 F1500.000
G1 X106.914 Y80.811 F7800.000
G1 X106.686 Y80.583 E21.13278 F1500.000
G1 X101.511 Y95.362 F7800.000
G1 X91.819 Y85.671 E21.98592 F1500.000
G1 X91.708 Y86.358 E22.02925
G1 X100.786 Y95.436 E22.82840
G1 X100.018 Y95.465 E22.87626
G1 X91.766 Y87.214 E23.60271
G1 X91.857 Y88.102 E23.65832
G1 X99.066 Y95.312 E24.29299
G1 X98.114 Y95.158 E24.35301
G1 X92.056 Y89.100 E24.88631
G1 X92.546 Y90.388 F7800.000
G1 X96.756 Y94.598 E25.25690 F1500.000
G1 X94.231 Y92.871 F7800.000
G1 X94.003 Y92.643 E25.27697 F1500.000
G1 F1860.000 E22.27697
G92 E0
G1 X106.389 Y68.320 F7800.000
G1 E3.10000 F1860.000
G1 X105.063 Y69.277 E3.20184 F441.000
G1 X102.695 Y70.178 E3.35953
G1 X100.175 Y70.435 E3.51722
G1 X97.674 Y70.031 E3.67490
G1 X95.363 Y68.994 E3.83260
G1 X93.399 Y67.394 E3.99028
G1 X91.917 Y65.340 E4.14797
G1 X91.016 Y62.972 E4.30566
G1 X90.759 Y60.452 E4.46335
G1 X91.163 Y57.951 E4.62104
G1 X92.200 Y55.640 E4.77873
G1 X93.800 Y53.677 E4.93642
G1 X95.854 Y52.194 E5.09410
G1 X98.222 Y51.293 E5.25179
G1 X100.742 Y51.036 E5.40948
G1 X103.092 Y51.415 E5.55764
G1 X103.243 Y51.440 E5.56717 F441.000
G1 X105.554 Y52.477 E5.72486
G1 X107.518 Y54.077 E5.88255
G1 X109.000 Y56.131 E6.04024
G1 X109.901 Y58.499 E6.19792
G1 X110.158 Y61.019 E6.35561
G1 X109.754 Y63.520 E6.51330
G1 X108.717 Y65.831 E6.67099
G1 X107.117 Y67.795 E6.82868
G1 X106.438 Y68.285 E6.88079
G1 X103.222 Y51.495 F7800.000
G1 X106.069 Y67.876 F7800.000
G1 X104.801 Y68.792 E6.97815 F630.000
G1 X102.568 Y69.641 E7.12687
G1 X100.191 Y69.884 E7.27559
G1 X97.833 Y69.503 E7.42431
G1 X95.653 Y68.524 E7.57303
G1 X93.801 Y67.015 E7.72175
G1 X92.402 Y65.078 E7.87047
G1 X91.553 Y62.845 E8.01919
G1 X91.310 Y60.468 E8.16791
G1 X91.678 Y58.190 E8.31159
G1 X91.691 Y58.110 E8.31663
G1 X92.670 Y55.930 E8.46535
G1 X94.179 Y54.078 E8.61407
G1 X96.116 Y52.680 E8.76279
G1 X98.349 Y51.830 E8.91151
G1 X100.645 Y51.596 E9.05519
G1 X100.726 Y51.588 E9.06023 F630.000
G1 X103.084 Y51.969 E9.20895
G1 X105.264 Y52.947 E9.35767
G1 X107.116 Y54.456 E9.50639
G1 X108.514 Y56.393 E9.65511
G1 X109.364 Y58.626 E9.80383
G1 X109.606 Y61.003 E9.95255
G1 X109.225 Y63.361 E10.10127
G1 X108.247 Y65.541 E10.24999
G1 X106.738 Y67.393 E10.39871
G1 X106.118 Y67.841 E10.44634
G1 X102.981 Y63.572 F7800.000
G1 X102.161 Y64.128 E10.50803 F441.000
G1 X101.225 Y64.454 E10.56972
G1 X100.237 Y64.525 E10.63141
G1 X99.263 Y64.339 E10.69310
G1 X98.372 Y63.907 E10.75479
G1 X97.622 Y63.259 E10.81648
G1 X97.066 Y62.439 E10.87817
G1 X96.740 Y61.502 E10.93986
G1 X96.669 Y60.514 E11.00155
G1 X96.855 Y59.541 E11.06324
G1 X97.287 Y58.649 E11.12493
G1 X97.935 Y57.899 E11.18662
G1 X98.756 Y57.343 E11.24831
G1 X99.692 Y57.018 E11.31000
G1 X100.567 Y56.954 E11.36464
G1 X100.680 Y56.946 E11.37169 F441.000
G1 X101.653 Y57.132 E11.43338
G1 X102.545 Y57.564 E11.49507
G1 X103.295 Y58.213 E11.55676
G1 X103.851 Y59.033 E11.61845
G1 X104.176 Y59.969 E11.68014
G1 X104.248 Y60.957 E11.74183
G1 X104.062 Y61.931 E11.80352
G1 X103.630 Y62.822 E11.86521
G1 X103.021 Y63.527 E11.92316
G1 F1860.000 E8.92316
G92 E0
G1 X100.544 Y56.843 F7800.000
G1 X103.289 Y64.025 F7800.000
G1 E3.10000 F1860.000
G1 X102.409 Y64.622 E3.16617 F630.000
G1 X101.337 Y64.994 E3.23683
G1 X100.205 Y65.076 E3.30749
G1 X99.090 Y64.863 E3.37815
G1 X98.068 Y64.368 E3.44881
G1 X97.210 Y63.625 E3.51947
G1 X96.572 Y62.686 E3.59013
G1 X96.200 Y61.614 E3.66078
G1 X96.118 Y60.482 E3.73144
G1 X96.331 Y59.367 E3.80210
G1 X96.826 Y58.345 E3.87276
G1 X97.569 Y57.487 E3.94342
G1 X98.508 Y56.849 E4.01408
G1 X99.580 Y56.477 E4.08473
G1 X100.712 Y56.395 E4.15539
G1 X100.894 Y56.430 E4.16692
G1 X101.827 Y56.609 E4.22605 F630.000
G1 X102.849 Y57.103 E4.29671
G1 X103.707 Y57.846 E4.36737
G1 X104.345 Y58.785 E4.43803
G1 X104.717 Y59.857 E4.50868
G1 X104.799 Y60.990 E4.57934
G1 X104.586 Y62.104 E4.65000
G1 X104.091 Y63.126 E4.72066
G1 X103.338 Y63.991 E4.79204
G1 X108.875 Y63.166 F7800.000
G1 X104.876 Y59.167 E5.14414 F1500.000
G1 X105.120 Y60.209 E5.21079
G1 X108.645 Y63.734 E5.52111
G1 X108.398 Y64.285 E5.55870
G1 X105.170 Y61.057 E5.84289
G1 X105.041 Y61.727 E5.88534
G1 X108.151 Y64.836 E6.15906
G1 X107.894 Y65.378 E6.19637
G1 X104.879 Y62.363 E6.46182
G1 X104.618 Y62.900 E6.49901
G1 X107.536 Y65.818 E6.75584
G1 X107.178 Y66.257 E6.79115
G1 X104.337 Y63.417 E7.04122
G1 X103.967 Y63.845 E7.07644
G1 X106.819 Y66.697 E7.32754
G1 X106.445 Y67.121 E7.36274
G1 X103.596 Y64.272 E7.61355
G1 X103.120 Y64.594 E7.64933
G1 X105.992 Y67.467 E7.90219
G1 X105.529 Y67.802 E7.93778
G1 X102.644 Y64.917 E8.19170
G1 X102.068 Y65.139 E8.23015
G1 X105.065 Y68.136 E8.49401
G1 X104.597 Y68.466 E8.52966
G1 X101.476 Y65.345 E8.80446
G1 X100.747 Y65.415 E8.85000
G1 X104.019 Y68.686 E9.13800
G1 X103.441 Y68.906 E9.17651
G1 X99.945 Y65.410 E9.48427
G1 X98.950 Y65.214 E9.54737
G1 X102.863 Y69.126 E9.89178
G1 X102.235 Y69.296 E9.93227
G1 X91.930 Y58.992 E10.83940
G1 X92.041 Y58.305 E10.88273
G1 X96.041 Y62.304 E11.23482
G1 X95.797 Y61.262 E11.30147
G1 X92.272 Y57.737 E11.61180
G1 X92.519 Y57.186 E11.64938
G1 X95.747 Y60.414 E11.93357
G1 X95.875 Y59.744 E11.97603
G1 X92.766 Y56.635 E12.24975
G1 X93.023 Y56.093 E12.28706
G1 X96.038 Y59.109 E12.55250
G1 X96.298 Y58.571 E12.58969
G1 X93.381 Y55.654 E12.84651
G1 X93.739 Y55.214 E12.88183
G1 X96.580 Y58.054 E13.13189
G1 X96.950 Y57.626 E13.16712
G1 X94.098 Y54.774 E13.41821
G1 X94.472 Y54.350 E13.45341
G1 X97.321 Y57.199 E13.70422
G1 X97.797 Y56.877 E13.73999
G1 X94.924 Y54.004 E13.99286
G1 X95.388 Y53.670 E14.02845
G1 X98.272 Y56.554 E14.28237
G1 X98.849 Y56.332 E14.32081
G1 X95.851 Y53.335 E14.58468
G1 X96.320 Y53.005 E14.62033
G1 X99.441 Y56.127 E14.89513
G1 X100.169 Y56.057 E14.94067
G1 X96.898 Y52.785 E15.22867
G1 X97.476 Y52.565 E15.26718
G1 X100.972 Y56.061 E15.57494
G1 X101.967 Y56.257 E15.63804
G1 X98.054 Y52.345 E15.98244
G1 X98.682 Y52.175 E16.02293
G1 X108.986 Y62.479 E16.93006
G1 X109.097 Y61.792 E16.97339
G1 X99.406 Y52.101 E17.82652
G1 X100.131 Y52.027 E17.87184
G1 X109.208 Y61.105 E18.67099
G1 X109.151 Y60.249 E18.72438
G1 X100.899 Y51.997 E19.45082
G1 X101.851 Y52.151 E19.51084
G1 X109.060 Y59.360 E20.14550
G1 X108.860 Y58.362 E20.20884
G1 X102.803 Y52.305 E20.74213
G1 X104.161 Y52.865 F7800.000
G1 X108.371 Y57.074 E21.11271 F1500.000
G1 X106.914 Y54.819 F7800.000
G1 X106.686 Y54.591 E21.13278 F1500.000
G1 X101.511 Y69.370 F7800.000
G1 X91.819 Y59.679 E21.98592 F1500.000
G1 X91.708 Y60.366 E22.02925
G1 X100.786 Y69.444 E22.82840
G1 X100.018 Y69.474 E22.87626
G1 X91.766 Y61.222 E23.60271
G1 X91.857 Y62.111 E23.65832
G1 X99.066 Y69.320 E24.29299
G1 X98.114 Y69.167 E24.35301
G1 X92.056 Y63.109 E24.88631
G1 X92.546 Y64.397 F7800.000
G1 X96.756 Y68.606 E25.25690 F1500.000
