; generated by Slic3r 1.1.7 on 2014-12-31 at 23:19:10

; perimeters extrusion width = 0.50mm
; infill extrusion width = 0.52mm
; solid infill extrusion width = 0.52mm
; top infill extrusion width = 0.52mm

G21 ; set units to millimeters
M107
M104 S200 ; set temperature
G28 ; home all axes
G1 Z5 F5000 ; lift nozzle

M109 S200 ; wait for temperature to be reached
G90 ; use absolute coordinates
G92 E0
M82 ; use absolute distances for extrusion
G1 F1800.000 E-1.00000
G92 E0
G1 Z0.350 F7800.000
G1 X87.977 Y88.520 F7800.000
G1 E1.00000 F1800.000
G1 X89.242 Y87.328 E1.05655 F1080.000
G1 X91.358 Y85.800 E1.14148
G1 X92.888 Y84.975 E1.19802
G1 X95.328 Y84.047 E1.28296
G1 X97.019 Y83.647 E1.33950
G1 X99.616 Y83.382 E1.42443
G1 X101.353 Y83.432 E1.48097
G1 X103.931 Y83.849 E1.56591 F1080.000
G1 X105.595 Y84.347 E1.62245
G1 X107.977 Y85.416 E1.70739
G1 X109.456 Y86.329 E1.76392
G1 X111.480 Y87.978 E1.84886
G1 X112.672 Y89.242 E1.90540
G1 X114.200 Y91.359 E1.99035
G1 X115.025 Y92.888 E2.04688
G1 X115.106 Y93.102 E2.05432
G1 X115.953 Y95.328 E2.13182
G1 X116.353 Y97.019 E2.18835
G1 X116.618 Y99.616 E2.27328
G1 X116.568 Y101.354 E2.32983
G1 X116.151 Y103.931 E2.41477
G1 X115.653 Y105.595 E2.47130
G1 X114.583 Y107.978 E2.55626
G1 X113.671 Y109.456 E2.61278
G1 X112.022 Y111.480 E2.69771
G1 X110.758 Y112.672 E2.75425
G1 X108.642 Y114.200 E2.83918
G1 X107.112 Y115.025 E2.89573
G1 X104.672 Y115.953 E2.98066
G1 X102.981 Y116.353 E3.03721
G1 X100.383 Y116.618 E3.12216
G1 X98.646 Y116.568 E3.17868
G1 X96.069 Y116.151 E3.26362
G1 X94.405 Y115.653 E3.32015
G1 X92.023 Y114.584 E3.40509
G1 X90.544 Y113.671 E3.46162
G1 X88.520 Y112.022 E3.54656
G1 X87.328 Y110.758 E3.60310
G1 X85.800 Y108.641 E3.68805
G1 X84.975 Y107.112 E3.74458
G1 X84.047 Y104.672 E3.82951
G1 X83.647 Y102.981 E3.88606
G1 X83.382 Y100.383 E3.97101
G1 X83.432 Y98.647 E4.02753
G1 X83.849 Y96.069 E4.11246
G1 X84.347 Y94.405 E4.16900
G1 X85.417 Y92.022 E4.25397
G1 X86.328 Y90.545 E4.31045
G1 X87.930 Y88.579 E4.39297
G1 F1800.000 E3.39297
G92 E0
G1 X95.674 Y97.153 F7800.000
G1 E1.00000 F1800.000
G1 X96.558 Y96.131 E1.04399 F540.000
G1 X97.677 Y95.372 E1.08797
G1 X98.954 Y94.928 E1.13195
G1 X100.302 Y94.830 E1.17593
G1 X100.605 Y94.888 E1.18595
G1 X101.630 Y95.085 E1.21992 F540.000
G1 X102.847 Y95.674 E1.26390
G1 X103.869 Y96.558 E1.30789
G1 X104.628 Y97.677 E1.35187
G1 X105.072 Y98.954 E1.39586
G1 X105.170 Y100.302 E1.43983
G1 X104.915 Y101.630 E1.48382
G1 X104.781 Y101.907 E1.49384
G1 X104.326 Y102.847 E1.52781
G1 X103.442 Y103.869 E1.57178
G1 X102.323 Y104.628 E1.61577
G1 X101.046 Y105.072 E1.65975
G1 X100.739 Y105.094 E1.66977
G1 X99.698 Y105.170 E1.70373
G1 X98.370 Y104.915 E1.74772
G1 X97.153 Y104.326 E1.79170
G1 X96.131 Y103.442 E1.83568
G1 X95.372 Y102.323 E1.87967
G1 X94.928 Y101.046 E1.92365
G1 X94.830 Y99.698 E1.96762
G1 X95.085 Y98.370 E2.01161
G1 X95.641 Y97.221 E2.05316
G1 X96.228 Y97.518 F7800.000
G1 X96.999 Y96.626 E2.09151 F540.000
G1 X97.974 Y95.964 E2.12987
G1 X99.088 Y95.577 E2.16822
G1 X99.997 Y95.511 E2.19786
G1 X100.264 Y95.492 E2.20657 F540.000
G1 X101.421 Y95.714 E2.24493
G1 X102.482 Y96.228 E2.28328
G1 X103.374 Y96.999 E2.32164
G1 X104.036 Y97.974 E2.35999
G1 X104.423 Y99.088 E2.39835
G1 X104.508 Y100.264 E2.43670
G1 X104.286 Y101.421 E2.47505
G1 X104.190 Y101.621 E2.48226
G1 X103.772 Y102.482 E2.51341
G1 X103.001 Y103.374 E2.55176
G1 X102.026 Y104.036 E2.59012
G1 X100.912 Y104.423 E2.62847
G1 X100.691 Y104.439 E2.63567
G1 X99.736 Y104.508 E2.66682
G1 X98.578 Y104.286 E2.70518
G1 X97.518 Y103.772 E2.74353
G1 X96.626 Y103.001 E2.78189
G1 X95.964 Y102.026 E2.82024
G1 X95.577 Y100.912 E2.85860
G1 X95.492 Y99.736 E2.89695
G1 X95.714 Y98.579 E2.93530
G1 X96.195 Y97.585 E2.97122
G1 X96.781 Y97.882 F7800.000
G1 X97.439 Y97.121 E3.00394 F378.000
G1 X98.272 Y96.556 E3.03667
G1 X99.222 Y96.226 E3.06939
G1 X100.225 Y96.154 E3.10212
G1 X100.357 Y96.179 E3.10650
G1 X101.213 Y96.343 E3.13484 F378.000
G1 X102.118 Y96.781 E3.16757
G1 X102.879 Y97.439 E3.20029
G1 X103.444 Y98.272 E3.23302
G1 X103.774 Y99.222 E3.26575
G1 X103.846 Y100.225 E3.29847
G1 X103.657 Y101.213 E3.33119
G1 X103.598 Y101.334 E3.33558
G1 X103.219 Y102.118 E3.36392
G1 X102.561 Y102.879 E3.39664
G1 X101.728 Y103.444 E3.42937
G1 X100.778 Y103.774 E3.46209
G1 X100.644 Y103.783 E3.46648
G1 X99.775 Y103.846 E3.49482
G1 X98.787 Y103.657 E3.52755
G1 X97.882 Y103.219 E3.56027
G1 X97.121 Y102.561 E3.59300
G1 X96.556 Y101.728 E3.62572
G1 X96.226 Y100.778 E3.65845
G1 X96.154 Y99.775 E3.69117
G1 X96.343 Y98.787 E3.72390
G1 X96.749 Y97.949 E3.75418
G1 F1800.000 E2.75418
G92 E0
G1 X100.578 Y95.730 F7800.000
G1 X93.357 Y95.092 F7800.000
G1 E1.00000 F1800.000
G1 X94.290 Y93.946 E1.04807 F540.000
G1 X96.051 Y92.675 E1.11875
G1 X98.082 Y91.903 E1.18943
G1 X100.243 Y91.682 E1.26010
G1 X102.388 Y92.028 E1.33078
G1 X104.369 Y92.918 E1.40146 F540.000
G1 X106.054 Y94.290 E1.47214
G1 X107.325 Y96.052 E1.54282
G1 X108.097 Y98.082 E1.61349
G1 X108.318 Y100.243 E1.68417
G1 X107.972 Y102.388 E1.75485
G1 X107.082 Y104.369 E1.82552
G1 X105.710 Y106.053 E1.89620
G1 X103.948 Y107.325 E1.96688
G1 X101.918 Y108.097 E2.03756
G1 X99.757 Y108.318 E2.10823
G1 X97.612 Y107.972 E2.17891
G1 X95.631 Y107.082 E2.24959
G1 X93.946 Y105.710 E2.32027
G1 X92.675 Y103.949 E2.39095
G1 X91.903 Y101.918 E2.46162
G1 X91.682 Y99.757 E2.53230
G1 X92.028 Y97.612 E2.60298
G1 X92.918 Y95.631 E2.67366
G1 X93.310 Y95.150 E2.69382
G1 X92.848 Y94.677 F7800.000
G1 X93.835 Y93.464 E2.74471 F540.000
G1 X95.737 Y92.092 E2.82101
G1 X97.929 Y91.258 E2.89732
G1 X100.167 Y91.029 E2.97051
G1 X100.262 Y91.020 E2.97363 F540.000
G1 X102.578 Y91.394 E3.04994
G1 X104.717 Y92.354 E3.12624
G1 X106.536 Y93.835 E3.20255
G1 X107.852 Y95.659 E3.27574
G1 X107.909 Y95.737 E3.27886
G1 X108.742 Y97.929 E3.35516
G1 X108.980 Y100.262 E3.43147
G1 X108.606 Y102.578 E3.50778
G1 X107.685 Y104.630 E3.58096
G1 X107.646 Y104.717 E3.58408
G1 X106.165 Y106.536 E3.66039
G1 X104.263 Y107.908 E3.73670
G1 X102.071 Y108.742 E3.81300
G1 X99.738 Y108.980 E3.88931
G1 X97.422 Y108.606 E3.96562
G1 X95.283 Y107.646 E4.04192
G1 X93.464 Y106.165 E4.11823
G1 X92.092 Y104.263 E4.19454
G1 X91.258 Y102.071 E4.27084
G1 X91.020 Y99.738 E4.34715
G1 X91.394 Y97.422 E4.42346
G1 X92.354 Y95.283 E4.49976
G1 X92.800 Y94.735 E4.52274
G1 X92.338 Y94.262 F7800.000
G1 X93.381 Y92.982 E4.57644 F378.000
G1 X95.423 Y91.508 E4.65838
G1 X97.776 Y90.613 E4.74032
G1 X100.282 Y90.357 E4.82225
G1 X102.588 Y90.730 E4.89826
G1 X102.768 Y90.759 E4.90419 F378.000
G1 X105.065 Y91.790 E4.98612
G1 X107.018 Y93.381 E5.06806
G1 X108.492 Y95.423 E5.15000
G1 X108.557 Y95.593 E5.15593
G1 X109.387 Y97.776 E5.23193
G1 X109.643 Y100.282 E5.31387
G1 X109.241 Y102.768 E5.39580
G1 X108.210 Y105.065 E5.47774
G1 X106.619 Y107.018 E5.55967
G1 X104.577 Y108.492 E5.64161
G1 X102.224 Y109.387 E5.72354
G1 X99.718 Y109.643 E5.80548
G1 X97.232 Y109.241 E5.88741
G1 X94.935 Y108.210 E5.96935
G1 X92.982 Y106.619 E6.05129
G1 X91.508 Y104.577 E6.13322
G1 X90.613 Y102.224 E6.21516
G1 X90.357 Y99.718 E6.29709
G1 X90.759 Y97.232 E6.37903
G1 X91.790 Y94.935 E6.46096
G1 X92.291 Y94.320 E6.48676
G1 X102.682 Y90.886 F7800.000
G1 X105.565 Y94.481 F7800.000
G1 X105.793 Y94.709 E6.49725 F1080.000
G1 X107.245 Y97.125 F7800.000
G1 X102.862 Y92.741 E6.69893 F1080.000
G1 X101.505 Y92.348 E6.74491
G1 X107.684 Y98.528 E7.02924
G1 X107.794 Y99.601 E7.06435
G1 X100.355 Y92.162 E7.40661
G1 X99.450 Y92.222 E7.43610
G1 X101.972 Y94.743 E7.55213
G1 X100.708 Y94.443 E7.59438
G1 X98.576 Y92.311 E7.69251
G1 X97.799 Y92.498 E7.71849
G1 X99.716 Y94.415 E7.80670
G1 X98.827 Y94.489 E7.83575
G1 X97.101 Y92.764 E7.91514
G1 X96.403 Y93.029 E7.93944
G1 X98.111 Y94.738 E8.01805
G1 X97.411 Y95.001 E8.04240
G1 X95.817 Y93.407 E8.11573
G1 X95.257 Y93.811 E8.13820
G1 X96.836 Y95.391 E8.21086
G1 X96.262 Y95.780 E8.23344
G1 X94.699 Y94.217 E8.30537
G1 X94.244 Y94.726 E8.32757
G1 X95.813 Y96.295 E8.39977
G1 X95.366 Y96.812 E8.42200
G1 X93.811 Y95.257 E8.49355
G1 X93.378 Y95.788 E8.51584
G1 X95.029 Y97.438 E8.59178
G1 X94.714 Y98.088 E8.61525
G1 X93.059 Y96.432 E8.69144
G1 X92.760 Y97.097 E8.71517
G1 X94.526 Y98.863 E8.79641
G1 X94.371 Y99.672 E8.82321
G1 X92.466 Y97.767 E8.91086
G1 X92.332 Y98.597 E8.93821
G1 X94.446 Y100.711 E9.03551
G1 X94.779 Y102.008 E9.07907
G1 X92.198 Y99.426 E9.19785
G1 X92.206 Y100.399 E9.22949
G1 X99.645 Y107.838 E9.57176
G1 X100.550 Y107.778 E9.60125
G1 X98.028 Y105.257 E9.71728
G1 X99.292 Y105.557 E9.75953
G1 X101.424 Y107.689 E9.85766
G1 X102.201 Y107.502 E9.88364
G1 X100.284 Y105.585 E9.97185
G1 X101.173 Y105.511 E10.00090
G1 X102.899 Y107.236 E10.08029
G1 X103.597 Y106.970 E10.10459
G1 X101.889 Y105.262 E10.18320
G1 X102.589 Y104.999 E10.20755
G1 X104.183 Y106.593 E10.28088
G1 X104.743 Y106.189 E10.30334
G1 X103.164 Y104.609 E10.37601
G1 X103.738 Y104.220 E10.39858
G1 X105.301 Y105.783 E10.47051
G1 X105.756 Y105.274 E10.49272
G1 X104.187 Y103.705 E10.56492
G1 X104.634 Y103.188 E10.58715
G1 X106.189 Y104.743 E10.65869
G1 X106.622 Y104.212 E10.68098
G1 X104.971 Y102.561 E10.75693
G1 X105.286 Y101.912 E10.78040
G1 X106.942 Y103.568 E10.85659
G1 X107.240 Y102.903 E10.88031
G1 X105.474 Y101.137 E10.96155
G1 X105.629 Y100.328 E10.98836
G1 X107.534 Y102.233 E11.07602
G1 X107.668 Y101.403 E11.10337
G1 X105.554 Y99.289 E11.20066
G1 X105.221 Y97.992 E11.24422
G1 X107.802 Y100.574 E11.36300
G1 X98.495 Y107.652 F7800.000
G1 X92.316 Y101.472 E11.64734 F1080.000
G1 X92.755 Y102.875 E11.69516
G1 X97.138 Y107.259 E11.89685
G1 X94.435 Y105.519 F7800.000
G1 X94.207 Y105.291 E11.90734 F1080.000
M106 S255
G1 F1800.000 E10.90734
G92 E0
G1 Z0.750 F7800.000
G1 X96.023 Y97.383 F7800.000
G1 E1.00000 F1800.000
G1 X96.836 Y96.443 E1.03517 F869.938
G1 X97.864 Y95.745 E1.07033
G1 X99.038 Y95.337 E1.10550
G1 X100.278 Y95.247 E1.14066
G1 X100.714 Y95.331 E1.15321
G1 X101.499 Y95.481 E1.17583 F869.938
G1 X102.617 Y96.023 E1.21099
G1 X103.557 Y96.836 E1.24616
G1 X104.255 Y97.864 E1.28132
G1 X104.663 Y99.038 E1.31648
G1 X104.753 Y100.278 E1.35165
G1 X104.519 Y101.499 E1.38681
G1 X103.977 Y102.617 E1.42198
G1 X103.164 Y103.557 E1.45714
G1 X102.136 Y104.255 E1.49231
G1 X100.962 Y104.663 E1.52747
G1 X100.519 Y104.695 E1.54003
G1 X99.722 Y104.753 E1.56264
G1 X98.501 Y104.519 E1.59780
G1 X97.383 Y103.977 E1.63296
G1 X96.443 Y103.164 E1.66813
G1 X95.745 Y102.136 E1.70329
G1 X95.337 Y100.962 E1.73846
G1 X95.247 Y99.722 E1.77362
G1 X95.481 Y98.501 E1.80878
G1 X95.990 Y97.450 E1.84182
G1 X96.444 Y97.660 F7800.000
G1 X97.171 Y96.820 E1.87327 F869.938
G1 X98.091 Y96.196 E1.90471
G1 X99.140 Y95.831 E1.93615
G1 X99.872 Y95.778 E1.95689
G1 X100.248 Y95.751 E1.96758 F869.938
G1 X101.340 Y95.960 E1.99902
G1 X102.340 Y96.444 E2.03046
G1 X103.180 Y97.171 E2.06190
G1 X103.804 Y98.091 E2.09334
G1 X104.169 Y99.140 E2.12478
G1 X104.249 Y100.249 E2.15622
G1 X104.040 Y101.340 E2.18766
G1 X103.556 Y102.340 E2.21910
G1 X102.829 Y103.180 E2.25054
G1 X101.909 Y103.804 E2.28198
G1 X100.860 Y104.169 E2.31342
G1 X100.483 Y104.196 E2.32411
G1 X99.751 Y104.249 E2.34486
G1 X98.660 Y104.040 E2.37630
G1 X97.660 Y103.556 E2.40774
G1 X96.820 Y102.829 E2.43918
G1 X96.196 Y101.909 E2.47062
G1 X95.831 Y100.860 E2.50206
G1 X95.751 Y99.751 E2.53350
G1 X95.960 Y98.660 E2.56493
G1 X96.412 Y97.728 E2.59425
G1 X96.866 Y97.937 F7800.000
G1 X97.506 Y97.196 E2.62197 F608.957
G1 X98.317 Y96.647 E2.64968
G1 X99.242 Y96.325 E2.67739
G1 X100.219 Y96.254 E2.70511
G1 X100.526 Y96.313 E2.71394
G1 X101.181 Y96.439 E2.73282 F608.957
G1 X102.063 Y96.866 E2.76054
G1 X102.804 Y97.506 E2.78825
G1 X103.353 Y98.317 E2.81597
G1 X103.675 Y99.242 E2.84368
G1 X103.746 Y100.219 E2.87140
G1 X103.561 Y101.181 E2.89911
G1 X103.134 Y102.063 E2.92683
G1 X102.494 Y102.804 E2.95454
G1 X101.683 Y103.353 E2.98225
G1 X100.758 Y103.675 E3.00997
G1 X100.447 Y103.697 E3.01880
G1 X99.781 Y103.746 E3.03768
G1 X98.819 Y103.561 E3.06540
G1 X97.937 Y103.134 E3.09311
G1 X97.196 Y102.494 E3.12083
G1 X96.647 Y101.683 E3.14854
G1 X96.325 Y100.758 E3.17625
G1 X96.254 Y99.781 E3.20397
G1 X96.439 Y98.819 E3.23168
G1 X96.833 Y98.005 E3.25727
G1 F1800.000 E2.25727
G92 E0
G1 X100.750 Y95.866 F7800.000
G1 X93.042 Y94.822 F7800.000
G1 E1.00000 F1800.000
G1 X94.004 Y93.643 E1.04306 F869.938
G1 X95.853 Y92.307 E1.10761
G1 X97.986 Y91.496 E1.17216
G1 X100.255 Y91.265 E1.23671
G1 X101.961 Y91.540 E1.28560
G1 X102.507 Y91.628 E1.30126 F869.938
G1 X104.589 Y92.562 E1.36581
G1 X106.357 Y94.004 E1.43036
G1 X107.693 Y95.853 E1.49491
G1 X107.890 Y96.371 E1.51057
G1 X108.504 Y97.986 E1.55946
G1 X108.736 Y100.255 E1.62401
G1 X108.372 Y102.507 E1.68856
G1 X107.438 Y104.589 E1.75311
G1 X105.996 Y106.357 E1.81766
G1 X104.147 Y107.693 E1.88221
G1 X102.014 Y108.504 E1.94676
G1 X99.745 Y108.735 E2.01131
G1 X97.493 Y108.372 E2.07586
G1 X95.411 Y107.437 E2.14041
G1 X93.643 Y105.996 E2.20496
G1 X92.307 Y104.147 E2.26951
G1 X91.496 Y102.014 E2.33406
G1 X91.265 Y99.745 E2.39861
G1 X91.628 Y97.493 E2.46316
G1 X92.563 Y95.411 E2.52771
G1 X92.995 Y94.881 E2.54708
G1 X92.655 Y94.507 F7800.000
G1 X93.657 Y93.276 E2.59200 F869.938
G1 X95.614 Y91.863 E2.66028
G1 X97.869 Y91.005 E2.72856
G1 X99.654 Y90.823 E2.77931
G1 X100.270 Y90.760 E2.79683 F869.938
G1 X102.652 Y91.145 E2.86511
G1 X104.854 Y92.133 E2.93338
G1 X106.724 Y93.658 E3.00166
G1 X108.137 Y95.614 E3.06993
G1 X108.995 Y97.869 E3.13821
G1 X109.240 Y100.270 E3.20648
G1 X108.855 Y102.652 E3.27476
G1 X107.867 Y104.854 E3.34303
G1 X106.342 Y106.724 E3.41131
G1 X104.386 Y108.137 E3.47958
G1 X102.131 Y108.995 E3.54786
G1 X99.730 Y109.240 E3.61614
G1 X97.348 Y108.855 E3.68441
G1 X95.146 Y107.867 E3.75269
G1 X93.276 Y106.342 E3.82096
G1 X91.863 Y104.386 E3.88924
G1 X91.005 Y102.131 E3.95751
G1 X90.760 Y99.730 E4.02579
G1 X91.145 Y97.348 E4.09406
G1 X92.133 Y95.146 E4.16234
G1 X92.607 Y94.565 E4.18357
G1 X92.267 Y94.191 F7800.000
G1 X93.311 Y92.909 E4.23035 F608.957
G1 X95.375 Y91.419 E4.30235
G1 X97.753 Y90.515 E4.37435
G1 X100.285 Y90.256 E4.44635
G1 X102.121 Y90.553 E4.49897
G1 X102.797 Y90.662 E4.51835 F608.957
G1 X105.118 Y91.704 E4.59035
G1 X107.091 Y93.312 E4.66235
G1 X108.581 Y95.375 E4.73436
G1 X109.485 Y97.753 E4.80636
G1 X109.744 Y100.285 E4.87836
G1 X109.338 Y102.797 E4.95036
G1 X108.296 Y105.118 E5.02236
G1 X106.688 Y107.091 E5.09436
G1 X104.625 Y108.581 E5.16636
G1 X102.247 Y109.485 E5.23836
G1 X99.715 Y109.744 E5.31036
G1 X97.203 Y109.338 E5.38236
G1 X94.882 Y108.296 E5.45436
G1 X92.909 Y106.688 E5.52636
G1 X91.419 Y104.625 E5.59836
G1 X90.515 Y102.247 E5.67036
G1 X90.256 Y99.715 E5.74236
G1 X90.662 Y97.203 E5.81436
G1 X91.704 Y94.882 E5.88636
G1 X92.220 Y94.249 E5.90945
G1 X102.381 Y90.980 F7800.000
G1 X97.655 Y91.993 F7800.000
G1 X91.946 Y97.702 E6.14687 F1739.876
G1 X91.803 Y98.584 E6.17314
G1 X98.606 Y91.782 E6.45603
G1 X99.429 Y91.697 E6.48037
G1 X91.661 Y99.466 E6.80342
G1 X91.660 Y100.206 E6.82519
G1 X100.251 Y91.615 E7.18244
G1 X100.888 Y91.718 E7.20140
G1 X91.729 Y100.877 E7.58228
G1 X92.491 Y96.418 F7800.000
G1 X96.462 Y92.447 E7.74740 F1739.876
G1 X94.346 Y93.823 F7800.000
G1 X94.118 Y94.051 E7.75688 F1739.876
G1 X98.022 Y95.323 F7800.000
G1 X101.524 Y91.821 E7.90253 F1739.876
G1 X102.161 Y91.924 E7.92149
G1 X99.099 Y94.985 E8.04880
G1 X99.897 Y94.927 E8.07231
G1 X102.720 Y92.104 E8.18972
G1 X103.230 Y92.333 E8.20617
G1 X100.606 Y94.957 E8.31529
G1 X101.227 Y95.076 E8.33387
G1 X103.741 Y92.562 E8.43841
G1 X104.251 Y92.791 E8.45486
G1 X101.800 Y95.242 E8.55677
G1 X102.298 Y95.483 E8.57305
G1 X104.690 Y93.092 E8.67248
G1 X105.097 Y93.424 E8.68794
G1 X102.797 Y95.725 E8.78361
G1 X103.196 Y96.065 E8.79903
G1 X105.504 Y93.756 E8.89504
G1 X105.912 Y94.088 E8.91049
G1 X103.592 Y96.408 E9.00696
G1 X103.947 Y96.792 E9.02234
G1 X106.268 Y94.472 E9.11885
G1 X106.578 Y94.901 E9.13443
G1 X104.246 Y97.233 E9.23140
G1 X104.545 Y97.674 E9.24705
G1 X106.888 Y95.331 E9.34448
G1 X107.198 Y95.760 E9.36006
G1 X104.744 Y98.214 E9.46211
G1 X104.934 Y98.763 E9.47919
G1 X107.466 Y96.232 E9.58446
G1 X107.669 Y96.767 E9.60131
G1 X105.037 Y99.400 E9.71079
G1 X105.087 Y100.089 E9.73111
G1 X107.873 Y97.303 E9.84698
G1 X108.077 Y97.839 E9.86383
