; generated by Slic3r 1.1.7 on 2014-12-24 at 22:37:14

; perimeters extrusion width = 0.40mm
; infill extrusion width = 0.67mm
; solid infill extrusion width = 0.67mm
; top infill extrusion width = 0.67mm
; support material extrusion width = 0.40mm

G21 ; set units to millimeters
M190 S70 ; wait for bed temperature to be reached
M104 S215 ; set temperature
G28 ; home all axes Start of G Code Slic3r
 
M109 S215 ; wait for temperature to be reached
G90 ; use absolute coordinates
G92 E0
M82 ; use absolute distances for extrusion
M106 S127
G1 F1860.000 E-3.00000
G92 E0
G1 Z0.200 F6000.000
G1 X66.204 Y62.532 F6000.000
G1 E3.10000 F1860.000
G1 X67.818 Y60.938 E3.14221 F1200.000
G1 X69.734 Y60.036 E3.18158
G1 X104.201 Y50.384 E3.84740
G1 X106.798 Y50.119 E3.89596
G1 X108.490 Y50.169 E3.92745
G1 X111.067 Y50.585 E3.97601 F1200.000
G1 X112.689 Y51.071 E4.00751
G1 X115.634 Y52.426 E4.06782
G1 X143.100 Y68.231 E4.65728
G1 X145.124 Y69.880 E4.70584
G1 X146.286 Y71.112 E4.73734
G1 X147.814 Y73.229 E4.78590
G1 X148.617 Y74.719 E4.81740
G1 X149.545 Y77.159 E4.86596
G1 X149.907 Y78.568 E4.89302
G1 X154.392 Y110.725 E5.49699
G1 X154.657 Y113.322 E5.54555
G1 X154.608 Y115.015 E5.57705
G1 X154.191 Y117.592 E5.62561
G1 X153.706 Y119.214 E5.65710
G1 X152.637 Y121.596 E5.70566
G1 X151.747 Y123.037 E5.73716
G1 X150.099 Y125.060 E5.78572
G1 X148.867 Y126.222 E5.81722
G1 X146.750 Y127.750 E5.86578
G1 X145.260 Y128.553 E5.89727
G1 X142.404 Y129.624 E5.95400
G1 X77.607 Y149.368 E7.21406
G1 X76.375 Y149.616 E7.23744
G1 X73.778 Y149.881 E7.28600
G1 X72.085 Y149.831 E7.31749
G1 X69.508 Y149.415 E7.36605
G1 X67.886 Y148.930 E7.39754
G1 X65.505 Y147.860 E7.44611
G1 X64.064 Y146.971 E7.47761
G1 X62.040 Y145.322 E7.52616
G1 X60.878 Y144.091 E7.55766
G1 X59.350 Y141.974 E7.60622
G1 X58.547 Y140.484 E7.63771
G1 X57.506 Y137.723 E7.69259
G1 X45.886 Y101.582 E8.39877
G1 X45.608 Y100.255 E8.42399
G1 X45.343 Y97.658 E8.47255
G1 X45.392 Y95.966 E8.50405
G1 X45.809 Y93.389 E8.55261
G1 X46.294 Y91.767 E8.58410
G1 X47.363 Y89.385 E8.63266
G1 X47.985 Y88.297 E8.65599
G1 X66.170 Y62.581 E9.24185
G1 X66.403 Y62.673 F6000.000
G1 X67.991 Y61.114 E9.28326 F1200.000
G1 X69.800 Y60.270 E9.32038
G1 X104.225 Y50.626 E9.98541
G1 X106.823 Y50.361 E10.03397
G1 X108.452 Y50.408 E10.06429
G1 X111.029 Y50.825 E10.11285 F1200.000
G1 X112.590 Y51.292 E10.14316
G1 X115.514 Y52.637 E10.20303
G1 X142.947 Y68.419 E10.79176
G1 X144.971 Y70.068 E10.84032
G1 X146.089 Y71.254 E10.87064
G1 X147.617 Y73.371 E10.91920
G1 X148.390 Y74.805 E10.94951
G1 X149.318 Y77.245 E10.99807
G1 X149.666 Y78.602 E11.02412
G1 X154.150 Y110.750 E11.62793
G1 X154.415 Y113.347 E11.67649
G1 X154.368 Y114.976 E11.70681
G1 X153.952 Y117.553 E11.75536
G1 X153.484 Y119.114 E11.78568
G1 X152.415 Y121.496 E11.83424
G1 X151.559 Y122.883 E11.86456
G1 X149.910 Y124.907 E11.91312
G1 X148.725 Y126.025 E11.94343
G1 X146.608 Y127.553 E11.99199
G1 X145.174 Y128.326 E12.02231
G1 X142.334 Y129.391 E12.07873
G1 X77.536 Y149.135 E13.33879
G1 X76.350 Y149.374 E13.36129
G1 X73.753 Y149.639 E13.40986
G1 X72.124 Y149.592 E13.44017
G1 X69.547 Y149.175 E13.48873
G1 X67.986 Y148.708 E13.51904
G1 X65.604 Y147.639 E13.56761
G1 X64.217 Y146.783 E13.59792
G1 X62.193 Y145.134 E13.64648
G1 X61.075 Y143.949 E13.67680
G1 X59.547 Y141.832 E13.72536
G1 X58.774 Y140.397 E13.75567
G1 X57.737 Y137.649 E13.81032
G1 X46.117 Y101.508 E14.51649
G1 X45.850 Y100.231 E14.54077
G1 X45.585 Y97.634 E14.58933
G1 X45.632 Y96.005 E14.61964
G1 X46.048 Y93.428 E14.66820
G1 X46.516 Y91.866 E14.69852
G1 X47.585 Y89.485 E14.74708
G1 X48.183 Y88.437 E14.76953
G1 X66.368 Y62.722 E15.35540
G1 F1860.000 E12.35540
G92 E0
G1 X64.347 Y100.166 F6000.000
G1 E3.10000 F1860.000
G1 X63.516 Y100.729 E3.11868 F1200.000
G1 X62.568 Y101.059 E3.13735
G1 X61.566 Y101.131 E3.15603
G1 X60.580 Y100.943 E3.17470
G1 X59.677 Y100.505 E3.19338
G1 X58.917 Y99.848 E3.21205
G1 X58.354 Y99.017 E3.23073
G1 X58.024 Y98.069 E3.24941
G1 X57.952 Y97.068 E3.26808
G1 X58.141 Y96.082 E3.28676
G1 X58.578 Y95.178 E3.30543
G1 X59.235 Y94.419 E3.32411
G1 X60.066 Y93.855 E3.34278
G1 X61.014 Y93.526 E3.36146
G1 X62.016 Y93.453 E3.38014
G1 X62.110 Y93.471 E3.38192
G1 X63.002 Y93.642 E3.39881 F1200.000
G1 X63.905 Y94.080 E3.41749
G1 X64.665 Y94.736 E3.43616
G1 X65.228 Y95.567 E3.45484
G1 X65.558 Y96.515 E3.47351
G1 X65.630 Y97.517 E3.49219
G1 X65.441 Y98.503 E3.51087
G1 X65.004 Y99.406 E3.52954
G1 X64.386 Y100.120 E3.54710
G1 X64.184 Y99.983 F6000.000
G1 X63.406 Y100.510 E3.56459 F1200.000
G1 X62.518 Y100.819 E3.58207
G1 X61.581 Y100.887 E3.59956
G1 X60.658 Y100.710 E3.61704
G1 X59.812 Y100.300 E3.63453
G1 X59.101 Y99.685 E3.65202
G1 X58.573 Y98.907 E3.66950
G1 X58.264 Y98.019 E3.68699
G1 X58.196 Y97.082 E3.70447
G1 X58.373 Y96.159 E3.72196
G1 X58.783 Y95.313 E3.73945
G1 X59.398 Y94.602 E3.75693
G1 X60.176 Y94.074 E3.77442
G1 X61.064 Y93.765 E3.79190
G1 X61.938 Y93.702 E3.80820
G1 X62.001 Y93.697 E3.80939 F1200.000
G1 X62.925 Y93.874 E3.82688
G1 X63.771 Y94.284 E3.84436
G1 X64.482 Y94.899 E3.86185
G1 X65.009 Y95.677 E3.87933
G1 X65.318 Y96.565 E3.89682
G1 X65.386 Y97.502 E3.91431
G1 X65.209 Y98.426 E3.93179
G1 X64.799 Y99.272 E3.94928
G1 X64.223 Y99.937 E3.96565
G1 F1860.000 E0.96565
G92 E0
G1 X61.924 Y93.639 F6000.000
G1 X67.690 Y104.839 F6000.000
G1 E3.10000 F1860.000
G1 X66.372 Y105.790 E3.13024 F1200.000
G1 X64.016 Y106.686 E3.17712
G1 X61.509 Y106.942 E3.22400
G1 X59.021 Y106.540 E3.27088
G1 X56.722 Y105.508 E3.31776
G1 X54.768 Y103.916 E3.36464
G1 X53.293 Y101.873 E3.41152
G1 X52.397 Y99.517 E3.45841
G1 X52.141 Y97.010 E3.50529
G1 X52.529 Y94.606 E3.55058
G1 X52.543 Y94.522 E3.55217
G1 X53.575 Y92.223 E3.59905
G1 X55.167 Y90.269 E3.64593
G1 X57.210 Y88.794 E3.69281
G1 X59.566 Y87.898 E3.73969
G1 X61.988 Y87.651 E3.78498
G1 X62.073 Y87.642 E3.78657 F1200.000
G1 X64.561 Y88.044 E3.83345
G1 X66.860 Y89.076 E3.88033
G1 X68.814 Y90.668 E3.92721
G1 X70.289 Y92.711 E3.97409
G1 X71.185 Y95.067 E4.02097
G1 X71.441 Y97.574 E4.06786
G1 X71.039 Y100.062 E4.11474
G1 X70.007 Y102.361 E4.16162
G1 X68.415 Y104.315 E4.20850
G1 X67.739 Y104.804 E4.22402
G1 X67.832 Y105.036 F6000.000
G1 X66.488 Y106.006 E4.25486 F1200.000
G1 X64.073 Y106.925 E4.30293
G1 X61.502 Y107.187 E4.35100
G1 X58.951 Y106.775 E4.39907
G1 X56.593 Y105.717 E4.44714
G1 X54.590 Y104.084 E4.49521
G1 X53.077 Y101.989 E4.54328
G1 X52.158 Y99.574 E4.59135
G1 X51.896 Y97.003 E4.63942
G1 X52.308 Y94.452 E4.68749
G1 X53.366 Y92.094 E4.73556
G1 X54.999 Y90.091 E4.78363
G1 X57.094 Y88.578 E4.83170
G1 X59.509 Y87.660 E4.87977
G1 X62.080 Y87.397 E4.92785
G1 X64.515 Y87.791 E4.97373
G1 X64.631 Y87.809 E4.97592 F1200.000
G1 X66.989 Y88.867 E5.02399
G1 X68.992 Y90.500 E5.07206
G1 X70.505 Y92.595 E5.12013
G1 X71.424 Y95.010 E5.16820
G1 X71.686 Y97.581 E5.21627
G1 X71.274 Y100.132 E5.26434
G1 X70.216 Y102.490 E5.31241
G1 X68.583 Y104.493 E5.36048
G1 X67.881 Y105.001 E5.37660
G1 F1860.000 E2.37660
G92 E0
G1 X64.615 Y87.852 F6000.000
G1 X64.846 Y88.343 F6000.000
G1 E3.10000 F1860.000
G1 X70.679 Y94.176 E3.25345 F1200.000
G1 X70.466 Y93.615 F6000.000
G1 X65.478 Y88.627 E3.38467 F1200.000
G1 X66.109 Y88.910 F6000.000
G1 X70.252 Y93.053 E3.49366 F1200.000
G1 X69.677 Y92.130 F6000.000
G1 X66.740 Y89.193 E3.57091 F1200.000
G1 F1860.000 E0.57091
G92 E0
G1 X68.546 Y90.651 F6000.000
G1 E3.10000 F1860.000
G1 X68.774 Y90.879 E3.10600 F1200.000
G1 F1860.000 E0.10600
G92 E0
G1 X70.893 Y94.738 F6000.000
G1 E3.10000 F1860.000
G1 X64.318 Y88.163 E3.27296 F1200.000
G1 X63.903 Y88.096 E3.28078
G1 X71.046 Y95.238 E3.46869
G1 X71.085 Y95.626 E3.47593
G1 X63.488 Y88.029 E3.67579
G1 X63.073 Y87.962 E3.68361
G1 X71.125 Y96.013 E3.89542
G1 X71.164 Y96.401 E3.90267
G1 X62.658 Y87.895 E4.12644
G1 X62.243 Y87.828 E4.13426
G1 X71.204 Y96.788 E4.36999
G1 X71.244 Y97.176 E4.37723
G1 X61.886 Y87.818 E4.62341
G1 X61.570 Y87.850 E4.62931
G1 X71.283 Y97.563 E4.88483
G1 X71.236 Y97.864 E4.89050
G1 X61.254 Y87.883 E5.15309
G1 X60.939 Y87.915 E5.15899
G1 X71.188 Y98.164 E5.42862
G1 X71.139 Y98.464 E5.43426
G1 X60.623 Y87.947 E5.71092
G1 X60.307 Y87.979 E5.71682
G1 X71.091 Y98.763 E6.00051
G1 X71.043 Y99.063 E6.00615
G1 X59.991 Y88.011 E6.29688
G1 X59.676 Y88.044 E6.30278
G1 X70.994 Y99.362 E6.60054
G1 X70.946 Y99.662 E6.60618
G1 X59.409 Y88.125 E6.90969
G1 X59.157 Y88.221 E6.91470
G1 X70.897 Y99.961 E7.22357
G1 X70.801 Y100.213 E7.22857
G1 X58.905 Y88.317 E7.54152
G1 X58.652 Y88.412 E7.54654
G1 X70.693 Y100.453 E7.86328
G1 X70.585 Y100.693 E7.86818
G1 X65.328 Y95.436 E8.00648
G1 X65.544 Y96.000 F6000.000
G1 X70.477 Y100.933 E8.13626 F1200.000
G1 X70.369 Y101.173 E8.14116
G1 X65.714 Y96.518 E8.26362
G1 X65.742 Y96.893 E8.27061
G1 X70.262 Y101.413 E8.38952
G1 X70.154 Y101.653 E8.39442
G1 X65.769 Y97.268 E8.50977
G1 X65.770 Y97.618 E8.51627
G1 X70.046 Y101.894 E8.62876
G1 X69.938 Y102.134 E8.63365
G1 X65.714 Y97.910 E8.74478
G1 X65.658 Y98.202 E8.75031
G1 X69.811 Y102.355 E8.85957
G1 X69.655 Y102.546 E8.86417
G1 X65.602 Y98.494 E8.97079
G1 X65.500 Y98.740 E8.97574
G1 X69.499 Y102.738 E9.08093
G1 X69.343 Y102.930 E9.08553
G1 X65.387 Y98.974 E9.18960
G1 X65.273 Y99.208 E9.19445
G1 X69.186 Y103.122 E9.29739
G1 X69.030 Y103.313 E9.30199
G1 X65.159 Y99.443 E9.40382
G1 X65.008 Y99.640 E9.40843
G1 X68.874 Y103.505 E9.51012
G1 X68.718 Y103.697 E9.51472
G1 X64.847 Y99.826 E9.61655
G1 X64.686 Y100.013 E9.62114
G1 X68.561 Y103.889 E9.72310
G1 X68.402 Y104.077 E9.72769
G1 X64.524 Y100.199 E9.82970
G1 X64.338 Y100.361 E9.83429
G1 X68.228 Y104.251 E9.93664
G1 X68.030 Y104.401 E9.94126
G1 X64.130 Y100.501 E10.04384
G1 X63.923 Y100.642 E10.04850
G1 X67.828 Y104.547 E10.15122
G1 X67.626 Y104.693 E10.15586
G1 X63.716 Y100.783 E10.25872
G1 X63.489 Y100.904 E10.26350
G1 X67.424 Y104.838 E10.36700
G1 X67.222 Y104.984 E10.37164
G1 X63.231 Y100.994 E10.47662
G1 X62.973 Y101.083 E10.48170
G1 X67.019 Y105.130 E10.58816
G1 X66.817 Y105.276 E10.59280
G1 X62.714 Y101.173 E10.70074
G1 X62.419 Y101.226 E10.70631
G1 X66.615 Y105.422 E10.81670
G1 X66.413 Y105.568 E10.82133
G1 X62.095 Y101.250 E10.93493
G1 X61.771 Y101.273 E10.94098
G1 X66.190 Y105.692 E11.05724
G1 X65.938 Y105.788 E11.06226
G1 X61.410 Y101.260 E11.18137
G1 X60.979 Y101.178 E11.18953
G1 X65.686 Y105.884 E11.31334
G1 X65.434 Y105.980 E11.31835
G1 X60.549 Y101.095 E11.44685
G1 X59.885 Y100.779 F6000.000
G1 X65.182 Y106.076 E11.58620 F1200.000
G1 X64.930 Y106.172 E11.59122
G1 X52.889 Y94.132 E11.90796
G1 X52.997 Y93.891 E11.91286
G1 X58.254 Y99.149 E12.05116
G1 X58.038 Y98.585 F6000.000
G1 X53.105 Y93.651 E12.18094 F1200.000
G1 X53.213 Y93.411 E12.18584
G1 X57.868 Y98.066 E12.30830
G1 X57.840 Y97.691 E12.31530
G1 X53.320 Y93.171 E12.43420
G1 X53.428 Y92.931 E12.43910
G1 X57.813 Y97.316 E12.55446
G1 X57.812 Y96.967 E12.56095
G1 X53.536 Y92.691 E12.67344
G1 X53.644 Y92.450 E12.67834
G1 X57.868 Y96.675 E12.78946
G1 X57.924 Y96.383 E12.79499
G1 X53.771 Y92.230 E12.90425
G1 X53.927 Y92.038 E12.90885
G1 X57.980 Y96.091 E13.01547
G1 X58.082 Y95.845 E13.02042
G1 X54.083 Y91.846 E13.12561
G1 X54.240 Y91.654 E13.13021
G1 X58.195 Y95.610 E13.23428
G1 X58.309 Y95.376 E13.23913
G1 X54.396 Y91.463 E13.34207
G1 X54.552 Y91.271 E13.34667
G1 X58.423 Y95.141 E13.44849
G1 X58.574 Y94.945 E13.45311
G1 X54.708 Y91.079 E13.55480
G1 X54.864 Y90.887 E13.55940
G1 X58.735 Y94.758 E13.66122
G1 X58.896 Y94.571 E13.66581
G1 X55.021 Y90.696 E13.76777
G1 X55.180 Y90.507 E13.77237
G1 X59.058 Y94.385 E13.87438
G1 X59.244 Y94.224 E13.87897
G1 X55.354 Y90.333 E13.98131
G1 X55.552 Y90.183 E13.98593
G1 X59.452 Y94.083 E14.08851
G1 X59.659 Y93.942 E14.09317
G1 X55.754 Y90.038 E14.19589
G1 X55.956 Y89.892 E14.20053
G1 X59.866 Y93.802 E14.30339
G1 X60.093 Y93.680 E14.30817
G1 X56.158 Y89.746 E14.41167
G1 X56.361 Y89.600 E14.41631
G1 X60.351 Y93.591 E14.52129
G1 X60.609 Y93.501 E14.52638
G1 X56.563 Y89.454 E14.63284
G1 X56.765 Y89.308 E14.63747
G1 X60.868 Y93.411 E14.74541
G1 X61.163 Y93.358 E14.75099
G1 X56.967 Y89.162 E14.86137
G1 X57.169 Y89.016 E14.86600
G1 X61.487 Y93.335 E14.97960
G1 X61.811 Y93.311 E14.98565
G1 X57.392 Y88.892 E15.10191
G1 X57.644 Y88.796 E15.10693
G1 X62.172 Y93.324 E15.22605
G1 X62.603 Y93.406 E15.23420
G1 X57.896 Y88.700 E15.35801
G1 X58.148 Y88.604 E15.36302
G1 X63.033 Y93.489 E15.49153
G1 X63.698 Y93.805 F6000.000
G1 X58.400 Y88.508 E15.63088 F1200.000
G1 F1860.000 E12.63088
G92 E0
G1 X52.781 Y94.372 F6000.000
G1 E3.10000 F1860.000
G1 X64.678 Y106.268 E3.41295 F1200.000
G1 X64.425 Y106.364 E3.41796
G1 X52.685 Y94.623 E3.72683
G1 X52.636 Y94.922 E3.73247
G1 X64.173 Y106.460 E4.03598
G1 X63.907 Y106.541 E4.04117
G1 X52.588 Y95.222 E4.33892
G1 X52.540 Y95.522 E4.34457
G1 X63.591 Y106.573 E4.63529
G1 X63.275 Y106.605 E4.64120
G1 X52.491 Y95.821 E4.92489
G1 X52.443 Y96.121 E4.93053
G1 X62.959 Y106.637 E5.20719
G1 X62.644 Y106.669 E5.21309
G1 X52.394 Y96.420 E5.48272
G1 X52.346 Y96.720 E5.48836
G1 X62.328 Y106.702 E5.75095
G1 X62.012 Y106.734 E5.75685
G1 X52.299 Y97.021 E6.01238
G1 X52.339 Y97.408 E6.01962
G1 X61.696 Y106.766 E6.26580
G1 X61.339 Y106.757 E6.27245
G1 X52.378 Y97.796 E6.50818
G1 X52.418 Y98.183 E6.51542
G1 X60.924 Y106.690 E6.73920
G1 X60.509 Y106.622 E6.74701
G1 X52.457 Y98.571 E6.95883
G1 X52.497 Y98.958 E6.96608
G1 X60.094 Y106.555 E7.16594
G1 X59.679 Y106.488 E7.17376
G1 X52.536 Y99.346 E7.36166
G1 X52.689 Y99.846 E7.37140
G1 X59.264 Y106.421 E7.54437
G1 X58.736 Y106.241 F6000.000
G1 X52.903 Y100.408 E7.69782 F1200.000
G1 X53.116 Y100.970 F6000.000
G1 X58.104 Y105.958 E7.82904 F1200.000
G1 X57.473 Y105.674 F6000.000
G1 X53.330 Y101.531 E7.93804 F1200.000
G1 X53.905 Y102.454 F6000.000
G1 X56.842 Y105.391 E8.01529 F1200.000
G1 F1860.000 E5.01529
G92 E0
G1 X55.037 Y103.934 F6000.000
G1 E3.10000 F1860.000
G1 X54.809 Y103.706 E3.10600 F1200.000
G1 F1860.000 E0.10600
G92 E0
G1 X75.968 Y136.306 F6000.000
G1 E3.10000 F1860.000
G1 X75.137 Y136.870 E3.11868 F1200.000
G1 X74.188 Y137.199 E3.13735
G1 X73.187 Y137.272 E3.15603
G1 X72.201 Y137.083 E3.17470
G1 X71.297 Y136.646 E3.19338
G1 X70.538 Y135.989 E3.21205
G1 X69.974 Y135.158 E3.23073
G1 X69.645 Y134.210 E3.24941
G1 X69.572 Y133.208 E3.26808
G1 X69.761 Y132.222 E3.28676
G1 X70.199 Y131.319 E3.30543
G1 X70.855 Y130.559 E3.32411
G1 X71.686 Y129.996 E3.34278
G1 X72.635 Y129.666 E3.36146
G1 X73.636 Y129.594 E3.38014
G1 X73.730 Y129.612 E3.38192
G1 X74.622 Y129.782 E3.39881 F1200.000
G1 X75.526 Y130.220 E3.41749
G1 X76.285 Y130.877 E3.43616
G1 X76.849 Y131.708 E3.45484
G1 X77.178 Y132.656 E3.47351
G1 X77.251 Y133.657 E3.49219
G1 X77.062 Y134.643 E3.51087
G1 X76.624 Y135.547 E3.52954
G1 X76.007 Y136.261 E3.54710
G1 X75.805 Y136.123 F6000.000
G1 X75.027 Y136.651 E3.56459 F1200.000
G1 X74.139 Y136.959 E3.58207
G1 X73.201 Y137.028 E3.59956
G1 X72.278 Y136.851 E3.61704
G1 X71.432 Y136.441 E3.63453
G1 X70.721 Y135.826 E3.65202
G1 X70.193 Y135.048 E3.66950
G1 X69.885 Y134.160 E3.68699
G1 X69.817 Y133.223 E3.70447
G1 X69.994 Y132.299 E3.72196
G1 X70.404 Y131.453 E3.73945
G1 X71.018 Y130.742 E3.75693
G1 X71.796 Y130.215 E3.77442
G1 X72.684 Y129.906 E3.79190
G1 X73.558 Y129.843 E3.80820
G1 X73.622 Y129.838 E3.80939 F1200.000
G1 X74.545 Y130.015 E3.82688
G1 X75.391 Y130.425 E3.84436
G1 X76.102 Y131.040 E3.86185
G1 X76.630 Y131.818 E3.87933
G1 X76.938 Y132.706 E3.89682
G1 X77.006 Y133.643 E3.91431
G1 X76.829 Y134.566 E3.93179
G1 X76.419 Y135.412 E3.94928
G1 X75.844 Y136.078 E3.96565
G1 F1860.000 E0.96565
G92 E0
G1 X73.545 Y129.780 F6000.000
G1 X79.310 Y140.979 F6000.000
G1 E3.10000 F1860.000
G1 X77.992 Y141.931 E3.13024 F1200.000
G1 X75.637 Y142.827 E3.17712
G1 X73.130 Y143.083 E3.22400
G1 X70.642 Y142.681 E3.27088
G1 X68.342 Y141.649 E3.31776
G1 X66.389 Y140.057 E3.36464
G1 X64.913 Y138.014 E3.41152
G1 X64.017 Y135.658 E3.45841
G1 X63.762 Y133.151 E3.50529
G1 X64.150 Y130.747 E3.55058
G1 X64.163 Y130.663 E3.55217
G1 X65.195 Y128.364 E3.59905
G1 X66.787 Y126.410 E3.64593
G1 X68.831 Y124.935 E3.69281
G1 X71.186 Y124.039 E3.73969
G1 X73.609 Y123.792 E3.78498
G1 X73.693 Y123.783 E3.78657 F1200.000
G1 X76.181 Y124.185 E3.83345
G1 X78.481 Y125.217 E3.88033
G1 X80.435 Y126.809 E3.92721
G1 X81.910 Y128.852 E3.97409
