; generated by Slic3r 1.1.7 on 2014-12-26 at 18:17:53

; perimeters extrusion width = 0.40mm
; infill extrusion width = 0.67mm
; solid infill extrusion width = 0.67mm
; top infill extrusion width = 0.67mm
; support material extrusion width = 0.40mm

G21 ; set units to millimeters
M190 S110 ; wait for bed temperature to be reached
M104 S220 ; set temperature
G28 ; home all axes Start of G Code Slic3r
 
M109 S220 ; wait for temperature to be reached
G90 ; use absolute coordinates
G92 E0
M82 ; use absolute distances for extrusion
M106 S127
G1 F1860.000 E-3.00000
G92 E0
G1 Z0.200 F6000.000
G1 X57.978 Y48.643 F6000.000
G1 E3.10000 F1860.000
G1 X59.209 Y47.482 E3.13186 F1200.000
G1 X61.326 Y45.954 E3.18099
G1 X62.816 Y45.150 E3.21285
G1 X65.256 Y44.222 E3.26198
G1 X66.904 Y43.832 E3.29384
G1 X69.501 Y43.567 E3.34297
G1 X70.743 Y43.560 E3.36634
G1 X117.447 Y47.795 E4.24886
G1 X120.024 Y48.212 E4.29799 F1200.000
G1 X121.646 Y48.697 E4.32985
G1 X124.028 Y49.766 E4.37898
G1 X125.469 Y50.655 E4.41084
G1 X127.492 Y52.304 E4.45997
G1 X128.654 Y53.536 E4.49183
G1 X130.182 Y55.653 E4.54096
G1 X130.986 Y57.143 E4.57282
G1 X146.200 Y97.623 E5.38662
G1 X146.614 Y99.903 E5.43024
G1 X146.614 Y107.403 E5.57138
G1 X146.338 Y109.277 E5.60702
G1 X140.573 Y128.197 E5.97923
G1 X139.504 Y130.578 E6.02836
G1 X138.615 Y132.019 E6.06022
G1 X136.966 Y134.043 E6.10935
G1 X135.734 Y135.205 E6.14121
G1 X133.618 Y136.733 E6.19034
G1 X132.413 Y137.420 E6.21643
G1 X92.411 Y154.850 E7.03758
G1 X89.971 Y155.778 E7.08671
G1 X88.323 Y156.168 E7.11857
G1 X85.726 Y156.433 E7.16770
G1 X84.034 Y156.384 E7.19956
G1 X83.905 Y156.363 E7.20202
G1 X81.457 Y155.967 E7.24869
G1 X79.835 Y155.482 E7.28055
G1 X77.453 Y154.413 E7.32968
G1 X76.012 Y153.524 E7.36154
G1 X73.988 Y151.875 E7.41067
G1 X72.827 Y150.643 E7.44253
G1 X71.298 Y148.526 E7.49166
G1 X70.495 Y147.036 E7.52352
G1 X69.613 Y144.718 E7.57019
G1 X69.361 Y143.957 E7.58527
G1 X57.266 Y98.172 E8.47644
G1 X53.419 Y60.380 E9.19133
G1 X53.469 Y58.689 E9.22316
G1 X53.885 Y56.112 E9.27228
G1 X54.371 Y54.490 E9.30415
G1 X55.440 Y52.108 E9.35327
G1 X56.329 Y50.667 E9.38513
G1 X57.940 Y48.690 E9.43313
G1 X58.166 Y48.797 F6000.000
G1 X59.352 Y47.679 E9.46380 F1200.000
G1 X61.468 Y46.151 E9.51293
G1 X62.903 Y45.377 E9.54360
G1 X65.343 Y44.449 E9.59273
G1 X66.928 Y44.074 E9.62339
G1 X69.526 Y43.809 E9.67252
G1 X70.721 Y43.802 E9.69502
G1 X117.408 Y48.035 E10.57722
G1 X119.986 Y48.451 E10.62635 F1200.000
G1 X121.547 Y48.919 E10.65702
G1 X123.928 Y49.988 E10.70614
G1 X125.315 Y50.844 E10.73681
G1 X127.339 Y52.493 E10.78594
G1 X128.457 Y53.678 E10.81661
G1 X129.985 Y55.795 E10.86574
G1 X130.759 Y57.230 E10.89640
G1 X145.973 Y97.708 E11.71019
G1 X146.371 Y99.903 E11.75217
G1 X146.371 Y107.403 E11.89331
G1 X146.105 Y109.206 E11.92761
G1 X140.351 Y128.097 E12.29924
G1 X139.282 Y130.479 E12.34837
G1 X138.426 Y131.866 E12.37904
G1 X136.777 Y133.890 E12.42816
G1 X135.592 Y135.008 E12.45883
G1 X133.475 Y136.536 E12.50796
G1 X132.316 Y137.197 E12.53308
G1 X92.324 Y154.623 E13.35401
G1 X89.884 Y155.551 E13.40313
G1 X88.298 Y155.927 E13.43381
G1 X85.701 Y156.191 E13.48293
G1 X84.072 Y156.144 E13.51360
G1 X83.943 Y156.123 E13.51606
G1 X81.495 Y155.728 E13.56273
G1 X79.934 Y155.260 E13.59339
G1 X77.552 Y154.191 E13.64252
G1 X76.165 Y153.335 E13.67319
G1 X74.142 Y151.686 E13.72232
G1 X73.023 Y150.501 E13.75299
G1 X71.495 Y148.384 E13.80212
G1 X70.722 Y146.950 E13.83278
G1 X69.840 Y144.632 E13.87945
G1 X69.596 Y143.895 E13.89406
G1 X57.508 Y98.148 E14.78452
G1 X53.661 Y60.355 E15.49940
G1 X53.708 Y58.728 E15.53004
G1 X54.125 Y56.150 E15.57916
G1 X54.592 Y54.589 E15.60983
G1 X55.661 Y52.208 E15.65896
G1 X56.517 Y50.821 E15.68963
G1 X58.128 Y48.843 E15.73763
G1 F1860.000 E12.73763
G92 E0
G1 X127.632 Y125.545 F6000.000
G1 E3.10000 F1860.000
G1 X126.801 Y126.109 E3.11889 F1200.000
G1 X125.853 Y126.438 E3.13779
G1 X124.852 Y126.511 E3.15668
G1 X123.866 Y126.322 E3.17557
G1 X122.962 Y125.884 E3.19447
G1 X122.203 Y125.228 E3.21336
G1 X121.639 Y124.397 E3.23225
G1 X121.310 Y123.448 E3.25115
G1 X121.237 Y122.447 E3.27004
G1 X121.426 Y121.461 E3.28893
G1 X121.864 Y120.558 E3.30783
G1 X122.520 Y119.798 E3.32672
G1 X123.351 Y119.234 E3.34562
G1 X124.299 Y118.905 E3.36451
G1 X125.301 Y118.832 E3.38340
G1 X125.395 Y118.850 E3.38521
G1 X126.287 Y119.021 E3.40230 F1200.000
G1 X127.190 Y119.459 E3.42119
G1 X127.950 Y120.116 E3.44008
G1 X128.513 Y120.946 E3.45898
G1 X128.843 Y121.895 E3.47787
G1 X128.916 Y122.896 E3.49676
G1 X128.727 Y123.882 E3.51566
G1 X128.289 Y124.786 E3.53455
G1 X127.671 Y125.500 E3.55232
G1 X127.469 Y125.362 F6000.000
G1 X126.691 Y125.890 E3.57001 F1200.000
G1 X125.803 Y126.198 E3.58769
G1 X124.866 Y126.266 E3.60539
G1 X123.943 Y126.089 E3.62307
G1 X123.097 Y125.680 E3.64076
G1 X122.386 Y125.065 E3.65845
G1 X121.858 Y124.287 E3.67614
G1 X121.550 Y123.399 E3.69383
G1 X121.482 Y122.461 E3.71152
G1 X121.658 Y121.538 E3.72921
G1 X122.068 Y120.692 E3.74690
G1 X122.683 Y119.981 E3.76459
G1 X123.461 Y119.453 E3.78228
G1 X124.349 Y119.145 E3.79997
G1 X125.223 Y119.082 E3.81646
G1 X125.286 Y119.077 E3.81766 F1200.000
G1 X126.210 Y119.254 E3.83535
G1 X127.056 Y119.664 E3.85304
G1 X127.767 Y120.278 E3.87073
G1 X128.294 Y121.056 E3.88842
G1 X128.603 Y121.944 E3.90611
G1 X128.671 Y122.882 E3.92380
G1 X128.494 Y123.805 E3.94149
G1 X128.084 Y124.651 E3.95918
G1 X127.509 Y125.317 E3.97574
G1 F1860.000 E0.97574
G92 E0
G1 X125.210 Y119.019 F6000.000
G1 X130.975 Y130.218 F6000.000
G1 E3.10000 F1860.000
G1 X129.657 Y131.170 E3.13059 F1200.000
G1 X127.301 Y132.066 E3.17802
G1 X124.794 Y132.322 E3.22545
G1 X122.306 Y131.920 E3.27287
G1 X120.007 Y130.888 E3.32030
G1 X118.053 Y129.296 E3.36773
G1 X116.578 Y127.252 E3.41516
G1 X115.682 Y124.897 E3.46258
G1 X115.426 Y122.390 E3.51001
G1 X115.814 Y119.986 E3.55583
G1 X115.828 Y119.902 E3.55744
G1 X116.860 Y117.602 E3.60487
G1 X118.452 Y115.649 E3.65230
G1 X120.495 Y114.173 E3.69972
G1 X122.851 Y113.277 E3.74715
G1 X125.273 Y113.030 E3.79297
G1 X125.358 Y113.022 E3.79458 F1200.000
G1 X127.846 Y113.423 E3.84200
G1 X130.145 Y114.456 E3.88943
G1 X132.099 Y116.047 E3.93686
G1 X133.574 Y118.091 E3.98429
G1 X134.470 Y120.446 E4.03171
G1 X134.726 Y122.954 E4.07914
G1 X134.324 Y125.442 E4.12657
G1 X133.292 Y127.741 E4.17400
G1 X131.700 Y129.695 E4.22142
G1 X131.024 Y130.183 E4.23713
G1 X131.117 Y130.415 F6000.000
G1 X129.773 Y131.385 E4.26832 F1200.000
G1 X127.358 Y132.304 E4.31696
G1 X124.787 Y132.567 E4.36559
G1 X122.236 Y132.155 E4.41422
G1 X119.878 Y131.096 E4.46285
G1 X117.875 Y129.464 E4.51148
G1 X116.362 Y127.369 E4.56011
G1 X115.444 Y124.953 E4.60874
G1 X115.181 Y122.383 E4.65737
G1 X115.593 Y119.831 E4.70601
G1 X116.652 Y117.474 E4.75464
G1 X118.284 Y115.470 E4.80327
G1 X120.379 Y113.958 E4.85190
G1 X122.794 Y113.039 E4.90053
G1 X125.365 Y112.777 E4.94916
G1 X127.801 Y113.170 E4.99558
G1 X127.916 Y113.189 E4.99779 F1200.000
G1 X130.274 Y114.247 E5.04642
G1 X132.277 Y115.879 E5.09505
G1 X133.790 Y117.975 E5.14369
G1 X134.709 Y120.390 E5.19232
G1 X134.971 Y122.961 E5.24095
G1 X134.559 Y125.512 E5.28958
G1 X133.501 Y127.870 E5.33821
G1 X131.869 Y129.873 E5.38684
G1 X131.166 Y130.380 E5.40315
G1 F1860.000 E2.40315
G92 E0
G1 X127.901 Y113.231 F6000.000
G1 X128.131 Y113.723 F6000.000
G1 E3.10000 F1860.000
G1 X133.965 Y119.556 E3.25524 F1200.000
G1 X133.751 Y118.994 F6000.000
G1 X128.763 Y114.006 E3.38799 F1200.000
G1 X129.394 Y114.289 F6000.000
G1 X133.537 Y118.433 E3.49825 F1200.000
G1 X132.962 Y117.509 F6000.000
G1 X130.026 Y114.573 E3.57640 F1200.000
G1 F1860.000 E0.57640
G92 E0
G1 X131.831 Y116.030 F6000.000
G1 E3.10000 F1860.000
G1 X132.059 Y116.258 E3.10607 F1200.000
G1 F1860.000 E0.10607
G92 E0
G1 X134.178 Y120.117 F6000.000
G1 E3.10000 F1860.000
G1 X127.603 Y113.542 E3.27498 F1200.000
G1 X127.188 Y113.475 E3.28289
G1 X134.331 Y120.618 E3.47298
G1 X134.371 Y121.005 E3.48031
G1 X126.773 Y113.408 E3.68250
G1 X126.358 Y113.341 E3.69041
G1 X134.410 Y121.393 E3.90470
G1 X134.450 Y121.780 E3.91203
G1 X125.943 Y113.274 E4.13841
G1 X125.528 Y113.207 E4.14632
G1 X134.489 Y122.168 E4.38480
G1 X134.529 Y122.555 E4.39213
G1 X125.171 Y113.198 E4.64117
G1 X124.855 Y113.230 E4.64715
G1 X134.568 Y122.943 E4.90565
G1 X134.521 Y123.244 E4.91138
G1 X124.539 Y113.262 E5.17703
G1 X124.224 Y113.294 E5.18300
G1 X134.473 Y123.543 E5.45577
G1 X134.424 Y123.843 E5.46148
G1 X123.908 Y113.327 E5.74136
G1 X123.592 Y113.359 E5.74734
G1 X134.376 Y124.143 E6.03433
G1 X134.328 Y124.442 E6.04005
G1 X123.276 Y113.391 E6.33416
G1 X122.961 Y113.423 E6.34013
G1 X134.279 Y124.742 E6.64136
G1 X134.231 Y125.041 E6.64707
G1 X122.694 Y113.504 E6.95411
G1 X122.442 Y113.600 E6.95919
G1 X134.183 Y125.341 E7.27165
G1 X134.086 Y125.592 E7.27672
G1 X122.190 Y113.696 E7.59332
G1 X121.938 Y113.792 E7.59839
G1 X133.978 Y125.832 E7.91883
G1 X133.870 Y126.072 E7.92378
G1 X128.613 Y120.815 E8.06369
G1 X128.829 Y121.379 F6000.000
G1 X133.762 Y126.313 E8.19499 F1200.000
G1 X133.655 Y126.553 E8.19994
G1 X129.000 Y121.898 E8.32383
G1 X129.027 Y122.273 E8.33091
G1 X133.547 Y126.793 E8.45121
G1 X133.439 Y127.033 E8.45616
G1 X129.054 Y122.648 E8.57286
G1 X129.055 Y122.997 E8.57943
G1 X133.331 Y127.273 E8.69323
G1 X133.223 Y127.513 E8.69818
G1 X128.999 Y123.289 E8.81061
G1 X128.943 Y123.581 E8.81620
G1 X133.096 Y127.734 E8.92673
G1 X132.940 Y127.926 E8.93139
G1 X128.887 Y123.873 E9.03925
G1 X128.785 Y124.119 E9.04426
G1 X132.784 Y128.118 E9.15068
G1 X132.628 Y128.309 E9.15533
G1 X128.672 Y124.353 E9.26062
G1 X128.558 Y124.588 E9.26552
G1 X132.472 Y128.501 E9.36966
G1 X132.315 Y128.693 E9.37432
G1 X128.445 Y124.822 E9.47733
G1 X128.294 Y125.019 E9.48200
G1 X132.159 Y128.885 E9.58488
G1 X132.003 Y129.076 E9.58953
G1 X128.132 Y125.206 E9.69254
G1 X127.971 Y125.392 E9.69719
G1 X131.847 Y129.268 E9.80034
G1 X131.687 Y129.457 E9.80498
G1 X127.809 Y125.579 E9.90818
G1 X127.623 Y125.740 E9.91283
G1 X131.513 Y129.631 E10.01637
G1 X131.315 Y129.780 E10.02104
G1 X127.416 Y125.881 E10.12482
G1 X127.208 Y126.021 E10.12953
G1 X131.113 Y129.926 E10.23345
G1 X130.911 Y130.072 E10.23814
G1 X127.001 Y126.162 E10.34220
G1 X126.774 Y126.284 E10.34704
G1 X130.709 Y130.218 E10.45175
G1 X130.507 Y130.364 E10.45644
G1 X126.516 Y126.373 E10.56264
G1 X126.258 Y126.463 E10.56779
G1 X130.305 Y130.510 E10.67549
G1 X130.103 Y130.656 E10.68018
G1 X126.000 Y126.553 E10.78938
G1 X125.705 Y126.606 E10.79502
G1 X129.901 Y130.801 E10.90669
G1 X129.698 Y130.947 E10.91138
G1 X125.380 Y126.629 E11.02630
G1 X125.056 Y126.653 E11.03242
G1 X129.475 Y131.072 E11.15004
G1 X129.223 Y131.168 E11.15511
G1 X124.695 Y126.640 E11.27562
G1 X124.265 Y126.557 E11.28386
G1 X128.971 Y131.264 E11.40912
G1 X128.719 Y131.360 E11.41419
G1 X123.834 Y126.475 E11.54419
G1 X123.170 Y126.158 F6000.000
G1 X128.467 Y131.456 E11.68517 F1200.000
G1 X128.215 Y131.551 E11.69024
G1 X116.174 Y119.511 E12.01068
G1 X116.282 Y119.271 E12.01563
G1 X121.539 Y124.528 E12.15555
G1 X121.324 Y123.964 F6000.000
G1 X116.390 Y119.031 E12.28684 F1200.000
G1 X116.498 Y118.791 E12.29180
G1 X121.153 Y123.446 E12.41568
G1 X121.126 Y123.070 E12.42276
G1 X116.606 Y118.550 E12.54306
G1 X116.713 Y118.310 E12.54801
G1 X121.098 Y122.695 E12.66471
G1 X121.097 Y122.346 E12.67128
G1 X116.821 Y118.070 E12.78508
G1 X116.929 Y117.830 E12.79004
G1 X121.153 Y122.054 E12.90246
G1 X121.209 Y121.762 E12.90805
G1 X117.056 Y117.609 E13.01858
G1 X117.212 Y117.417 E13.02324
G1 X121.265 Y121.470 E13.13110
G1 X121.367 Y121.224 E13.13611
G1 X117.369 Y117.226 E13.24253
G1 X117.525 Y117.034 E13.24718
G1 X121.481 Y120.990 E13.35246
G1 X121.594 Y120.755 E13.35736
G1 X117.681 Y116.842 E13.46151
G1 X117.837 Y116.650 E13.46617
G1 X121.708 Y120.521 E13.56918
G1 X121.859 Y120.324 E13.57385
G1 X117.993 Y116.459 E13.67672
G1 X118.150 Y116.267 E13.68137
G1 X122.020 Y120.138 E13.78439
G1 X122.182 Y119.951 E13.78903
G1 X118.306 Y116.075 E13.89218
G1 X118.465 Y115.887 E13.89682
G1 X122.343 Y119.764 E14.00002
G1 X122.530 Y119.603 E14.00467
G1 X118.639 Y115.713 E14.10821
G1 X118.837 Y115.563 E14.11288
G1 X122.737 Y119.462 E14.21666
G1 X122.944 Y119.322 E14.22137
G1 X119.039 Y115.417 E14.32529
G1 X119.242 Y115.271 E14.32998
G1 X123.152 Y119.181 E14.43404
G1 X123.378 Y119.060 E14.43888
G1 X119.444 Y115.125 E14.54359
G1 X119.646 Y114.979 E14.54828
G1 X123.636 Y118.970 E14.65448
G1 X123.895 Y118.880 E14.65963
G1 X119.848 Y114.834 E14.76733
G1 X120.050 Y114.688 E14.77202
G1 X124.153 Y118.791 E14.88122
G1 X124.448 Y118.738 E14.88686
G1 X120.252 Y114.542 E14.99853
G1 X120.454 Y114.396 E15.00322
G1 X124.772 Y118.714 E15.11814
G1 X125.097 Y118.691 E15.12426
G1 X120.677 Y114.271 E15.24188
G1 X120.929 Y114.175 E15.24695
G1 X125.457 Y118.703 E15.36746
G1 X125.888 Y118.786 E15.37570
G1 X121.181 Y114.080 E15.50096
G1 X121.434 Y113.984 E15.50603
G1 X126.318 Y118.868 E15.63603
G1 X126.983 Y119.185 F6000.000
G1 X121.686 Y113.888 E15.77701 F1200.000
G1 F1860.000 E12.77701
G92 E0
G1 X116.067 Y119.751 F6000.000
G1 E3.10000 F1860.000
G1 X127.963 Y131.647 E3.41660 F1200.000
G1 X127.711 Y131.743 E3.42167
G1 X115.970 Y120.002 E3.73414
G1 X115.922 Y120.302 E3.73985
G1 X127.459 Y131.839 E4.04689
G1 X127.192 Y131.920 E4.05214
G1 X115.873 Y120.602 E4.35337
G1 X115.825 Y120.901 E4.35908
G1 X126.876 Y131.952 E4.65320
G1 X126.560 Y131.985 E4.65917
G1 X115.776 Y121.201 E4.94617
G1 X115.728 Y121.500 E4.95188
G1 X126.245 Y132.017 E5.23176
G1 X125.929 Y132.049 E5.23773
G1 X115.680 Y121.800 E5.51050
G1 X115.631 Y122.099 E5.51621
G1 X125.613 Y132.081 E5.78186
G1 X125.297 Y132.113 E5.78784
G1 X115.584 Y122.400 E6.04634
G1 X115.624 Y122.788 E6.05367
G1 X124.982 Y132.146 E6.30271
G1 X124.624 Y132.136 E6.30944
G1 X115.663 Y123.175 E6.54792
G1 X115.703 Y123.563 E6.55525
G1 X124.209 Y132.069 E6.78163
G1 X123.794 Y132.002 E6.78955
G1 X115.742 Y123.950 E7.00383
G1 X115.782 Y124.338 E7.01116
G1 X123.379 Y131.935 E7.21335
G1 X122.964 Y131.868 E7.22126
G1 X115.821 Y124.725 E7.41136
G1 X115.974 Y125.226 E7.42121
G1 X122.549 Y131.801 E7.59619
G1 X122.021 Y131.621 F6000.000
G1 X116.188 Y125.788 E7.75144 F1200.000
G1 X116.401 Y126.349 F6000.000
G1 X121.390 Y131.337 E7.88419 F1200.000
G1 X120.758 Y131.054 F6000.000
G1 X116.615 Y126.911 E7.99446 F1200.000
G1 X117.190 Y127.834 F6000.000
G1 X120.127 Y130.771 E8.07261 F1200.000
G1 F1860.000 E5.07261
G92 E0
G1 X118.322 Y129.313 F6000.000
G1 E3.10000 F1860.000
G1 X118.094 Y129.085 E3.10607 F1200.000
G1 F1860.000 E0.10607
G92 E0
G1 X87.916 Y142.859 F6000.000
G1 E3.10000 F1860.000
G1 X87.085 Y143.422 E3.11889 F1200.000
G1 X86.137 Y143.752 E3.13779
G1 X85.135 Y143.824 E3.15668
G1 X84.149 Y143.635 E3.17557
G1 X83.246 Y143.198 E3.19447
G1 X82.486 Y142.541 E3.21336
G1 X81.923 Y141.710 E3.23225
G1 X81.593 Y140.762 E3.25115
G1 X81.520 Y139.761 E3.27004
G1 X81.709 Y138.774 E3.28893
G1 X82.147 Y137.871 E3.30783
G1 X82.804 Y137.111 E3.32672
G1 X83.635 Y136.548 E3.34562
G1 X84.583 Y136.218 E3.36451
G1 X85.584 Y136.146 E3.38340
G1 X85.679 Y136.164 E3.38521
G1 X86.570 Y136.335 E3.40230 F1200.000
G1 X87.474 Y136.772 E3.42119
G1 X88.233 Y137.429 E3.44008
G1 X88.797 Y138.260 E3.45898
G1 X89.126 Y139.208 E3.47787
G1 X89.199 Y140.210 E3.49676
G1 X89.010 Y141.196 E3.51566
G1 X88.572 Y142.099 E3.53455
G1 X87.955 Y142.813 E3.55232
G1 X87.753 Y142.676 F6000.000
G1 X86.975 Y143.203 E3.57001 F1200.000
G1 X86.087 Y143.512 E3.58769
G1 X85.150 Y143.580 E3.60539
G1 X84.226 Y143.403 E3.62307
G1 X83.380 Y142.993 E3.64076
G1 X82.669 Y142.378 E3.65845
G1 X82.142 Y141.600 E3.67614
G1 X81.833 Y140.712 E3.69383
G1 X81.765 Y139.775 E3.71152
G1 X81.942 Y138.852 E3.72921
G1 X82.352 Y138.006 E3.74690
G1 X82.967 Y137.295 E3.76459
G1 X83.745 Y136.767 E3.78228
G1 X84.633 Y136.458 E3.79997
G1 X85.506 Y136.395 E3.81646
G1 X85.570 Y136.390 E3.81766 F1200.000
G1 X86.493 Y136.567 E3.83535
G1 X87.339 Y136.977 E3.85304
G1 X88.050 Y137.592 E3.87073
G1 X88.578 Y138.370 E3.88842
G1 X88.886 Y139.258 E3.90611
G1 X88.955 Y140.195 E3.92380
G1 X88.778 Y141.119 E3.94149
G1 X88.368 Y141.965 E3.95918
G1 X87.792 Y142.630 E3.97574
G1 F1860.000 E0.97574
G92 E0
G1 X85.493 Y136.332 F6000.000
G1 X91.259 Y147.532 F6000.000
G1 E3.10000 F1860.000
