; generated by Slic3r 1.1.7 on 2014-12-24 at 21:56:33

; perimeters extrusion width = 0.40mm
; infill extrusion width = 0.67mm
; solid infill extrusion width = 0.67mm
; top infill extrusion width = 0.67mm
; support material extrusion width = 0.40mm

G21 ; set units to millimeters
M190 S70 ; wait for bed temperature to be reached
M104 S215 ; set temperature
G28 ; home all axes Start of G Code Slic3r
 
M109 S215 ; wait for temperature to be reached
G90 ; use absolute coordinates
G92 E0
M82 ; use absolute distances for extrusion
M106 S127
G1 F1860.000 E-3.00000
G92 E0
G1 Z0.200 F6000.000
G1 X75.036 Y75.378 F6000.000
G1 E3.10000 F1860.000
G1 X89.200 Y61.278 E3.47177 F1200.000
G1 X91.316 Y59.750 E3.52033
G1 X92.863 Y58.917 E3.55300
G1 X95.303 Y57.989 E3.60156
G1 X97.012 Y57.584 E3.63424
G1 X99.479 Y57.332 E3.68037
G1 X99.609 Y57.319 E3.68280
G1 X101.365 Y57.370 E3.71547
G1 X103.942 Y57.786 E3.76403 F1200.000
G1 X105.625 Y58.290 E3.79671
G1 X108.006 Y59.359 E3.84527
G1 X109.501 Y60.282 E3.87794
G1 X112.033 Y62.389 E3.93921
G1 X138.722 Y89.200 E4.64293
G1 X140.250 Y91.317 E4.69149
G1 X141.083 Y92.863 E4.72416
G1 X142.011 Y95.303 E4.77272
G1 X142.416 Y97.012 E4.80540
G1 X142.681 Y99.609 E4.85396
G1 X142.630 Y101.365 E4.88663
G1 X142.214 Y103.942 E4.93519
G1 X141.710 Y105.625 E4.96787
G1 X140.641 Y108.006 E5.01643
G1 X139.718 Y109.501 E5.04910
G1 X137.611 Y112.033 E5.11037
G1 X110.800 Y138.722 E5.81408
G1 X108.683 Y140.250 E5.86264
G1 X107.137 Y141.083 E5.89532
G1 X104.697 Y142.011 E5.94388
G1 X102.988 Y142.416 E5.97656
G1 X99.708 Y142.716 E6.03783
G1 X72.644 Y142.630 E6.54127
G1 X70.067 Y142.214 E6.58983
G1 X68.384 Y141.710 E6.62250
G1 X66.002 Y140.641 E6.67107
G1 X64.507 Y139.718 E6.70374
G1 X62.484 Y138.069 E6.75230
G1 X61.278 Y136.792 E6.78498
G1 X59.750 Y134.675 E6.83354
G1 X58.917 Y133.129 E6.86621
G1 X57.989 Y130.689 E6.91477
G1 X57.584 Y128.979 E6.94745
G1 X57.284 Y125.699 E7.00872
G1 X57.370 Y98.635 E7.51216
G1 X57.786 Y96.058 E7.56072
G1 X58.290 Y94.375 E7.59340
G1 X59.359 Y91.994 E7.64196
G1 X60.282 Y90.499 E7.67463
G1 X62.389 Y87.967 E7.73590
G1 X74.993 Y75.420 E8.06673
G1 X75.206 Y75.549 F6000.000
G1 X89.342 Y61.475 E8.43779 F1200.000
G1 X91.459 Y59.947 E8.48635
G1 X92.949 Y59.144 E8.51784
G1 X95.389 Y58.216 E8.56640
G1 X97.037 Y57.825 E8.59790
G1 X99.504 Y57.574 E8.64403
G1 X99.634 Y57.560 E8.64646
G1 X101.326 Y57.610 E8.67795
G1 X103.903 Y58.026 E8.72652 F1200.000
G1 X105.525 Y58.512 E8.75801
G1 X107.907 Y59.581 E8.80657
G1 X109.348 Y60.470 E8.83806
G1 X111.861 Y62.561 E8.89888
G1 X138.525 Y89.342 E9.60187
G1 X140.053 Y91.459 E9.65043
G1 X140.856 Y92.949 E9.68192
G1 X140.903 Y93.071 E9.68435
G1 X141.784 Y95.389 E9.73049
G1 X142.175 Y97.037 E9.76198
G1 X142.440 Y99.634 E9.81054
G1 X142.390 Y101.326 E9.84204
G1 X141.974 Y103.903 E9.89060
G1 X141.488 Y105.525 E9.92209
G1 X140.419 Y107.907 E9.97065
G1 X139.530 Y109.348 E10.00215
G1 X137.439 Y111.861 E10.06296
G1 X110.658 Y138.525 E10.76595
G1 X108.541 Y140.053 E10.81451
G1 X107.051 Y140.856 E10.84600
G1 X104.611 Y141.784 E10.89456
G1 X102.963 Y142.175 E10.92606
G1 X99.708 Y142.473 E10.98687
G1 X72.682 Y142.390 E11.48959
G1 X70.105 Y141.974 E11.53816
G1 X68.484 Y141.488 E11.56965
G1 X66.102 Y140.419 E11.61821
G1 X64.661 Y139.530 E11.64971
G1 X62.637 Y137.881 E11.69827
G1 X61.475 Y136.649 E11.72976
G1 X59.947 Y134.533 E11.77832
G1 X59.144 Y133.042 E11.80982
G1 X58.216 Y130.602 E11.85838
G1 X57.825 Y128.955 E11.88988
G1 X57.527 Y125.699 E11.95069
G1 X57.610 Y98.674 E12.45341
G1 X58.026 Y96.097 E12.50197
G1 X58.512 Y94.475 E12.53347
G1 X59.581 Y92.093 E12.58203
G1 X60.470 Y90.652 E12.61352
G1 X62.561 Y88.139 E12.67433
G1 X75.164 Y75.592 E13.00515
G1 X75.377 Y75.720 F6000.000
G1 X89.484 Y61.672 E13.37550 F1200.000
G1 X91.601 Y60.144 E13.42406
G1 X93.036 Y59.371 E13.45437
G1 X95.475 Y58.443 E13.50293
G1 X97.061 Y58.067 E13.53325
G1 X99.529 Y57.815 E13.57938
G1 X99.658 Y57.802 E13.58181
G1 X101.287 Y57.850 E13.61212
G1 X103.865 Y58.266 E13.66069 F1200.000
G1 X105.426 Y58.734 E13.69100
G1 X107.807 Y59.803 E13.73956
G1 X109.194 Y60.658 E13.76987
G1 X111.689 Y62.733 E13.83023
G1 X138.328 Y89.484 E14.53250
G1 X139.856 Y91.601 E14.58106
G1 X140.629 Y93.036 E14.61138
G1 X140.676 Y93.158 E14.61381
G1 X141.557 Y95.476 E14.65994
G1 X141.933 Y97.061 E14.69025
G1 X142.198 Y99.658 E14.73881
G1 X142.150 Y101.287 E14.76913
G1 X141.734 Y103.865 E14.81769
G1 X141.266 Y105.426 E14.84800
G1 X140.197 Y107.807 E14.89656
G1 X139.342 Y109.194 E14.92688
G1 X137.267 Y111.689 E14.98723
G1 X110.516 Y138.328 E15.68950
G1 X108.399 Y139.856 E15.73806
G1 X106.965 Y140.629 E15.76838
G1 X104.525 Y141.557 E15.81694
G1 X102.939 Y141.933 E15.84726
G1 X99.708 Y142.230 E15.90761
G1 X72.721 Y142.150 E16.40961
G1 X70.144 Y141.734 E16.45817
G1 X68.583 Y141.267 E16.48848
G1 X66.201 Y140.197 E16.53705
G1 X64.814 Y139.342 E16.56736
G1 X62.790 Y137.693 E16.61592
G1 X61.672 Y136.507 E16.64624
G1 X60.144 Y134.390 E16.69480
G1 X59.371 Y132.956 E16.72511
G1 X58.443 Y130.516 E16.77368
G1 X58.067 Y128.930 E16.80399
G1 X57.770 Y125.699 E16.86434
G1 X57.850 Y98.713 E17.36635
G1 X58.266 Y96.135 E17.41491
G1 X58.734 Y94.574 E17.44522
G1 X59.803 Y92.193 E17.49378
G1 X60.658 Y90.806 E17.52410
G1 X62.733 Y88.311 E17.58445
G1 X75.334 Y75.763 E17.91526
G1 F1860.000 E14.91526
G92 E0
G1 X102.556 Y102.874 F6000.000
G1 E3.10000 F1860.000
G1 X101.725 Y103.437 E3.11868 F1200.000
G1 X100.777 Y103.767 E3.13735
G1 X99.775 Y103.839 E3.15603
G1 X98.789 Y103.650 E3.17470
G1 X97.886 Y103.213 E3.19338
G1 X97.126 Y102.556 E3.21205
G1 X96.563 Y101.725 E3.23073
G1 X96.233 Y100.777 E3.24941
G1 X96.161 Y99.775 E3.26808
G1 X96.350 Y98.789 E3.28676
G1 X96.787 Y97.886 E3.30543
G1 X97.444 Y97.126 E3.32411
G1 X98.275 Y96.563 E3.34278
G1 X99.223 Y96.233 E3.36146
G1 X100.225 Y96.161 E3.38014
G1 X100.319 Y96.179 E3.38192
G1 X101.211 Y96.350 E3.39881 F1200.000
G1 X102.114 Y96.787 E3.41749
G1 X102.874 Y97.444 E3.43616
G1 X103.437 Y98.275 E3.45484
G1 X103.767 Y99.223 E3.47351
G1 X103.839 Y100.225 E3.49219
G1 X103.650 Y101.211 E3.51087
G1 X103.213 Y102.114 E3.52954
G1 X102.595 Y102.828 E3.54710
G1 X102.393 Y102.691 F6000.000
G1 X101.615 Y103.218 E3.56459 F1200.000
G1 X100.727 Y103.527 E3.58207
G1 X99.790 Y103.595 E3.59956
G1 X98.867 Y103.418 E3.61704
G1 X98.021 Y103.008 E3.63453
G1 X97.309 Y102.393 E3.65202
G1 X96.782 Y101.615 E3.66950
G1 X96.473 Y100.727 E3.68699
G1 X96.405 Y99.790 E3.70447
G1 X96.582 Y98.867 E3.72196
G1 X96.992 Y98.021 E3.73945
G1 X97.607 Y97.309 E3.75693
G1 X98.385 Y96.782 E3.77442
G1 X99.273 Y96.473 E3.79190
G1 X100.146 Y96.410 E3.80820
G1 X100.210 Y96.405 E3.80939 F1200.000
G1 X101.133 Y96.582 E3.82688
G1 X101.979 Y96.992 E3.84436
G1 X102.691 Y97.607 E3.86185
G1 X103.218 Y98.385 E3.87933
G1 X103.527 Y99.273 E3.89682
G1 X103.595 Y100.210 E3.91431
G1 X103.418 Y101.133 E3.93179
G1 X103.008 Y101.979 E3.94928
G1 X102.432 Y102.645 E3.96565
G1 F1860.000 E0.96565
G92 E0
G1 X100.133 Y96.347 F6000.000
G1 X105.899 Y107.547 F6000.000
G1 E3.10000 F1860.000
G1 X104.581 Y108.498 E3.13024 F1200.000
G1 X102.225 Y109.394 E3.17712
G1 X99.718 Y109.650 E3.22400
G1 X97.230 Y109.248 E3.27088
G1 X94.931 Y108.216 E3.31776
G1 X92.977 Y106.624 E3.36464
G1 X91.502 Y104.581 E3.41152
G1 X90.606 Y102.225 E3.45841
G1 X90.350 Y99.718 E3.50529
G1 X90.738 Y97.314 E3.55058
G1 X90.752 Y97.230 E3.55217
G1 X91.784 Y94.931 E3.59905
G1 X93.376 Y92.977 E3.64593
G1 X95.419 Y91.502 E3.69281
G1 X97.775 Y90.606 E3.73969
G1 X100.197 Y90.359 E3.78498
G1 X100.282 Y90.350 E3.78657 F1200.000
G1 X102.770 Y90.752 E3.83345
G1 X105.069 Y91.784 E3.88033
G1 X107.023 Y93.376 E3.92721
G1 X108.498 Y95.419 E3.97409
G1 X109.394 Y97.775 E4.02097
G1 X109.650 Y100.282 E4.06786
G1 X109.248 Y102.770 E4.11474
G1 X108.216 Y105.069 E4.16162
G1 X106.624 Y107.023 E4.20850
G1 X105.948 Y107.511 E4.22402
G1 X106.041 Y107.744 F6000.000
G1 X104.697 Y108.714 E4.25486 F1200.000
G1 X102.282 Y109.633 E4.30293
G1 X99.711 Y109.895 E4.35100
G1 X97.160 Y109.483 E4.39907
G1 X94.802 Y108.425 E4.44714
G1 X92.799 Y106.792 E4.49521
G1 X91.286 Y104.697 E4.54328
G1 X90.367 Y102.282 E4.59135
G1 X90.105 Y99.711 E4.63942
G1 X90.517 Y97.160 E4.68749
G1 X91.575 Y94.802 E4.73556
G1 X93.208 Y92.799 E4.78363
G1 X95.303 Y91.286 E4.83170
G1 X97.718 Y90.367 E4.87977
G1 X100.289 Y90.105 E4.92785
G1 X102.724 Y90.498 E4.97373
G1 X102.840 Y90.517 E4.97592 F1200.000
G1 X105.198 Y91.575 E5.02399
G1 X107.201 Y93.208 E5.07206
G1 X108.714 Y95.303 E5.12013
G1 X109.633 Y97.718 E5.16820
G1 X109.895 Y100.289 E5.21627
G1 X109.483 Y102.840 E5.26434
G1 X108.425 Y105.198 E5.31241
G1 X106.792 Y107.201 E5.36048
G1 X106.090 Y107.708 E5.37660
G1 F1860.000 E2.37660
G92 E0
G1 X102.824 Y90.560 F6000.000
G1 X103.055 Y91.051 F6000.000
G1 E3.10000 F1860.000
G1 X108.888 Y96.884 E3.25345 F1200.000
G1 X108.675 Y96.322 F6000.000
G1 X103.687 Y91.334 E3.38467 F1200.000
G1 X104.318 Y91.618 F6000.000
G1 X108.461 Y95.761 E3.49366 F1200.000
G1 X107.886 Y94.838 F6000.000
G1 X104.949 Y91.901 E3.57091 F1200.000
G1 F1860.000 E0.57091
G92 E0
G1 X106.754 Y93.358 F6000.000
G1 E3.10000 F1860.000
G1 X106.982 Y93.586 E3.10600 F1200.000
G1 F1860.000 E0.10600
G92 E0
G1 X109.102 Y97.446 F6000.000
G1 E3.10000 F1860.000
G1 X102.527 Y90.871 E3.27296 F1200.000
G1 X102.112 Y90.804 E3.28078
G1 X109.255 Y97.946 E3.46869
G1 X109.294 Y98.334 E3.47593
G1 X101.697 Y90.737 E3.67579
G1 X101.282 Y90.670 E3.68361
G1 X109.334 Y98.721 E3.89542
G1 X109.373 Y99.109 E3.90267
G1 X100.867 Y90.603 E4.12644
G1 X100.452 Y90.536 E4.13426
G1 X109.413 Y99.496 E4.36999
G1 X109.452 Y99.884 E4.37723
G1 X100.095 Y90.526 E4.62341
G1 X99.779 Y90.558 E4.62931
G1 X109.492 Y100.271 E4.88483
G1 X109.445 Y100.572 E4.89050
G1 X99.463 Y90.590 E5.15309
G1 X99.147 Y90.623 E5.15899
G1 X109.397 Y100.872 E5.42862
G1 X109.348 Y101.171 E5.43426
G1 X98.832 Y90.655 E5.71092
G1 X98.516 Y90.687 E5.71682
G1 X109.300 Y101.471 E6.00051
G1 X109.251 Y101.771 E6.00615
G1 X98.200 Y90.719 E6.29688
G1 X97.885 Y90.752 E6.30278
G1 X109.203 Y102.070 E6.60054
G1 X109.155 Y102.370 E6.60618
G1 X97.618 Y90.833 E6.90969
G1 X97.366 Y90.928 E6.91470
G1 X109.106 Y102.669 E7.22357
G1 X109.010 Y102.920 E7.22857
G1 X97.114 Y91.024 E7.54152
G1 X96.861 Y91.120 E7.54654
G1 X108.902 Y103.161 E7.86328
G1 X108.794 Y103.401 E7.86818
G1 X103.537 Y98.144 E8.00648
G1 X103.753 Y98.707 F6000.000
G1 X108.686 Y103.641 E8.13626 F1200.000
G1 X108.578 Y103.881 E8.14116
G1 X103.923 Y99.226 E8.26362
G1 X103.951 Y99.601 E8.27061
G1 X108.471 Y104.121 E8.38952
G1 X108.363 Y104.361 E8.39442
G1 X103.978 Y99.976 E8.50977
G1 X103.979 Y100.325 E8.51627
G1 X108.255 Y104.602 E8.62876
G1 X108.147 Y104.842 E8.63365
G1 X103.923 Y100.617 E8.74478
G1 X103.867 Y100.909 E8.75031
G1 X108.020 Y105.063 E8.85957
G1 X107.864 Y105.254 E8.86417
G1 X103.811 Y101.201 E8.97079
G1 X103.709 Y101.447 E8.97574
G1 X107.708 Y105.446 E9.08093
G1 X107.552 Y105.638 E9.08553
G1 X103.596 Y101.682 E9.18960
G1 X103.482 Y101.916 E9.19445
G1 X107.395 Y105.830 E9.29739
G1 X107.239 Y106.021 E9.30199
G1 X103.368 Y102.151 E9.40382
G1 X103.217 Y102.347 E9.40843
G1 X107.083 Y106.213 E9.51012
G1 X106.927 Y106.405 E9.51472
G1 X103.056 Y102.534 E9.61655
G1 X102.895 Y102.721 E9.62114
G1 X106.770 Y106.596 E9.72310
G1 X106.611 Y106.785 E9.72769
G1 X102.733 Y102.907 E9.82970
G1 X102.547 Y103.069 E9.83429
G1 X106.437 Y106.959 E9.93664
G1 X106.239 Y107.109 E9.94126
G1 X102.339 Y103.209 E10.04384
G1 X102.132 Y103.350 E10.04850
G1 X106.037 Y107.255 E10.15122
G1 X105.835 Y107.400 E10.15586
G1 X101.925 Y103.490 E10.25872
G1 X101.698 Y103.612 E10.26350
G1 X105.633 Y107.546 E10.36700
G1 X105.431 Y107.692 E10.37164
G1 X101.440 Y103.702 E10.47662
G1 X101.182 Y103.791 E10.48170
G1 X105.228 Y107.838 E10.58816
G1 X105.026 Y107.984 E10.59280
G1 X100.923 Y103.881 E10.70074
G1 X100.628 Y103.934 E10.70631
G1 X104.824 Y108.130 E10.81670
G1 X104.622 Y108.276 E10.82133
G1 X100.304 Y103.957 E10.93493
G1 X99.980 Y103.981 E10.94098
G1 X104.399 Y108.400 E11.05724
G1 X104.147 Y108.496 E11.06226
G1 X99.619 Y103.968 E11.18137
G1 X99.188 Y103.886 E11.18953
G1 X103.895 Y108.592 E11.31334
G1 X103.643 Y108.688 E11.31835
G1 X98.758 Y103.803 E11.44685
G1 X98.094 Y103.487 F6000.000
G1 X103.391 Y108.784 E11.58620 F1200.000
G1 X103.139 Y108.880 E11.59122
G1 X91.098 Y96.839 E11.90796
G1 X91.206 Y96.599 E11.91286
G1 X96.463 Y101.856 E12.05116
G1 X96.247 Y101.293 F6000.000
G1 X91.314 Y96.359 E12.18094 F1200.000
G1 X91.422 Y96.119 E12.18584
G1 X96.077 Y100.774 E12.30830
G1 X96.049 Y100.399 E12.31530
G1 X91.529 Y95.879 E12.43420
G1 X91.637 Y95.639 E12.43910
G1 X96.022 Y100.024 E12.55446
G1 X96.021 Y99.675 E12.56095
G1 X91.745 Y95.399 E12.67344
G1 X91.853 Y95.158 E12.67834
G1 X96.077 Y99.383 E12.78946
G1 X96.133 Y99.091 E12.79499
G1 X91.980 Y94.937 E12.90425
G1 X92.136 Y94.746 E12.90885
G1 X96.189 Y98.799 E13.01547
G1 X96.291 Y98.553 E13.02042
G1 X92.292 Y94.554 E13.12561
G1 X92.449 Y94.362 E13.13021
G1 X96.404 Y98.318 E13.23428
G1 X96.518 Y98.084 E13.23913
G1 X92.605 Y94.171 E13.34207
G1 X92.761 Y93.979 E13.34667
G1 X96.632 Y97.849 E13.44849
G1 X96.783 Y97.653 E13.45311
G1 X92.917 Y93.787 E13.55480
G1 X93.073 Y93.595 E13.55940
G1 X96.944 Y97.466 E13.66122
G1 X97.105 Y97.279 E13.66581
G1 X93.230 Y93.404 E13.76777
G1 X93.389 Y93.215 E13.77237
G1 X97.267 Y97.093 E13.87438
G1 X97.453 Y96.931 E13.87897
G1 X93.563 Y93.041 E13.98131
G1 X93.761 Y92.891 E13.98593
G1 X97.661 Y96.791 E14.08851
G1 X97.868 Y96.650 E14.09317
G1 X93.963 Y92.745 E14.19589
G1 X94.165 Y92.600 E14.20053
G1 X98.075 Y96.510 E14.30339
G1 X98.302 Y96.388 E14.30817
G1 X94.367 Y92.454 E14.41167
G1 X94.569 Y92.308 E14.41631
G1 X98.560 Y96.298 E14.52129
G1 X98.818 Y96.209 E14.52638
G1 X94.772 Y92.162 E14.63284
G1 X94.974 Y92.016 E14.63747
G1 X99.077 Y96.119 E14.74541
G1 X99.372 Y96.066 E14.75099
G1 X95.176 Y91.870 E14.86137
G1 X95.378 Y91.724 E14.86600
G1 X99.696 Y96.043 E14.97960
G1 X100.020 Y96.019 E14.98565
G1 X95.601 Y91.600 E15.10191
G1 X95.853 Y91.504 E15.10693
G1 X100.381 Y96.032 E15.22605
G1 X100.812 Y96.114 E15.23420
G1 X96.105 Y91.408 E15.35801
G1 X96.357 Y91.312 E15.36302
G1 X101.242 Y96.197 E15.49153
G1 X101.907 Y96.513 F6000.000
G1 X96.609 Y91.216 E15.63088 F1200.000
G1 F1860.000 E12.63088
G92 E0
G1 X90.990 Y97.080 F6000.000
G1 E3.10000 F1860.000
G1 X102.887 Y108.976 E3.41295 F1200.000
G1 X102.634 Y109.072 E3.41796
G1 X90.894 Y97.331 E3.72683
G1 X90.845 Y97.630 E3.73247
G1 X102.382 Y109.167 E4.03598
G1 X102.116 Y109.248 E4.04117
G1 X90.797 Y97.930 E4.33892
G1 X90.749 Y98.229 E4.34457
G1 X101.800 Y109.281 E4.63529
G1 X101.484 Y109.313 E4.64120
G1 X90.700 Y98.529 E4.92489
G1 X90.652 Y98.829 E4.93053
G1 X101.168 Y109.345 E5.20719
G1 X100.853 Y109.377 E5.21309
G1 X90.603 Y99.128 E5.48272
G1 X90.555 Y99.428 E5.48836
G1 X100.537 Y109.410 E5.75095
G1 X100.221 Y109.442 E5.75685
G1 X90.508 Y99.729 E6.01238
G1 X90.548 Y100.116 E6.01962
G1 X99.905 Y109.474 E6.26580
G1 X99.548 Y109.464 E6.27245
G1 X90.587 Y100.504 E6.50818
G1 X90.627 Y100.891 E6.51542
G1 X99.133 Y109.397 E6.73920
G1 X98.718 Y109.330 E6.74701
G1 X90.666 Y101.279 E6.95883
G1 X90.706 Y101.666 E6.96608
G1 X98.303 Y109.263 E7.16594
G1 X97.888 Y109.196 E7.17376
G1 X90.745 Y102.054 E7.36166
G1 X90.898 Y102.554 E7.37140
G1 X97.473 Y109.129 E7.54437
G1 X96.945 Y108.949 F6000.000
G1 X91.112 Y103.116 E7.69782 F1200.000
G1 X91.325 Y103.677 F6000.000
G1 X96.313 Y108.666 E7.82904 F1200.000
G1 X95.682 Y108.382 F6000.000
G1 X91.539 Y104.239 E7.93804 F1200.000
G1 X92.114 Y105.162 F6000.000
G1 X95.051 Y108.099 E8.01529 F1200.000
G1 F1860.000 E5.01529
G92 E0
G1 X93.246 Y106.642 F6000.000
G1 E3.10000 F1860.000
G1 X93.018 Y106.414 E3.10600 F1200.000
G1 F1860.000 E0.10600
G92 E0
G1 X102.556 Y128.865 F6000.000
G1 E3.10000 F1860.000
G1 X101.725 Y129.429 E3.11868 F1200.000
G1 X100.777 Y129.758 E3.13735
G1 X99.775 Y129.831 E3.15603
G1 X98.789 Y129.642 E3.17470
G1 X97.886 Y129.204 E3.19338
G1 X97.126 Y128.547 E3.21205
G1 X96.563 Y127.717 E3.23073
G1 X96.233 Y126.768 E3.24941
G1 X96.161 Y125.767 E3.26808
G1 X96.350 Y124.781 E3.28676
G1 X96.787 Y123.877 E3.30543
G1 X97.444 Y123.118 E3.32411
G1 X98.275 Y122.554 E3.34278
G1 X99.223 Y122.225 E3.36146
