; generated by Slic3r 1.1.7 on 2014-12-04 at 07:16:46

; perimeters extrusion width = 0.50mm
; infill extrusion width = 0.52mm
; solid infill extrusion width = 0.52mm
; top infill extrusion width = 0.52mm

G21 ; set units to millimeters
M107
M104 S200 ; set temperature
G28 ; home all axes
G1 Z5 F5000 ; lift nozzle

M109 S200 ; wait for temperature to be reached
G90 ; use absolute coordinates
G92 E0
M82 ; use absolute distances for extrusion
G1 F1800.000 E-1.00000
G92 E0
G1 Z0.350 F7800.000
G1 X84.884 Y85.741 F7800.000
G1 E1.00000 F1800.000
G1 X86.637 Y84.255 E1.07480 F1080.000
G1 X88.792 Y83.453 E1.14960
G1 X90.000 Y83.343 E1.18906
G1 X110.000 Y83.343 E1.83976
G1 X112.265 Y83.740 E1.91456
G1 X114.259 Y84.884 E1.98936 F1080.000
G1 X115.745 Y86.637 E2.06416
G1 X116.547 Y88.792 E2.13896
G1 X116.657 Y90.000 E2.17842
G1 X116.657 Y110.000 E2.82912
G1 X116.260 Y112.265 E2.90392
G1 X115.116 Y114.259 E2.97872
G1 X113.363 Y115.745 E3.05352
G1 X111.208 Y116.547 E3.12832
G1 X110.000 Y116.657 E3.16778
G1 X90.000 Y116.657 E3.81848
G1 X87.735 Y116.260 E3.89328
G1 X85.741 Y115.116 E3.96808
G1 X84.255 Y113.363 E4.04288
G1 X83.453 Y111.208 E4.11768
G1 X83.343 Y110.000 E4.15714
G1 X83.343 Y90.000 E4.80784
G1 X83.740 Y87.735 E4.88264
G1 X84.846 Y85.806 E4.95500
G1 F1800.000 E3.95500
G92 E0
G1 X108.336 Y108.336 F7800.000
G1 E1.00000 F1800.000
G1 X91.664 Y108.336 E1.54242 F540.000
G1 X91.664 Y91.664 E2.08483
G1 X108.336 Y91.664 E2.62725
G1 X108.336 Y108.261 E3.16723
G1 X108.993 Y108.993 F7800.000
G1 X91.007 Y108.993 E3.75240 F540.000
G1 X91.007 Y91.007 E4.33757
G1 X108.993 Y91.007 E4.92275
G1 X108.993 Y108.918 E5.50548
G1 X109.650 Y109.650 F7800.000
G1 X90.350 Y109.650 E6.13341 F378.000
G1 X90.350 Y90.350 E6.76134
G1 X109.650 Y90.350 E7.38927
G1 X109.650 Y109.575 E8.01476
G1 X109.217 Y109.400 F7800.000
G1 X92.121 Y107.839 F7800.000
G1 X92.161 Y107.879 E8.01660 F1080.000
G1 X93.113 Y107.879 E8.04759
G1 X92.121 Y106.887 E8.09327
G1 X92.121 Y105.934 E8.12426
G1 X94.066 Y107.879 E8.21377
G1 X95.019 Y107.879 E8.24477
G1 X92.121 Y104.981 E8.37811
G1 X92.121 Y104.029 E8.40910
G1 X95.971 Y107.879 E8.58628
G1 X96.924 Y107.879 E8.61727
G1 X92.121 Y103.076 E8.83828
G1 X92.121 Y102.123 E8.86928
G1 X97.877 Y107.879 E9.13412
G1 X98.829 Y107.879 E9.16512
G1 X92.121 Y101.171 E9.47379
G1 X92.121 Y100.218 E9.50479
G1 X99.782 Y107.879 E9.85730
G1 X100.735 Y107.879 E9.88829
G1 X92.121 Y99.266 E10.28464
G1 X92.121 Y98.313 E10.31563
G1 X101.687 Y107.879 E10.75581
G1 X102.640 Y107.879 E10.78680
G1 X92.121 Y97.360 E11.27082
G1 X92.121 Y96.408 E11.30181
G1 X103.592 Y107.879 E11.82966
G1 X104.545 Y107.879 E11.86065
G1 X92.121 Y95.455 E12.43233
G1 X92.121 Y94.502 E12.46333
G1 X105.498 Y107.879 E13.07884
G1 X106.450 Y107.879 E13.10983
G1 X92.121 Y93.550 E13.76918
G1 X92.121 Y92.597 E13.80018
G1 X107.403 Y107.879 E14.50336
G1 X107.879 Y107.403 E14.52527
G1 X92.597 Y92.121 E15.22845
G1 X93.550 Y92.121 E15.25945
G1 X107.879 Y106.450 E15.91879
G1 X107.879 Y105.498 E15.94979
G1 X94.502 Y92.121 E16.56530
G1 X95.455 Y92.121 E16.59630
G1 X107.879 Y104.545 E17.16798
G1 X107.879 Y103.592 E17.19897
G1 X96.408 Y92.121 E17.72682
G1 X97.360 Y92.121 E17.75781
G1 X107.879 Y102.640 E18.24182
G1 X107.879 Y101.687 E18.27282
G1 X98.313 Y92.121 E18.71300
G1 X99.266 Y92.121 E18.74399
G1 X107.879 Y100.735 E19.14034
G1 X107.879 Y99.782 E19.17133
G1 X100.218 Y92.121 E19.52384
G1 X101.171 Y92.121 E19.55484
G1 X107.879 Y98.829 E19.86351
G1 X107.879 Y97.877 E19.89451
G1 X102.123 Y92.121 E20.15935
G1 X103.076 Y92.121 E20.19035
G1 X107.879 Y96.924 E20.41136
G1 X107.879 Y95.971 E20.44235
G1 X104.029 Y92.121 E20.61953
G1 X104.981 Y92.121 E20.65052
G1 X107.879 Y95.019 E20.78386
G1 X107.879 Y94.066 E20.81486
G1 X105.934 Y92.121 E20.90437
G1 X106.887 Y92.121 E20.93536
G1 X107.879 Y93.113 E20.98104
G1 X107.879 Y92.161 E21.01203
G1 X107.839 Y92.121 E21.01387
M106 S255
G1 F1800.000 E20.01387
G92 E0
G1 Z0.750 F7800.000
G1 X108.750 Y108.750 F7800.000
G1 E1.00000 F1800.000
G1 X91.250 Y108.750 E1.49515 F1079.493
G1 X91.250 Y91.250 E1.99030
G1 X108.750 Y91.250 E2.48545
G1 X108.750 Y108.675 E2.97847
G1 X109.250 Y109.250 F7800.000
G1 X90.750 Y109.250 E3.50192 F1079.493
G1 X90.750 Y90.750 E4.02536
G1 X109.250 Y90.750 E4.54880
G1 X109.250 Y109.175 E5.07012
G1 X109.750 Y109.750 F7800.000
G1 X90.250 Y109.750 E5.62186 F755.645
G1 X90.250 Y90.250 E6.17360
G1 X109.750 Y90.250 E6.72533
G1 X109.750 Y109.675 E7.27495
G1 X109.317 Y109.500 F7800.000
G1 X108.403 Y108.363 F7800.000
G1 X108.363 Y108.403 E7.27661 F2158.986
G1 X107.618 Y108.403 E7.29852
G1 X108.403 Y107.618 E7.33118
G1 X108.403 Y106.873 E7.35309
G1 X106.873 Y108.403 E7.41673
G1 X106.128 Y108.403 E7.43864
G1 X108.403 Y106.128 E7.53327
G1 X108.403 Y105.382 E7.55518
G1 X105.382 Y108.403 E7.68079
G1 X104.637 Y108.403 E7.70271
G1 X108.403 Y104.637 E7.85931
G1 X108.403 Y103.892 E7.88122
G1 X103.892 Y108.403 E8.06881
G1 X103.147 Y108.403 E8.09072
G1 X108.403 Y103.147 E8.30930
G1 X108.403 Y102.402 E8.33121
G1 X102.402 Y108.403 E8.58078
G1 X101.657 Y108.403 E8.60269
G1 X108.403 Y101.657 E8.88325
G1 X108.403 Y100.911 E8.90516
G1 X100.911 Y108.403 E9.21670
G1 X100.166 Y108.403 E9.23862
G1 X108.403 Y100.166 E9.58115
G1 X108.403 Y99.421 E9.60306
G1 X99.421 Y108.403 E9.97658
G1 X98.676 Y108.403 E9.99849
G1 X108.403 Y98.676 E10.40300
G1 X108.403 Y97.931 E10.42491
G1 X97.931 Y108.403 E10.86040
G1 X97.186 Y108.403 E10.88231
G1 X108.403 Y97.186 E11.34880
G1 X108.403 Y96.440 E11.37071
G1 X96.440 Y108.403 E11.86818
G1 X95.695 Y108.403 E11.89009
G1 X108.403 Y95.695 E12.41855
G1 X108.403 Y94.950 E12.44046
G1 X94.950 Y108.403 E12.99991
G1 X94.205 Y108.403 E13.02182
G1 X108.403 Y94.205 E13.61226
G1 X108.403 Y93.460 E13.63417
G1 X93.460 Y108.403 E14.25559
G1 X92.715 Y108.403 E14.27750
G1 X108.403 Y92.715 E14.92991
G1 X108.403 Y91.969 E14.95183
G1 X91.969 Y108.403 E15.63523
G1 X91.597 Y108.031 E15.65072
G1 X108.031 Y91.597 E16.33412
G1 X107.285 Y91.597 E16.35603
G1 X91.597 Y107.285 E17.00844
G1 X91.597 Y106.540 E17.03035
G1 X106.540 Y91.597 E17.65178
G1 X105.795 Y91.597 E17.67369
G1 X91.597 Y105.795 E18.26412
G1 X91.597 Y105.050 E18.28603
G1 X105.050 Y91.597 E18.84548
G1 X104.305 Y91.597 E18.86739
G1 X91.597 Y104.305 E19.39585
G1 X91.597 Y103.560 E19.41776
G1 X103.560 Y91.597 E19.91524
G1 X102.814 Y91.597 E19.93715
G1 X91.597 Y102.814 E20.40363
G1 X91.597 Y102.069 E20.42554
G1 X102.069 Y91.597 E20.86104
G1 X101.324 Y91.597 E20.88295
G1 X91.597 Y101.324 E21.28746
G1 X91.597 Y100.579 E21.30937
G1 X100.579 Y91.597 E21.68289
G1 X99.834 Y91.597 E21.70480
G1 X91.597 Y99.834 E22.04733
G1 X91.597 Y99.089 E22.06924
G1 X99.089 Y91.597 E22.38078
G1 X98.343 Y91.597 E22.40270
G1 X91.597 Y98.343 E22.68325
G1 X91.597 Y97.598 E22.70516
G1 X97.598 Y91.597 E22.95473
G1 X96.853 Y91.597 E22.97664
G1 X91.597 Y96.853 E23.19522
G1 X91.597 Y96.108 E23.21713
G1 X96.108 Y91.597 E23.40472
G1 X95.363 Y91.597 E23.42664
G1 X91.597 Y95.363 E23.58324
G1 X91.597 Y94.618 E23.60515
G1 X94.618 Y91.597 E23.73077
G1 X93.872 Y91.597 E23.75268
G1 X91.597 Y93.872 E23.84731
G1 X91.597 Y93.127 E23.86922
G1 X93.127 Y91.597 E23.93286
G1 X92.382 Y91.597 E23.95477
G1 X91.597 Y92.382 E23.98742
G1 X91.597 Y91.637 E24.00933
G1 X91.637 Y91.597 E24.01100
G1 F1800.000 E23.01100
G92 E0
G1 Z1.150 F7800.000
G1 X108.750 Y108.750 F7800.000
G1 E1.00000 F1800.000
G1 X91.250 Y108.750 E1.49515 F1079.493
G1 X91.250 Y91.250 E1.99030
G1 X108.750 Y91.250 E2.48545
G1 X108.750 Y108.675 E2.97847
G1 X109.250 Y109.250 F7800.000
G1 X90.750 Y109.250 E3.50192 F1079.493
G1 X90.750 Y90.750 E4.02536
G1 X109.250 Y90.750 E4.54880
G1 X109.250 Y109.175 E5.07012
G1 X109.750 Y109.750 F7800.000
G1 X90.250 Y109.750 E5.62186 F755.645
G1 X90.250 Y90.250 E6.17360
G1 X109.750 Y90.250 E6.72533
G1 X109.750 Y109.675 E7.27495
G1 X109.317 Y109.500 F7800.000
G1 X91.597 Y108.363 F7800.000
G1 X91.637 Y108.403 E7.27661 F2158.986
G1 X92.382 Y108.403 E7.29852
G1 X91.597 Y107.618 E7.33118
G1 X91.597 Y106.873 E7.35309
G1 X93.127 Y108.403 E7.41673
G1 X93.872 Y108.403 E7.43864
G1 X91.597 Y106.128 E7.53327
G1 X91.597 Y105.382 E7.55518
G1 X94.618 Y108.403 E7.68079
G1 X95.363 Y108.403 E7.70270
G1 X91.597 Y104.637 E7.85931
G1 X91.597 Y103.892 E7.88122
G1 X96.108 Y108.403 E8.06881
G1 X96.853 Y108.403 E8.09072
G1 X91.597 Y103.147 E8.30930
G1 X91.597 Y102.402 E8.33121
G1 X97.598 Y108.403 E8.58078
G1 X98.343 Y108.403 E8.60269
G1 X91.597 Y101.657 E8.88325
G1 X91.597 Y100.911 E8.90516
G1 X99.089 Y108.403 E9.21670
G1 X99.834 Y108.403 E9.23861
G1 X91.597 Y100.166 E9.58115
G1 X91.597 Y99.421 E9.60306
G1 X100.579 Y108.403 E9.97658
G1 X101.324 Y108.403 E9.99849
G1 X91.597 Y98.676 E10.40300
G1 X91.597 Y97.931 E10.42491
G1 X102.069 Y108.403 E10.86040
G1 X102.814 Y108.403 E10.88231
G1 X91.597 Y97.186 E11.34880
G1 X91.597 Y96.440 E11.37071
G1 X103.560 Y108.403 E11.86818
G1 X104.305 Y108.403 E11.89009
G1 X91.597 Y95.695 E12.41855
G1 X91.597 Y94.950 E12.44046
G1 X105.050 Y108.403 E12.99991
G1 X105.795 Y108.403 E13.02182
G1 X91.597 Y94.205 E13.61226
G1 X91.597 Y93.460 E13.63417
G1 X106.540 Y108.403 E14.25559
G1 X107.285 Y108.403 E14.27750
G1 X91.597 Y92.715 E14.92991
G1 X91.597 Y91.969 E14.95183
G1 X108.031 Y108.403 E15.63522
G1 X108.403 Y108.031 E15.65072
G1 X91.969 Y91.597 E16.33412
G1 X92.715 Y91.597 E16.35603
G1 X108.403 Y107.285 E17.00844
G1 X108.403 Y106.540 E17.03035
G1 X93.460 Y91.597 E17.65177
G1 X94.205 Y91.597 E17.67369
G1 X108.403 Y105.795 E18.26412
G1 X108.403 Y105.050 E18.28603
G1 X94.950 Y91.597 E18.84548
G1 X95.695 Y91.597 E18.86739
G1 X108.403 Y104.305 E19.39585
G1 X108.403 Y103.560 E19.41776
G1 X96.440 Y91.597 E19.91523
G1 X97.186 Y91.597 E19.93715
G1 X108.403 Y102.814 E20.40363
G1 X108.403 Y102.069 E20.42554
G1 X97.931 Y91.597 E20.86104
G1 X98.676 Y91.597 E20.88295
G1 X108.403 Y101.324 E21.28746
G1 X108.403 Y100.579 E21.30937
G1 X99.421 Y91.597 E21.68289
G1 X100.166 Y91.597 E21.70480
G1 X108.403 Y99.834 E22.04733
G1 X108.403 Y99.089 E22.06924
G1 X100.911 Y91.597 E22.38078
G1 X101.657 Y91.597 E22.40270
G1 X108.403 Y98.343 E22.68325
G1 X108.403 Y97.598 E22.70516
G1 X102.402 Y91.597 E22.95473
G1 X103.147 Y91.597 E22.97664
G1 X108.403 Y96.853 E23.19522
G1 X108.403 Y96.108 E23.21713
G1 X103.892 Y91.597 E23.40472
G1 X104.637 Y91.597 E23.42664
G1 X108.403 Y95.363 E23.58324
G1 X108.403 Y94.618 E23.60515
G1 X105.382 Y91.597 E23.73077
G1 X106.128 Y91.597 E23.75268
G1 X108.403 Y93.872 E23.84731
G1 X108.403 Y93.127 E23.86922
G1 X106.873 Y91.597 E23.93286
G1 X107.618 Y91.597 E23.95477
G1 X108.403 Y92.382 E23.98742
G1 X108.403 Y91.637 E24.00933
G1 X108.363 Y91.597 E24.01100
G1 F1800.000 E23.01100
G92 E0
G1 Z1.550 F7800.000
G1 X108.750 Y108.750 F7800.000
G1 E1.00000 F1800.000
G1 X91.250 Y108.750 E1.49515 F789.727
G1 X91.250 Y91.250 E1.99030
G1 X108.750 Y91.250 E2.48545
G1 X108.750 Y108.675 E2.97847
G1 X109.250 Y109.250 F7800.000
G1 X90.750 Y109.250 E3.50192 F789.727
G1 X90.750 Y90.750 E4.02536
G1 X109.250 Y90.750 E4.54880
G1 X109.250 Y109.175 E5.07012
G1 X109.750 Y109.750 F7800.000
G1 X90.250 Y109.750 E5.62186 F600.000
G1 X90.250 Y90.250 E6.17360
G1 X109.750 Y90.250 E6.72533
G1 X109.750 Y109.675 E7.27495
G1 X109.317 Y109.500 F7800.000
G1 X107.600 Y108.383 F7800.000
G1 X108.074 Y107.909 E7.29466 F1579.455
G1 X108.383 Y107.992 E7.30408
G1 X108.383 Y105.763 E7.36964
G1 X107.473 Y106.672 E7.40747
G1 X107.706 Y107.542 E7.43394
G1 X106.865 Y108.383 E7.46892
G1 X105.028 Y108.383 E7.52295
G1 X105.197 Y108.214 E7.52997
G1 X104.964 Y107.345 E7.55643
G1 X106.236 Y106.072 E7.60937
G1 X107.106 Y106.305 E7.63583
G1 X108.379 Y105.032 E7.68876
G1 X108.146 Y104.163 E7.71523
G1 X108.383 Y103.925 E7.72510
G1 X108.383 Y103.191 E7.74671
G1 X107.778 Y103.795 E7.77186
G1 X106.909 Y103.562 E7.79833
G1 X105.636 Y104.835 E7.85126
G1 X105.869 Y105.705 E7.87772
G1 X104.596 Y106.977 E7.93065
G1 X103.727 Y106.744 E7.95712
G1 X102.454 Y108.017 E8.01005
G1 X102.552 Y108.383 E8.02119
G1 X100.251 Y108.383 E8.08885
G1 X101.217 Y107.417 E8.12903
G1 X102.087 Y107.650 E8.15549
G1 X103.359 Y106.377 E8.20842
G1 X103.126 Y105.508 E8.23489
G1 X104.399 Y104.235 E8.28782
G1 X105.269 Y104.468 E8.31429
G1 X106.541 Y103.195 E8.36722
G1 X106.309 Y102.326 E8.39368
G1 X107.581 Y101.053 E8.44661
G1 X108.383 Y101.268 E8.47102
G1 X108.383 Y98.578 F7800.000
G1 X108.254 Y98.543 E8.47496 F1579.455
G1 X106.981 Y99.816 E8.52789
G1 X107.214 Y100.685 E8.55435
G1 X105.941 Y101.958 E8.60728
G1 X105.072 Y101.725 E8.63375
G1 X103.799 Y102.998 E8.68668
G1 X104.032 Y103.867 E8.71315
G1 X102.759 Y105.140 E8.76608
G1 X101.890 Y104.907 E8.79254
G1 X100.617 Y106.180 E8.84548
G1 X100.850 Y107.050 E8.87194
G1 X99.577 Y108.322 E8.92487
G1 X98.708 Y108.089 E8.95134
G1 X98.414 Y108.383 E8.96355
G1 X97.679 Y108.383 E8.98516
G1 X98.340 Y107.722 E9.01265
G1 X98.107 Y106.853 E9.03912
G1 X99.380 Y105.580 E9.09205
G1 X100.249 Y105.813 E9.11852
G1 X101.522 Y104.540 E9.17145
G1 X101.289 Y103.670 E9.19792
G1 X102.562 Y102.398 E9.25085
G1 X103.431 Y102.631 E9.27731
G1 X104.704 Y101.358 E9.33024
G1 X104.471 Y100.488 E9.35671
G1 X105.744 Y99.216 E9.40964
G1 X106.614 Y99.449 E9.43611
G1 X107.886 Y98.176 E9.48904
G1 X107.653 Y97.306 E9.51550
G1 X108.383 Y96.577 E9.54585
G1 X108.383 Y95.842 E9.56746
G1 X107.286 Y96.939 E9.61308
G1 X106.417 Y96.706 E9.63954
G1 X105.144 Y97.979 E9.69247
G1 X105.377 Y98.848 E9.71894
G1 X104.104 Y100.121 E9.77187
G1 X103.235 Y99.888 E9.79834
G1 X101.962 Y101.161 E9.85127
G1 X102.195 Y102.030 E9.87774
G1 X100.922 Y103.303 E9.93067
G1 X100.052 Y103.070 E9.95713
G1 X98.780 Y104.343 E10.01006
G1 X99.013 Y105.212 E10.03653
G1 X97.740 Y106.485 E10.08946
G1 X96.870 Y106.252 E10.11593
G1 X95.598 Y107.525 E10.16886
G1 X95.827 Y108.383 E10.19498
G1 X93.138 Y108.383 F7800.000
G1 X93.088 Y108.198 E10.20063 F1579.455
G1 X94.361 Y106.925 E10.25356
G1 X95.230 Y107.158 E10.28003
G1 X96.503 Y105.885 E10.33296
G1 X96.270 Y105.015 E10.35942
G1 X97.543 Y103.743 E10.41236
G1 X98.412 Y103.976 E10.43882
G1 X99.685 Y102.703 E10.49175
G1 X99.452 Y101.833 E10.51822
G1 X100.725 Y100.560 E10.57115
G1 X101.594 Y100.793 E10.59762
G1 X102.867 Y99.521 E10.65055
G1 X102.634 Y98.651 E10.67701
G1 X103.907 Y97.378 E10.72994
G1 X104.776 Y97.611 E10.75641
G1 X106.049 Y96.338 E10.80934
G1 X105.816 Y95.469 E10.83581
G1 X107.089 Y94.196 E10.88874
G1 X107.958 Y94.429 E10.91520
G1 X108.383 Y94.005 E10.93286
G1 X108.383 Y94.739 F7800.000
G1 X108.326 Y94.797 E10.93524 F1579.455
G1 X108.383 Y95.010 E10.94174
G1 X93.134 Y91.617 F7800.000
G1 X92.776 Y91.975 E10.95663 F1579.455
G1 X93.009 Y92.844 E10.98309
G1 X91.736 Y94.117 E11.03602
G1 X91.617 Y94.085 E11.03965
G1 X91.617 Y96.073 E11.09811
G1 X92.336 Y95.354 E11.12802
G1 X92.103 Y94.485 E11.15449
G1 X93.376 Y93.212 E11.20742
G1 X94.246 Y93.445 E11.23388
G1 X95.518 Y92.172 E11.28682
G1 X95.370 Y91.617 E11.30371
G1 X97.911 Y91.617 E11.37842
G1 X96.755 Y92.772 E11.42647
G1 X95.886 Y92.539 E11.45293
G1 X94.613 Y93.812 E11.50587
G1 X94.846 Y94.681 E11.53233
G1 X93.573 Y95.954 E11.58526
G1 X92.704 Y95.721 E11.61173
G1 X91.617 Y96.808 E11.65692
G1 X91.617 Y97.688 E11.68281
G1 X91.664 Y97.864 E11.68814
G1 X91.617 Y97.911 E11.69009
G1 X91.617 Y98.645 E11.71170
G1 X92.031 Y98.231 E11.72893
G1 X92.901 Y98.464 E11.75540
G1 X94.173 Y97.191 E11.80833
G1 X93.941 Y96.322 E11.83480
G1 X95.213 Y95.049 E11.88773
G1 X96.083 Y95.282 E11.91419
G1 X97.356 Y94.009 E11.96712
G1 X97.123 Y93.140 E11.99359
G1 X98.395 Y91.867 E12.04652
G1 X99.265 Y92.100 E12.07299
G1 X99.748 Y91.617 E12.09307
G1 X100.483 Y91.617 E12.11468
G1 X99.632 Y92.467 E12.15004
G1 X99.865 Y93.337 E12.17650
G1 X98.592 Y94.609 E12.22943
G1 X97.723 Y94.376 E12.25590
G1 X96.450 Y95.649 E12.30883
G1 X96.683 Y96.519 E12.33530
G1 X95.410 Y97.792 E12.38823
G1 X94.541 Y97.559 E12.41469
G1 X93.268 Y98.831 E12.46763
G1 X93.501 Y99.701 E12.49409
G1 X92.228 Y100.974 E12.54702
G1 X91.617 Y100.810 E12.56563
G1 X91.617 Y103.422 F7800.000
G1 X92.829 Y102.210 E12.61602 F1579.455
G1 X92.596 Y101.341 E12.64248
G1 X93.868 Y100.068 E12.69542
G1 X94.738 Y100.301 E12.72188
G1 X96.011 Y99.028 E12.77481
G1 X95.778 Y98.159 E12.80128
G1 X97.051 Y96.886 E12.85421
G1 X97.920 Y97.119 E12.88068
