; generated by Slic3r 1.1.7 on 2014-12-20 at 08:32:47

; perimeters extrusion width = 0.50mm
; infill extrusion width = 0.52mm
; solid infill extrusion width = 0.52mm
; top infill extrusion width = 0.52mm

G21 ; set units to millimeters
M107
M104 S200 ; set temperature
G28 ; home all axes
G1 Z5 F5000 ; lift nozzle

M109 S200 ; wait for temperature to be reached
G90 ; use absolute coordinates
G92 E0
M82 ; use absolute distances for extrusion
G1 F1800.000 E-1.00000
G92 E0
G1 Z0.350 F7800.000
G1 X82.384 Y83.241 F7800.000
G1 E1.00000 F1800.000
G1 X84.137 Y81.755 E1.07480 F1080.000
G1 X86.292 Y80.953 E1.14960
G1 X87.500 Y80.843 E1.18906
G1 X112.500 Y80.843 E2.00244
G1 X114.765 Y81.240 E2.07724
G1 X116.759 Y82.384 E2.15204 F1080.000
G1 X118.245 Y84.137 E2.22684
G1 X119.047 Y86.292 E2.30164
G1 X119.157 Y87.500 E2.34109
G1 X119.157 Y112.500 E3.15447
G1 X118.760 Y114.765 E3.22927
G1 X117.616 Y116.759 E3.30407
G1 X115.863 Y118.245 E3.37887
G1 X113.708 Y119.047 E3.45367
G1 X112.500 Y119.157 E3.49313
G1 X87.500 Y119.157 E4.30651
G1 X85.235 Y118.760 E4.38131
G1 X83.241 Y117.616 E4.45611
G1 X81.755 Y115.863 E4.53091
G1 X80.953 Y113.708 E4.60571
G1 X80.843 Y112.500 E4.64516
G1 X80.843 Y87.500 E5.45854
G1 X81.240 Y85.235 E5.53334
G1 X82.346 Y83.306 E5.60571
G1 F1800.000 E4.60571
G92 E0
G1 X110.836 Y110.836 F7800.000
G1 E1.00000 F1800.000
G1 X89.164 Y110.836 E1.70509 F540.000
G1 X89.164 Y89.164 E2.41019
G1 X110.836 Y89.164 E3.11528
G1 X110.836 Y110.761 E3.81793
G1 X111.493 Y111.493 F7800.000
G1 X88.507 Y111.493 E4.56578 F540.000
G1 X88.507 Y88.507 E5.31363
G1 X111.493 Y88.507 E6.06148
G1 X111.493 Y111.418 E6.80689
G1 X112.150 Y112.150 F7800.000
G1 X87.850 Y112.150 E7.59749 F378.000
G1 X87.850 Y87.850 E8.38810
G1 X112.150 Y87.850 E9.17870
G1 X112.150 Y112.075 E9.96687
G1 X111.717 Y111.900 F7800.000
G1 X89.661 Y110.379 F7800.000
G1 X89.621 Y110.339 E9.96871 F1080.000
G1 X89.621 Y109.398 E9.99935
G1 X90.602 Y110.379 E10.04452
G1 X91.544 Y110.379 E10.07517
G1 X89.621 Y108.456 E10.16367
G1 X89.621 Y107.514 E10.19431
G1 X92.486 Y110.379 E10.32615
G1 X93.428 Y110.379 E10.35679
G1 X89.621 Y106.572 E10.53196
G1 X89.621 Y105.631 E10.56260
G1 X94.369 Y110.379 E10.78110
G1 X95.311 Y110.379 E10.81175
G1 X89.621 Y104.689 E11.07358
G1 X89.621 Y103.747 E11.10422
G1 X96.253 Y110.379 E11.40939
G1 X97.195 Y110.379 E11.44003
G1 X89.621 Y102.805 E11.78853
G1 X89.621 Y101.864 E11.81917
G1 X98.136 Y110.379 E12.21100
G1 X99.078 Y110.379 E12.24165
G1 X89.621 Y100.922 E12.67681
G1 X89.621 Y99.980 E12.70745
G1 X100.020 Y110.379 E13.18595
G1 X100.962 Y110.379 E13.21659
G1 X89.621 Y99.038 E13.73842
G1 X89.621 Y98.096 E13.76906
G1 X101.904 Y110.379 E14.33423
G1 X102.845 Y110.379 E14.36487
G1 X89.621 Y97.155 E14.97336
G1 X89.621 Y96.213 E15.00400
G1 X103.787 Y110.379 E15.65583
G1 X104.729 Y110.379 E15.68647
G1 X89.621 Y95.271 E16.38163
G1 X89.621 Y94.329 E16.41227
G1 X105.671 Y110.379 E17.15077
G1 X106.612 Y110.379 E17.18141
G1 X89.621 Y93.388 E17.96323
G1 X89.621 Y92.446 E17.99387
G1 X107.554 Y110.379 E18.81903
G1 X108.496 Y110.379 E18.84967
G1 X89.621 Y91.504 E19.71816
G1 X89.621 Y90.562 E19.74880
G1 X109.438 Y110.379 E20.66063
G1 X110.359 Y110.359 E20.69062
G1 X89.641 Y89.641 E21.64394
G1 X90.562 Y89.621 E21.67394
G1 X110.379 Y109.438 E22.58576
G1 X110.379 Y108.496 E22.61640
G1 X91.504 Y89.621 E23.48489
G1 X92.446 Y89.621 E23.51553
G1 X110.379 Y107.554 E24.34069
G1 X110.379 Y106.612 E24.37133
G1 X93.388 Y89.621 E25.15316
G1 X94.329 Y89.621 E25.18380
G1 X110.379 Y105.671 E25.92229
G1 X110.379 Y104.729 E25.95293
G1 X95.271 Y89.621 E26.64809
G1 X96.213 Y89.621 E26.67873
G1 X110.379 Y103.787 E27.33056
G1 X110.379 Y102.845 E27.36120
G1 X97.155 Y89.621 E27.96970
G1 X98.096 Y89.621 E28.00034
G1 X110.379 Y101.904 E28.56550
G1 X110.379 Y100.962 E28.59614
G1 X99.038 Y89.621 E29.11797
G1 X99.980 Y89.621 E29.14861
G1 X110.379 Y100.020 E29.62711
G1 X110.379 Y99.078 E29.65775
G1 X100.922 Y89.621 E30.09292
G1 X101.864 Y89.621 E30.12356
G1 X110.379 Y98.136 E30.51539
G1 X110.379 Y97.195 E30.54603
G1 X102.805 Y89.621 E30.89453
G1 X103.747 Y89.621 E30.92517
G1 X110.379 Y96.253 E31.23034
G1 X110.379 Y95.311 E31.26098
G1 X104.689 Y89.621 E31.52282
G1 X105.631 Y89.621 E31.55346
G1 X110.379 Y94.369 E31.77196
G1 X110.379 Y93.428 E31.80260
G1 X106.572 Y89.621 E31.97777
G1 X107.514 Y89.621 E32.00841
G1 X110.379 Y92.486 E32.14025
G1 X110.379 Y91.544 E32.17089
G1 X108.456 Y89.621 E32.25940
G1 X109.398 Y89.621 E32.29004
G1 X110.379 Y90.602 E32.33521
G1 X110.379 Y89.661 E32.36585
G1 X110.339 Y89.621 E32.36769
M106 S255
G1 F1800.000 E31.36769
G92 E0
G1 Z0.750 F7800.000
G1 X111.250 Y111.250 F7800.000
G1 E1.00000 F1800.000
G1 X88.750 Y111.250 E1.63662 F1602.006
G1 X88.750 Y88.750 E2.27324
G1 X111.250 Y88.750 E2.90986
G1 X111.250 Y111.175 E3.54436
G1 X111.750 Y111.750 F7800.000
G1 X88.250 Y111.750 E4.20927 F1602.006
G1 X88.250 Y88.250 E4.87419
G1 X111.750 Y88.250 E5.53910
G1 X111.750 Y111.675 E6.20189
G1 X112.250 Y112.250 F7800.000
G1 X87.750 Y112.250 E6.89510 F1121.404
G1 X87.750 Y87.750 E7.58831
G1 X112.250 Y87.750 E8.28152
G1 X112.250 Y112.175 E8.97260
G1 X111.817 Y112.000 F7800.000
G1 X110.903 Y110.863 F7800.000
G1 X110.863 Y110.903 E8.97427 F3204.012
G1 X110.125 Y110.903 E8.99596
G1 X110.903 Y110.125 E9.02831
G1 X110.903 Y109.387 E9.05000
G1 X109.387 Y110.903 E9.11303
G1 X108.650 Y110.903 E9.13473
G1 X110.903 Y108.650 E9.22844
G1 X110.903 Y107.912 E9.25014
G1 X107.912 Y110.903 E9.37454
G1 X107.174 Y110.903 E9.39623
G1 X110.903 Y107.174 E9.55131
G1 X110.903 Y106.436 E9.57301
G1 X106.436 Y110.903 E9.75877
G1 X105.698 Y110.903 E9.78047
G1 X110.903 Y105.698 E9.99692
G1 X110.903 Y104.960 E10.01861
G1 X104.960 Y110.903 E10.26574
G1 X104.223 Y110.903 E10.28744
G1 X110.903 Y104.223 E10.56525
G1 X110.903 Y103.485 E10.58695
G1 X103.485 Y110.903 E10.89544
G1 X102.747 Y110.903 E10.91714
G1 X110.903 Y102.747 E11.25632
G1 X110.903 Y102.009 E11.27802
G1 X102.009 Y110.903 E11.64788
G1 X101.271 Y110.903 E11.66957
G1 X110.903 Y101.271 E12.07012
G1 X110.903 Y100.533 E12.09182
G1 X100.533 Y110.903 E12.52305
G1 X99.796 Y110.903 E12.54474
G1 X110.903 Y99.796 E13.00665
G1 X110.903 Y99.058 E13.02835
G1 X99.058 Y110.903 E13.52095
G1 X98.320 Y110.903 E13.54264
G1 X110.903 Y98.320 E14.06592
G1 X110.903 Y97.582 E14.08762
G1 X97.582 Y110.903 E14.64158
G1 X96.844 Y110.903 E14.66328
G1 X110.903 Y96.844 E15.24792
G1 X110.903 Y96.106 E15.26962
G1 X96.106 Y110.903 E15.88495
G1 X95.369 Y110.903 E15.90664
G1 X110.903 Y95.369 E16.55266
G1 X110.903 Y94.631 E16.57435
G1 X94.631 Y110.903 E17.25105
G1 X93.893 Y110.903 E17.27274
G1 X110.903 Y93.893 E17.98012
G1 X110.903 Y93.155 E18.00182
G1 X93.155 Y110.903 E18.73988
G1 X92.417 Y110.903 E18.76158
G1 X110.903 Y92.417 E19.53032
G1 X110.903 Y91.679 E19.55202
G1 X91.679 Y110.903 E20.35145
G1 X90.941 Y110.903 E20.37314
G1 X110.903 Y90.941 E21.20326
G1 X110.903 Y90.204 E21.22495
G1 X90.204 Y110.903 E22.08575
G1 X89.466 Y110.903 E22.10744
G1 X110.903 Y89.466 E22.99892
G1 X110.534 Y89.097 E23.01426
G1 X89.097 Y110.534 E23.90574
G1 X89.097 Y109.796 E23.92744
G1 X109.796 Y89.097 E24.78823
G1 X109.059 Y89.097 E24.80993
G1 X89.097 Y109.059 E25.64004
G1 X89.097 Y108.321 E25.66174
G1 X108.321 Y89.097 E26.46117
G1 X107.583 Y89.097 E26.48286
G1 X89.097 Y107.583 E27.25161
G1 X89.097 Y106.845 E27.27330
G1 X106.845 Y89.097 E28.01137
G1 X106.107 Y89.097 E28.03306
G1 X89.097 Y106.107 E28.74044
G1 X89.097 Y105.369 E28.76214
G1 X105.369 Y89.097 E29.43883
G1 X104.631 Y89.097 E29.46053
G1 X89.097 Y104.631 E30.10654
G1 X89.097 Y103.894 E30.12824
G1 X103.894 Y89.097 E30.74357
G1 X103.156 Y89.097 E30.76526
G1 X89.097 Y103.156 E31.34991
G1 X89.097 Y102.418 E31.37160
G1 X102.418 Y89.097 E31.92557
G1 X101.680 Y89.097 E31.94726
G1 X89.097 Y101.680 E32.47054
G1 X89.097 Y100.942 E32.49224
G1 X100.942 Y89.097 E32.98483
G1 X100.204 Y89.097 E33.00653
G1 X89.097 Y100.204 E33.46844
G1 X89.097 Y99.467 E33.49014
G1 X99.467 Y89.097 E33.92137
G1 X98.729 Y89.097 E33.94306
G1 X89.097 Y98.729 E34.34361
G1 X89.097 Y97.991 E34.36531
G1 X97.991 Y89.097 E34.73517
G1 X97.253 Y89.097 E34.75687
G1 X89.097 Y97.253 E35.09604
G1 X89.097 Y96.515 E35.11774
G1 X96.515 Y89.097 E35.42624
G1 X95.777 Y89.097 E35.44793
G1 X89.097 Y95.777 E35.72575
G1 X89.097 Y95.040 E35.74744
G1 X95.040 Y89.097 E35.99457
G1 X94.302 Y89.097 E36.01627
G1 X89.097 Y94.302 E36.23272
G1 X89.097 Y93.564 E36.25441
G1 X93.564 Y89.097 E36.44017
G1 X92.826 Y89.097 E36.46187
G1 X89.097 Y92.826 E36.61695
G1 X89.097 Y92.088 E36.63865
G1 X92.088 Y89.097 E36.76304
G1 X91.350 Y89.097 E36.78474
G1 X89.097 Y91.350 E36.87845
G1 X89.097 Y90.613 E36.90015
G1 X90.613 Y89.097 E36.96318
G1 X89.875 Y89.097 E36.98488
G1 X89.097 Y89.875 E37.01722
G1 X89.097 Y89.137 E37.03892
G1 X89.137 Y89.097 E37.04058
G1 F1800.000 E36.04058
G92 E0
G1 Z1.150 F7800.000
G1 X111.250 Y111.250 F7800.000
G1 E1.00000 F1800.000
G1 X88.750 Y111.250 E1.63662 F1602.006
G1 X88.750 Y88.750 E2.27324
G1 X111.250 Y88.750 E2.90986
G1 X111.250 Y111.175 E3.54436
G1 X111.750 Y111.750 F7800.000
G1 X88.250 Y111.750 E4.20927 F1602.006
G1 X88.250 Y88.250 E4.87419
G1 X111.750 Y88.250 E5.53910
G1 X111.750 Y111.675 E6.20189
G1 X112.250 Y112.250 F7800.000
G1 X87.750 Y112.250 E6.89510 F1121.404
G1 X87.750 Y87.750 E7.58831
G1 X112.250 Y87.750 E8.28152
G1 X112.250 Y112.175 E8.97260
G1 X111.817 Y112.000 F7800.000
G1 X89.097 Y110.863 F7800.000
G1 X89.137 Y110.903 E8.97427 F3204.012
G1 X89.875 Y110.903 E8.99596
G1 X89.097 Y110.125 E9.02831
G1 X89.097 Y109.387 E9.05000
G1 X90.613 Y110.903 E9.11303
G1 X91.350 Y110.903 E9.13473
G1 X89.097 Y108.650 E9.22844
G1 X89.097 Y107.912 E9.25014
G1 X92.088 Y110.903 E9.37454
G1 X92.826 Y110.903 E9.39623
G1 X89.097 Y107.174 E9.55131
G1 X89.097 Y106.436 E9.57301
G1 X93.564 Y110.903 E9.75877
G1 X94.302 Y110.903 E9.78047
G1 X89.097 Y105.698 E9.99692
G1 X89.097 Y104.960 E10.01861
G1 X95.040 Y110.903 E10.26574
G1 X95.777 Y110.903 E10.28744
G1 X89.097 Y104.223 E10.56525
G1 X89.097 Y103.485 E10.58695
G1 X96.515 Y110.903 E10.89544
G1 X97.253 Y110.903 E10.91714
G1 X89.097 Y102.747 E11.25632
G1 X89.097 Y102.009 E11.27801
G1 X97.991 Y110.903 E11.64788
G1 X98.729 Y110.903 E11.66957
G1 X89.097 Y101.271 E12.07012
G1 X89.097 Y100.533 E12.09182
G1 X99.467 Y110.903 E12.52305
G1 X100.204 Y110.903 E12.54474
G1 X89.097 Y99.796 E13.00665
G1 X89.097 Y99.058 E13.02835
G1 X100.942 Y110.903 E13.52095
G1 X101.680 Y110.903 E13.54264
G1 X89.097 Y98.320 E14.06592
G1 X89.097 Y97.582 E14.08762
G1 X102.418 Y110.903 E14.64158
G1 X103.156 Y110.903 E14.66328
G1 X89.097 Y96.844 E15.24792
G1 X89.097 Y96.106 E15.26962
G1 X103.894 Y110.903 E15.88495
G1 X104.631 Y110.903 E15.90664
G1 X89.097 Y95.369 E16.55266
G1 X89.097 Y94.631 E16.57435
G1 X105.369 Y110.903 E17.25105
G1 X106.107 Y110.903 E17.27274
G1 X89.097 Y93.893 E17.98012
G1 X89.097 Y93.155 E18.00182
G1 X106.845 Y110.903 E18.73988
G1 X107.583 Y110.903 E18.76158
G1 X89.097 Y92.417 E19.53032
G1 X89.097 Y91.679 E19.55202
G1 X108.321 Y110.903 E20.35145
G1 X109.059 Y110.903 E20.37314
G1 X89.097 Y90.941 E21.20325
G1 X89.097 Y90.204 E21.22495
G1 X109.796 Y110.903 E22.08575
G1 X110.534 Y110.903 E22.10744
G1 X89.097 Y89.466 E22.99892
G1 X89.466 Y89.097 E23.01426
G1 X110.903 Y110.534 E23.90574
G1 X110.903 Y109.796 E23.92744
G1 X90.204 Y89.097 E24.78823
G1 X90.941 Y89.097 E24.80993
G1 X110.903 Y109.059 E25.64004
G1 X110.903 Y108.321 E25.66174
G1 X91.679 Y89.097 E26.46116
G1 X92.417 Y89.097 E26.48286
G1 X110.903 Y107.583 E27.25161
G1 X110.903 Y106.845 E27.27330
G1 X93.155 Y89.097 E28.01136
G1 X93.893 Y89.097 E28.03306
G1 X110.903 Y106.107 E28.74044
G1 X110.903 Y105.369 E28.76214
G1 X94.631 Y89.097 E29.43883
G1 X95.369 Y89.097 E29.46053
G1 X110.903 Y104.631 E30.10654
G1 X110.903 Y103.894 E30.12824
G1 X96.106 Y89.097 E30.74357
G1 X96.844 Y89.097 E30.76526
G1 X110.903 Y103.156 E31.34991
G1 X110.903 Y102.418 E31.37160
G1 X97.582 Y89.097 E31.92557
G1 X98.320 Y89.097 E31.94726
G1 X110.903 Y101.680 E32.47054
G1 X110.903 Y100.942 E32.49224
G1 X99.058 Y89.097 E32.98483
G1 X99.796 Y89.097 E33.00653
G1 X110.903 Y100.204 E33.46844
G1 X110.903 Y99.467 E33.49014
G1 X100.533 Y89.097 E33.92137
G1 X101.271 Y89.097 E33.94306
G1 X110.903 Y98.729 E34.34361
G1 X110.903 Y97.991 E34.36531
G1 X102.009 Y89.097 E34.73517
G1 X102.747 Y89.097 E34.75687
G1 X110.903 Y97.253 E35.09604
G1 X110.903 Y96.515 E35.11774
G1 X103.485 Y89.097 E35.42624
G1 X104.223 Y89.097 E35.44793
G1 X110.903 Y95.777 E35.72575
G1 X110.903 Y95.040 E35.74744
G1 X104.960 Y89.097 E35.99457
G1 X105.698 Y89.097 E36.01627
G1 X110.903 Y94.302 E36.23271
G1 X110.903 Y93.564 E36.25441
G1 X106.436 Y89.097 E36.44017
G1 X107.174 Y89.097 E36.46187
G1 X110.903 Y92.826 E36.61695
G1 X110.903 Y92.088 E36.63865
G1 X107.912 Y89.097 E36.76304
G1 X108.650 Y89.097 E36.78474
G1 X110.903 Y91.350 E36.87845
G1 X110.903 Y90.613 E36.90015
G1 X109.387 Y89.097 E36.96318
G1 X110.125 Y89.097 E36.98488
G1 X110.903 Y89.875 E37.01722
G1 X110.903 Y89.137 E37.03892
G1 X110.863 Y89.097 E37.04058
G1 F1800.000 E36.04058
G92 E0
G1 Z1.550 F7800.000
G1 X111.250 Y111.250 F7800.000
G1 E1.00000 F1800.000
G1 X88.750 Y111.250 E1.63662 F1132.053
G1 X88.750 Y88.750 E2.27324
G1 X111.250 Y88.750 E2.90986
G1 X111.250 Y111.175 E3.54436
G1 X111.750 Y111.750 F7800.000
G1 X88.250 Y111.750 E4.20927 F1132.053
G1 X88.250 Y88.250 E4.87419
G1 X111.750 Y88.250 E5.53910
G1 X111.750 Y111.675 E6.20189
G1 X112.250 Y112.250 F7800.000
G1 X87.750 Y112.250 E6.89510 F792.437
G1 X87.750 Y87.750 E7.58831
G1 X112.250 Y87.750 E8.28152
G1 X112.250 Y112.175 E8.97260
G1 X111.817 Y112.000 F7800.000
G1 X110.883 Y109.210 F7800.000
G1 X110.062 Y108.990 E8.99760 F2264.105
G1 X108.789 Y110.263 E9.05053
G1 X108.955 Y110.883 E9.06941
G1 X110.883 Y106.520 F7800.000
G1 X110.734 Y106.481 E9.07393 F2264.105
G1 X109.462 Y107.753 E9.12686
G1 X109.695 Y108.623 E9.15333
G1 X108.422 Y109.896 E9.20626
G1 X107.552 Y109.663 E9.23273
G1 X106.332 Y110.883 E9.28348
G1 X104.495 Y110.883 E9.33750
G1 X105.043 Y110.335 E9.36029
G1 X105.912 Y110.568 E9.38676
G1 X107.185 Y109.295 E9.43969
G1 X106.952 Y108.426 E9.46616
G1 X108.225 Y107.153 E9.51909
G1 X109.094 Y107.386 E9.54555
G1 X110.367 Y106.113 E9.59848
G1 X110.134 Y105.244 E9.62495
G1 X110.883 Y104.495 E9.65610
G1 X110.883 Y103.760 E9.67771
G1 X109.767 Y104.876 E9.72413
G1 X108.897 Y104.643 E9.75060
G1 X107.624 Y105.916 E9.80353
G1 X107.857 Y106.786 E9.83000
G1 X106.585 Y108.058 E9.88293
G1 X105.715 Y107.825 E9.90939
G1 X104.442 Y109.098 E9.96233
G1 X104.675 Y109.968 E9.98879
G1 X103.760 Y110.883 E10.02686
G1 X101.923 Y110.883 E10.08088
G1 X102.166 Y110.640 E10.09099
G1 X101.933 Y109.771 E10.11746
G1 X103.206 Y108.498 E10.17039
G1 X104.075 Y108.731 E10.19685
G1 X105.348 Y107.458 E10.24978
G1 X105.115 Y106.589 E10.27625
G1 X106.388 Y105.316 E10.32918
G1 X107.257 Y105.549 E10.35565
G1 X108.530 Y104.276 E10.40858
G1 X108.297 Y103.407 E10.43505
G1 X109.570 Y102.134 E10.48798
G1 X110.439 Y102.367 E10.51444
G1 X110.883 Y101.923 E10.53291
G1 X110.883 Y99.796 E10.59545
G1 X110.242 Y99.624 E10.61496
G1 X108.969 Y100.897 E10.66789
G1 X109.202 Y101.766 E10.69435
G1 X107.929 Y103.039 E10.74729
G1 X107.060 Y102.806 E10.77375
G1 X105.787 Y104.079 E10.82668
G1 X106.020 Y104.948 E10.85315
G1 X104.747 Y106.221 E10.90608
G1 X103.878 Y105.988 E10.93255
G1 X102.605 Y107.261 E10.98548
G1 X102.838 Y108.130 E11.01194
G1 X101.565 Y109.403 E11.06488
G1 X100.696 Y109.170 E11.09134
G1 X99.423 Y110.443 E11.14427
G1 X99.541 Y110.883 E11.15766
G1 X97.146 Y110.883 E11.22809
G1 X98.186 Y109.843 E11.27135
G1 X99.056 Y110.076 E11.29782
G1 X100.328 Y108.803 E11.35075
G1 X100.096 Y107.934 E11.37721
G1 X101.368 Y106.661 E11.43015
G1 X102.238 Y106.894 E11.45661
G1 X103.511 Y105.621 E11.50954
G1 X103.278 Y104.751 E11.53601
G1 X104.550 Y103.479 E11.58894
G1 X105.420 Y103.712 E11.61541
G1 X106.693 Y102.439 E11.66834
G1 X106.460 Y101.569 E11.69480
G1 X107.733 Y100.297 E11.74773
G1 X108.602 Y100.529 E11.77420
G1 X109.875 Y99.257 E11.82713
G1 X109.642 Y98.387 E11.85360
G1 X110.883 Y97.146 E11.90522
G1 X110.883 Y95.309 E11.95924
G1 X110.314 Y95.878 E11.98289
G1 X110.547 Y96.747 E12.00936
G1 X109.274 Y98.020 E12.06229
