; generated by Slic3r 1.1.7 on 2014-12-10 at 21:31:26

; perimeters extrusion width = 0.40mm
; infill extrusion width = 0.67mm
; solid infill extrusion width = 0.67mm
; top infill extrusion width = 0.67mm
; support material extrusion width = 0.40mm

G21 ; set units to millimeters
M190 S65 ; wait for bed temperature to be reached
M104 S186 ; set temperature
G28 ; home all axes Start of G Code Slic3r
 
M109 S186 ; wait for temperature to be reached
G90 ; use absolute coordinates
G92 E0
M82 ; use absolute distances for extrusion
G1 F1860.000 E-3.00000
G92 E0
G1 Z0.200 F6000.000
G1 X50.303 Y58.055 F6000.000
G1 E3.10000 F1860.000
G1 X52.051 Y56.608 E3.14125 F1200.000
G1 X54.120 Y55.863 E3.18122
G1 X111.750 Y45.764 E4.24485
G1 X119.750 Y45.764 E4.39028
G1 X121.984 Y46.161 E4.43153
G1 X123.945 Y47.303 E4.47278 F1200.000
G1 X125.676 Y49.614 E4.52527
G1 X150.480 Y105.378 E5.63477
G1 X150.960 Y106.999 E5.66550
G1 X151.236 Y109.250 E5.70673
G1 X151.156 Y113.264 E5.77972
G1 X150.960 Y114.501 E5.80247
G1 X150.333 Y116.430 E5.83935
G1 X149.765 Y117.546 E5.86211
G1 X148.609 Y119.150 E5.89807
G1 X116.687 Y151.572 E6.72520
G1 X115.046 Y152.765 E6.76208
G1 X113.931 Y153.333 E6.78483
G1 X112.001 Y153.960 E6.82172
G1 X109.750 Y154.236 E6.86295
G1 X101.736 Y154.156 E7.00865
G1 X100.499 Y153.960 E7.03140
G1 X98.570 Y153.333 E7.06828
G1 X97.454 Y152.765 E7.09104
G1 X96.247 Y151.969 E7.11734
G1 X71.813 Y131.572 E7.69594
G1 X70.928 Y130.687 E7.71869
G1 X69.735 Y129.046 E7.75558
G1 X68.992 Y127.558 E7.78582
G1 X56.548 Y98.648 E8.35798
G1 X49.048 Y74.148 E8.82377
G1 X48.764 Y72.250 E8.85866
G1 X48.764 Y62.250 E9.04045
G1 X49.161 Y60.016 E9.08170
G1 X50.273 Y58.107 E9.12186
G1 X50.522 Y58.185 F6000.000
G1 X50.544 Y58.148 E9.12265 F1200.000
G1 X52.282 Y56.758 E9.16312
G1 X54.162 Y56.103 E9.19931
G1 X111.750 Y46.007 E10.26217
G1 X119.750 Y46.007 E10.40760
G1 X121.940 Y46.404 E10.44806
G1 X123.852 Y47.544 E10.48852 F1200.000
G1 X125.454 Y49.713 E10.53754
G1 X150.258 Y105.477 E11.64704
G1 X150.720 Y107.037 E11.67662
G1 X150.993 Y109.250 E11.71716
G1 X150.916 Y113.226 E11.78946
G1 X150.720 Y114.463 E11.81221
G1 X150.117 Y116.320 E11.84771
G1 X149.549 Y117.435 E11.87047
G1 X148.436 Y118.980 E11.90508
G1 X116.516 Y151.400 E12.73217
G1 X114.935 Y152.549 E12.76768
G1 X113.820 Y153.117 E12.79043
G1 X111.963 Y153.720 E12.82593
G1 X109.750 Y153.993 E12.86647
G1 X101.774 Y153.916 E13.01148
G1 X100.537 Y153.720 E13.03423
G1 X98.680 Y153.117 E13.06973
G1 X97.565 Y152.549 E13.09249
G1 X96.402 Y151.782 E13.11780
G1 X71.984 Y131.401 E13.69601
G1 X71.100 Y130.516 E13.71876
G1 X69.951 Y128.935 E13.75426
G1 X69.215 Y127.461 E13.78422
G1 X56.781 Y98.577 E14.35589
G1 X49.281 Y74.077 E14.82168
G1 X49.007 Y72.250 E14.85527
G1 X49.007 Y62.250 E15.03706
G1 X49.404 Y60.060 E15.07752
G1 X50.491 Y58.237 E15.11610
G1 F1860.000 E12.11610
G92 E0
G1 X74.850 Y96.350 F6000.000
G1 E3.10000 F1860.000
G1 X64.237 Y96.350 E3.29294 F1200.000
G1 X63.698 Y96.206 E3.30307
G1 X63.294 Y95.802 E3.31346
G1 X63.150 Y95.263 E3.32359
G1 X63.150 Y81.737 E3.56949
G1 X63.294 Y81.198 E3.57963
G1 X63.698 Y80.794 E3.59001
G1 X64.237 Y80.650 E3.60015
G1 X74.850 Y80.650 E3.79308
G1 X74.850 Y96.290 E4.07740
G1 F1860.000 E1.07740
G92 E0
G1 X70.641 Y90.050 F6000.000
G1 E3.10000 F1860.000
G1 X70.054 Y90.442 E3.11282 F1200.000
G1 X69.250 Y90.602 E3.12773
G1 X68.446 Y90.442 E3.14264
G1 X67.764 Y89.986 E3.15755
G1 X67.308 Y89.304 E3.17246
G1 X67.148 Y88.500 E3.18737
G1 X67.308 Y87.696 E3.20227
G1 X67.764 Y87.014 E3.21718
G1 X68.476 Y86.552 E3.23261
G1 X69.250 Y86.398 E3.24696 F1200.000
G1 X70.054 Y86.558 E3.26187
G1 X70.736 Y87.014 E3.27678
G1 X71.192 Y87.696 E3.29169
G1 X71.352 Y88.500 E3.30660
G1 X71.192 Y89.304 E3.32151
G1 X70.736 Y89.986 E3.33642
G1 X70.691 Y90.017 E3.33742
G1 F1860.000 E0.33742
G92 E0
G1 X68.348 Y86.173 F6000.000
G1 X74.282 Y69.049 F6000.000
G1 E3.10000 F1860.000
G1 X73.440 Y68.644 E3.11700 F1200.000
G1 X72.856 Y67.912 E3.13401
G1 X72.648 Y67.000 E3.15102
G1 X72.856 Y66.088 E3.16802
G1 X73.440 Y65.356 E3.18503
G1 X74.283 Y64.951 E3.20203
G1 X75.218 Y64.951 E3.21903
G1 X76.060 Y65.356 E3.23603
G1 X76.644 Y66.088 E3.25304 F1200.000
G1 X76.852 Y67.000 E3.27005
G1 X76.643 Y67.913 E3.28708
G1 X76.061 Y68.643 E3.30406
G1 X75.218 Y69.049 E3.32107
G1 X74.342 Y69.049 E3.33698
G1 X74.338 Y68.806 F6000.000
G1 X73.595 Y68.449 E3.35196 F1200.000
G1 X73.081 Y67.804 E3.36696
G1 X72.897 Y67.000 E3.38195
G1 X73.081 Y66.196 E3.39694
G1 X73.595 Y65.551 E3.41193
G1 X74.338 Y65.194 E3.42692
G1 X75.162 Y65.194 E3.44190 F1200.000
G1 X75.905 Y65.551 E3.45689
G1 X76.419 Y66.196 E3.47188
G1 X76.603 Y67.000 E3.48687
G1 X76.419 Y67.805 E3.50188
G1 X75.906 Y68.449 E3.51685
G1 X75.162 Y68.806 E3.53184
G1 X74.398 Y68.806 E3.54574
G1 F1860.000 E0.54574
G92 E0
G1 X74.308 Y64.795 F6000.000
G1 X87.648 Y67.000 F6000.000
G1 E3.10000 F1860.000
G1 X87.857 Y66.087 E3.11703 F1200.000
G1 X88.439 Y65.357 E3.13400
G1 X89.282 Y64.951 E3.15102
G1 X90.218 Y64.951 E3.16803
G1 X91.060 Y65.356 E3.18502
G1 X91.644 Y66.088 E3.20203 F1200.000
G1 X91.852 Y67.000 E3.21904
G1 X91.644 Y67.912 E3.23604
G1 X91.060 Y68.643 E3.25304
G1 X90.218 Y69.049 E3.27005
G1 X89.282 Y69.049 E3.28706
G1 X88.440 Y68.644 E3.30405
G1 X87.856 Y67.912 E3.32106
G1 X87.662 Y67.059 E3.33697
G1 X87.897 Y67.000 F6000.000
G1 X88.081 Y66.195 E3.35199 F1200.000
G1 X88.594 Y65.552 E3.36694
G1 X89.338 Y65.194 E3.38194
G1 X90.163 Y65.194 E3.39694 F1200.000
G1 X90.905 Y65.551 E3.41191
G1 X91.419 Y66.196 E3.42691
G1 X91.603 Y67.000 E3.44190
G1 X91.419 Y67.804 E3.45689
G1 X90.905 Y68.448 E3.47187
G1 X90.162 Y68.806 E3.48686
G1 X89.337 Y68.806 E3.50186
G1 X88.595 Y68.449 E3.51683
G1 X88.081 Y67.804 E3.53183
G1 X87.911 Y67.059 E3.54572
G1 F1860.000 E0.54572
G92 E0
G1 X89.397 Y64.798 F6000.000
G1 X133.107 Y109.440 F6000.000
G1 E3.10000 F1860.000
G1 X133.838 Y108.856 E3.11700 F1200.000
G1 X134.711 Y108.657 E3.13329
G1 X139.336 Y108.668 E3.21736
G1 X140.162 Y108.856 E3.23276 F1200.000
G1 X140.893 Y109.440 E3.24976
G1 X141.299 Y110.282 E3.26677
G1 X141.299 Y111.218 E3.28377
G1 X140.893 Y112.060 E3.30078
G1 X140.162 Y112.644 E3.31778
G1 X139.289 Y112.843 E3.33406
G1 X134.711 Y112.843 E3.41727
G1 X133.838 Y112.644 E3.43356
G1 X133.107 Y112.060 E3.45056
G1 X132.701 Y111.218 E3.46756
G1 X132.701 Y110.282 E3.48457
G1 X133.081 Y109.494 E3.50048
G1 X133.302 Y109.595 F6000.000
G1 X133.946 Y109.081 E3.51547 F1200.000
G1 X134.739 Y108.900 E3.53025
G1 X139.261 Y108.900 E3.61246 F1200.000
G1 X140.054 Y109.081 E3.62724
G1 X140.698 Y109.595 E3.64223
G1 X141.056 Y110.338 E3.65722
G1 X141.056 Y111.162 E3.67221
G1 X140.698 Y111.905 E3.68719
G1 X140.054 Y112.419 E3.70218
G1 X139.261 Y112.600 E3.71696
G1 X134.739 Y112.600 E3.79918
G1 X133.946 Y112.419 E3.81395
G1 X133.302 Y111.905 E3.82894
G1 X132.944 Y111.162 E3.84393
G1 X132.944 Y110.338 E3.85892
G1 X133.276 Y109.649 E3.87281
G1 X134.856 Y108.518 F6000.000
G1 F1860.000 E0.87281
G92 E0
G1 X117.093 Y85.843 F6000.000
G1 E3.10000 F1860.000
G1 X112.407 Y85.843 E3.18518 F1200.000
G1 X112.407 Y77.657 E3.33399
G1 X117.093 Y77.657 E3.41918
G1 X117.093 Y85.783 E3.56690
G1 X116.850 Y85.600 F6000.000
G1 X112.650 Y85.600 E3.64325 F1200.000
G1 X112.650 Y77.900 E3.78323
G1 X116.850 Y77.900 E3.85958
G1 X116.850 Y85.540 E3.99847
G1 X116.850 Y86.000 F6000.000
G1 F1860.000 E0.99847
G92 E0
G1 X107.093 Y77.407 F6000.000
G1 E3.10000 F1860.000
G1 X107.093 Y94.444 E3.40971 F1200.000
G1 X99.623 Y98.932 E3.56813
G1 X98.230 Y96.796 E3.61450
G1 X96.784 Y95.143 E3.65442
G1 X95.121 Y93.708 E3.69435
G1 X93.274 Y92.520 E3.73427
G1 X91.279 Y91.602 E3.77419
G1 X88.907 Y90.893 E3.81920
G1 X88.907 Y77.407 E4.06436
G1 X107.033 Y77.407 E4.39387
G1 X106.850 Y77.650 F6000.000
G1 X106.850 Y94.307 E4.69667 F1200.000
G1 X99.699 Y98.603 E4.84833
G1 X98.424 Y96.649 E4.89075
G1 X96.956 Y94.970 E4.93130
G1 X95.267 Y93.513 E4.97184
G1 X93.391 Y92.307 E5.01239
G1 X91.365 Y91.375 E5.05293
G1 X89.150 Y90.712 E5.09496
G1 X89.150 Y77.650 E5.33241
G1 X106.790 Y77.650 E5.65309
G1 X107.250 Y77.650 F6000.000
G1 F1860.000 E2.65309
G92 E0
G1 X106.850 Y108.657 F6000.000
G1 E3.10000 F1860.000
G1 X108.336 Y108.668 E3.12701 F1200.000
G1 X109.162 Y108.856 E3.14242 F1200.000
G1 X109.893 Y109.440 E3.15942
G1 X110.299 Y110.282 E3.17642
G1 X110.299 Y111.218 E3.19343
G1 X109.893 Y112.060 E3.21043
G1 X109.162 Y112.644 E3.22744
G1 X108.289 Y112.843 E3.24372
G1 X103.711 Y112.843 E3.32693
G1 X102.838 Y112.644 E3.34321
G1 X102.107 Y112.060 E3.36022
G1 X101.701 Y111.218 E3.37722
G1 X101.701 Y110.282 E3.39422
G1 X102.107 Y109.440 E3.41123
G1 X102.838 Y108.856 E3.42823
G1 X103.711 Y108.657 E3.44452
G1 X106.790 Y108.657 E3.50048
G1 X106.850 Y108.900 F6000.000
G1 X108.261 Y108.900 E3.52614 F1200.000
G1 X109.054 Y109.081 E3.54092
G1 X109.698 Y109.595 E3.55590
G1 X110.056 Y110.338 E3.57089
G1 X110.056 Y111.162 E3.58588
G1 X109.698 Y111.905 E3.60087
G1 X109.054 Y112.419 E3.61586
G1 X108.261 Y112.600 E3.63063
G1 X103.739 Y112.600 E3.71285
G1 X102.946 Y112.419 E3.72763
G1 X102.302 Y111.905 E3.74262
G1 X101.944 Y111.162 E3.75760
G1 X101.944 Y110.338 E3.77259
G1 X102.302 Y109.595 E3.78758
G1 X102.946 Y109.081 E3.80257
G1 X103.739 Y108.900 E3.81735
G1 X106.790 Y108.900 E3.87282 F1200.000
G1 F1860.000 E0.87282
G92 E0
G1 X103.739 Y108.500 F6000.000
G1 X106.850 Y139.657 F6000.000
G1 E3.10000 F1860.000
G1 X108.336 Y139.668 E3.12701 F1200.000
G1 X109.162 Y139.856 E3.14242 F1200.000
G1 X109.893 Y140.440 E3.15942
G1 X110.299 Y141.282 E3.17642
G1 X110.299 Y142.218 E3.19343
G1 X109.893 Y143.060 E3.21043
G1 X109.162 Y143.644 E3.22744
G1 X108.289 Y143.843 E3.24372
G1 X103.711 Y143.843 E3.32693
G1 X102.838 Y143.644 E3.34321
G1 X102.107 Y143.060 E3.36022
G1 X101.701 Y142.218 E3.37722
G1 X101.701 Y141.282 E3.39422
G1 X102.107 Y140.440 E3.41123
G1 X102.838 Y139.856 E3.42823
G1 X103.711 Y139.657 E3.44452
G1 X106.790 Y139.657 E3.50048
G1 X106.850 Y139.900 F6000.000
G1 X108.261 Y139.900 E3.52614 F1200.000
G1 X109.054 Y140.081 E3.54092
G1 X109.698 Y140.595 E3.55590
G1 X110.056 Y141.338 E3.57089
G1 X110.056 Y142.162 E3.58588
G1 X109.698 Y142.905 E3.60087
G1 X109.054 Y143.419 E3.61586
G1 X108.261 Y143.600 E3.63063
G1 X103.739 Y143.600 E3.71285
G1 X102.946 Y143.419 E3.72763
G1 X102.302 Y142.905 E3.74262
G1 X101.944 Y142.162 E3.75760
G1 X101.944 Y141.338 E3.77259
G1 X102.302 Y140.595 E3.78758
G1 X102.946 Y140.081 E3.80257
G1 X103.739 Y139.900 E3.81735
G1 X106.790 Y139.900 E3.87282 F1200.000
G1 F1860.000 E0.87282
G92 E0
G1 X103.739 Y139.500 F6000.000
G1 X119.407 Y105.593 F6000.000
G1 E3.10000 F1860.000
G1 X140.723 Y105.593 E3.48750 F1200.000
G1 X141.879 Y105.776 E3.50878
G1 X142.897 Y106.295 E3.52955
G1 X143.705 Y107.103 E3.55033
G1 X144.224 Y108.121 E3.57110
G1 X144.407 Y109.277 E3.59238
G1 X144.407 Y112.223 E3.64593
G1 X144.224 Y113.379 E3.66720
G1 X143.705 Y114.397 E3.68798
G1 X142.897 Y115.205 E3.70876
G1 X141.879 Y115.724 E3.72953
G1 X140.723 Y115.907 E3.75080
G1 X131.422 Y115.907 E3.91990
G1 X129.702 Y114.482 E3.96050
G1 X127.638 Y113.285 E4.00387
G1 X125.404 Y112.447 E4.04723
G1 X123.063 Y111.991 E4.09060
G1 X120.678 Y111.929 E4.13397
G1 X118.316 Y112.264 E4.17734
G1 X116.042 Y112.985 E4.22071
G1 X113.919 Y114.073 E4.26408
G1 X112.005 Y115.498 E4.30744
G1 X110.355 Y117.220 E4.35081
G1 X109.012 Y119.192 E4.39418
G1 X108.015 Y121.360 E4.43755
G1 X107.406 Y123.607 E4.47987
G1 X107.157 Y126.036 E4.52427
G1 X107.320 Y128.416 E4.56764
G1 X107.876 Y130.737 E4.61101
G1 X108.808 Y132.933 E4.65438
G1 X110.091 Y134.944 E4.69775
G1 X111.689 Y136.715 E4.74112
G1 X113.407 Y138.075 E4.78095
G1 X113.407 Y143.723 E4.88362
G1 X113.224 Y144.879 E4.90490
G1 X112.705 Y145.897 E4.92567
G1 X111.897 Y146.705 E4.94645
G1 X110.879 Y147.224 E4.96722
G1 X109.723 Y147.407 E4.98850
G1 X102.777 Y147.407 E5.11477
G1 X101.621 Y147.224 E5.13604
G1 X100.603 Y146.705 E5.15682
G1 X99.795 Y145.897 E5.17759
G1 X99.276 Y144.879 E5.19837
G1 X99.093 Y143.723 E5.21964
G1 X99.093 Y131.723 E5.43779
G1 X98.884 Y130.407 E5.46202
G1 X98.267 Y129.195 E5.48674
G1 X97.305 Y128.233 E5.51147
G1 X96.093 Y127.616 E5.53619
G1 X94.777 Y127.407 E5.56042
G1 X78.777 Y127.407 E5.85129
G1 X77.621 Y127.224 E5.87256
G1 X76.603 Y126.705 E5.89334
G1 X75.795 Y125.897 E5.91411
G1 X75.276 Y124.879 E5.93489
G1 X75.093 Y123.723 E5.95616
G1 X75.093 Y111.113 E6.18540
G1 X75.240 Y111.076 E6.18816
G1 X76.072 Y112.634 E6.22027
G1 X77.419 Y114.314 E6.25941
G1 X79.053 Y115.715 E6.29855
G1 X80.919 Y116.790 E6.33769
G1 X82.951 Y117.501 E6.37683
G1 X85.079 Y117.825 E6.41597
G1 X87.231 Y117.749 E6.45511
G1 X89.332 Y117.277 E6.49424
G1 X91.309 Y116.425 E6.53338
G1 X93.084 Y115.230 E6.57228
G1 X94.609 Y113.730 E6.61118
G1 X95.833 Y111.975 E6.65007
G1 X96.713 Y110.025 E6.68897
G1 X97.220 Y107.946 E6.72786
G1 X97.336 Y105.810 E6.76676
G1 X97.058 Y103.688 E6.80565
G1 X96.395 Y101.654 E6.84455
G1 X95.369 Y99.776 E6.88344
G1 X94.052 Y98.164 E6.92129
G1 X92.381 Y96.739 E6.96122
G1 X90.520 Y95.682 E7.00011
G1 X88.497 Y94.986 E7.03901
G1 X86.380 Y94.673 E7.07791
G1 X84.242 Y94.754 E7.11680
G1 X82.156 Y95.227 E7.15570
G1 X80.192 Y96.075 E7.19457
G1 X78.533 Y97.176 E7.23078
G1 X77.087 Y98.544 E7.26697
G1 X75.896 Y100.140 E7.30316
G1 X75.242 Y101.431 E7.32947
G1 X75.093 Y101.395 E7.33226
G1 X75.093 Y79.407 E7.73199
G1 X68.892 Y79.407 E7.84471
G1 X65.093 Y75.608 E7.94239
G1 X65.093 Y64.093 E8.15172
G1 X94.608 Y64.093 E8.68827
G1 X98.407 Y67.892 E8.78594
G1 X98.407 Y73.593 E8.88958
G1 X112.093 Y73.593 E9.13838
G1 X112.093 Y52.593 E9.52014
G1 X119.407 Y52.593 E9.65310
G1 X119.407 Y105.533 E10.61550
G1 F1860.000 E7.61550
G92 E0
G1 X71.466 Y89.418 F6000.000
G1 E3.10000 F1860.000
G1 X70.946 Y90.196 E3.11701 F1200.000
G1 X70.168 Y90.716 E3.13402
G1 X69.250 Y90.898 E3.15103
G1 X68.332 Y90.716 E3.16804
G1 X67.554 Y90.196 E3.18505
G1 X67.034 Y89.418 E3.20206
G1 X66.852 Y88.500 E3.21907
G1 X67.034 Y87.582 E3.23608
G1 X67.554 Y86.804 E3.25309
G1 X68.332 Y86.285 E3.27010
G1 X69.250 Y86.102 E3.28711 F1200.000
G1 X70.168 Y86.284 E3.30411
G1 X70.946 Y86.804 E3.32112
G1 X71.466 Y87.582 E3.33813
G1 X71.648 Y88.500 E3.35514
G1 X71.477 Y89.359 E3.37106
G1 F1860.000 E0.37106
G92 E0
G1 X63.093 Y81.056 F6000.000
G1 E3.10000 F1860.000
G1 X63.093 Y80.593 E3.10842 F1200.000
G1 X63.556 Y80.593 E3.11684
G1 X63.135 Y81.014 E3.12766
G1 F1860.000 E0.12766
G92 E0
G1 X56.056 Y71.907 F6000.000
G1 E3.10000 F1860.000
G1 X55.593 Y71.907 E3.10842 F1200.000
G1 X55.593 Y71.444 E3.11684
G1 X56.014 Y71.865 E3.12766
G1 F1860.000 E0.12766
G92 E0
G1 X55.593 Y63.056 F6000.000
G1 E3.10000 F1860.000
G1 X55.593 Y62.593 E3.10842 F1200.000
G1 X56.056 Y62.593 E3.11684
G1 X55.635 Y63.014 E3.12766
G1 F1860.000 E0.12766
G92 E0
G1 X63.093 Y95.944 F6000.000
G1 E3.10000 F1860.000
G1 X63.556 Y96.407 E3.11191 F1200.000
G1 X63.093 Y96.407 E3.12033
G1 X63.093 Y96.004 E3.12766
G1 F1860.000 E0.12766
G92 E0
G1 X74.850 Y96.650 F6000.000
G1 E3.10000 F1860.000
G1 X62.850 Y96.650 E3.31815 F1200.000
G1 X62.850 Y80.350 E3.61447
G1 X74.850 Y80.350 E3.83261
G1 X74.850 Y79.650 E3.84534
G1 X68.791 Y79.650 E3.95548
G1 X64.850 Y75.709 E4.05681
G1 X64.850 Y72.150 E4.12150
G1 X55.350 Y72.150 E4.29420
G1 X55.350 Y62.350 E4.47236
G1 X64.650 Y62.350 E4.64142
G1 X64.650 Y62.650 E4.64687
G1 X56.737 Y62.650 E4.79073
G1 X56.198 Y62.794 E4.80086
G1 X55.794 Y63.198 E4.81125
G1 X55.650 Y63.737 E4.82138
G1 X55.650 Y70.763 E4.94912
G1 X55.794 Y71.302 E4.95925
G1 X56.198 Y71.706 E4.96964
G1 X56.737 Y71.850 E4.97977
G1 X64.850 Y71.850 E5.12726
G1 X64.850 Y63.850 E5.27270
G1 X94.709 Y63.850 E5.81550
G1 X98.650 Y67.791 E5.91683
G1 X98.650 Y73.350 E6.01788
G1 X111.850 Y73.350 E6.25784
G1 X111.850 Y52.350 E6.63960
G1 X119.650 Y52.350 E6.78139
G1 X119.650 Y105.350 E7.74488
G1 X140.742 Y105.350 E8.12832
G1 X141.955 Y105.542 E8.15064
G1 X143.042 Y106.096 E8.17281
G1 X143.904 Y106.958 E8.19499
G1 X144.458 Y108.045 E8.21716
G1 X144.650 Y109.258 E8.23948
G1 X144.650 Y112.242 E8.29373
G1 X144.458 Y113.455 E8.31605
G1 X143.904 Y114.542 E8.33823
G1 X143.042 Y115.404 E8.36040
G1 X141.955 Y115.958 E8.38258
G1 X140.742 Y116.150 E8.40489
G1 X131.334 Y116.150 E8.57593
G1 X129.562 Y114.682 E8.61775
G1 X127.534 Y113.506 E8.66038
