; generated by Slic3r 1.1.7 on 2014-12-05 at 08:02:48

; perimeters extrusion width = 0.42mm
; infill extrusion width = 0.74mm
; solid infill extrusion width = 0.71mm
; top infill extrusion width = 0.71mm

G21 ; set units to millimeters
M190 S60 ; wait for bed temperature to be reached
M104 S186 ; set temperature
G28 ; home all axes
M109 S186 ; wait for temperature to be reached
G90 ; use absolute coordinates
G92 E0
M82 ; use absolute distances for extrusion
M106 S127
G1 F1860.000 E-3.00000
G92 E0
G1 Z0.200 F6000.000
G1 X63.388 Y76.804 F6000.000
G1 E3.10000 F1860.000
G1 X66.595 Y75.957 E3.16137 F1200.000
G1 X92.318 Y75.958 E3.63725
G1 X133.499 Y76.555 E4.39919 F1200.000
G1 X135.729 Y76.984 E4.44119
G1 X137.674 Y78.155 E4.48320
G1 X139.098 Y79.923 E4.52521
G1 X139.899 Y83.049 E4.58489
G1 X139.899 Y117.549 E5.22315
G1 X139.502 Y119.784 E5.26516
G1 X138.360 Y121.746 E5.30716
G1 X136.612 Y123.196 E5.34917
G1 X133.405 Y124.043 E5.41054
G1 X124.682 Y124.042 E5.57192
G1 X83.501 Y123.445 E6.33385
G1 X81.271 Y123.016 E6.37586
G1 X79.850 Y122.257 E6.40567
G1 X62.850 Y110.257 E6.79063
G1 X61.252 Y108.644 E6.83264
G1 X60.308 Y106.579 E6.87464
G1 X60.101 Y104.951 E6.90500
G1 X60.101 Y82.451 E7.32125
G1 X60.498 Y80.216 E7.36326
G1 X61.640 Y78.254 E7.40526
G1 X63.339 Y76.845 E7.44610
G1 X63.554 Y77.012 F6000.000
G1 X63.623 Y76.957 E7.44774 F1200.000
G1 X66.595 Y76.204 E7.50446
G1 X92.314 Y76.205 E7.98027
G1 X133.495 Y76.802 E8.74221 F1200.000
G1 X135.680 Y77.230 E8.78340
G1 X137.576 Y78.398 E8.82459
G1 X138.942 Y80.156 E8.86579
G1 X139.652 Y83.049 E8.92088
G1 X139.652 Y117.549 E9.55914
G1 X139.255 Y119.739 E9.60033
G1 X138.115 Y121.652 E9.64152
G1 X136.377 Y123.043 E9.68271
G1 X133.405 Y123.796 E9.73943
G1 X124.686 Y123.795 E9.90074
G1 X83.505 Y123.198 E10.66268
G1 X81.320 Y122.770 E10.70387
G1 X79.992 Y122.055 E10.73175
G1 X62.992 Y110.055 E11.11672
G1 X61.431 Y108.468 E11.15791
G1 X60.526 Y106.433 E11.19910
G1 X60.348 Y104.951 E11.22671
G1 X60.348 Y82.451 E11.64297
G1 X60.745 Y80.261 E11.68416
G1 X61.885 Y78.348 E11.72535
G1 X63.505 Y77.051 E11.76374
G1 F1860.000 E8.76374
G92 E0
G1 X122.703 Y98.631 F6000.000
G1 E3.10000 F1860.000
G1 X122.259 Y98.995 E3.11062 F1200.000
G1 X121.658 Y99.386 E3.12390
G1 X121.014 Y99.701 E3.13715
G1 X120.336 Y99.934 E3.15042
G1 X119.634 Y100.082 E3.16369
G1 X118.919 Y100.144 E3.17696
G1 X118.203 Y100.118 E3.19023
G1 X117.495 Y100.004 E3.20349
G1 X116.806 Y99.804 E3.21676
G1 X116.147 Y99.521 E3.23002
G1 X115.528 Y99.160 E3.24329
G1 X114.957 Y98.726 E3.25657
G1 X114.444 Y98.226 E3.26982
G1 X113.995 Y97.665 E3.28310
G1 X113.619 Y97.055 E3.29635
G1 X113.321 Y96.403 E3.30962
G1 X113.104 Y95.719 E3.32289
G1 X112.973 Y95.015 E3.33615
G1 X112.929 Y94.299 E3.34942
G1 X112.973 Y93.583 E3.36270
G1 X113.104 Y92.878 E3.37596
G1 X113.321 Y92.194 E3.38923
G1 X113.619 Y91.542 E3.40249
G1 X113.995 Y90.932 E3.41576
G1 X114.443 Y90.372 E3.42902
G1 X114.957 Y89.871 E3.44229
G1 X115.527 Y89.437 E3.45556
G1 X116.147 Y89.076 E3.46883
G1 X116.806 Y88.793 E3.48209
G1 X117.495 Y88.593 E3.49536
G1 X118.203 Y88.479 E3.50863
G1 X118.782 Y88.451 E3.51935
G1 X119.350 Y88.479 E3.52986 F1200.000
G1 X119.776 Y88.537 E3.53782
G1 X120.197 Y88.627 E3.54579
G1 X120.610 Y88.746 E3.55375
G1 X121.013 Y88.896 E3.56170
G1 X121.405 Y89.076 E3.56968
G1 X121.782 Y89.283 E3.57764
G1 X122.143 Y89.518 E3.58560
G1 X122.486 Y89.779 E3.59357
G1 X122.808 Y90.064 E3.60153
G1 X123.108 Y90.371 E3.60948
G1 X123.386 Y90.702 E3.61746
G1 X123.638 Y91.050 E3.62541
G1 X123.864 Y91.417 E3.63339
G1 X124.062 Y91.799 E3.64134
G1 X124.231 Y92.194 E3.64930
G1 X124.372 Y92.601 E3.65727
G1 X124.481 Y93.017 E3.66523
G1 X124.560 Y93.441 E3.67320
G1 X124.608 Y93.869 E3.68117
G1 X124.623 Y94.298 E3.68912
G1 X124.608 Y94.728 E3.69708
G1 X124.560 Y95.157 E3.70506
G1 X124.481 Y95.580 E3.71301
G1 X124.372 Y95.996 E3.72098
G1 X124.231 Y96.403 E3.72894
G1 X124.062 Y96.798 E3.73690
G1 X123.864 Y97.181 E3.74486
G1 X123.638 Y97.547 E3.75282
G1 X123.386 Y97.896 E3.76079
G1 X123.109 Y98.225 E3.76875
G1 X122.749 Y98.588 E3.77820
G1 X122.537 Y98.448 F6000.000
G1 X122.001 Y98.877 E3.79091 F1200.000
G1 X121.416 Y99.237 E3.80361
G1 X120.792 Y99.523 E3.81632
G1 X120.137 Y99.731 E3.82902
G1 X119.462 Y99.856 E3.84173
G1 X118.776 Y99.899 E3.85444
G1 X118.091 Y99.856 E3.86714
G1 X117.415 Y99.731 E3.87985
G1 X116.761 Y99.523 E3.89256
G1 X116.258 Y99.301 E3.90272
G1 X115.665 Y98.955 E3.91542
G1 X115.118 Y98.539 E3.92813
G1 X114.627 Y98.059 E3.94084
G1 X114.198 Y97.523 E3.95355
G1 X113.837 Y96.938 E3.96625
G1 X113.551 Y96.314 E3.97895
G1 X113.344 Y95.659 E3.99166
G1 X113.218 Y94.984 E4.00437
G1 X113.178 Y94.436 E4.01453
G1 X113.203 Y93.750 E4.02724
G1 X113.312 Y93.072 E4.03995
G1 X113.503 Y92.412 E4.05265
G1 X113.774 Y91.781 E4.06536
G1 X114.120 Y91.187 E4.07806
G1 X114.536 Y90.641 E4.09077
G1 X115.015 Y90.149 E4.10347
G1 X115.552 Y89.720 E4.11618
G1 X116.136 Y89.360 E4.12889
G1 X116.761 Y89.074 E4.14159
G1 X117.415 Y88.866 E4.15430
G1 X118.091 Y88.741 E4.16700
G1 X118.641 Y88.700 E4.17722
G1 X119.188 Y88.714 E4.18733 F1200.000
G1 X119.598 Y88.759 E4.19497
G1 X120.003 Y88.835 E4.20259
G1 X120.402 Y88.940 E4.21022
G1 X120.792 Y89.074 E4.21785
G1 X121.170 Y89.236 E4.22547
G1 X121.536 Y89.426 E4.23310
G1 X121.887 Y89.642 E4.24072
G1 X122.221 Y89.884 E4.24835
G1 X122.537 Y90.149 E4.25598
G1 X122.832 Y90.437 E4.26360
G1 X123.105 Y90.746 E4.27123
G1 X123.355 Y91.074 E4.27886
G1 X123.579 Y91.420 E4.28648
G1 X123.778 Y91.781 E4.29411
G1 X123.950 Y92.156 E4.30174
G1 X124.093 Y92.542 E4.30936
G1 X124.209 Y92.940 E4.31704
G1 X124.316 Y93.477 E4.32716
G1 X124.361 Y93.887 E4.33478
G1 X124.376 Y94.298 E4.34241
G1 X124.361 Y94.710 E4.35003
G1 X124.315 Y95.120 E4.35766
G1 X124.240 Y95.525 E4.36529
G1 X124.135 Y95.924 E4.37292
G1 X124.001 Y96.314 E4.38054
G1 X123.838 Y96.693 E4.38817
G1 X123.649 Y97.059 E4.39580
G1 X123.432 Y97.410 E4.40342
G1 X123.191 Y97.744 E4.41105
G1 X122.925 Y98.059 E4.41867
G1 X122.583 Y98.405 E4.42767
G1 F1860.000 E1.42767
G92 E0
G1 X118.588 Y88.284 F6000.000
G1 X125.123 Y105.201 F6000.000
G1 E3.10000 F1860.000
G1 X108.123 Y105.201 E3.41450 F1200.000
G1 X108.123 Y83.396 E3.81791
G1 X133.058 Y83.396 E4.27920
G1 X133.058 Y117.201 E4.90461
G1 X125.123 Y117.201 E5.05140
G1 X125.123 Y105.264 E5.27224
G1 X124.876 Y105.449 F6000.000
G1 X107.876 Y105.449 E5.58674 F1200.000
G1 X107.876 Y83.149 E5.99929
G1 X133.305 Y83.149 E6.46973
G1 X133.305 Y117.449 E7.10429
G1 X124.876 Y117.449 E7.26022
G1 X124.876 Y105.512 E7.48106
G1 X124.876 Y105.029 F6000.000
G1 X125.283 Y105.490 F6000.000
G1 X132.898 Y113.106 E7.68032 F1200.000
G1 X132.898 Y113.457 E7.68682
G1 X125.283 Y105.841 E7.88607
G1 X125.283 Y106.193 E7.89257
G1 X132.898 Y113.809 E8.09183
G1 X132.898 Y114.160 E8.09833
G1 X125.283 Y106.544 E8.29759
G1 X125.283 Y106.895 E8.30409
G1 X132.898 Y114.511 E8.50334
G1 X132.898 Y114.863 E8.50984
G1 X125.283 Y107.247 E8.70910
G1 X125.283 Y107.598 E8.71560
G1 X132.898 Y115.214 E8.91486
G1 X132.898 Y115.565 E8.92136
G1 X125.283 Y107.949 E9.12061
G1 X125.283 Y108.301 E9.12711
G1 X132.898 Y115.916 E9.32637
G1 X132.898 Y116.268 E9.33287
G1 X125.283 Y108.652 E9.53213
G1 X125.283 Y109.003 E9.53863
G1 X132.898 Y116.619 E9.73788
G1 X132.898 Y116.970 E9.74438
G1 X125.283 Y109.355 E9.94364
G1 X125.283 Y109.706 E9.95014
G1 X132.619 Y117.042 E10.14208
G1 X132.267 Y117.042 E10.14858
G1 X125.283 Y110.057 E10.33133
G1 X125.283 Y110.408 E10.33783
G1 X131.916 Y117.042 E10.51138
G1 X131.565 Y117.042 E10.51788
G1 X125.283 Y110.760 E10.68225
G1 X125.283 Y111.111 E10.68875
G1 X131.213 Y117.042 E10.84392
G1 X130.862 Y117.042 E10.85042
G1 X125.283 Y111.462 E10.99640
G1 X125.283 Y111.814 E11.00290
G1 X130.511 Y117.042 E11.13969
G1 X130.160 Y117.042 E11.14619
G1 X125.283 Y112.165 E11.27379
G1 X125.283 Y112.516 E11.28029
G1 X129.808 Y117.042 E11.39869
G1 X129.457 Y117.042 E11.40519
G1 X125.283 Y112.868 E11.51441
G1 X125.283 Y113.219 E11.52091
G1 X129.106 Y117.042 E11.62093
G1 X128.754 Y117.042 E11.62743
G1 X125.283 Y113.570 E11.71826
G1 X125.283 Y113.922 E11.72476
G1 X128.403 Y117.042 E11.80640
G1 X128.052 Y117.042 E11.81290
G1 X125.283 Y114.273 E11.88535
G1 X125.283 Y114.624 E11.89185
G1 X127.700 Y117.042 E11.95510
G1 X127.349 Y117.042 E11.96160
G1 X125.283 Y114.976 E12.01567
G1 X125.283 Y115.327 E12.02217
G1 X126.998 Y117.042 E12.06704
G1 X126.646 Y117.042 E12.07354
G1 X125.283 Y115.678 E12.10922
G1 X125.283 Y116.030 E12.11572
G1 X126.295 Y117.042 E12.14221
G1 X125.944 Y117.042 E12.14871
G1 X125.283 Y116.381 E12.16600
G1 X125.283 Y116.732 E12.17250
G1 X125.592 Y117.042 E12.18061
G1 F1860.000 E9.18061
G92 E0
G1 X116.469 Y99.838 F6000.000
G1 E3.10000 F1860.000
G1 X121.673 Y105.042 E3.23615 F1200.000
G1 X122.024 Y105.042 E3.24265
G1 X117.018 Y100.036 E3.37363
G1 X117.492 Y100.159 E3.38269
G1 X122.375 Y105.042 E3.51045
G1 X122.727 Y105.042 E3.51695
G1 X117.923 Y100.238 E3.64264
G1 X118.323 Y100.288 E3.65011
G1 X123.078 Y105.042 E3.77450
G1 X123.429 Y105.042 E3.78100
G1 X118.685 Y100.297 E3.90513
G1 X119.034 Y100.295 E3.91159
G1 X123.781 Y105.042 E4.03579
G1 X124.132 Y105.042 E4.04229
G1 X119.361 Y100.271 E4.16711
G1 X119.673 Y100.232 E4.17293
G1 X124.483 Y105.042 E4.29878
G1 X124.835 Y105.042 E4.30528
G1 X119.973 Y100.180 E4.43249
G1 X120.257 Y100.113 E4.43790
G1 X132.898 Y112.755 E4.76863
G1 X132.898 Y112.403 E4.77513
G1 X120.533 Y100.037 E5.09867
G1 X120.796 Y99.950 E5.10380
G1 X132.898 Y112.052 E5.42044
G1 X132.898 Y111.701 E5.42694
G1 X121.050 Y99.852 E5.73694
G1 X121.296 Y99.747 E5.74190
G1 X132.898 Y111.349 E6.04546
G1 X132.898 Y110.998 E6.05196
G1 X121.530 Y99.629 E6.34940
G1 X121.761 Y99.509 E6.35423
G1 X132.898 Y110.647 E6.64562
G1 X132.898 Y110.295 E6.65211
G1 X121.976 Y99.373 E6.93787
G1 X122.191 Y99.237 E6.94258
G1 X132.898 Y109.944 E7.22272
G1 X132.898 Y109.593 E7.22922
G1 X122.392 Y99.087 E7.50409
G1 X122.590 Y98.933 E7.50872
G1 X132.898 Y109.241 E7.77844
G1 X132.898 Y108.890 E7.78493
G1 X122.779 Y98.771 E8.04969
G1 X122.959 Y98.600 E8.05428
G1 X132.898 Y108.539 E8.31432
G1 X132.898 Y108.187 E8.32082
G1 X123.138 Y98.427 E8.57619
G1 X123.303 Y98.241 E8.58079
G1 X132.898 Y107.836 E8.83185
G1 X132.898 Y107.485 E8.83835
G1 X123.463 Y98.050 E9.08520
G1 X123.613 Y97.848 E9.08984
G1 X132.898 Y107.133 E9.33278
G1 X132.898 Y106.782 E9.33928
G1 X123.763 Y97.646 E9.57831
G1 X123.895 Y97.428 E9.58304
G1 X132.898 Y106.431 E9.81859
G1 X132.898 Y106.079 E9.82509
G1 X124.027 Y97.208 E10.05720
G1 X124.146 Y96.976 E10.06203
G1 X132.898 Y105.728 E10.29101
G1 X132.898 Y105.377 E10.29751
G1 X124.259 Y96.738 E10.52354
G1 X124.364 Y96.491 E10.52850
G1 X132.898 Y105.026 E10.75180
G1 X132.898 Y104.674 E10.75830
G1 X124.456 Y96.232 E10.97918
G1 X124.543 Y95.967 E10.98433
G1 X132.898 Y104.323 E11.20294
G1 X132.898 Y103.972 E11.20944
G1 X124.613 Y95.686 E11.42621
G1 X124.678 Y95.400 E11.43165
G1 X132.898 Y103.620 E11.64672
G1 X132.898 Y103.269 E11.65322
G1 X124.723 Y95.094 E11.86711
G1 X124.759 Y94.778 E11.87299
G1 X132.898 Y102.918 E12.08594
G1 X132.898 Y102.566 E12.09243
G1 X124.776 Y94.443 E12.30495
G1 X124.772 Y94.089 E12.31151
G1 X132.898 Y102.215 E12.52411
G1 X132.898 Y101.864 E12.53061
G1 X124.754 Y93.720 E12.74369
G1 X124.694 Y93.308 E12.75138
G1 X132.898 Y101.512 E12.96603
G1 X132.898 Y101.161 E12.97253
G1 X124.602 Y92.864 E13.18960
G1 X124.458 Y92.369 E13.19915
G1 X132.898 Y100.810 E13.41999
G1 X132.898 Y100.458 E13.42649
G1 X124.223 Y91.783 E13.65347
G1 X123.797 Y91.005 F6000.000
G1 X132.898 Y100.107 E13.89160 F1200.000
G1 X132.898 Y99.756 E13.89810
G1 X116.698 Y83.555 E14.32197
G1 X117.049 Y83.555 E14.32847
G1 X132.898 Y99.404 E14.74314
G1 X132.898 Y99.053 E14.74964
G1 X117.400 Y83.555 E15.15512
G1 X117.752 Y83.555 E15.16162
G1 X132.898 Y98.702 E15.55791
G1 X132.898 Y98.350 E15.56441
G1 X118.103 Y83.555 E15.95151
G1 X118.454 Y83.555 E15.95801
G1 X132.898 Y97.999 E16.33591
G1 X132.898 Y97.648 E16.34241
G1 X118.806 Y83.555 E16.71113
G1 X119.157 Y83.555 E16.71763
G1 X132.898 Y97.296 E17.07715
G1 X132.898 Y96.945 E17.08365
G1 X119.508 Y83.555 E17.43398
G1 X119.860 Y83.555 E17.44048
G1 X132.898 Y96.594 E17.78162
G1 X132.898 Y96.242 E17.78812
G1 X120.211 Y83.555 E18.12007
G1 X120.562 Y83.555 E18.12657
G1 X132.898 Y95.891 E18.44932
G1 X132.898 Y95.540 E18.45582
G1 X120.914 Y83.555 E18.76939
G1 X121.265 Y83.555 E18.77589
G1 X132.898 Y95.189 E19.08026
G1 X132.898 Y94.837 E19.08676
G1 X121.616 Y83.555 E19.38194
G1 X121.967 Y83.555 E19.38844
G1 X132.898 Y94.486 E19.67443
G1 X132.898 Y94.135 E19.68093
G1 X122.319 Y83.555 E19.95773
G1 X122.670 Y83.555 E19.96423
G1 X132.898 Y93.783 E20.23183
G1 X132.898 Y93.432 E20.23833
G1 X123.021 Y83.555 E20.49675
G1 X123.373 Y83.555 E20.50325
G1 X132.898 Y93.081 E20.75247
G1 X132.898 Y92.729 E20.75897
G1 X123.724 Y83.555 E20.99900
G1 X124.075 Y83.555 E21.00550
G1 X132.898 Y92.378 E21.23634
G1 X132.898 Y92.027 E21.24284
G1 X124.427 Y83.555 E21.46448
G1 X124.778 Y83.555 E21.47098
G1 X132.898 Y91.675 E21.68344
G1 X132.898 Y91.324 E21.68994
G1 X125.129 Y83.555 E21.89320
G1 X125.481 Y83.555 E21.89970
G1 X132.898 Y90.973 E22.09378
G1 X132.898 Y90.621 E22.10028
G1 X125.832 Y83.555 E22.28516
G1 X126.183 Y83.555 E22.29166
G1 X132.898 Y90.270 E22.46734
G1 X132.898 Y89.919 E22.47384
G1 X126.535 Y83.555 E22.64034
G1 X126.886 Y83.555 E22.64684
G1 X132.898 Y89.567 E22.80415
G1 X132.898 Y89.216 E22.81065
G1 X127.237 Y83.555 E22.95876
G1 X127.589 Y83.555 E22.96526
G1 X132.898 Y88.865 E23.10418
G1 X132.898 Y88.513 E23.11068
G1 X127.940 Y83.555 E23.24041
G1 X128.291 Y83.555 E23.24691
G1 X132.898 Y88.162 E23.36745
G1 X132.898 Y87.811 E23.37395
G1 X128.643 Y83.555 E23.48530
G1 X128.994 Y83.555 E23.49180
G1 X132.898 Y87.459 E23.59395
G1 X132.898 Y87.108 E23.60045
G1 X129.345 Y83.555 E23.69341
G1 X129.697 Y83.555 E23.69991
G1 X132.898 Y86.757 E23.78369
G1 X132.898 Y86.405 E23.79018
G1 X130.048 Y83.555 E23.86477
G1 X130.399 Y83.555 E23.87126
G1 X132.898 Y86.054 E23.93665
G1 X132.898 Y85.703 E23.94315
G1 X130.751 Y83.555 E23.99935
G1 X131.102 Y83.555 E24.00585
G1 X132.898 Y85.352 E24.05285
G1 X132.898 Y85.000 E24.05935
G1 X131.453 Y83.555 E24.09717
G1 X131.804 Y83.555 E24.10367
G1 X132.898 Y84.649 E24.13229
G1 X132.898 Y84.298 E24.13879
G1 X132.156 Y83.555 E24.15822
G1 X132.507 Y83.555 E24.16472
G1 X132.898 Y83.946 E24.17496
G1 X132.898 Y83.595 E24.18145
G1 X132.858 Y83.555 E24.18250
G1 F1860.000 E21.18250
G92 E0
G1 X122.069 Y89.278 F6000.000
G1 E3.10000 F1860.000
G1 X116.346 Y83.555 E3.24973 F1200.000
G1 X115.995 Y83.555 E3.25623
G1 X121.292 Y88.852 E3.39481
G1 X120.706 Y88.617 F6000.000
G1 X115.644 Y83.555 E3.52726 F1200.000
G1 X115.292 Y83.555 E3.53376
G1 X120.211 Y88.473 E3.66243
G1 X119.767 Y88.380 E3.67082
G1 X114.941 Y83.555 E3.79707
G1 X114.590 Y83.555 E3.80357
G1 X119.355 Y88.320 E3.92825
G1 X118.986 Y88.302 E3.93509
G1 X114.238 Y83.555 E4.05929
G1 X113.887 Y83.555 E4.06579
G1 X118.626 Y88.294 E4.18979
G1 X118.299 Y88.318 E4.19586
G1 X113.536 Y83.555 E4.32048
G1 X113.184 Y83.555 E4.32698
G1 X117.978 Y88.348 E4.45238
G1 X117.678 Y88.400 E4.45801
G1 X112.833 Y83.555 E4.58477
G1 X112.482 Y83.555 E4.59127
G1 X117.385 Y88.458 E4.71956
G1 X117.110 Y88.535 E4.72484
G1 X112.131 Y83.555 E4.85513
G1 X111.779 Y83.555 E4.86163
G1 X116.840 Y88.615 E4.99402
G1 X116.586 Y88.713 E4.99905
G1 X111.428 Y83.555 E5.13400
G1 X111.077 Y83.555 E5.14050
G1 X116.333 Y88.812 E5.27803
G1 X116.100 Y88.929 E5.28287
G1 X110.725 Y83.555 E5.42348
G1 X110.374 Y83.555 E5.42998
G1 X115.866 Y89.047 E5.57367
G1 X115.647 Y89.179 E5.57840
G1 X110.023 Y83.555 E5.72555
G1 X109.671 Y83.555 E5.73205
G1 X115.432 Y89.315 E5.88276
G1 X115.225 Y89.460 E5.88743
G1 X109.320 Y83.555 E6.04192
G1 X108.969 Y83.555 E6.04842
G1 X115.028 Y89.614 E6.20694
G1 X114.832 Y89.770 E6.21156
G1 X108.617 Y83.555 E6.37416
G1 X108.294 Y83.583 E6.38016
G1 X114.652 Y89.941 E6.54651
G1 X114.472 Y90.113 E6.55110
G1 X108.283 Y83.923 E6.71305
G1 X108.283 Y84.274 E6.71955
G1 X114.305 Y90.297 E6.87712
G1 X114.142 Y90.485 E6.88172
G1 X108.283 Y84.625 E7.03504
G1 X108.283 Y84.977 E7.04154
G1 X113.986 Y90.680 E7.19076
G1 X113.841 Y90.887 E7.19543
G1 X108.283 Y85.328 E7.34086
