; generated by Slic3r 1.1.7 on 2014-12-10 at 14:50:53

; perimeters extrusion width = 0.42mm
; infill extrusion width = 0.74mm
; solid infill extrusion width = 0.71mm
; top infill extrusion width = 0.71mm
; support material extrusion width = 0.42mm

G21 ; set units to millimeters
M190 S65 ; wait for bed temperature to be reached
M104 S186 ; set temperature
G28 ; home all axes
M109 S186 ; wait for temperature to be reached
G90 ; use absolute coordinates
G92 E0
M82 ; use absolute distances for extrusion
G1 F1860.000 E-3.00000
G92 E0
G1 Z0.200 F6000.000
G1 X80.550 Y72.539 F6000.000
G1 E3.10000 F1860.000
G1 X82.307 Y71.034 E3.14280 F1200.000
G1 X84.469 Y70.211 E3.18561
G1 X85.750 Y70.088 E3.20942
G1 X93.768 Y70.088 E3.35775
G1 X106.268 Y70.121 E3.58900 F1200.000
G1 X108.546 Y70.524 E3.63181
G1 X110.554 Y71.674 E3.67461
G1 X112.055 Y73.435 E3.71742
G1 X112.626 Y74.674 E3.74266
G1 X120.626 Y97.982 E4.19855
G1 X120.992 Y100.170 E4.23960
G1 X120.992 Y120.170 E4.60960
G1 X120.595 Y122.450 E4.65241
G1 X119.450 Y124.461 E4.69521
G1 X117.693 Y125.966 E4.73802
G1 X116.617 Y126.483 E4.76010
G1 X108.617 Y129.483 E4.91817
G1 X106.250 Y129.912 E4.96267
G1 X85.750 Y129.912 E5.34193
G1 X83.471 Y129.515 E5.38473
G1 X81.460 Y128.371 E5.42754
G1 X79.954 Y126.614 E5.47034
G1 X79.131 Y124.451 E5.51315
G1 X79.008 Y123.170 E5.53695
G1 X79.008 Y76.830 E6.39427
G1 X79.405 Y74.550 E6.43707
G1 X80.519 Y72.594 E6.47871
G1 X80.773 Y72.669 F6000.000
G1 X80.795 Y72.632 E6.47951 F1200.000
G1 X82.543 Y71.182 E6.52152
G1 X85.750 Y70.335 E6.58289
G1 X93.767 Y70.335 E6.73121
G1 X106.267 Y70.369 E6.96247 F1200.000
G1 X108.502 Y70.771 E7.00447
G1 X110.461 Y71.919 E7.04648
G1 X111.906 Y73.671 E7.08848
G1 X112.393 Y74.755 E7.11047
G1 X120.393 Y98.062 E7.56635
G1 X120.744 Y100.170 E7.60590
G1 X120.744 Y120.170 E7.97590
G1 X120.348 Y122.406 E8.01791
G1 X119.205 Y124.368 E8.05991
G1 X116.530 Y126.251 E8.12043
G1 X108.530 Y129.251 E8.27850
G1 X106.250 Y129.665 E8.32137
G1 X85.750 Y129.665 E8.70063
G1 X83.514 Y129.268 E8.74263
G1 X81.552 Y128.126 E8.78464
G1 X80.103 Y126.378 E8.82665
G1 X79.256 Y123.170 E8.88802
G1 X79.256 Y76.830 E9.74533
G1 X79.652 Y74.594 E9.78734
G1 X80.741 Y72.724 E9.82737
G1 X80.995 Y72.801 F6000.000
G1 X81.040 Y72.726 E9.82900 F1200.000
G1 X82.778 Y71.335 E9.87019
G1 X85.750 Y70.582 E9.92691
G1 X93.767 Y70.582 E10.07522
G1 X106.267 Y70.616 E10.30647 F1200.000
G1 X108.457 Y71.018 E10.34766
G1 X110.366 Y72.163 E10.38886
G1 X112.159 Y74.835 E10.44837
G1 X120.159 Y98.142 E10.90426
G1 X120.497 Y100.170 E10.94230
G1 X120.497 Y120.170 E11.31230
G1 X120.100 Y122.361 E11.35350
G1 X118.960 Y124.274 E11.39469
G1 X116.444 Y126.020 E11.45136
G1 X108.444 Y129.020 E11.60942
G1 X106.250 Y129.418 E11.65066
G1 X85.750 Y129.418 E12.02992
G1 X83.559 Y129.021 E12.07111
G1 X81.646 Y127.881 E12.11230
G1 X80.255 Y126.142 E12.15350
G1 X79.503 Y123.170 E12.21022
G1 X79.503 Y76.830 E13.06753
G1 X79.900 Y74.639 E13.10872
G1 X80.962 Y72.856 E13.14712
G1 F1860.000 E10.14712
G92 E0
G1 X103.958 Y95.321 F6000.000
G1 E3.10000 F1860.000
G1 X100.542 Y95.321 E3.16319 F1200.000
G1 X98.835 Y92.363 E3.22637
G1 X100.542 Y89.405 E3.28956
G1 X103.958 Y89.405 E3.35275
G1 X105.665 Y92.363 E3.41593
G1 X103.989 Y95.266 E3.47796
G1 X103.885 Y95.734 F6000.000
G1 F1860.000 E0.47796
G92 E0
G1 X98.835 Y108.170 F6000.000
G1 E3.10000 F1860.000
G1 X100.542 Y105.212 E3.16319 F1200.000
G1 X103.958 Y105.212 E3.22637
G1 X105.665 Y108.170 E3.28956
G1 X103.958 Y111.128 E3.35275
G1 X100.542 Y111.128 E3.41593
G1 X98.866 Y108.225 E3.47796
G1 X98.513 Y107.900 F6000.000
G1 F1860.000 E0.47796
G92 E0
G1 X106.903 Y106.768 F6000.000
G1 E3.10000 F1860.000
G1 X106.903 Y104.573 E3.14060 F1200.000
G1 X110.597 Y104.573 E3.20894
G1 X110.597 Y106.768 E3.24954
G1 X106.966 Y106.768 E3.31672
G1 X107.150 Y106.520 F6000.000
G1 X107.150 Y104.820 E3.34817 F1200.000
G1 X110.350 Y104.820 E3.40738
G1 X110.350 Y106.520 E3.43883
G1 X107.213 Y106.520 E3.49686
G1 X106.730 Y106.520 F6000.000
G1 F1860.000 E0.49686
G92 E0
G1 X106.903 Y114.073 F6000.000
G1 E3.10000 F1860.000
G1 X110.597 Y114.073 E3.16835 F1200.000
G1 X110.597 Y116.268 E3.20894
G1 X106.903 Y116.268 E3.27729
G1 X106.903 Y114.136 E3.31672
G1 X107.150 Y114.320 F6000.000
G1 X110.350 Y114.320 E3.37593 F1200.000
G1 X110.350 Y116.020 E3.40738
G1 X107.150 Y116.020 E3.46658
G1 X107.150 Y114.383 E3.49686
G1 X107.150 Y113.900 F6000.000
G1 F1860.000 E0.49686
G92 E0
G1 X104.100 Y111.375 F6000.000
G1 E3.10000 F1860.000
G1 X105.951 Y108.170 E3.16847 F1200.000
G1 X104.100 Y104.965 E3.23694
G1 X100.400 Y104.965 E3.30540
G1 X98.744 Y107.833 E3.36667
G1 X98.597 Y107.794 E3.36947
G1 X98.597 Y92.739 E3.64798
G1 X98.744 Y92.700 E3.65079
G1 X100.400 Y95.568 E3.71205
G1 X104.100 Y95.568 E3.78052
G1 X105.756 Y92.700 E3.84178
G1 X105.903 Y92.739 E3.84459
G1 X105.903 Y94.031 E3.86849
G1 X113.903 Y100.339 E4.05696
G1 X113.903 Y119.823 E4.41743
G1 X105.903 Y119.823 E4.56543
G1 X105.903 Y122.823 E4.62093
G1 X98.597 Y122.823 E4.75608
G1 X98.597 Y108.547 E5.02020
G1 X98.744 Y108.508 E5.02300
G1 X100.400 Y111.375 E5.08427
G1 X104.037 Y111.375 E5.15157
G1 F1860.000 E2.15157
G92 E0
G1 X105.903 Y91.986 F6000.000
G1 E3.10000 F1860.000
G1 X105.756 Y92.026 E3.10281 F1200.000
G1 X104.100 Y89.158 E3.16407
G1 X100.400 Y89.158 E3.23254
G1 X98.744 Y92.026 E3.29380
G1 X98.597 Y91.986 E3.29661
G1 X98.597 Y77.210 E3.56997
G1 X105.903 Y77.210 E3.70513
G1 X105.903 Y91.923 E3.97733
G1 F1860.000 E0.97733
G92 E0
G1 X106.150 Y120.070 F6000.000
G1 E3.10000 F1860.000
G1 X106.150 Y123.070 E3.15550 F1200.000
G1 X98.350 Y123.070 E3.29980
G1 X98.350 Y76.963 E4.15280
G1 X106.150 Y76.963 E4.29710
G1 X106.150 Y93.911 E4.61065
G1 X114.150 Y100.219 E4.79912
G1 X114.150 Y120.070 E5.16638
G1 X106.213 Y120.070 E5.31322
G1 X105.730 Y120.070 F6000.000
G1 F1860.000 E2.31322
G92 E0
G1 X108.068 Y119.664 F6000.000
G1 E3.10000 F1860.000
G1 X98.756 Y110.352 E3.34362 F1200.000
G1 X98.756 Y110.703 E3.35011
G1 X107.717 Y119.664 E3.58456
G1 X107.367 Y119.664 E3.59104
G1 X98.756 Y111.054 E3.81632
G1 X98.756 Y111.404 E3.82281
G1 X107.016 Y119.664 E4.03891
G1 X106.666 Y119.664 E4.04539
G1 X98.756 Y111.755 E4.25232
G1 X98.756 Y112.105 E4.25881
G1 X106.315 Y119.664 E4.45656
G1 X105.964 Y119.664 E4.46305
G1 X98.756 Y112.456 E4.65163
G1 X98.756 Y112.807 E4.65812
G1 X105.744 Y119.794 E4.84093
G1 X105.744 Y120.144 E4.84741
G1 X98.756 Y113.157 E5.03022
G1 X98.756 Y113.508 E5.03671
G1 X105.744 Y120.495 E5.21951
G1 X105.744 Y120.846 E5.22600
G1 X98.756 Y113.858 E5.40881
G1 X98.756 Y114.209 E5.41529
G1 X105.744 Y121.196 E5.59810
G1 X105.744 Y121.547 E5.60459
G1 X98.756 Y114.560 E5.78739
G1 X98.756 Y114.910 E5.79388
G1 X105.744 Y121.898 E5.97669
G1 X105.744 Y122.248 E5.98317
G1 X98.756 Y115.261 E6.16598
G1 X98.756 Y115.612 E6.17247
G1 X105.744 Y122.599 E6.35527
G1 X105.458 Y122.664 E6.36069
G1 X98.756 Y115.962 E6.53603
G1 X98.756 Y116.313 E6.54251
G1 X105.108 Y122.664 E6.70868
G1 X104.757 Y122.664 E6.71517
G1 X98.756 Y116.663 E6.87216
G1 X98.756 Y117.014 E6.87865
G1 X104.406 Y122.664 E7.02646
G1 X104.056 Y122.664 E7.03295
G1 X98.756 Y117.365 E7.17160
G1 X98.756 Y117.715 E7.17808
G1 X103.705 Y122.664 E7.30756
G1 X103.354 Y122.664 E7.31404
G1 X98.756 Y118.066 E7.43434
G1 X98.756 Y118.417 E7.44083
G1 X103.004 Y122.664 E7.55195
G1 X102.653 Y122.664 E7.55844
G1 X98.756 Y118.767 E7.66039
G1 X98.756 Y119.118 E7.66688
G1 X102.303 Y122.664 E7.75966
G1 X101.952 Y122.664 E7.76615
G1 X98.756 Y119.468 E7.84975
G1 X98.756 Y119.819 E7.85624
G1 X101.601 Y122.664 E7.93067
G1 X101.251 Y122.664 E7.93716
G1 X98.756 Y120.170 E8.00242
G1 X98.756 Y120.520 E8.00890
G1 X100.900 Y122.664 E8.06499
G1 X100.550 Y122.664 E8.07148
G1 X98.756 Y120.871 E8.11839
G1 X98.756 Y121.221 E8.12488
G1 X100.199 Y122.664 E8.16262
G1 X99.848 Y122.664 E8.16910
G1 X98.756 Y121.572 E8.19767
G1 X98.756 Y121.923 E8.20416
G1 X99.498 Y122.664 E8.22355
G1 X99.147 Y122.664 E8.23003
G1 X98.756 Y122.273 E8.24025
G1 X98.756 Y122.624 E8.24674
G1 X98.796 Y122.664 E8.24779
G1 F1860.000 E5.24779
G92 E0
G1 X99.854 Y110.748 F6000.000
G1 E3.10000 F1860.000
G1 X98.756 Y109.651 E3.12871 F1200.000
G1 X98.756 Y110.002 F6000.000
G1 X108.419 Y119.664 E3.38150 F1200.000
G1 X108.769 Y119.664 E3.38799
G1 X100.640 Y111.535 E3.60068
G1 X100.991 Y111.535 E3.60716
G1 X109.120 Y119.664 E3.81985
G1 X109.470 Y119.664 E3.82634
G1 X101.341 Y111.535 E4.03903
G1 X101.692 Y111.535 E4.04551
G1 X109.821 Y119.664 E4.25820
G1 X110.172 Y119.664 E4.26469
G1 X102.042 Y111.535 E4.47738
G1 X102.393 Y111.535 E4.48386
G1 X106.744 Y115.885 E4.59769
G1 X106.744 Y115.535 E4.60417
G1 X102.744 Y111.535 E4.70882
G1 X103.094 Y111.535 E4.71531
G1 X106.744 Y115.184 E4.81079
G1 X106.744 Y114.833 E4.81727
G1 X103.445 Y111.535 E4.90358
G1 X103.796 Y111.535 E4.91006
G1 X106.744 Y114.483 E4.98719
G1 X106.744 Y114.132 E4.99368
G1 X104.146 Y111.535 E5.06164
G1 X104.304 Y111.342 E5.06625
G1 X106.876 Y113.914 E5.13355
G1 X107.227 Y113.914 E5.14003
G1 X104.432 Y111.119 E5.21315
G1 X104.560 Y110.897 E5.21790
G1 X107.577 Y113.914 E5.29683
G1 X107.928 Y113.914 E5.30331
G1 X104.689 Y110.675 E5.38806
G1 X104.817 Y110.453 E5.39281
G1 X108.279 Y113.914 E5.48337
G1 X108.629 Y113.914 E5.48985
G1 X104.945 Y110.230 E5.58623
G1 X105.074 Y110.008 E5.59098
G1 X108.980 Y113.914 E5.69317
G1 X109.330 Y113.914 E5.69966
G1 X105.202 Y109.786 E5.80766
G1 X105.330 Y109.563 E5.81241
G1 X109.681 Y113.914 E5.92624
G1 X110.032 Y113.914 E5.93272
G1 X105.459 Y109.341 E6.05236
G1 X105.587 Y109.119 E6.05711
G1 X110.382 Y113.914 E6.18257
G1 X110.733 Y113.914 E6.18905
G1 X105.715 Y108.897 E6.32032
G1 X105.844 Y108.674 E6.32507
G1 X113.744 Y116.574 E6.53175
G1 X113.744 Y116.223 E6.53824
G1 X105.972 Y108.452 E6.74157
G1 X106.100 Y108.230 E6.74632
G1 X113.744 Y115.873 E6.94628
G1 X113.744 Y115.522 E6.95277
G1 X105.784 Y107.562 E7.16103
G1 X105.305 Y106.733 F6000.000
G1 X113.744 Y115.172 E7.38181 F1200.000
G1 X113.744 Y114.821 E7.38830
G1 X104.826 Y105.903 E7.62162
G1 X104.347 Y105.074 F6000.000
G1 X113.744 Y114.470 E7.86746 F1200.000
G1 F1860.000 E4.86746
G92 E0
G1 X113.744 Y116.925 F6000.000
G1 E3.10000 F1860.000
G1 X110.756 Y113.938 E3.17815 F1200.000
G1 X110.756 Y114.288 E3.18464
G1 X113.744 Y117.275 E3.26279
G1 X113.744 Y117.626 E3.26928
G1 X110.756 Y114.639 E3.34743
G1 X110.756 Y114.989 E3.35392
G1 X113.744 Y117.977 E3.43207
G1 X113.744 Y118.327 E3.43856
G1 X110.756 Y115.340 E3.51671
G1 X110.756 Y115.691 E3.52320
G1 X113.744 Y118.678 E3.60136
G1 X113.744 Y119.028 E3.60784
G1 X110.756 Y116.041 E3.68600
G1 X110.756 Y116.392 E3.69248
G1 X113.744 Y119.379 E3.77064
G1 X113.678 Y119.664 E3.77605
G1 X110.441 Y116.427 E3.86074
G1 X110.090 Y116.427 E3.86723
G1 X113.327 Y119.664 E3.95192
G1 X112.977 Y119.664 E3.95841
G1 X109.740 Y116.427 E4.04310
G1 X109.389 Y116.427 E4.04959
G1 X112.626 Y119.664 E4.13428
G1 X112.275 Y119.664 E4.14077
G1 X109.038 Y116.427 E4.22546
G1 X108.688 Y116.427 E4.23195
G1 X111.925 Y119.664 E4.31665
G1 X111.574 Y119.664 E4.32313
G1 X108.337 Y116.427 E4.40783
G1 X107.986 Y116.427 E4.41431
G1 X111.224 Y119.664 E4.49901
G1 X110.873 Y119.664 E4.50549
G1 X107.636 Y116.427 E4.59019
G1 X107.285 Y116.427 E4.59668
G1 X110.522 Y119.664 E4.68137
G1 F1860.000 E1.68137
G92 E0
G1 X106.744 Y106.769 F6000.000
G1 E3.10000 F1860.000
G1 X98.756 Y98.782 E3.30897 F1200.000
G1 X98.756 Y98.431 E3.31546
G1 X106.744 Y106.418 E3.52443
G1 X106.744 Y106.068 E3.53091
G1 X98.756 Y98.081 E3.73988
G1 X98.756 Y97.730 E3.74637
G1 X106.744 Y105.717 E3.95534
G1 X106.744 Y105.367 E3.96183
G1 X98.756 Y97.379 E4.17080
G1 X98.756 Y97.029 E4.17728
G1 X106.744 Y105.016 E4.38625
G1 X106.744 Y104.665 E4.39274
G1 X98.756 Y96.678 E4.60171
G1 X98.756 Y96.328 E4.60820
G1 X106.843 Y104.414 E4.81976
G1 X107.193 Y104.414 E4.82625
G1 X98.756 Y95.977 E5.04698
G1 X98.756 Y95.626 E5.05347
G1 X107.544 Y104.414 E5.28338
G1 X107.895 Y104.414 E5.28987
G1 X98.756 Y95.276 E5.52895
G1 X98.756 Y94.925 E5.53544
G1 X108.245 Y104.414 E5.78369
G1 X108.596 Y104.414 E5.79018
G1 X98.756 Y94.575 E6.04761
G1 X98.756 Y94.224 E6.05410
G1 X108.946 Y104.414 E6.32070
G1 X109.297 Y104.414 E6.32719
G1 X100.610 Y95.727 E6.55446
G1 X100.961 Y95.727 E6.56094
G1 X109.648 Y104.414 E6.78822
G1 X109.998 Y104.414 E6.79470
G1 X101.312 Y95.727 E7.02198
G1 X101.662 Y95.727 E7.02846
G1 X110.349 Y104.414 E7.25574
G1 F1860.000 E4.25574
G92 E0
G1 X113.603 Y100.305 F6000.000
G1 E3.10000 F1860.000
G1 X113.744 Y100.446 E3.10367 F1200.000
G1 X113.744 Y100.796 E3.11016
G1 X111.946 Y98.999 E3.15719
G1 F1860.000 E0.15719
G92 E0
G1 X110.289 Y97.692 F6000.000
G1 E3.10000 F1860.000
G1 X113.744 Y101.147 E3.19039 F1200.000
G1 X113.744 Y101.498 E3.19688
G1 X108.632 Y96.386 E3.33062
G1 F1860.000 E0.33062
G92 E0
G1 X106.974 Y95.079 F6000.000
G1 E3.10000 F1860.000
G1 X113.744 Y101.848 E3.27710 F1200.000
G1 X113.744 Y102.199 E3.28359
G1 X105.320 Y93.775 E3.50399
G1 X105.191 Y93.997 E3.50874
G1 X113.744 Y102.549 E3.73249
G1 X113.744 Y102.900 E3.73898
G1 X105.063 Y94.219 E3.96609
G1 X104.935 Y94.442 E3.97084
G1 X113.744 Y103.251 E4.20131
G1 X113.744 Y103.601 E4.20780
G1 X104.806 Y94.664 E4.44163
G1 X104.678 Y94.886 E4.44638
G1 X113.744 Y103.952 E4.68356
G1 X113.744 Y104.302 E4.69005
G1 X104.550 Y95.108 E4.93059
G1 X104.421 Y95.331 E4.93534
G1 X113.744 Y104.653 E5.17924
G1 X113.744 Y105.004 E5.18573
G1 X104.293 Y95.553 E5.43299
G1 X104.116 Y95.727 E5.43758
G1 X113.744 Y105.354 E5.68945
G1 X113.744 Y105.705 E5.69594
G1 X103.766 Y95.727 E5.95699
G1 X103.415 Y95.727 E5.96348
G1 X113.744 Y106.056 E6.23370
G1 X113.744 Y106.406 E6.24018
G1 X103.065 Y95.727 E6.51958
G1 X102.714 Y95.727 E6.52607
G1 X113.744 Y106.757 E6.81464
G1 X113.744 Y107.107 E6.82112
G1 X102.363 Y95.727 E7.11887
G1 X102.013 Y95.727 E7.12535
G1 X113.744 Y107.458 E7.43227
G1 X113.744 Y107.809 E7.43875
G1 X110.756 Y104.821 E7.51691
G1 X110.756 Y105.172 E7.52339
G1 X113.744 Y108.159 E7.60155
G1 X113.744 Y108.510 E7.60803
G1 X110.756 Y105.523 E7.68619
G1 X110.756 Y105.873 E7.69267
G1 X113.744 Y108.860 E7.77083
G1 X113.744 Y109.211 E7.77731
G1 X110.756 Y106.224 E7.85547
G1 X110.756 Y106.575 E7.86196
G1 X113.744 Y109.562 E7.94011
G1 X113.744 Y109.912 E7.94660
G1 X110.756 Y106.925 E8.02475
G1 X110.407 Y106.927 E8.03121
G1 X113.744 Y110.263 E8.11849
G1 X113.744 Y110.614 E8.12498
G1 X110.057 Y106.927 E8.22144
G1 X109.706 Y106.927 E8.22792
G1 X113.744 Y110.964 E8.33356
G1 X113.744 Y111.315 E8.34004
G1 X109.356 Y106.927 E8.45485
G1 X109.005 Y106.927 E8.46133
G1 X113.744 Y111.665 E8.58531
G1 X113.744 Y112.016 E8.59180
G1 X108.654 Y106.927 E8.72495
G1 X108.304 Y106.927 E8.73144
G1 X113.744 Y112.367 E8.87376
G1 X113.744 Y112.717 E8.88025
G1 X107.953 Y106.927 E9.03175
G1 X107.602 Y106.927 E9.03823
G1 X113.744 Y113.068 E9.19890
G1 X113.744 Y113.419 E9.20539
G1 X107.252 Y106.927 E9.37524
G1 X106.901 Y106.927 E9.38172
G1 X113.744 Y113.769 E9.56074
G1 X113.744 Y114.120 E9.56723
G1 X98.756 Y99.133 E9.95934
G1 X98.756 Y99.483 E9.96583
G1 X104.079 Y104.806 E10.10509
G1 X103.729 Y104.806 E10.11158
G1 X98.756 Y99.834 E10.24167
G1 X98.756 Y100.184 E10.24815
G1 X103.378 Y104.806 E10.36907
G1 X103.027 Y104.806 E10.37556
G1 X98.756 Y100.535 E10.48730
G1 X98.756 Y100.886 E10.49379
G1 X102.677 Y104.806 E10.59636
G1 X102.326 Y104.806 E10.60284
G1 X98.756 Y101.236 E10.69624
G1 X98.756 Y101.587 E10.70272
G1 X101.976 Y104.806 E10.78695
G1 X101.625 Y104.806 E10.79343
G1 X98.756 Y101.938 E10.86848
G1 X98.756 Y102.288 E10.87497
G1 X101.274 Y104.806 E10.94085
G1 X100.924 Y104.806 E10.94733
G1 X98.756 Y102.639 E11.00404
G1 X98.756 Y102.989 E11.01052
G1 X100.573 Y104.806 E11.05805
G1 X100.276 Y104.860 E11.06363
G1 X98.756 Y103.340 E11.10340
G1 X98.756 Y103.691 E11.10989
G1 X100.148 Y105.082 E11.14630
G1 X100.020 Y105.305 E11.15105
G1 X98.756 Y104.041 E11.18410
G1 X98.756 Y104.392 E11.19059
G1 X99.891 Y105.527 E11.22028
G1 X99.763 Y105.749 E11.22503
G1 X98.756 Y104.742 E11.25137
G1 X98.756 Y105.093 E11.25786
G1 X99.635 Y105.971 E11.28084
G1 X99.506 Y106.194 E11.28559
G1 X98.756 Y105.444 E11.30521
G1 X98.756 Y105.794 E11.31170
G1 X99.378 Y106.416 E11.32796
G1 X99.250 Y106.638 E11.33271
G1 X98.756 Y106.145 E11.34562
G1 X98.756 Y106.496 E11.35210
