; generated by Slic3r 1.1.7 on 2014-12-09 at 22:10:19

; perimeters extrusion width = 0.42mm
; infill extrusion width = 0.74mm
; solid infill extrusion width = 0.71mm
; top infill extrusion width = 0.71mm
; support material extrusion width = 0.42mm

G21 ; set units to millimeters
M190 S65 ; wait for bed temperature to be reached
M104 S186 ; set temperature
G28 ; home all axes
M109 S186 ; wait for temperature to be reached
G90 ; use absolute coordinates
G92 E0
M82 ; use absolute distances for extrusion
G1 F1860.000 E-3.00000
G92 E0
G1 Z0.200 F6000.000
G1 X80.550 Y72.253 F6000.000
G1 E3.10000 F1860.000
G1 X82.307 Y70.747 E3.14280 F1200.000
G1 X84.469 Y69.924 E3.18561
G1 X85.732 Y69.802 E3.20909
G1 X98.250 Y69.768 E3.44067
G1 X106.250 Y69.768 E3.58867
G1 X108.529 Y70.165 E3.63148
G1 X110.540 Y71.310 E3.67428 F1200.000
G1 X112.046 Y73.067 E3.71709
G1 X112.645 Y74.377 E3.74373
G1 X120.645 Y98.356 E4.21141
G1 X120.992 Y100.490 E4.25139
G1 X120.992 Y120.490 E4.62140
G1 X120.595 Y122.769 E4.66420
G1 X119.450 Y124.780 E4.70701
G1 X117.693 Y126.286 E4.74981
G1 X116.617 Y126.802 E4.77190
G1 X108.617 Y129.802 E4.92996
G1 X106.250 Y130.232 E4.97447
G1 X85.750 Y130.232 E5.35372
G1 X83.471 Y129.835 E5.39653
G1 X81.460 Y128.690 E5.43933
G1 X79.954 Y126.933 E5.48214
G1 X79.131 Y124.771 E5.52494
G1 X79.008 Y123.490 E5.54875
G1 X79.008 Y76.543 E6.41727
G1 X79.405 Y74.264 E6.46008
G1 X80.519 Y72.308 E6.50172
G1 X80.773 Y72.383 F6000.000
G1 X80.795 Y72.345 E6.50252 F1200.000
G1 X82.543 Y70.896 E6.54453
G1 X85.733 Y70.049 E6.60559
G1 X98.250 Y70.016 E6.83716
G1 X106.250 Y70.016 E6.98516
G1 X108.486 Y70.412 E7.02717
G1 X110.448 Y71.555 E7.06918 F1200.000
G1 X111.897 Y73.303 E7.11118
G1 X112.411 Y74.455 E7.13452
G1 X120.411 Y98.435 E7.60219
G1 X120.744 Y100.490 E7.64071
G1 X120.744 Y120.490 E8.01071
G1 X120.348 Y122.726 E8.05272
G1 X119.205 Y124.688 E8.09473
G1 X116.530 Y126.571 E8.15524
G1 X108.530 Y129.571 E8.31331
G1 X106.250 Y129.984 E8.35619
G1 X85.750 Y129.984 E8.73544
G1 X83.514 Y129.588 E8.77745
G1 X81.552 Y128.445 E8.81945
G1 X80.103 Y126.697 E8.86146
G1 X79.256 Y123.490 E8.92283
G1 X79.256 Y76.543 E9.79136
G1 X79.652 Y74.308 E9.83336
G1 X80.741 Y72.437 E9.87340
G1 X80.995 Y72.515 F6000.000
G1 X81.040 Y72.440 E9.87502 F1200.000
G1 X82.778 Y71.048 E9.91622
G1 X85.733 Y70.296 E9.97264
G1 X98.250 Y70.263 E10.20420
G1 X106.250 Y70.263 E10.35220
G1 X108.441 Y70.660 E10.39339
G1 X110.354 Y71.800 E10.43458 F1200.000
G1 X112.176 Y74.533 E10.49536
G1 X120.176 Y98.513 E10.96303
G1 X120.497 Y100.490 E11.00009
G1 X120.497 Y120.490 E11.37009
G1 X120.100 Y122.681 E11.41129
G1 X118.960 Y124.594 E11.45248
G1 X116.444 Y126.339 E11.50915
G1 X108.444 Y129.339 E11.66721
G1 X106.250 Y129.737 E11.70845
G1 X85.750 Y129.737 E12.08771
G1 X83.559 Y129.340 E12.12890
G1 X81.646 Y128.200 E12.17009
G1 X80.255 Y126.462 E12.21129
G1 X79.503 Y123.490 E12.26800
G1 X79.503 Y76.543 E13.13653
G1 X79.900 Y74.352 E13.17772
G1 X80.962 Y72.569 E13.21613
G1 F1860.000 E10.21613
G92 E0
G1 X103.958 Y94.968 F6000.000
G1 E3.10000 F1860.000
G1 X100.542 Y94.968 E3.16319 F1200.000
G1 X98.835 Y92.010 E3.22637
G1 X100.542 Y89.052 E3.28956
G1 X103.958 Y89.052 E3.35275
G1 X105.665 Y92.010 E3.41593
G1 X103.989 Y94.913 E3.47796
G1 X103.885 Y95.382 F6000.000
G1 F1860.000 E0.47796
G92 E0
G1 X98.835 Y108.490 F6000.000
G1 E3.10000 F1860.000
G1 X100.542 Y105.532 E3.16319 F1200.000
G1 X103.958 Y105.532 E3.22637
G1 X105.665 Y108.490 E3.28956
G1 X103.958 Y111.448 E3.35275
G1 X100.542 Y111.448 E3.41593
G1 X98.866 Y108.545 E3.47796
G1 X98.513 Y108.220 F6000.000
G1 F1860.000 E0.47796
G92 E0
G1 X106.903 Y107.087 F6000.000
G1 E3.10000 F1860.000
G1 X106.903 Y104.893 E3.14060 F1200.000
G1 X110.597 Y104.893 E3.20894
G1 X110.597 Y107.087 E3.24954
G1 X106.966 Y107.087 E3.31672
G1 X107.150 Y106.840 F6000.000
G1 X107.150 Y105.140 E3.34817 F1200.000
G1 X110.350 Y105.140 E3.40738
G1 X110.350 Y106.840 E3.43883
G1 X107.213 Y106.840 E3.49686
G1 X106.730 Y106.840 F6000.000
G1 F1860.000 E0.49686
G92 E0
G1 X106.903 Y114.393 F6000.000
G1 E3.10000 F1860.000
G1 X110.597 Y114.393 E3.16835 F1200.000
G1 X110.597 Y116.587 E3.20894
G1 X106.903 Y116.587 E3.27729
G1 X106.903 Y114.456 E3.31672
G1 X107.150 Y114.640 F6000.000
G1 X110.350 Y114.640 E3.37593 F1200.000
G1 X110.350 Y116.340 E3.40738
G1 X107.150 Y116.340 E3.46658
G1 X107.150 Y114.703 E3.49686
G1 X107.150 Y114.220 F6000.000
G1 F1860.000 E0.49686
G92 E0
G1 X104.100 Y111.695 F6000.000
G1 E3.10000 F1860.000
G1 X105.951 Y108.490 E3.16847 F1200.000
G1 X104.100 Y105.285 E3.23694
G1 X100.400 Y105.285 E3.30540
G1 X98.744 Y108.153 E3.36667
G1 X98.597 Y108.113 E3.36947
G1 X98.597 Y92.387 E3.66043
G1 X98.744 Y92.347 E3.66323
G1 X100.400 Y95.215 E3.72450
G1 X104.100 Y95.215 E3.79296
G1 X105.756 Y92.347 E3.85423
G1 X105.903 Y92.387 E3.85703
G1 X105.903 Y93.668 E3.88074
G1 X113.903 Y100.648 E4.07716
G1 X113.903 Y120.143 E4.43782
G1 X105.903 Y120.143 E4.58582
G1 X105.903 Y123.143 E4.64132
G1 X98.597 Y123.143 E4.77647
G1 X98.597 Y108.867 E5.04059
G1 X98.744 Y108.827 E5.04339
G1 X100.400 Y111.695 E5.10466
G1 X104.037 Y111.695 E5.17196
G1 F1860.000 E2.17196
G92 E0
G1 X105.903 Y91.633 F6000.000
G1 E3.10000 F1860.000
G1 X105.756 Y91.673 E3.10281 F1200.000
G1 X104.100 Y88.805 E3.16407
G1 X100.400 Y88.805 E3.23254
G1 X98.744 Y91.673 E3.29380
G1 X98.597 Y91.633 E3.29661
G1 X98.597 Y76.857 E3.56997
G1 X105.903 Y76.857 E3.70513
G1 X105.903 Y91.570 E3.97733
G1 F1860.000 E0.97733
G92 E0
G1 X106.150 Y120.390 F6000.000
G1 E3.10000 F1860.000
G1 X106.150 Y123.390 E3.15550 F1200.000
G1 X98.350 Y123.390 E3.29980
G1 X98.350 Y76.610 E4.16524
G1 X106.150 Y76.610 E4.30954
G1 X106.150 Y93.555 E4.62304
G1 X114.150 Y100.535 E4.81946
G1 X114.150 Y120.390 E5.18677
G1 X106.213 Y120.390 E5.33360
G1 X105.730 Y120.390 F6000.000
G1 F1860.000 E2.33360
G92 E0
G1 X106.941 Y116.746 F6000.000
G1 E3.10000 F1860.000
G1 X110.178 Y119.984 E3.18469 F1200.000
G1 X110.529 Y119.984 E3.19118
G1 X107.292 Y116.746 E3.27588
G1 X107.642 Y116.746 E3.28237
G1 X110.879 Y119.984 E3.36706
G1 X111.230 Y119.984 E3.37355
G1 X107.993 Y116.746 E3.45825
G1 X108.344 Y116.746 E3.46474
G1 X111.581 Y119.984 E3.54943
G1 X111.932 Y119.984 E3.55592
G1 X108.695 Y116.746 E3.64061
G1 X109.045 Y116.746 E3.64710
G1 X112.283 Y119.984 E3.73180
G1 X112.633 Y119.984 E3.73829
G1 X109.396 Y116.746 E3.82298
G1 X109.747 Y116.746 E3.82947
G1 X112.984 Y119.984 E3.91417
G1 X113.335 Y119.984 E3.92066
G1 X110.098 Y116.746 E4.00535
G1 X110.448 Y116.746 E4.01184
G1 X113.686 Y119.984 E4.09653
G1 X113.744 Y119.691 E4.10206
G1 X110.756 Y116.704 E4.18021
G1 X110.756 Y116.353 E4.18670
G1 X113.744 Y119.340 E4.26485
G1 X113.744 Y118.989 E4.27134
G1 X110.756 Y116.002 E4.34950
G1 X110.756 Y115.651 E4.35598
G1 X113.744 Y118.638 E4.43414
G1 X113.744 Y118.288 E4.44063
G1 X110.756 Y115.301 E4.51878
G1 X110.756 Y114.950 E4.52527
G1 X113.744 Y117.937 E4.60342
G1 X113.744 Y117.586 E4.60991
G1 X110.756 Y114.599 E4.68807
G1 F1860.000 E1.68807
G92 E0
G1 X106.104 Y108.543 F6000.000
G1 E3.10000 F1860.000
G1 X113.744 Y116.183 E3.29988 F1200.000
G1 X113.744 Y116.534 E3.30637
G1 X105.976 Y108.766 E3.50961
G1 X105.847 Y108.988 E3.51436
G1 X113.744 Y116.885 E3.72095
G1 X113.744 Y117.235 E3.72744
G1 X105.719 Y109.211 E3.93740
G1 X105.590 Y109.433 E3.94215
G1 X110.391 Y114.234 E4.06775
G1 X110.040 Y114.234 E4.07424
G1 X105.462 Y109.655 E4.19402
G1 X105.334 Y109.878 E4.19877
G1 X109.689 Y114.234 E4.31273
G1 X109.339 Y114.234 E4.31922
G1 X105.205 Y110.100 E4.42737
G1 X105.077 Y110.322 E4.43212
G1 X108.988 Y114.234 E4.53445
G1 X108.637 Y114.234 E4.54094
G1 X104.948 Y110.545 E4.63745
G1 X104.820 Y110.767 E4.64220
G1 X108.286 Y114.234 E4.73289
G1 X107.936 Y114.234 E4.73938
G1 X104.692 Y110.990 E4.82425
G1 X104.563 Y111.212 E4.82900
G1 X107.585 Y114.234 E4.90805
G1 X107.234 Y114.234 E4.91454
G1 X104.435 Y111.434 E4.98778
G1 X104.306 Y111.657 E4.99253
G1 X106.883 Y114.234 E5.05995
G1 X106.744 Y114.445 E5.06463
G1 X104.153 Y111.854 E5.13240
G1 X103.802 Y111.854 E5.13889
G1 X106.744 Y114.795 E5.21584
G1 X106.744 Y115.146 E5.22233
G1 X103.452 Y111.854 E5.30846
G1 X103.101 Y111.854 E5.31495
G1 X106.744 Y115.497 E5.41025
G1 X106.744 Y115.848 E5.41674
G1 X102.750 Y111.854 E5.52122
G1 X102.399 Y111.854 E5.52771
G1 X106.744 Y116.198 E5.64137
G1 X106.744 Y116.549 E5.64786
G1 X102.049 Y111.854 E5.77069
G1 X101.698 Y111.854 E5.77718
G1 X109.827 Y119.984 E5.98987
G1 X109.476 Y119.984 E5.99636
G1 X101.347 Y111.854 E6.20905
G1 X100.996 Y111.854 E6.21554
G1 X109.126 Y119.984 E6.42823
G1 X108.775 Y119.984 E6.43471
G1 X100.646 Y111.854 E6.64740
G1 X99.846 Y111.055 F6000.000
G1 X98.756 Y109.965 E6.67591 F1200.000
G1 X98.756 Y109.614 E6.68240
G1 X99.367 Y110.225 E6.69837
G1 X98.756 Y110.316 F6000.000
G1 X108.424 Y119.984 E6.95131 F1200.000
G1 X108.073 Y119.984 E6.95779
G1 X98.756 Y110.667 E7.20155
G1 X98.756 Y111.017 E7.20804
G1 X107.723 Y119.984 E7.44263
G1 X107.372 Y119.984 E7.44912
G1 X98.756 Y111.368 E7.67452
G1 X98.756 Y111.719 E7.68101
G1 X107.021 Y119.984 E7.89724
G1 X106.670 Y119.984 E7.90373
G1 X98.756 Y112.070 E8.11078
G1 X98.756 Y112.421 E8.11727
G1 X106.319 Y119.984 E8.31514
G1 X105.969 Y119.984 E8.32163
G1 X98.756 Y112.771 E8.51033
G1 X98.756 Y113.122 E8.51682
G1 X105.744 Y120.109 E8.69962
G1 X105.744 Y120.460 E8.70611
G1 X98.756 Y113.473 E8.88892
G1 X98.756 Y113.824 E8.89541
G1 X105.744 Y120.811 E9.07822
G1 X105.744 Y121.162 E9.08471
G1 X98.756 Y114.174 E9.26751
G1 X98.756 Y114.525 E9.27400
G1 X105.744 Y121.512 E9.45681
G1 X105.744 Y121.863 E9.46330
G1 X98.756 Y114.876 E9.64610
G1 X98.756 Y115.227 E9.65259
G1 X105.744 Y122.214 E9.83540
G1 X105.744 Y122.565 E9.84189
G1 X98.756 Y115.577 E10.02470
G1 X98.756 Y115.928 E10.03119
G1 X105.744 Y122.915 E10.21399
G1 X105.461 Y122.984 E10.21937
G1 X98.756 Y116.279 E10.39478
G1 X98.756 Y116.630 E10.40127
G1 X105.110 Y122.984 E10.56751
G1 X104.759 Y122.984 E10.57400
G1 X98.756 Y116.981 E10.73106
G1 X98.756 Y117.331 E10.73755
G1 X104.409 Y122.984 E10.88543
G1 X104.058 Y122.984 E10.89192
G1 X98.756 Y117.682 E11.03063
G1 X98.756 Y118.033 E11.03711
G1 X103.707 Y122.984 E11.16664
G1 X103.356 Y122.984 E11.17313
G1 X98.756 Y118.384 E11.29348
G1 X98.756 Y118.734 E11.29997
G1 X103.006 Y122.984 E11.41114
G1 X102.655 Y122.984 E11.41763
G1 X98.756 Y119.085 E11.51963
G1 X98.756 Y119.436 E11.52612
G1 X102.304 Y122.984 E11.61894
G1 X101.953 Y122.984 E11.62543
G1 X98.756 Y119.787 E11.70907
G1 X98.756 Y120.137 E11.71556
G1 X101.603 Y122.984 E11.79002
G1 X101.252 Y122.984 E11.79651
G1 X98.756 Y120.488 E11.86180
G1 X98.756 Y120.839 E11.86829
G1 X100.901 Y122.984 E11.92440
G1 X100.550 Y122.984 E11.93089
G1 X98.756 Y121.190 E11.97782
G1 X98.756 Y121.541 E11.98431
G1 X100.199 Y122.984 E12.02207
G1 X99.849 Y122.984 E12.02855
G1 X98.756 Y121.891 E12.05713
G1 X98.756 Y122.242 E12.06362
G1 X99.498 Y122.984 E12.08302
G1 X99.147 Y122.984 E12.08951
G1 X98.756 Y122.593 E12.09974
G1 X98.756 Y122.944 E12.10623
G1 X98.796 Y122.984 E12.10727
G1 F1860.000 E9.10727
G92 E0
G1 X98.888 Y109.395 F6000.000
G1 E3.10000 F1860.000
G1 X98.829 Y109.336 E3.10154 F1200.000
G1 X98.867 Y107.621 F6000.000
G1 X98.756 Y107.510 E3.10444 F1200.000
G1 X98.756 Y107.159 E3.11093
G1 X98.996 Y107.398 E3.11719
G1 X99.124 Y107.176 E3.12194
G1 X98.756 Y106.808 E3.13156
G1 X98.756 Y106.457 E3.13805
G1 X99.252 Y106.953 E3.15102
G1 X99.381 Y106.731 E3.15577
G1 X98.756 Y106.107 E3.17211
G1 X98.756 Y105.756 E3.17860
G1 X99.509 Y106.509 E3.19829
G1 X99.638 Y106.286 E3.20304
G1 X98.756 Y105.405 E3.22609
G1 X98.756 Y105.054 E3.23258
G1 X99.766 Y106.064 E3.25900
G1 X99.894 Y105.842 E3.26375
G1 X98.756 Y104.704 E3.29352
G1 X98.756 Y104.353 E3.30001
G1 X100.023 Y105.619 E3.33314
G1 X100.151 Y105.397 E3.33789
G1 X98.756 Y104.002 E3.37438
G1 X98.756 Y103.651 E3.38087
G1 X100.279 Y105.174 E3.42071
G1 X100.582 Y105.126 E3.42638
G1 X98.756 Y103.301 E3.47413
G1 X98.756 Y102.950 E3.48062
G1 X100.932 Y105.126 E3.53754
G1 X101.283 Y105.126 E3.54403
G1 X98.756 Y102.599 E3.61014
G1 X98.756 Y102.248 E3.61663
G1 X101.634 Y105.126 E3.69191
G1 X101.985 Y105.126 E3.69840
G1 X98.756 Y101.897 E3.78286
G1 X98.756 Y101.547 E3.78935
G1 X102.335 Y105.126 E3.88299
G1 X102.686 Y105.126 E3.88948
G1 X98.756 Y101.196 E3.99229
G1 X98.756 Y100.845 E3.99878
G1 X103.037 Y105.126 E4.11077
G1 X103.388 Y105.126 E4.11726
G1 X98.756 Y100.494 E4.23843
G1 X98.756 Y100.144 E4.24492
G1 X103.738 Y105.126 E4.37527
G1 X104.812 Y106.200 F6000.000
G1 X113.744 Y115.131 E4.60894 F1200.000
G1 X113.744 Y114.780 E4.61543
G1 X98.756 Y99.793 E5.00754
G1 X98.756 Y99.442 E5.01403
G1 X113.744 Y114.429 E5.40614
G1 X113.744 Y114.079 E5.41263
G1 X106.911 Y107.246 E5.59138
G1 X107.262 Y107.246 E5.59787
G1 X113.744 Y113.728 E5.76744
G1 X113.744 Y113.377 E5.77393
G1 X107.613 Y107.246 E5.93433
G1 X107.964 Y107.246 E5.94082
G1 X113.744 Y113.026 E6.09203
G1 X113.744 Y112.675 E6.09852
G1 X108.315 Y107.246 E6.24056
G1 X108.665 Y107.246 E6.24705
G1 X113.744 Y112.325 E6.37992
G1 X113.744 Y111.974 E6.38641
G1 X109.016 Y107.246 E6.51009
G1 X109.367 Y107.246 E6.51658
G1 X113.744 Y111.623 E6.63109
G1 X113.744 Y111.272 E6.63758
G1 X109.718 Y107.246 E6.74291
G1 X110.068 Y107.246 E6.74940
G1 X113.744 Y110.922 E6.84556
G1 X113.744 Y110.571 E6.85204
G1 X110.419 Y107.246 E6.93902
G1 X110.756 Y107.233 E6.94527
G1 X113.744 Y110.220 E7.02342
G1 X113.744 Y109.869 E7.02991
G1 X110.756 Y106.882 E7.10806
G1 X110.756 Y106.531 E7.11455
G1 X113.744 Y109.519 E7.19271
G1 X113.744 Y109.168 E7.19920
G1 X110.756 Y106.181 E7.27735
G1 X110.756 Y105.830 E7.28384
G1 X113.744 Y108.817 E7.36199
G1 X113.744 Y108.466 E7.36848
G1 X110.756 Y105.479 E7.44664
G1 X110.756 Y105.128 E7.45313
G1 X113.744 Y108.115 E7.53128
G1 X113.744 Y107.765 E7.53777
G1 X101.353 Y95.374 E7.86194
G1 X101.704 Y95.374 E7.86843
G1 X113.744 Y107.414 E8.18343
G1 X113.744 Y107.063 E8.18991
G1 X102.055 Y95.374 E8.49573
G1 X102.406 Y95.374 E8.50222
G1 X113.744 Y106.712 E8.79886
G1 X113.744 Y106.362 E8.80535
G1 X102.756 Y95.374 E9.09282
G1 X103.107 Y95.374 E9.09931
G1 X113.744 Y106.011 E9.37759
G1 X113.744 Y105.660 E9.38408
G1 X103.458 Y95.374 E9.65319
G1 X103.809 Y95.374 E9.65968
G1 X113.744 Y105.309 E9.91961
G1 X113.744 Y104.959 E9.92610
G1 X104.159 Y95.374 E10.17686
G1 X104.309 Y95.173 E10.18149
G1 X113.744 Y104.608 E10.42834
G1 X113.744 Y104.257 E10.43483
G1 X104.437 Y94.950 E10.67832
G1 X104.565 Y94.728 E10.68307
G1 X113.744 Y103.906 E10.92320
G1 X113.744 Y103.555 E10.92969
G1 X104.694 Y94.506 E11.16646
G1 X104.822 Y94.283 E11.17121
G1 X113.744 Y103.205 E11.40462
G1 X113.744 Y102.854 E11.41111
G1 X104.951 Y94.061 E11.64116
G1 X105.079 Y93.839 E11.64591
G1 X113.744 Y102.503 E11.87261
G1 X113.744 Y102.152 E11.87910
G1 X105.207 Y93.616 E12.10243
G1 X105.593 Y92.949 F6000.000
G1 X105.744 Y93.100 E12.10638 F1200.000
G1 X105.744 Y93.451 E12.11287
G1 X105.464 Y93.171 E12.12018
G1 X105.336 Y93.394 E12.12493
G1 X113.744 Y101.802 E12.34490
G1 X113.744 Y101.451 E12.35139
G1 X108.013 Y95.720 E12.50132
G1 F1860.000 E9.50132
G92 E0
G1 X110.764 Y98.121 F6000.000
G1 E3.10000 F1860.000
G1 X113.744 Y101.100 E3.17795 F1200.000
G1 X113.744 Y100.749 E3.18444
G1 X113.515 Y100.521 E3.19041
G1 F1860.000 E0.19041
G92 E0
G1 X110.362 Y104.734 F6000.000
G1 E3.10000 F1860.000
G1 X101.002 Y95.374 E3.34487 F1200.000
G1 X100.652 Y95.374 E3.35136
G1 X110.011 Y104.734 E3.59623
G1 X109.660 Y104.734 E3.60272
G1 X98.756 Y93.830 E3.88799
G1 X98.756 Y94.181 E3.89448
G1 X109.309 Y104.734 E4.17058
G1 X108.959 Y104.734 E4.17707
G1 X98.756 Y94.531 E4.44400
G1 X98.756 Y94.882 E4.45049
G1 X108.608 Y104.734 E4.70823
G1 X108.257 Y104.734 E4.71472
G1 X98.756 Y95.233 E4.96329
G1 X98.756 Y95.584 E4.96978
G1 X107.906 Y104.734 E5.20917
G1 X107.556 Y104.734 E5.21566
G1 X98.756 Y95.934 E5.44587
G1 X98.756 Y96.285 E5.45236
G1 X107.205 Y104.734 E5.67340
G1 X106.854 Y104.734 E5.67989
G1 X98.756 Y96.636 E5.89175
G1 X98.756 Y96.987 E5.89824
G1 X106.744 Y104.974 E6.10721
G1 X106.744 Y105.325 E6.11370
G1 X98.756 Y97.338 E6.32267
G1 X98.756 Y97.688 E6.32916
G1 X106.744 Y105.675 E6.53813
G1 X106.744 Y106.026 E6.54462
G1 X98.756 Y98.039 E6.75359
G1 X98.756 Y98.390 E6.76007
G1 X106.744 Y106.377 E6.96904
