; generated by Slic3r 1.1.7 on 2014-12-12 at 20:02:04

; perimeters extrusion width = 0.42mm
; infill extrusion width = 0.74mm
; solid infill extrusion width = 0.71mm
; top infill extrusion width = 0.71mm
; support material extrusion width = 0.42mm

G21 ; set units to millimeters
M190 S57 ; wait for bed temperature to be reached
M104 S186 ; set temperature
G28 ; home all axes Start of G Code Slic3r
 
M109 S186 ; wait for temperature to be reached
G90 ; use absolute coordinates
G92 E0
M82 ; use absolute distances for extrusion
M106 S218
G1 F1860.000 E-3.00000
G92 E0
G1 Z0.200 F6000.000
G1 X90.795 Y92.040 F6000.000
G1 E3.10000 F1860.000
G1 X92.566 Y90.423 E3.14436 F1200.000
G1 X94.767 Y89.473 E3.18872
G1 X96.494 Y89.264 E3.22090
G1 X103.494 Y89.264 E3.35040
G1 X105.859 Y89.661 E3.39476
G1 X107.964 Y90.809 E3.43912 F1200.000
G1 X109.578 Y92.582 E3.48348
G1 X110.524 Y94.785 E3.52783
G1 X110.720 Y96.125 E3.55288
G1 X110.734 Y96.423 E3.55841
G1 X110.742 Y103.500 E3.68932
G1 X110.345 Y105.864 E3.73368
G1 X109.197 Y107.969 E3.77804
G1 X107.424 Y109.584 E3.82240
G1 X105.221 Y110.530 E3.86675
G1 X103.506 Y110.736 E3.89871
G1 X96.506 Y110.736 E4.02821
G1 X94.142 Y110.339 E4.07257
G1 X92.037 Y109.191 E4.11693
G1 X90.422 Y107.418 E4.16129
G1 X89.476 Y105.215 E4.20564
G1 X89.270 Y103.513 E4.23736
G1 X89.258 Y96.513 E4.36687
G1 X89.651 Y94.147 E4.41122
G1 X90.765 Y92.096 E4.45442
G1 X91.021 Y92.165 F6000.000
G1 X91.041 Y92.129 E4.45519 F1200.000
G1 X92.803 Y90.565 E4.49878
G1 X94.985 Y89.676 E4.54237
G1 X96.494 Y89.511 E4.57044
G1 X103.494 Y89.511 E4.69995
G1 X105.816 Y89.908 E4.74354
G1 X107.875 Y91.055 E4.78712 F1200.000
G1 X109.435 Y92.820 E4.83071
G1 X110.474 Y96.138 E4.89503
G1 X110.495 Y96.821 E4.90768
G1 X110.495 Y103.500 E5.03124
G1 X110.098 Y105.822 E5.07482
G1 X108.952 Y107.881 E5.11841
G1 X107.187 Y109.441 E5.16200
G1 X105.003 Y110.327 E5.20559
G1 X103.506 Y110.489 E5.23345
G1 X96.506 Y110.489 E5.36295
G1 X94.184 Y110.092 E5.40654
G1 X92.125 Y108.945 E5.45012
G1 X90.565 Y107.180 E5.49371
G1 X89.679 Y104.997 E5.53730
G1 X89.517 Y103.512 E5.56493
G1 X89.505 Y96.512 E5.69443
G1 X89.898 Y94.189 E5.73802
G1 X90.990 Y92.220 E5.77967
G1 X91.245 Y92.292 F6000.000
G1 X91.286 Y92.219 E5.78123 F1200.000
G1 X93.040 Y90.710 E5.82404
G1 X95.201 Y89.883 E5.86684
G1 X96.494 Y89.758 E5.89086
G1 X103.494 Y89.758 E6.02037
G1 X105.774 Y90.155 E6.06317
G1 X107.784 Y91.300 E6.10598 F1200.000
G1 X109.290 Y93.057 E6.14878
G1 X110.227 Y96.150 E6.20858
G1 X110.247 Y96.821 E6.22100
G1 X110.248 Y103.500 E6.34455
G1 X109.851 Y105.779 E6.38736
G1 X108.707 Y107.790 E6.43016
G1 X106.950 Y109.296 E6.47297
G1 X104.787 Y110.119 E6.51577
G1 X103.506 Y110.242 E6.53958
G1 X96.506 Y110.242 E6.66908
G1 X94.227 Y109.845 E6.71189
G1 X92.216 Y108.700 E6.75469
G1 X90.710 Y106.943 E6.79750
G1 X89.887 Y104.781 E6.84030
G1 X89.764 Y103.512 E6.86389
G1 X89.752 Y96.512 E6.99339
G1 X90.145 Y94.232 E7.03620
G1 X91.213 Y92.347 E7.07627
G1 X91.467 Y92.421 F6000.000
G1 X91.531 Y92.311 E7.07864 F1200.000
G1 X93.277 Y90.858 E7.12065
G1 X96.494 Y90.006 E7.18222
G1 X103.494 Y90.006 E7.31173
G1 X105.730 Y90.402 E7.35373
G1 X107.692 Y91.545 E7.39574 F1200.000
G1 X109.141 Y93.293 E7.43774
G1 X109.980 Y96.163 E7.49307
G1 X110.000 Y96.821 E7.50525
G1 X110.001 Y103.500 E7.62880
G1 X109.604 Y105.735 E7.67081
G1 X108.461 Y107.698 E7.71281
G1 X106.714 Y109.147 E7.75482
G1 X103.506 Y109.994 E7.81620
G1 X96.506 Y109.994 E7.94570
G1 X94.270 Y109.598 E7.98770
G1 X92.308 Y108.455 E8.02971
G1 X90.859 Y106.707 E8.07172
G1 X90.012 Y103.511 E8.13289
G1 X90.000 Y96.511 E8.26239
G1 X90.393 Y94.275 E8.30439
G1 X91.436 Y92.476 E8.34287
G1 X91.688 Y92.553 F6000.000
G1 X91.776 Y92.405 E8.34605 F1200.000
G1 X93.512 Y91.010 E8.38725
G1 X96.494 Y90.253 E8.44416
G1 X103.494 Y90.253 E8.57366
G1 X105.685 Y90.650 E8.61486
G1 X107.598 Y91.790 E8.65605 F1200.000
G1 X108.989 Y93.528 E8.69724
G1 X109.733 Y96.176 E8.74813
G1 X109.753 Y96.821 E8.76007
G1 X109.753 Y103.500 E8.88363
G1 X109.357 Y105.691 E8.92482
G1 X108.217 Y107.603 E8.96601
G1 X106.478 Y108.995 E9.00720
G1 X103.506 Y109.747 E9.06393
G1 X96.506 Y109.747 E9.19343
G1 X94.315 Y109.350 E9.23462
G1 X92.402 Y108.210 E9.27581
G1 X91.011 Y106.472 E9.31700
G1 X90.259 Y103.511 E9.37353
G1 X90.247 Y96.511 E9.50303
G1 X90.640 Y94.319 E9.54422
G1 X91.656 Y92.607 E9.58106
G1 F1860.000 E6.58106
G92 E0
G1 X103.159 Y103.153 F6000.000
G1 E3.10000 F1860.000
G1 X96.853 Y103.153 E3.21665 F1200.000
G1 X96.853 Y101.268 E3.25153
G1 X96.853 Y96.847 E3.33331
G1 X103.159 Y96.847 E3.44996
G1 X103.159 Y103.090 E3.56545
G1 X103.406 Y103.400 F6000.000
G1 X96.606 Y103.400 E3.69125 F1200.000
G1 X96.600 Y96.600 E3.81705
G1 X103.400 Y96.600 E3.94285
G1 X103.406 Y103.337 E4.06749
G1 X103.042 Y103.190 F6000.000
G1 F1860.000 E1.06749
G92 E0
G1 X97.052 Y102.994 F6000.000
G1 E3.10000 F1860.000
G1 X97.012 Y102.954 E3.10105 F1200.000
G1 X97.012 Y102.604 E3.10752
G1 X97.402 Y102.994 E3.11772
G1 X97.752 Y102.994 E3.12419
G1 X97.012 Y102.254 E3.14355
G1 X97.012 Y101.904 E3.15002
G1 X98.102 Y102.994 E3.17853
G1 X98.452 Y102.994 E3.18500
G1 X97.012 Y101.554 E3.22266
G1 X97.012 Y101.204 E3.22913
G1 X98.802 Y102.994 E3.27595
G1 X99.151 Y102.994 E3.28242
G1 X97.012 Y100.854 E3.33838
G1 X97.012 Y100.505 E3.34486
G1 X99.501 Y102.994 E3.40998
G1 X99.851 Y102.994 E3.41645
G1 X97.012 Y100.155 E3.49072
G1 X97.012 Y99.805 E3.49719
G1 X100.201 Y102.994 E3.58062
G1 X100.551 Y102.994 E3.58709
G1 X97.012 Y99.455 E3.67967
G1 X97.012 Y99.105 E3.68614
G1 X100.901 Y102.994 E3.78787
G1 X101.250 Y102.994 E3.79434
G1 X97.012 Y98.755 E3.90522
G1 X97.012 Y98.406 E3.91170
G1 X101.600 Y102.994 E4.03173
G1 X101.950 Y102.994 E4.03820
G1 X97.012 Y98.056 E4.16739
G1 X97.012 Y97.706 E4.17386
G1 X102.300 Y102.994 E4.31220
G1 X102.650 Y102.994 E4.31868
G1 X97.012 Y97.356 E4.46617
G1 X97.032 Y97.026 E4.47228
G1 X102.979 Y102.974 E4.62788
G1 X102.999 Y102.644 E4.63399
G1 X97.362 Y97.006 E4.78148
G1 X97.712 Y97.006 E4.78795
G1 X102.999 Y102.294 E4.92629
G1 X102.999 Y101.944 E4.93276
G1 X98.062 Y97.006 E5.06194
G1 X98.412 Y97.006 E5.06842
G1 X102.999 Y101.594 E5.18845
G1 X102.999 Y101.244 E5.19492
G1 X98.761 Y97.006 E5.30580
G1 X99.111 Y97.006 E5.31227
G1 X102.999 Y100.895 E5.41399
G1 X102.999 Y100.545 E5.42047
G1 X99.461 Y97.006 E5.51304
G1 X99.811 Y97.006 E5.51951
G1 X102.999 Y100.195 E5.60293
G1 X102.999 Y99.845 E5.60940
G1 X100.161 Y97.006 E5.68367
G1 X100.511 Y97.006 E5.69014
G1 X102.999 Y99.495 E5.75526
G1 X102.999 Y99.145 E5.76173
G1 X100.860 Y97.006 E5.81769
G1 X101.210 Y97.006 E5.82416
G1 X102.999 Y98.796 E5.87097
G1 X102.999 Y98.446 E5.87744
G1 X101.560 Y97.006 E5.91510
G1 X101.910 Y97.006 E5.92157
G1 X102.999 Y98.096 E5.95008
G1 X102.999 Y97.746 E5.95655
G1 X102.260 Y97.006 E5.97590
G1 X102.610 Y97.006 E5.98237
G1 X102.999 Y97.396 E5.99257
G1 X102.999 Y97.046 E5.99904
G1 X102.959 Y97.006 E6.00009
M106 S255
M140 S50 ; set bed temperature
G1 F1860.000 E3.00009
G92 E0
G1 Z0.400 F6000.000
G1 X102.876 Y102.870 F6000.000
G1 E3.10000 F1860.000
G1 X97.136 Y102.870 E3.28041 F600.000
G1 X97.136 Y101.232 E3.33190
G1 X97.136 Y97.130 E3.46082
G1 X102.876 Y97.130 E3.64123
G1 X102.876 Y102.807 E3.81967
G1 X103.296 Y103.290 F6000.000
G1 X96.716 Y103.290 E4.02647 F600.000
G1 X96.705 Y96.710 E4.23329
G1 X103.284 Y96.710 E4.44007
G1 X103.296 Y103.227 E4.64491
G1 X102.932 Y103.080 F6000.000
G1 X102.530 Y102.484 F6000.000
G1 X102.490 Y102.524 E4.64775 F600.000
G1 X101.488 Y102.524 E4.69805
G1 X102.530 Y101.482 E4.77203
G1 X102.530 Y100.481 E4.82234
G1 X100.487 Y102.524 E4.96746
G1 X99.485 Y102.524 E5.01776
G1 X102.530 Y99.479 E5.23403
G1 X102.530 Y98.478 E5.28433
G1 X98.483 Y102.524 E5.57173
G1 X97.502 Y102.504 E5.62104
G1 X102.510 Y97.496 E5.97674
G1 X101.528 Y97.476 E6.02605
G1 X97.482 Y101.522 E6.31345
G1 X97.482 Y100.521 E6.36375
G1 X100.527 Y97.476 E6.58001
G1 X99.525 Y97.476 E6.63032
G1 X97.482 Y99.519 E6.77544
G1 X97.482 Y98.518 E6.82574
G1 X98.523 Y97.476 E6.89973
G1 X97.522 Y97.476 E6.95003
G1 X97.482 Y97.516 E6.95287
G1 F1860.000 E3.95287
G92 E0
G1 Z0.600 F6000.000
G1 X102.876 Y102.870 F6000.000
G1 E3.10000 F1860.000
G1 X97.136 Y102.870 E3.28041 F600.000
G1 X97.136 Y101.196 E3.33303
G1 X97.136 Y97.130 E3.46082
G1 X102.876 Y97.130 E3.64123
G1 X102.876 Y102.807 E3.81967
G1 X103.296 Y103.290 F6000.000
G1 X96.716 Y103.290 E4.02647 F600.000
G1 X96.711 Y96.710 E4.23329
G1 X103.291 Y96.710 E4.44011
G1 X103.296 Y103.227 E4.64494
G1 X102.932 Y103.080 F6000.000
G1 F1860.000 E1.64494
G92 E0
G1 X97.522 Y102.524 F6000.000
G1 E3.10000 F1860.000
G1 X97.482 Y102.484 E3.10284 F600.000
G1 X97.482 Y101.482 E3.15315
G1 X98.524 Y102.524 E3.22714
G1 X99.525 Y102.524 E3.27744
G1 X97.482 Y100.481 E3.42257
G1 X97.482 Y99.479 E3.47287
G1 X100.527 Y102.524 E3.68914
G1 X101.528 Y102.524 E3.73945
G1 X97.482 Y98.477 E4.02686
G1 X97.502 Y97.496 E4.07616
G1 X102.510 Y102.504 E4.43187
G1 X102.530 Y101.522 E4.48118
G1 X98.483 Y97.476 E4.76858
G1 X99.485 Y97.476 E4.81888
G1 X102.530 Y100.521 E5.03514
G1 X102.530 Y99.519 E5.08544
G1 X100.487 Y97.476 E5.23056
G1 X101.488 Y97.476 E5.28086
G1 X102.530 Y98.517 E5.35485
G1 X102.530 Y97.516 E5.40515
G1 X102.490 Y97.476 E5.40799
G1 F1860.000 E2.40799
G92 E0
G1 Z0.800 F6000.000
G1 X102.876 Y102.870 F6000.000
G1 E3.10000 F1860.000
G1 X97.136 Y102.870 E3.28041 F600.000
G1 X97.136 Y97.130 E3.46082
G1 X102.876 Y97.130 E3.64123
G1 X102.876 Y102.807 E3.81967
G1 X103.296 Y103.290 F6000.000
G1 X96.716 Y103.290 E4.02647 F600.000
G1 X96.716 Y97.137 E4.21987
G1 X96.702 Y96.710 E4.23329
G1 X103.291 Y96.710 E4.44040
G1 X103.296 Y103.227 E4.64523
G1 X102.932 Y103.080 F6000.000
G1 X102.530 Y101.659 F6000.000
G1 X101.665 Y102.524 E4.70866 F600.000
G1 X98.399 Y102.524 E4.87794
G1 X102.530 Y98.393 E5.18077
G1 X100.182 Y97.476 E5.31145
G1 X97.482 Y100.176 E5.50943
G1 F1860.000 E2.50943
G92 E0
G1 Z1.000 F6000.000
G1 X102.876 Y102.870 F6000.000
G1 E3.10000 F1860.000
G1 X97.136 Y102.870 E3.28041 F600.000
G1 X97.136 Y97.130 E3.46082
G1 X102.876 Y97.130 E3.64123
G1 X102.876 Y102.807 E3.81967
G1 X103.296 Y103.290 F6000.000
G1 X96.716 Y103.290 E4.02647 F600.000
G1 X96.716 Y97.244 E4.21650
G1 X96.698 Y96.710 E4.23330
G1 X103.291 Y96.710 E4.44053
G1 X103.296 Y103.227 E4.64536
G1 X102.932 Y103.080 F6000.000
G1 F1860.000 E1.64536
G92 E0
G1 X99.379 Y102.524 F6000.000
G1 E3.10000 F1860.000
G1 X97.482 Y100.627 E3.23908 F600.000
G1 X97.596 Y97.476 E3.40255
G1 X102.530 Y102.410 E3.76427
G1 X102.530 Y99.144 E3.93356
G1 X100.862 Y97.476 E4.05588
G1 F1860.000 E1.05588
G92 E0
G1 Z1.200 F6000.000
G1 X102.876 Y102.870 F6000.000
G1 E3.10000 F1860.000
G1 X97.136 Y102.870 E3.28041 F600.000
G1 X97.125 Y97.130 E3.46082
G1 X102.872 Y97.130 E3.64146
G1 X102.876 Y102.807 E3.81989
G1 X103.296 Y103.290 F6000.000
G1 X96.716 Y103.290 E4.02670 F600.000
G1 X96.705 Y96.710 E4.23352
G1 X103.292 Y96.710 E4.44053
G1 X103.296 Y103.227 E4.64537
G1 X102.932 Y103.080 F6000.000
G1 X102.529 Y101.660 F6000.000
G1 X101.665 Y102.524 E4.70874 F600.000
G1 X98.399 Y102.524 E4.87802
G1 X102.527 Y98.396 E5.18063
G1 X100.182 Y97.476 E5.31123
G1 X97.477 Y100.181 E5.50958
G1 F1860.000 E2.50958
G92 E0
G1 Z1.400 F6000.000
G1 X102.876 Y102.870 F6000.000
G1 E3.10000 F1860.000
G1 X97.136 Y102.870 E3.28041 F600.000
G1 X97.132 Y97.130 E3.46082
G1 X102.872 Y97.130 E3.64124
G1 X102.876 Y102.807 E3.81967
G1 X103.296 Y103.290 F6000.000
G1 X96.716 Y103.290 E4.02648 F600.000
G1 X96.705 Y96.710 E4.23329
G1 X103.292 Y96.710 E4.44032
G1 X103.296 Y103.227 E4.64515
G1 X102.932 Y103.080 F6000.000
G1 F1860.000 E1.64515
G92 E0
G1 X99.379 Y102.524 F6000.000
G1 E3.10000 F1860.000
G1 X97.480 Y100.626 E3.23918 F600.000
G1 X97.596 Y97.476 E3.40258
G1 X102.530 Y102.410 E3.76429
G1 X102.528 Y99.142 E3.93368
G1 X100.862 Y97.476 E4.05584
G1 F1860.000 E1.05584
G92 E0
G1 Z1.600 F6000.000
G1 X102.876 Y102.870 F6000.000
G1 E3.10000 F1860.000
G1 X97.136 Y102.870 E3.28041 F600.000
G1 X97.132 Y97.130 E3.46082
G1 X102.872 Y97.130 E3.64123
G1 X102.876 Y102.807 E3.81967
G1 X103.296 Y103.290 F6000.000
G1 X96.716 Y103.290 E4.02648 F600.000
G1 X96.705 Y96.710 E4.23329
G1 X103.292 Y96.710 E4.44032
G1 X103.296 Y103.227 E4.64516
G1 X102.932 Y103.080 F6000.000
G1 X102.529 Y101.660 F6000.000
G1 X101.665 Y102.524 E4.70854 F600.000
G1 X98.399 Y102.524 E4.87782
G1 X102.528 Y98.396 E5.18046
G1 X100.182 Y97.476 E5.31107
G1 X97.480 Y100.178 E5.50917
G1 F1860.000 E2.50917
G92 E0
G1 Z1.800 F6000.000
G1 X102.876 Y102.870 F6000.000
G1 E3.10000 F1860.000
G1 X97.136 Y102.870 E3.28041 F600.000
G1 X97.132 Y97.130 E3.46082
G1 X102.873 Y97.130 E3.64124
G1 X102.876 Y102.807 E3.81968
G1 X103.296 Y103.290 F6000.000
G1 X96.716 Y103.290 E4.02649 F600.000
G1 X96.705 Y96.710 E4.23330
G1 X103.292 Y96.710 E4.44034
G1 X103.296 Y103.227 E4.64518
G1 X102.932 Y103.080 F6000.000
G1 F1860.000 E1.64518
G92 E0
G1 X99.379 Y102.524 F6000.000
G1 E3.10000 F1860.000
G1 X97.480 Y100.626 E3.23917 F600.000
G1 X97.596 Y97.476 E3.40258
G1 X102.530 Y102.410 E3.76429
G1 X102.528 Y99.142 E3.93367
G1 X100.862 Y97.476 E4.05584
G1 F1860.000 E1.05584
G92 E0
G1 Z2.000 F6000.000
G1 X102.876 Y102.870 F6000.000
G1 E3.10000 F1860.000
G1 X97.136 Y102.870 E3.28041 F600.000
G1 X97.128 Y97.130 E3.46082
G1 X102.873 Y97.130 E3.64138
G1 X102.876 Y102.807 E3.81981
G1 X103.296 Y103.290 F6000.000
G1 X96.716 Y103.290 E4.02662 F600.000
G1 X96.705 Y96.710 E4.23344
G1 X103.293 Y96.710 E4.44049
G1 X103.296 Y103.227 E4.64532
G1 X102.932 Y103.080 F6000.000
G1 X102.529 Y101.660 F6000.000
G1 X101.665 Y102.524 E4.70870 F600.000
G1 X98.399 Y102.524 E4.87798
G1 X102.528 Y98.396 E5.18064
G1 X100.182 Y97.476 E5.31125
G1 X97.478 Y100.180 E5.50948
G1 F1860.000 E2.50948
G92 E0
G1 Z2.200 F6000.000
G1 X102.876 Y102.870 F6000.000
G1 E3.10000 F1860.000
G1 X97.136 Y102.870 E3.28041 F600.000
G1 X97.128 Y97.130 E3.46082
G1 X102.873 Y97.130 E3.64139
G1 X102.876 Y102.807 E3.81982
G1 X103.296 Y103.290 F6000.000
G1 X96.716 Y103.290 E4.02663 F600.000
G1 X96.705 Y96.710 E4.23345
G1 X103.293 Y96.710 E4.44050
G1 X103.296 Y103.227 E4.64534
G1 X102.932 Y103.080 F6000.000
G1 F1860.000 E1.64534
G92 E0
G1 X99.379 Y102.524 F6000.000
G1 E3.10000 F1860.000
G1 X97.479 Y100.624 E3.23929 F600.000
G1 X97.596 Y97.476 E3.40261
G1 X102.530 Y102.410 E3.76433
G1 X102.528 Y99.143 E3.93370
G1 X100.862 Y97.476 E4.05589
G1 F1860.000 E1.05589
G92 E0
G1 Z2.400 F6000.000
G1 X102.876 Y102.870 F6000.000
G1 E3.10000 F1860.000
G1 X97.136 Y102.870 E3.28041 F1188.351
G1 X97.128 Y97.130 E3.46082
G1 X102.873 Y97.130 E3.64140
G1 X102.876 Y102.807 E3.81983
G1 X103.296 Y103.290 F6000.000
G1 X96.716 Y103.290 E4.02664 F950.681
G1 X96.705 Y96.710 E4.23346
G1 X103.293 Y96.710 E4.44052
G1 X103.296 Y103.227 E4.64536
G1 X102.932 Y103.080 F6000.000
G1 X102.530 Y102.484 F6000.000
M106 S255
G1 X102.490 Y102.524 E4.64838 F600.000
G1 X101.774 Y102.524 E4.68661
G1 X102.530 Y101.769 E4.74366
G1 X102.529 Y101.053 E4.78187
G1 X101.058 Y102.524 E4.89297
G1 X100.342 Y102.524 E4.93120
G1 X102.529 Y100.337 E5.09633
G1 X102.528 Y99.622 E5.13454
G1 X99.626 Y102.524 E5.35371
G1 X98.910 Y102.524 E5.39194
G1 X102.528 Y98.906 E5.66515
G1 X102.528 Y98.190 E5.70336
G1 X98.194 Y102.524 E6.03060
G1 X97.500 Y102.502 E6.06770
G1 X102.507 Y97.495 E6.44579
G1 X101.810 Y97.476 E6.48300
G1 X97.480 Y101.806 E6.80996
G1 X97.479 Y101.091 E6.84814
G1 X101.094 Y97.476 E7.12111
G1 X100.378 Y97.476 E7.15934
G1 X97.479 Y100.376 E7.37832
G1 X97.478 Y99.661 E7.41650
G1 X99.662 Y97.476 E7.58149
G1 X98.947 Y97.476 E7.61972
G1 X97.477 Y98.946 E7.73072
G1 X97.476 Y98.231 E7.76890
G1 X98.231 Y97.476 E7.82590
G1 X97.515 Y97.476 E7.86413
G1 X97.475 Y97.516 E7.86715
M106 S255
G1 F1860.000 E4.86715
G92 E0
G1 Z2.600 F6000.000
G1 X102.876 Y102.870 F6000.000
G1 E3.10000 F1860.000
G1 X97.136 Y102.870 E3.28041 F600.000
G1 X97.128 Y97.130 E3.46082
G1 X102.874 Y97.130 E3.64141
G1 X102.876 Y102.807 E3.81984
G1 X103.296 Y103.290 F6000.000
G1 X96.716 Y103.290 E4.02665 F600.000
G1 X96.705 Y96.710 E4.23347
G1 X103.294 Y96.710 E4.44054
G1 X103.296 Y103.227 E4.64537
G1 X102.932 Y103.080 F6000.000
G1 F1860.000 E1.64537
G92 E0
G1 X97.521 Y102.524 F6000.000
G1 E3.10000 F1860.000
G1 X97.481 Y102.484 E3.10284 F600.000
