; generated by Slic3r 1.1.7 on 2014-12-02 at 00:11:13

; perimeters extrusion width = 0.35mm
; infill extrusion width = 0.52mm
; solid infill extrusion width = 0.52mm
; top infill extrusion width = 0.52mm

G21 ; set units to millimeters
M107
M190 S97 ; wait for bed temperature to be reached
M104 S244 ; set temperature
G28 ; home all axes
M109 S244 ; wait for temperature to be reached
G90 ; use absolute coordinates
G92 E0
M82 ; use absolute distances for extrusion
G1 F3000.000 E-4.00000
G1 Z0.500 F7800.000
G92 E0
G1 X74.389 Y75.707 F7800.000
G1 Z0.200 F7800.000
G1 E4.00000 F3000.000
G1 X76.051 Y74.697 E4.06295 F360.000
G1 X77.332 Y74.432 E4.10529
G1 X83.700 Y74.022 E4.31182
G1 X122.300 Y74.422 E5.56129
G1 X124.200 Y74.837 E5.62424 F360.000
G1 X125.777 Y75.976 E5.68719
G1 X126.769 Y77.648 E5.75015
G1 X127.028 Y79.178 E5.80039
G1 X127.105 Y101.675 E6.52858
G1 X125.105 Y121.675 E7.17917
G1 X124.521 Y123.531 E7.24212
G1 X123.247 Y125.000 E7.30507
G1 X121.493 Y125.840 E7.36803
G1 X120.350 Y125.979 E7.40529
G1 X77.850 Y125.979 E8.78092
G1 X75.946 Y125.583 E8.84388
G1 X74.357 Y124.461 E8.90683
G1 X73.347 Y122.799 E8.96979
G1 X73.072 Y121.236 E9.02113
G1 X72.871 Y95.000 E9.87038
G1 X72.871 Y79.200 E10.38179
G1 X73.267 Y77.296 E10.44475
G1 X74.359 Y75.750 E10.50600
G1 X74.721 Y75.955 F7800.000
G1 X74.771 Y75.887 E10.50874 F360.000
G1 X76.405 Y74.991 E10.56905
G1 X77.358 Y74.820 E10.60039
G1 X83.695 Y74.411 E10.80595
G1 X122.295 Y74.811 E12.05541
G1 X124.112 Y75.225 E12.11572 F360.000
G1 X125.593 Y76.356 E12.17603
G1 X126.472 Y77.999 E12.23634
G1 X126.639 Y79.180 E12.27496
G1 X126.717 Y101.637 E13.00184
G1 X124.717 Y121.637 E13.65242
G1 X124.143 Y123.409 E13.71273
G1 X122.885 Y124.783 E13.77304
G1 X120.350 Y125.589 E13.85913
G1 X77.850 Y125.589 E15.23477
G1 X76.029 Y125.194 E15.29507
G1 X74.537 Y124.079 E15.35538
G1 X73.641 Y122.445 E15.41569
G1 X73.461 Y121.234 E15.45533
G1 X73.261 Y95.000 E16.30448
G1 X73.261 Y79.200 E16.81589
G1 X73.656 Y77.379 E16.87620
G1 X74.689 Y75.997 E16.93207
G1 F3000.000 E12.93207
G1 Z0.500 F7800.000
G92 E0
G1 X108.945 Y121.281 F7800.000
G1 Z0.200 F7800.000
G1 E4.00000 F3000.000
G1 X108.831 Y121.395 E4.00522 F360.000
G1 X102.730 Y121.394 E4.20269
G1 X100.906 Y121.140 E4.26229
G1 X99.436 Y120.359 E4.31618
G1 X99.398 Y120.324 E4.31784
G1 X98.460 Y118.795 E4.37591
G1 X98.156 Y116.419 E4.45347
G1 X98.155 Y114.995 E4.49954
G1 X98.208 Y114.463 E4.51685
G1 X98.378 Y114.110 E4.52954
G1 X98.492 Y113.918 E4.53678
G1 X98.561 Y113.553 E4.54879
G1 X98.671 Y113.168 E4.56174
G1 X98.703 Y113.119 E4.56363
G1 X99.032 Y112.845 E4.57750
G1 X99.377 Y112.646 E4.59039
G1 X99.671 Y112.414 E4.60251
G1 X99.646 Y112.011 E4.61559
G1 X99.233 Y111.756 E4.63130
G1 X98.719 Y111.344 E4.65261
G1 X98.388 Y110.908 E4.67034
G1 X98.168 Y110.420 E4.68767
G1 X97.963 Y109.855 E4.70711
G1 X97.810 Y109.294 E4.72594
G1 X97.755 Y108.805 E4.74185
G1 X97.755 Y107.595 E4.78103
G1 X97.806 Y106.139 E4.82820
G1 X97.961 Y104.952 E4.86695
G1 X98.272 Y103.920 E4.90181
G1 X98.781 Y102.903 E4.93862
G1 X99.535 Y101.992 E4.97689
G1 X100.484 Y101.416 E5.01283
G1 X101.574 Y101.107 E5.04950
G1 X102.746 Y101.005 E5.08758
G1 X108.831 Y101.005 E5.28453
G1 X108.945 Y101.119 E5.28975
G1 X108.945 Y121.228 E5.94063
G1 F3000.000 E1.94063
G1 Z0.500 F7800.000
G92 E0
G1 X117.803 Y104.010 F7800.000
G1 Z0.200 F7800.000
G1 E4.00000 F3000.000
G1 X118.166 Y101.103 E4.09485 F360.000
G1 X118.276 Y101.005 E4.09961
G1 X122.436 Y101.005 E4.23426
G1 X122.552 Y101.133 E4.23985
G1 X120.536 Y121.294 E4.89566
G1 X120.425 Y121.395 E4.90052
G1 X113.476 Y121.395 E5.12544
G1 X113.366 Y121.297 E5.13022
G1 X110.946 Y101.136 E5.78745
G1 X111.062 Y101.005 E5.79312
G1 X115.631 Y101.005 E5.94098
G1 X115.745 Y101.119 E5.94620
G1 X115.745 Y103.977 E6.03870
G1 X115.973 Y104.205 E6.04914
G1 X117.582 Y104.205 E6.10123
G1 X117.763 Y104.045 E6.10906
G1 F3000.000 E2.10906
G1 Z0.500 F7800.000
G92 E0
G1 X122.445 Y99.281 F7800.000
G1 Z0.200 F7800.000
G1 E4.00000 F3000.000
G1 X122.331 Y99.395 E4.00522 F360.000
G1 X116.243 Y99.395 E4.20226
G1 X114.067 Y99.077 E4.27346
G1 X112.495 Y98.121 E4.33299
G1 X111.560 Y96.547 E4.39225
G1 X111.255 Y94.407 E4.46221
G1 X111.256 Y85.184 E4.76073
G1 X111.558 Y82.412 E4.85099
G1 X112.486 Y80.493 E4.92000
G1 X114.097 Y79.362 E4.98370
G1 X116.226 Y79.007 E5.05357
G1 X122.331 Y79.005 E5.25117
G1 X122.445 Y79.119 E5.25639
G1 X122.445 Y99.228 E5.90727
G1 F3000.000 E1.90727
G1 Z0.500 F7800.000
G92 E0
G1 X109.945 Y99.281 F7800.000
G1 Z0.200 F7800.000
G1 E4.00000 F3000.000
G1 X109.831 Y99.395 E4.00522 F360.000
G1 X100.869 Y99.395 E4.29528
G1 X100.755 Y99.281 E4.30050
G1 X100.755 Y95.119 E4.43519
G1 X100.869 Y95.005 E4.44040
G1 X104.927 Y95.005 E4.57175
G1 X105.155 Y94.777 E4.58219
G1 X105.155 Y91.623 E4.68430
G1 X104.927 Y91.395 E4.69474
G1 X101.269 Y91.395 E4.81314
G1 X101.155 Y91.281 E4.81836
G1 X101.155 Y87.519 E4.94010
G1 X101.269 Y87.405 E4.94532
G1 X104.927 Y87.405 E5.06372
G1 X105.155 Y87.177 E5.07416
G1 X105.155 Y83.623 E5.18922
G1 X104.927 Y83.395 E5.19966
G1 X100.869 Y83.395 E5.33100
G1 X100.755 Y83.281 E5.33622
G1 X100.755 Y79.119 E5.47091
G1 X100.869 Y79.005 E5.47613
G1 X109.831 Y79.005 E5.76619
G1 X109.945 Y79.119 E5.77141
G1 X109.945 Y99.228 E6.42229
G1 F3000.000 E2.42229
G1 Z0.500 F7800.000
G92 E0
G1 X98.945 Y99.281 F7800.000
G1 Z0.200 F7800.000
G1 E4.00000 F3000.000
G1 X98.831 Y99.395 E4.00522 F360.000
G1 X89.869 Y99.395 E4.29528
G1 X89.755 Y99.281 E4.30050
G1 X89.755 Y95.119 E4.43519
G1 X89.869 Y95.005 E4.44040
G1 X93.927 Y95.005 E4.57175
G1 X94.155 Y94.777 E4.58219
G1 X94.155 Y92.423 E4.65841
G1 X93.927 Y92.195 E4.66884
G1 X90.269 Y92.195 E4.78724
G1 X90.155 Y92.081 E4.79246
G1 X90.155 Y88.319 E4.91421
G1 X90.269 Y88.205 E4.91943
G1 X93.927 Y88.205 E5.03783
G1 X94.155 Y87.977 E5.04827
G1 X94.155 Y79.119 E5.33498
G1 X94.269 Y79.005 E5.34020
G1 X98.831 Y79.005 E5.48784
G1 X98.945 Y79.119 E5.49305
G1 X98.945 Y99.228 E6.14393
G1 F3000.000 E2.14393
G1 Z0.500 F7800.000
G92 E0
G1 X82.847 Y95.404 F7800.000
G1 Z0.200 F7800.000
G1 E4.00000 F3000.000
G1 X83.094 Y95.368 E4.00808 F360.000
G1 X83.168 Y95.342 E4.01060
G1 X83.346 Y95.228 E4.01746
G1 X83.708 Y94.859 E4.03420
G1 X83.818 Y94.644 E4.04201
G1 X83.853 Y94.400 E4.05000
G1 X83.855 Y84.239 E4.37890
G1 X83.805 Y83.989 E4.38713
G1 X83.670 Y83.677 E4.39814
G1 X83.496 Y83.373 E4.40949
G1 X83.342 Y83.176 E4.41757
G1 X83.168 Y83.058 E4.42440
G1 X83.094 Y83.032 E4.42692
G1 X82.823 Y83.006 E4.43575
G1 X82.381 Y83.108 E4.45043
G1 X82.267 Y83.180 E4.45478
G1 X82.060 Y83.446 E4.46569
G1 X82.023 Y83.529 E4.46863
G1 X81.893 Y84.188 E4.49038
G1 X81.845 Y85.209 E4.52346
G1 X81.845 Y86.777 E4.57422
G1 X82.073 Y87.005 E4.58466
G1 X82.931 Y87.005 E4.61243
G1 X83.045 Y87.119 E4.61764
G1 X83.045 Y90.881 E4.73939
G1 X82.931 Y90.995 E4.74461
G1 X77.569 Y90.995 E4.91814
G1 X77.455 Y90.881 E4.92336
G1 X77.455 Y79.119 E5.30405
G1 X77.569 Y79.005 E5.30927
G1 X79.305 Y79.005 E5.36545
G1 X79.399 Y79.063 E5.36903
G1 X79.951 Y80.167 E5.40895
G1 X80.344 Y80.230 E5.42185
G1 X81.431 Y79.143 E5.47162
G1 X81.479 Y79.117 E5.47337
G1 X83.636 Y78.603 E5.54515
G1 X83.700 Y78.609 E5.54722
G1 X87.370 Y80.240 E5.67723
G1 X87.428 Y80.309 E5.68014
G1 X88.645 Y85.188 E5.84289
G1 X88.645 Y93.603 E6.11528
G1 X88.544 Y95.072 E6.16294
G1 X88.236 Y96.259 E6.20262
G1 X87.770 Y97.196 E6.23649
G1 X87.197 Y97.928 E6.26657
G1 X86.507 Y98.513 E6.29585
G1 X85.743 Y98.971 E6.32467
G1 X84.941 Y99.291 E6.35264
G1 X84.257 Y99.395 E6.37501
G1 X81.243 Y99.395 E6.47258
G1 X80.467 Y99.277 E6.49800
G1 X79.927 Y98.952 E6.51838
G1 X79.470 Y98.546 E6.53816
G1 X78.934 Y98.156 E6.55963
G1 X78.419 Y97.744 E6.58097
G1 X78.088 Y97.308 E6.59870
G1 X77.871 Y96.826 E6.61581
G1 X77.662 Y96.252 E6.63557
G1 X77.507 Y95.624 E6.65652
G1 X77.455 Y95.004 E6.67665
G1 X77.455 Y92.319 E6.76355
G1 X77.569 Y92.205 E6.76877
G1 X81.731 Y92.205 E6.90346
G1 X81.845 Y92.319 E6.90868
G1 X81.845 Y93.976 E6.96229
G1 X81.898 Y94.375 E6.97532
G1 X82.016 Y94.690 E6.98621
G1 X82.154 Y94.905 E6.99449
G1 X82.312 Y95.014 E7.00069
G1 X82.505 Y95.080 E7.00729
G1 X82.570 Y95.145 E7.01027
G1 X82.607 Y95.255 E7.01404
G1 X82.802 Y95.376 E7.02147
G1 F3000.000 E3.02147
G1 Z0.500 F7800.000
G92 E0
G1 X77.655 Y101.119 F7800.000
G1 Z0.200 F7800.000
G1 E4.00000 F3000.000
G1 X77.769 Y101.005 E4.00522 F360.000
G1 X81.931 Y101.005 E4.13991
G1 X82.045 Y101.119 E4.14513
G1 X82.045 Y121.281 E4.79771
G1 X81.931 Y121.395 E4.80293
G1 X77.769 Y121.395 E4.93762
G1 X77.655 Y121.281 E4.94284
G1 X77.655 Y101.172 E5.59371
G1 F3000.000 E1.59371
G1 Z0.500 F7800.000
G92 E0
G1 X90.697 Y105.366 F7800.000
G1 Z0.200 F7800.000
G1 E4.00000 F3000.000
G1 X90.636 Y105.273 E4.00362 F360.000
G1 X90.459 Y105.121 E4.01118
G1 X90.360 Y105.075 E4.01470
G1 X89.905 Y105.005 E4.02958
G1 X89.670 Y105.054 E4.03735
G1 X89.572 Y105.118 E4.04114
G1 X89.413 Y105.333 E4.04978
G1 X89.291 Y105.757 E4.06407
G1 X89.245 Y106.400 E4.08495
G1 X89.245 Y109.681 E4.19113
G1 X89.131 Y109.795 E4.19635
G1 X84.569 Y109.795 E4.34399
G1 X84.455 Y109.681 E4.34921
G1 X84.455 Y105.992 E4.46860
G1 X84.811 Y103.799 E4.54051
G1 X85.930 Y102.045 E4.60787
G1 X87.753 Y100.960 E4.67652
G1 X90.237 Y100.605 E4.75774
G1 X92.451 Y100.961 E4.83031
G1 X94.173 Y102.047 E4.89620
G1 X95.289 Y103.799 E4.96344
G1 X95.645 Y105.992 E5.03535
G1 X95.645 Y115.206 E5.33359
G1 X95.279 Y118.030 E5.42574
G1 X94.207 Y119.918 E5.49602
G1 X94.172 Y119.954 E5.49765
G1 X92.347 Y121.040 E5.56639
G1 X89.848 Y121.395 E5.64807
G1 X88.974 Y121.343 E5.67641
G1 X87.998 Y121.188 E5.70840
G1 X87.031 Y120.882 E5.74124
G1 X86.142 Y120.362 E5.77456
G1 X85.409 Y119.685 E5.80687
G1 X84.881 Y118.897 E5.83757
G1 X84.562 Y117.951 E5.86990
G1 X84.455 Y116.804 E5.90716
G1 X84.455 Y113.119 E6.02644
G1 X84.569 Y113.005 E6.03166
G1 X89.131 Y113.005 E6.17930
G1 X89.245 Y113.119 E6.18452
G1 X89.245 Y115.568 E6.26377
G1 X89.414 Y116.598 E6.29756
G1 X89.501 Y116.734 E6.30278
G1 X89.830 Y116.953 E6.31557
G1 X89.972 Y116.984 E6.32029
G1 X90.360 Y116.925 E6.33297
G1 X90.458 Y116.879 E6.33650
G1 X90.636 Y116.727 E6.34405
G1 X90.697 Y116.634 E6.34767
G1 X90.809 Y116.243 E6.36082
G1 X90.855 Y115.586 E6.38214
G1 X90.855 Y106.414 E6.67903
G1 X90.809 Y105.757 E6.70035
G1 X90.712 Y105.417 E6.71179
G1 F3000.000 E2.71179
G1 Z0.500 F7800.000
G92 E0
G1 X118.127 Y104.600 F7800.000
G1 Z0.200 F7800.000
G1 E4.00000 F3000.000
G1 X118.527 Y101.400 E4.10438 F270.000
G1 X122.129 Y101.400 E4.22099
G1 X120.169 Y121.000 E4.85856
G1 X113.727 Y121.000 E5.06706
G1 X111.375 Y101.400 E5.70603
G1 X115.350 Y101.400 E5.83467
G1 X115.350 Y104.600 E5.93825
G1 X118.074 Y104.600 E6.02642
G1 X118.475 Y104.629 F7800.000
G1 X118.470 Y104.989 F7800.000
G1 X118.870 Y101.789 E6.13081 F540.000
G1 X121.699 Y101.789 E6.22237
G1 X119.817 Y120.611 E6.83462
G1 X114.073 Y120.611 E7.02054
G1 X111.814 Y101.789 E7.63412
G1 X114.961 Y101.789 E7.73596
G1 X114.961 Y104.989 E7.83954
G1 X118.418 Y104.989 E7.95144
G1 X118.814 Y105.379 F7800.000
G1 X119.214 Y102.179 E8.05582 F540.000
G1 X121.269 Y102.179 E8.12233
G1 X119.464 Y120.221 E8.70926
G1 X114.418 Y120.221 E8.87260
G1 X112.253 Y102.179 E9.46080
G1 X114.571 Y102.179 E9.53584
G1 X114.571 Y105.379 E9.63942
G1 X118.761 Y105.379 E9.77504
G1 F3000.000 E5.77504
G1 Z0.500 F7800.000
G92 E0
G1 X117.759 Y107.800 F7800.000
G1 Z0.200 F7800.000
G1 E4.00000 F3000.000
G1 X117.341 Y117.400 E4.31103 F270.000
G1 X116.567 Y117.400 E4.33611
G1 X115.732 Y107.800 E4.64801
G1 X117.706 Y107.800 E4.71192
G1 X118.109 Y107.810 F7800.000
G1 X118.165 Y107.411 F7800.000
G1 X117.714 Y117.789 E5.04817 F540.000
G1 X116.210 Y117.789 E5.09687
G1 X115.307 Y107.411 E5.43407
G1 X118.113 Y107.411 E5.52488
G1 X118.572 Y107.021 F7800.000
G1 X118.087 Y118.179 E5.88635 F540.000
G1 X115.853 Y118.179 E5.95866
G1 X114.883 Y107.021 E6.32116
G1 X118.519 Y107.021 E6.43887
G1 X118.070 Y106.759 F7800.000
G1 X116.952 Y105.641 E6.49008 F540.000
G1 X116.399 Y105.641 E6.50797
G1 X117.517 Y106.759 E6.55917
G1 X116.965 Y106.759 E6.57706
G1 X115.846 Y105.641 E6.62826
G1 X115.293 Y105.641 E6.64615
G1 X116.412 Y106.759 E6.69735
G1 X115.859 Y106.759 E6.71524
G1 X114.741 Y105.641 E6.76644
G1 F3000.000 E2.76644
G1 Z0.500 F7800.000
G92 E0
G1 X114.304 Y102.441 F7800.000
G1 Z0.200 F7800.000
G1 E4.00000 F3000.000
G1 X114.309 Y102.998 E4.01805 F540.000
G1 X113.752 Y102.441 E4.04358
G1 X113.199 Y102.441 E4.06147
G1 X114.309 Y103.551 E4.11230
G1 X114.309 Y104.104 E4.13019
G1 X112.646 Y102.441 E4.20632
G1 X112.611 Y102.958 E4.22310
G1 X114.309 Y104.657 E4.30086
G1 X114.309 Y105.209 E4.31875
G1 X112.686 Y103.586 E4.39306
G1 X112.761 Y104.214 E4.41353
G1 X115.306 Y106.759 E4.53004
G1 X114.754 Y106.759 E4.54793
G1 X112.837 Y104.842 E4.63568
G1 X112.912 Y105.470 E4.65616
G1 X114.634 Y107.193 E4.73500
G1 X114.687 Y107.798 E4.75466
G1 X112.987 Y106.098 E4.83246
G1 X113.063 Y106.726 E4.85294
G1 X114.740 Y108.403 E4.92969
G1 X114.792 Y109.009 E4.94936
G1 X113.138 Y107.355 E5.02508
G1 X113.214 Y107.983 E5.04556
G1 X114.845 Y109.614 E5.12023
G1 X114.898 Y110.219 E5.13990
G1 X113.289 Y108.611 E5.21354
G1 X113.364 Y109.239 E5.23401
G1 X114.950 Y110.825 E5.30661
G1 X115.003 Y111.430 E5.32628
G1 X113.440 Y109.867 E5.39783
G1 X113.515 Y110.495 E5.41831
G1 X115.055 Y112.035 E5.48882
G1 X115.108 Y112.641 E5.50849
G1 X113.590 Y111.123 E5.57796
G1 X113.666 Y111.751 E5.59844
G1 X115.161 Y113.246 E5.66687
G1 X115.213 Y113.852 E5.68654
G1 X113.741 Y112.379 E5.75393
G1 X113.817 Y113.007 E5.77441
G1 X115.266 Y114.457 E5.84076
G1 X115.319 Y115.062 E5.86043
G1 X113.892 Y113.635 E5.92574
G1 X113.967 Y114.264 E5.94622
G1 X115.371 Y115.668 E6.01049
G1 X115.424 Y116.273 E6.03016
G1 X114.043 Y114.892 E6.09339
G1 X114.118 Y115.520 E6.11386
G1 X115.477 Y116.878 E6.17605
G1 X115.529 Y117.484 E6.19572
G1 X114.193 Y116.148 E6.25687
G1 X114.269 Y116.776 E6.27735
G1 X115.582 Y118.089 E6.33746
G1 F3000.000 E2.33746
G1 Z0.500 F7800.000
G92 E0
G1 X114.646 Y119.916 F7800.000
G1 Z0.200 F7800.000
G1 E4.00000 F3000.000
G1 X114.688 Y119.959 E4.00196 F540.000
G1 X115.241 Y119.959 E4.01985
G1 X114.570 Y119.288 E4.05057
G1 X114.495 Y118.660 E4.07104
G1 X115.794 Y119.959 E4.13051
G1 X116.347 Y119.959 E4.14840
G1 X114.419 Y118.032 E4.23662
G1 X114.344 Y117.404 E4.25709
G1 X116.899 Y119.959 E4.37406
G1 X117.452 Y119.959 E4.39195
G1 X115.934 Y118.441 E4.46146
G1 X116.486 Y118.441 E4.47935
G1 X118.005 Y119.959 E4.54886
G1 X118.558 Y119.959 E4.56675
G1 X117.039 Y118.441 E4.63626
G1 X117.592 Y118.441 E4.65415
G1 X119.110 Y119.959 E4.72366
G1 X119.267 Y119.563 E4.73745
G1 X118.144 Y118.441 E4.78882
G1 X118.353 Y118.097 E4.80185
G1 X119.317 Y119.061 E4.84598
G1 X119.367 Y118.558 E4.86233
G1 X118.376 Y117.567 E4.90770
G1 X118.399 Y117.037 E4.92487
G1 X119.418 Y118.056 E4.97149
G1 X119.468 Y117.553 E4.98783
G1 X118.422 Y116.507 E5.03570
G1 X118.445 Y115.978 E5.05286
G1 X119.518 Y117.051 E5.10198
G1 X119.568 Y116.548 E5.11832
G1 X118.468 Y115.448 E5.16868
G1 X118.491 Y114.918 E5.18584
G1 X119.618 Y116.046 E5.23745
G1 X119.669 Y115.543 E5.25380
G1 X118.514 Y114.389 E5.30665
G1 X118.537 Y113.859 E5.32381
G1 X119.719 Y115.041 E5.37791
G1 X119.769 Y114.538 E5.39425
G1 X118.560 Y113.329 E5.44960
G1 X118.583 Y112.800 E5.46676
G1 X119.819 Y114.036 E5.52335
G1 X119.870 Y113.533 E5.53969
G1 X118.606 Y112.270 E5.59753
G1 X118.629 Y111.740 E5.61469
G1 X119.920 Y113.031 E5.67377
G1 X119.970 Y112.528 E5.69012
G1 X118.652 Y111.211 E5.75044
G1 X118.675 Y110.681 E5.76760
G1 X120.020 Y112.026 E5.82918
G1 X120.071 Y111.524 E5.84552
G1 X118.698 Y110.151 E5.90834
G1 X118.721 Y109.621 E5.92550
G1 X120.121 Y111.021 E5.98957
G1 X120.171 Y110.519 E6.00591
G1 X118.744 Y109.092 E6.07123
G1 X118.767 Y108.562 E6.08839
G1 X120.221 Y110.016 E6.15494
G1 X120.272 Y109.514 E6.17129
G1 X118.790 Y108.032 E6.23909
G1 X118.814 Y107.503 E6.25625
G1 X120.322 Y109.011 E6.32530
G1 X120.372 Y108.509 E6.34165
G1 X117.504 Y105.641 E6.47293
G1 X118.057 Y105.641 E6.49082
G1 X120.422 Y108.006 E6.59910
G1 X120.473 Y107.504 E6.61544
G1 X118.610 Y105.641 E6.70072
G1 X119.058 Y105.537 E6.71563
G1 X120.523 Y107.001 E6.78267
G1 X120.573 Y106.499 E6.79901
G1 X119.120 Y105.045 E6.86555
