; generated by Slic3r 1.1.7 on 2014-12-15 at 21:14:10

; perimeters extrusion width = 0.42mm
; infill extrusion width = 0.74mm
; solid infill extrusion width = 0.71mm
; top infill extrusion width = 0.71mm
; support material extrusion width = 0.42mm

G21 ; set units to millimeters
M190 S57 ; wait for bed temperature to be reached
M104 S186 ; set temperature
G28 ; home all axes Start of G Code Slic3r
 
M109 S186 ; wait for temperature to be reached
G90 ; use absolute coordinates
G92 E0
M82 ; use absolute distances for extrusion
G1 F1860.000 E-3.00000
G92 E0
G1 Z0.200 F6000.000
G1 X47.831 Y62.151 F6000.000
G1 E3.10000 F1860.000
G1 X49.310 Y61.013 E3.13454 F1200.000
G1 X52.310 Y60.278 E3.19168
G1 X98.681 Y60.278 E4.04955
G1 X100.917 Y60.675 E4.09156
G1 X102.951 Y61.878 E4.13527 F1200.000
G1 X147.136 Y100.421 E5.22001
G1 X148.560 Y102.190 E5.26202
G1 X149.270 Y104.229 E5.30196
G1 X149.692 Y106.718 E5.34867
G1 X149.675 Y108.989 E5.39067
G1 X149.141 Y110.622 E5.42248
G1 X148.388 Y112.186 E5.45459
G1 X147.060 Y114.028 E5.49659
G1 X145.522 Y115.136 E5.53166
G1 X103.481 Y136.897 E6.40744
G1 X100.496 Y137.624 E6.46429
G1 X50.496 Y137.624 E7.38930
G1 X48.260 Y137.227 E7.43130
G1 X46.928 Y136.556 E7.45890
G1 X45.650 Y135.716 E7.48719
G1 X44.000 Y134.156 E7.52919
G1 X42.988 Y132.124 E7.57120
G1 X42.724 Y130.335 E7.60465
G1 X42.308 Y70.834 E8.70547
G1 X42.689 Y68.595 E8.74748
G1 X43.830 Y66.611 E8.78982
G1 X44.578 Y65.722 E8.81131
G1 X46.874 Y63.096 E8.87584
G1 X47.511 Y62.397 E8.89333
G1 X47.781 Y62.190 E8.89964
G1 X47.979 Y62.346 F6000.000
G1 X49.463 Y61.212 E8.93417 F1200.000
G1 X52.310 Y60.525 E8.98837
G1 X98.681 Y60.525 E9.84624
G1 X100.872 Y60.922 E9.88743
G1 X102.788 Y62.065 E9.92870 F1200.000
G1 X146.974 Y100.608 E11.01344
G1 X148.364 Y102.347 E11.05463
G1 X149.026 Y104.270 E11.09226
G1 X149.449 Y106.759 E11.13897
G1 X149.424 Y108.986 E11.18016
G1 X148.918 Y110.515 E11.20997
G1 X148.165 Y112.079 E11.24207
G1 X146.857 Y113.881 E11.28327
G1 X145.408 Y114.916 E11.31621
G1 X103.368 Y136.678 E12.19199
G1 X100.496 Y137.377 E12.24667
G1 X50.496 Y137.377 E13.17168
G1 X48.305 Y136.980 E13.21288
G1 X47.064 Y136.350 E13.23863
G1 X45.786 Y135.510 E13.26692
G1 X44.174 Y133.974 E13.30811
G1 X43.202 Y131.971 E13.34930
G1 X42.971 Y130.333 E13.37990
G1 X42.555 Y70.832 E14.48072
G1 X42.937 Y68.638 E14.52191
G1 X44.019 Y66.770 E14.56186
G1 X44.764 Y65.885 E14.58326
G1 X47.057 Y63.263 E14.64769
G1 X47.694 Y62.564 E14.66518
G1 X47.929 Y62.384 E14.67067
G1 F1860.000 E11.67067
G92 E0
G1 X100.015 Y130.782 F6000.000
G1 E3.10000 F1860.000
G1 X50.977 Y130.782 E4.00721 F1200.000
G1 X51.423 Y129.436 E4.03345
G1 X51.980 Y127.631 E4.06841
G1 X52.540 Y125.678 E4.10599
G1 X52.540 Y123.977 E4.13746
G1 X98.452 Y123.977 E4.98685
G1 X98.452 Y125.678 E5.01832
G1 X99.011 Y127.631 E5.05590
G1 X99.569 Y129.436 E5.09086
G1 X99.995 Y130.723 E5.11593
G1 X100.357 Y131.030 F6000.000
G1 X50.635 Y131.030 E6.03581 F1200.000
G1 X51.188 Y129.360 E6.06834
G1 X51.744 Y127.559 E6.10322
G1 X52.292 Y125.644 E6.14008
G1 X52.292 Y123.730 E6.17549
G1 X98.699 Y123.730 E7.03403
G1 X98.699 Y125.644 E7.06944
G1 X99.248 Y127.559 E7.10630
G1 X99.804 Y129.360 E7.14118
G1 X100.337 Y130.970 E7.17255
G1 X99.973 Y130.860 F6000.000
G1 F1860.000 E4.17255
G92 E0
G1 X98.253 Y124.136 F6000.000
G1 E3.10000 F1860.000
G1 X98.293 Y124.176 E3.10105 F1200.000
G1 X98.293 Y124.526 E3.10752
G1 X97.903 Y124.136 E3.11771
G1 X97.554 Y124.136 E3.12418
G1 X98.293 Y124.875 E3.14352
G1 X98.293 Y125.225 E3.14999
G1 X97.204 Y124.136 E3.17848
G1 X96.854 Y124.136 E3.18495
G1 X98.293 Y125.575 E3.22258
G1 X98.383 Y126.014 E3.23088
G1 X96.505 Y124.136 E3.28002
G1 X96.155 Y124.136 E3.28649
G1 X98.523 Y126.504 E3.34844
G1 X98.663 Y126.994 E3.35787
G1 X95.806 Y124.136 E3.43264
G1 X95.456 Y124.136 E3.43911
G1 X98.804 Y127.484 E3.52670
G1 X98.954 Y127.983 E3.53635
G1 X95.106 Y124.136 E3.63701
G1 X94.757 Y124.136 E3.64348
G1 X99.110 Y128.489 E3.75737
G1 X99.266 Y128.995 E3.76716
G1 X94.407 Y124.136 E3.89429
G1 X94.057 Y124.136 E3.90076
G1 X99.423 Y129.502 E4.04114
G1 X99.596 Y130.024 E4.05133
G1 X93.708 Y124.136 E4.20539
G1 X93.358 Y124.136 E4.21185
G1 X99.769 Y130.547 E4.37959
G1 X99.496 Y130.623 E4.38485
G1 X93.008 Y124.136 E4.55457
G1 X92.659 Y124.136 E4.56104
G1 X99.146 Y130.623 E4.73076
G1 X98.796 Y130.623 E4.73723
G1 X92.309 Y124.136 E4.90696
G1 X91.960 Y124.136 E4.91343
G1 X98.447 Y130.623 E5.08315
G1 X98.097 Y130.623 E5.08962
G1 X91.610 Y124.136 E5.25935
G1 X91.260 Y124.136 E5.26581
G1 X97.747 Y130.623 E5.43554
G1 X97.398 Y130.623 E5.44201
G1 X90.911 Y124.136 E5.61173
G1 X90.561 Y124.136 E5.61820
G1 X97.048 Y130.623 E5.78793
G1 X96.698 Y130.623 E5.79439
G1 X90.211 Y124.136 E5.96412
G1 X89.862 Y124.136 E5.97059
G1 X96.349 Y130.623 E6.14031
G1 X95.999 Y130.623 E6.14678
G1 X89.512 Y124.136 E6.31651
G1 X89.162 Y124.136 E6.32298
G1 X95.650 Y130.623 E6.49270
G1 X95.300 Y130.623 E6.49917
G1 X88.813 Y124.136 E6.66889
G1 X88.463 Y124.136 E6.67536
G1 X94.950 Y130.623 E6.84509
G1 X94.601 Y130.623 E6.85156
G1 X88.113 Y124.136 E7.02128
G1 X87.764 Y124.136 E7.02775
G1 X94.251 Y130.623 E7.19748
G1 X93.901 Y130.623 E7.20394
G1 X87.414 Y124.136 E7.37367
G1 X87.065 Y124.136 E7.38014
G1 X93.552 Y130.623 E7.54986
G1 X93.202 Y130.623 E7.55633
G1 X86.715 Y124.136 E7.72606
G1 X86.365 Y124.136 E7.73252
G1 X92.852 Y130.623 E7.90225
G1 X92.503 Y130.623 E7.90872
G1 X86.016 Y124.136 E8.07844
G1 X85.666 Y124.136 E8.08491
G1 X92.153 Y130.623 E8.25464
G1 X91.803 Y130.623 E8.26111
G1 X85.316 Y124.136 E8.43083
G1 X84.967 Y124.136 E8.43730
G1 X91.454 Y130.623 E8.60702
G1 X91.104 Y130.623 E8.61349
G1 X84.617 Y124.136 E8.78322
G1 X84.267 Y124.136 E8.78969
G1 X90.755 Y130.623 E8.95941
G1 X90.405 Y130.623 E8.96588
G1 X83.918 Y124.136 E9.13561
G1 X83.568 Y124.136 E9.14207
G1 X90.055 Y130.623 E9.31180
G1 X89.706 Y130.623 E9.31827
G1 X83.218 Y124.136 E9.48799
G1 X82.869 Y124.136 E9.49446
G1 X89.356 Y130.623 E9.66419
G1 X89.006 Y130.623 E9.67065
G1 X82.519 Y124.136 E9.84038
G1 X82.170 Y124.136 E9.84685
G1 X88.657 Y130.623 E10.01657
G1 X88.307 Y130.623 E10.02304
G1 X81.820 Y124.136 E10.19277
G1 X81.470 Y124.136 E10.19924
G1 X87.957 Y130.623 E10.36896
G1 X87.608 Y130.623 E10.37543
G1 X81.121 Y124.136 E10.54515
G1 X80.771 Y124.136 E10.55162
G1 X87.258 Y130.623 E10.72135
G1 X86.909 Y130.623 E10.72782
G1 X80.421 Y124.136 E10.89754
G1 X80.072 Y124.136 E10.90401
G1 X86.559 Y130.623 E11.07373
G1 X86.209 Y130.623 E11.08020
G1 X79.722 Y124.136 E11.24993
G1 X79.372 Y124.136 E11.25640
G1 X85.860 Y130.623 E11.42612
G1 X85.510 Y130.623 E11.43259
G1 X79.023 Y124.136 E11.60232
G1 X78.673 Y124.136 E11.60878
G1 X85.160 Y130.623 E11.77851
G1 X84.811 Y130.623 E11.78498
G1 X78.323 Y124.136 E11.95470
G1 X77.974 Y124.136 E11.96117
G1 X84.461 Y130.623 E12.13090
G1 X84.111 Y130.623 E12.13736
G1 X77.624 Y124.136 E12.30709
G1 X77.275 Y124.136 E12.31356
G1 X83.762 Y130.623 E12.48328
G1 X83.412 Y130.623 E12.48975
G1 X76.925 Y124.136 E12.65948
G1 X76.575 Y124.136 E12.66595
G1 X83.062 Y130.623 E12.83567
G1 X82.713 Y130.623 E12.84214
G1 X76.226 Y124.136 E13.01186
G1 X75.876 Y124.136 E13.01833
G1 X82.363 Y130.623 E13.18806
G1 X82.014 Y130.623 E13.19453
G1 X75.526 Y124.136 E13.36425
G1 X75.177 Y124.136 E13.37072
G1 X81.664 Y130.623 E13.54045
G1 X81.314 Y130.623 E13.54691
G1 X74.827 Y124.136 E13.71664
G1 X74.477 Y124.136 E13.72311
G1 X80.965 Y130.623 E13.89283
G1 X80.615 Y130.623 E13.89930
G1 X74.128 Y124.136 E14.06903
G1 X73.778 Y124.136 E14.07549
G1 X80.265 Y130.623 E14.24522
G1 X79.916 Y130.623 E14.25169
G1 X73.429 Y124.136 E14.42141
G1 X73.079 Y124.136 E14.42788
G1 X79.566 Y130.623 E14.59761
G1 X79.216 Y130.623 E14.60408
G1 X72.729 Y124.136 E14.77380
G1 X72.380 Y124.136 E14.78027
G1 X78.867 Y130.623 E14.94999
G1 X78.517 Y130.623 E14.95646
G1 X72.030 Y124.136 E15.12619
G1 X71.680 Y124.136 E15.13266
G1 X78.167 Y130.623 E15.30238
G1 X77.818 Y130.623 E15.30885
G1 X71.331 Y124.136 E15.47858
G1 X70.981 Y124.136 E15.48504
G1 X77.468 Y130.623 E15.65477
G1 X77.119 Y130.623 E15.66124
G1 X70.631 Y124.136 E15.83096
G1 X70.282 Y124.136 E15.83743
G1 X76.769 Y130.623 E16.00716
G1 X76.419 Y130.623 E16.01362
G1 X69.932 Y124.136 E16.18335
G1 X69.582 Y124.136 E16.18982
G1 X76.070 Y130.623 E16.35954
G1 X75.720 Y130.623 E16.36601
G1 X69.233 Y124.136 E16.53574
G1 X68.883 Y124.136 E16.54221
G1 X75.370 Y130.623 E16.71193
G1 X75.021 Y130.623 E16.71840
G1 X68.534 Y124.136 E16.88812
G1 X68.184 Y124.136 E16.89459
G1 X74.671 Y130.623 E17.06432
G1 X74.321 Y130.623 E17.07079
G1 X67.834 Y124.136 E17.24051
G1 X67.485 Y124.136 E17.24698
G1 X73.972 Y130.623 E17.41670
G1 X73.622 Y130.623 E17.42317
G1 X67.135 Y124.136 E17.59290
G1 X66.785 Y124.136 E17.59937
G1 X73.272 Y130.623 E17.76909
G1 X72.923 Y130.623 E17.77556
G1 X66.436 Y124.136 E17.94529
G1 X66.086 Y124.136 E17.95175
G1 X72.573 Y130.623 E18.12148
G1 X72.224 Y130.623 E18.12795
G1 X65.736 Y124.136 E18.29767
G1 X65.387 Y124.136 E18.30414
G1 X71.874 Y130.623 E18.47387
G1 X71.524 Y130.623 E18.48034
G1 X65.037 Y124.136 E18.65006
G1 X64.687 Y124.136 E18.65653
G1 X71.175 Y130.623 E18.82625
G1 X70.825 Y130.623 E18.83272
G1 X64.338 Y124.136 E19.00245
G1 X63.988 Y124.136 E19.00892
G1 X70.475 Y130.623 E19.17864
G1 X70.126 Y130.623 E19.18511
G1 X63.639 Y124.136 E19.35483
G1 X63.289 Y124.136 E19.36130
G1 X69.776 Y130.623 E19.53103
G1 X69.426 Y130.623 E19.53750
G1 X62.939 Y124.136 E19.70722
G1 X62.590 Y124.136 E19.71369
G1 X69.077 Y130.623 E19.88342
G1 X68.727 Y130.623 E19.88988
G1 X62.240 Y124.136 E20.05961
G1 X61.890 Y124.136 E20.06608
G1 X68.378 Y130.623 E20.23580
G1 X68.028 Y130.623 E20.24227
G1 X61.541 Y124.136 E20.41200
G1 X61.191 Y124.136 E20.41846
G1 X67.678 Y130.623 E20.58819
G1 X67.329 Y130.623 E20.59466
G1 X60.841 Y124.136 E20.76438
G1 X60.492 Y124.136 E20.77085
G1 X66.979 Y130.623 E20.94058
G1 X66.629 Y130.623 E20.94705
G1 X60.142 Y124.136 E21.11677
G1 X59.792 Y124.136 E21.12324
G1 X66.280 Y130.623 E21.29296
G1 X65.930 Y130.623 E21.29943
G1 X59.443 Y124.136 E21.46916
G1 X59.093 Y124.136 E21.47563
G1 X65.580 Y130.623 E21.64535
G1 X65.231 Y130.623 E21.65182
G1 X58.744 Y124.136 E21.82154
G1 X58.394 Y124.136 E21.82801
G1 X64.881 Y130.623 E21.99774
G1 X64.531 Y130.623 E22.00421
G1 X58.044 Y124.136 E22.17393
G1 X57.695 Y124.136 E22.18040
G1 X64.182 Y130.623 E22.35013
G1 X63.832 Y130.623 E22.35659
G1 X57.345 Y124.136 E22.52632
G1 X56.995 Y124.136 E22.53279
G1 X63.483 Y130.623 E22.70251
G1 X63.133 Y130.623 E22.70898
G1 X56.646 Y124.136 E22.87871
G1 X56.296 Y124.136 E22.88517
G1 X62.783 Y130.623 E23.05490
G1 X62.434 Y130.623 E23.06137
G1 X55.946 Y124.136 E23.23109
G1 X55.597 Y124.136 E23.23756
G1 X62.084 Y130.623 E23.40729
G1 X61.734 Y130.623 E23.41376
G1 X55.247 Y124.136 E23.58348
G1 X54.898 Y124.136 E23.58995
G1 X61.385 Y130.623 E23.75967
G1 X61.035 Y130.623 E23.76614
G1 X54.548 Y124.136 E23.93587
G1 X54.198 Y124.136 E23.94234
G1 X60.685 Y130.623 E24.11206
G1 X60.336 Y130.623 E24.11853
G1 X53.849 Y124.136 E24.28826
G1 X53.499 Y124.136 E24.29472
G1 X59.986 Y130.623 E24.46445
G1 X59.636 Y130.623 E24.47092
G1 X53.149 Y124.136 E24.64064
G1 X52.800 Y124.136 E24.64711
G1 X59.287 Y130.623 E24.81684
G1 X58.937 Y130.623 E24.82330
G1 X52.699 Y124.385 E24.98652
G1 X52.699 Y124.734 E24.99299
G1 X58.588 Y130.623 E25.14706
G1 X58.238 Y130.623 E25.15353
G1 X52.699 Y125.084 E25.29845
G1 X52.699 Y125.434 E25.30492
G1 X57.888 Y130.623 E25.44070
G1 X57.539 Y130.623 E25.44717
G1 X52.680 Y125.765 E25.57428
G1 X52.602 Y126.037 E25.57951
G1 X57.189 Y130.623 E25.69951
G1 X56.839 Y130.623 E25.70598
G1 X52.525 Y126.308 E25.81886
G1 X52.447 Y126.580 E25.82410
G1 X56.490 Y130.623 E25.92987
G1 X56.140 Y130.623 E25.93634
G1 X52.369 Y126.852 E26.03500
G1 X52.291 Y127.124 E26.04024
G1 X55.790 Y130.623 E26.13179
G1 X55.441 Y130.623 E26.13826
G1 X52.213 Y127.396 E26.22270
G1 X52.136 Y127.668 E26.22793
G1 X55.091 Y130.623 E26.30526
G1 X54.741 Y130.623 E26.31172
G1 X52.053 Y127.935 E26.38206
G1 X51.971 Y128.202 E26.38723
G1 X54.392 Y130.623 E26.45058
G1 X54.042 Y130.623 E26.45705
G1 X51.888 Y128.469 E26.51340
G1 X51.806 Y128.736 E26.51858
G1 X53.693 Y130.623 E26.56794
G1 X53.343 Y130.623 E26.57441
G1 X51.723 Y129.004 E26.61679
G1 X51.641 Y129.271 E26.62196
G1 X52.993 Y130.623 E26.65735
G1 X52.644 Y130.623 E26.66382
G1 X51.557 Y129.537 E26.69224
G1 X51.470 Y129.800 E26.69736
G1 X52.294 Y130.623 E26.71891
G1 X51.944 Y130.623 E26.72538
G1 X51.383 Y130.062 E26.74006
G1 X51.296 Y130.325 E26.74518
G1 X51.595 Y130.623 E26.75299
G1 X51.245 Y130.623 E26.75945
G1 X51.209 Y130.587 E26.76039
G1 X49.306 Y130.310 F6000.000
G1 X51.434 Y126.065 E26.90963 F1200.000
G1 X50.480 Y126.094 E26.93963
G1 X51.582 Y123.894 E27.01698
G1 X51.507 Y122.169 F6000.000
G1 X59.193 Y106.833 E27.55615 F1200.000
G1 X59.314 Y104.717 F6000.000
G1 X52.227 Y118.857 E28.05327 F1200.000
G1 X52.763 Y115.913 F6000.000
G1 X59.368 Y102.735 E28.51659 F1200.000
G1 X53.964 Y102.270 F6000.000
G1 X58.966 Y92.290 E28.86747 F1200.000
G1 X59.108 Y93.880 E28.91765
G1 X53.918 Y104.236 E29.28174
G1 X53.825 Y106.297 F6000.000
G1 X59.199 Y95.574 E29.65874 F1200.000
G1 X59.280 Y97.288 E29.71267
G1 X53.676 Y108.468 E30.10572
G1 X53.464 Y110.767 F6000.000
G1 X59.337 Y99.049 E30.51769 F1200.000
G1 X59.361 Y100.875 E30.57508
G1 X53.161 Y113.245 E31.00999
G1 X58.533 Y113.775 F6000.000
G1 X53.900 Y123.020 E31.33501 F1200.000
G1 X54.839 Y123.020 E31.36454
G1 X58.158 Y116.398 E31.59735
G1 X57.621 Y119.345 F6000.000
G1 X55.779 Y123.020 E31.72654 F1200.000
G1 X56.718 Y123.020 E31.75608
G1 X56.983 Y122.492 E31.77462
G1 X58.814 Y111.339 F6000.000
G1 X52.960 Y123.020 E32.18529 F1200.000
G1 X52.020 Y123.020 E32.21482
G1 X59.036 Y109.023 E32.70691
G1 X53.968 Y100.387 F6000.000
G1 X58.816 Y90.714 E33.04700 F1200.000
G1 X58.620 Y89.231 E33.09401
G1 X53.935 Y98.578 E33.42261
G1 X53.870 Y96.833 E33.47747
G1 X58.427 Y87.742 E33.79711
G1 X58.222 Y86.276 E33.84364
G1 X53.775 Y95.148 E34.15556
G1 X53.654 Y93.514 E34.20705
G1 X57.998 Y84.848 E34.51171
G1 X57.732 Y83.504 E34.55477
G1 X53.509 Y91.930 E34.85098
G1 X53.337 Y90.397 E34.89944
G1 X57.485 Y82.121 E35.19041
G1 X57.210 Y80.796 E35.23296
G1 X53.146 Y88.904 E35.51805
G1 X52.937 Y87.447 E35.56432
G1 X56.905 Y79.530 E35.84266
G1 X56.618 Y78.228 E35.88457
G1 X52.711 Y86.023 E36.15863
G1 X52.466 Y84.637 E36.20289
G1 X56.306 Y76.976 E36.47223
G1 X48.897 Y71.136 F6000.000
G1 X49.469 Y69.995 E36.51237 F1200.000
G1 X51.673 Y67.471 F6000.000
G1 X49.271 Y72.265 E36.68091 F1200.000
G1 X49.645 Y73.394 E36.71828
G1 X52.778 Y67.142 E36.93809
G1 X53.438 Y67.699 E36.96525
G1 X50.003 Y74.554 E37.20624
G1 X50.354 Y75.728 E37.24477
G1 X54.099 Y68.257 E37.50746
G1 X54.767 Y68.797 E37.53448
G1 X50.695 Y76.922 E37.82015
G1 X51.020 Y78.148 E37.86000
G1 X55.445 Y69.319 E38.17040
G1 X56.132 Y69.823 E38.19719
G1 X51.337 Y79.392 E38.53360
G1 X51.642 Y80.657 E38.57451
G1 X56.832 Y70.302 E38.93854
G1 X57.540 Y70.764 E38.96511
G1 X51.929 Y81.959 E39.35873
G1 X52.204 Y83.285 E39.40129
G1 X58.257 Y71.207 E39.82591
G1 X58.983 Y71.634 E39.85237
G1 X56.556 Y76.476 E40.02258
G1 X57.285 Y76.896 E40.04903
G1 X59.720 Y72.038 E40.21983
G1 X60.467 Y72.423 E40.24623
G1 X58.045 Y77.255 E40.41610
G1 X58.795 Y77.634 E40.44250
G1 X61.222 Y72.791 E40.61276
G1 X61.985 Y73.143 E40.63917
G1 X59.556 Y77.990 E40.80959
G1 X60.335 Y78.310 E40.83606
G1 X62.760 Y73.471 E41.00620
G1 X63.545 Y73.781 E41.03270
G1 X61.106 Y78.646 E41.20376
G1 X61.895 Y78.948 E41.23030
G1 X64.338 Y74.073 E41.40168
G1 X65.140 Y74.348 E41.42832
G1 X62.696 Y79.223 E41.59972
G1 X63.486 Y79.522 E41.62626
G1 X65.953 Y74.600 E41.79933
G1 X66.777 Y74.831 E41.82622
G1 X64.308 Y79.757 E41.99940
G1 X65.133 Y79.985 E42.02631
G1 X67.609 Y75.045 E42.19999
G1 X68.451 Y75.239 E42.22716
G1 X65.949 Y80.231 E42.40266
G1 X66.797 Y80.415 E42.42992
G1 X69.304 Y75.412 E42.60579
G1 X70.169 Y75.561 E42.63338
G1 X67.648 Y80.592 E42.81026
G1 X68.490 Y80.785 E42.83743
G1 X71.045 Y75.689 E43.01659
G1 X71.930 Y75.797 E43.04464
G1 X69.365 Y80.915 E43.22457
G1 X71.134 Y81.135 E43.28060
G1 X71.113 Y81.176 E43.28205
G1 X70.245 Y81.035 E43.30971
G1 X72.827 Y75.883 E43.49083
G1 X73.736 Y75.944 E43.51947
