; generated by Slic3r 1.1.7 on 2014-12-15 at 17:54:26

; perimeters extrusion width = 0.42mm
; infill extrusion width = 0.74mm
; solid infill extrusion width = 0.71mm
; top infill extrusion width = 0.71mm
; support material extrusion width = 0.42mm

G21 ; set units to millimeters
M190 S57 ; wait for bed temperature to be reached
M104 S186 ; set temperature
G28 ; home all axes Start of G Code Slic3r
 
M109 S186 ; wait for temperature to be reached
G90 ; use absolute coordinates
G92 E0
M82 ; use absolute distances for extrusion
G1 F1860.000 E-3.00000
G92 E0
G1 Z0.200 F6000.000
G1 X71.100 Y63.036 F6000.000
G1 E3.10000 F1860.000
G1 X72.899 Y61.581 E3.14280 F1200.000
G1 X74.249 Y61.011 E3.16992
G1 X75.354 Y60.681 E3.19125
G1 X77.260 Y60.400 E3.22689
G1 X123.377 Y60.246 E4.08007
G1 X125.658 Y60.635 E4.12288
G1 X128.477 Y62.552 E4.18595 F1200.000
G1 X131.462 Y65.970 E4.26989
G1 X132.663 Y67.947 E4.31270
G1 X133.127 Y70.450 E4.35978
G1 X132.733 Y129.351 E5.44949
G1 X132.018 Y132.327 E5.50611
G1 X131.281 Y133.759 E5.53590
G1 X130.793 Y134.579 E5.55356
G1 X129.285 Y136.334 E5.59636
G1 X127.273 Y137.476 E5.63917
G1 X125.000 Y137.871 E5.68185
G1 X75.000 Y137.871 E6.60686
G1 X72.721 Y137.474 E6.64967
G1 X71.174 Y136.680 E6.68183
G1 X69.984 Y135.860 E6.70856
G1 X68.333 Y134.240 E6.75136
G1 X67.327 Y132.157 E6.79417
G1 X67.069 Y130.356 E6.82781
G1 X66.659 Y71.183 E7.92256
G1 X67.374 Y68.116 E7.98082
G1 X67.946 Y66.974 E8.00445
G1 X68.896 Y65.559 E8.03597
G1 X71.059 Y63.083 E8.09679
G1 X71.287 Y63.199 F6000.000
G1 X73.056 Y61.776 E8.13880 F1200.000
G1 X74.320 Y61.248 E8.16414
G1 X75.425 Y60.918 E8.18547
G1 X77.261 Y60.647 E8.21980
G1 X123.378 Y60.493 E9.07299
G1 X125.615 Y60.883 E9.11500
G1 X128.291 Y62.715 E9.17499 F1200.000
G1 X131.276 Y66.132 E9.25894
G1 X132.448 Y68.077 E9.30094
G1 X132.879 Y70.448 E9.34553
G1 X132.486 Y129.349 E10.43524
G1 X131.797 Y132.216 E10.48978
G1 X131.068 Y133.632 E10.51925
G1 X130.580 Y134.452 E10.53690
G1 X129.095 Y136.170 E10.57891
G1 X127.110 Y137.272 E10.62092
G1 X125.000 Y137.624 E10.66049
G1 X75.000 Y137.624 E11.58550
G1 X72.764 Y137.227 E11.62751
G1 X71.314 Y136.477 E11.65771
G1 X70.125 Y135.657 E11.68444
G1 X68.509 Y134.061 E11.72645
G1 X67.542 Y132.007 E11.76846
G1 X67.316 Y130.355 E11.79931
G1 X66.907 Y71.181 E12.89406
G1 X67.595 Y68.227 E12.95019
G1 X68.167 Y67.085 E12.97382
G1 X69.082 Y65.722 E13.00418
G1 X71.245 Y63.246 E13.06500
G1 X71.473 Y63.361 F6000.000
G1 X73.213 Y61.972 E13.10619 F1200.000
G1 X74.391 Y61.485 E13.12978
G1 X75.496 Y61.155 E13.15111
G1 X77.262 Y60.894 E13.18413
G1 X123.379 Y60.740 E14.03732
G1 X125.571 Y61.130 E14.07851
G1 X128.105 Y62.878 E14.13545 F1200.000
G1 X131.090 Y66.295 E14.21940
G1 X132.233 Y68.206 E14.26059
G1 X132.632 Y70.447 E14.30270
G1 X132.238 Y129.348 E15.39241
G1 X131.576 Y132.105 E15.44487
G1 X130.856 Y133.506 E15.47401
G1 X130.368 Y134.326 E15.49166
G1 X128.906 Y136.005 E15.53285
G1 X126.948 Y137.065 E15.57405
G1 X125.000 Y137.377 E15.61054
G1 X75.000 Y137.377 E16.53555
G1 X72.809 Y136.980 E16.57674
G1 X71.455 Y136.273 E16.60501
G1 X70.265 Y135.453 E16.63174
G1 X68.686 Y133.883 E16.67293
G1 X67.758 Y131.859 E16.71412
G1 X67.563 Y130.353 E16.74222
G1 X67.154 Y71.180 E17.83696
G1 X67.816 Y68.337 E17.89096
G1 X68.388 Y67.195 E17.91459
G1 X69.268 Y65.885 E17.94380
G1 X71.431 Y63.409 E18.00462
G1 F1860.000 E15.00462
G92 E0
G1 X124.519 Y130.782 F6000.000
G1 E3.10000 F1860.000
G1 X75.481 Y130.782 E4.00721 F1200.000
G1 X75.927 Y129.436 E4.03345
G1 X76.485 Y127.631 E4.06841
G1 X77.044 Y125.678 E4.10599
G1 X77.044 Y123.977 E4.13746
G1 X122.956 Y123.977 E4.98685
G1 X122.956 Y125.678 E5.01832
G1 X123.515 Y127.631 E5.05590
G1 X124.073 Y129.436 E5.09086
G1 X124.499 Y130.723 E5.11593
G1 X124.861 Y131.030 F6000.000
G1 X75.139 Y131.030 E6.03581 F1200.000
G1 X75.692 Y129.360 E6.06834
G1 X76.248 Y127.559 E6.10322
G1 X76.796 Y125.644 E6.14008
G1 X76.796 Y123.730 E6.17549
G1 X123.204 Y123.730 E7.03403
G1 X123.204 Y125.644 E7.06944
G1 X123.752 Y127.559 E7.10630
G1 X124.308 Y129.360 E7.14118
G1 X124.842 Y130.970 E7.17255
G1 X124.477 Y130.860 F6000.000
G1 F1860.000 E4.17255
G92 E0
G1 X122.757 Y124.136 F6000.000
G1 E3.10000 F1860.000
G1 X122.797 Y124.176 E3.10105 F1200.000
G1 X122.797 Y124.526 E3.10752
G1 X122.408 Y124.136 E3.11771
G1 X122.058 Y124.136 E3.12418
G1 X122.797 Y124.875 E3.14352
G1 X122.797 Y125.225 E3.14999
G1 X121.708 Y124.136 E3.17848
G1 X121.359 Y124.136 E3.18495
G1 X122.797 Y125.575 E3.22258
G1 X122.887 Y126.014 E3.23088
G1 X121.009 Y124.136 E3.28002
G1 X120.659 Y124.136 E3.28649
G1 X123.027 Y126.504 E3.34844
G1 X123.168 Y126.994 E3.35787
G1 X120.310 Y124.136 E3.43264
G1 X119.960 Y124.136 E3.43911
G1 X123.308 Y127.484 E3.52670
G1 X123.458 Y127.983 E3.53635
G1 X119.610 Y124.136 E3.63701
G1 X119.261 Y124.136 E3.64348
G1 X123.614 Y128.489 E3.75737
G1 X123.770 Y128.995 E3.76716
G1 X118.911 Y124.136 E3.89429
G1 X118.561 Y124.136 E3.90076
G1 X123.927 Y129.502 E4.04114
G1 X124.100 Y130.024 E4.05133
G1 X118.212 Y124.136 E4.20539
G1 X117.862 Y124.136 E4.21185
G1 X124.273 Y130.547 E4.37959
G1 X124.000 Y130.623 E4.38485
G1 X117.513 Y124.136 E4.55457
G1 X117.163 Y124.136 E4.56104
G1 X123.650 Y130.623 E4.73076
G1 X123.300 Y130.623 E4.73723
G1 X116.813 Y124.136 E4.90696
G1 X116.464 Y124.136 E4.91343
G1 X122.951 Y130.623 E5.08315
G1 X122.601 Y130.623 E5.08962
G1 X116.114 Y124.136 E5.25935
G1 X115.764 Y124.136 E5.26581
G1 X122.251 Y130.623 E5.43554
G1 X121.902 Y130.623 E5.44201
G1 X115.415 Y124.136 E5.61173
G1 X115.065 Y124.136 E5.61820
G1 X121.552 Y130.623 E5.78793
G1 X121.203 Y130.623 E5.79439
G1 X114.715 Y124.136 E5.96412
G1 X114.366 Y124.136 E5.97059
G1 X120.853 Y130.623 E6.14031
G1 X120.503 Y130.623 E6.14678
G1 X114.016 Y124.136 E6.31651
G1 X113.666 Y124.136 E6.32298
G1 X120.154 Y130.623 E6.49270
G1 X119.804 Y130.623 E6.49917
G1 X113.317 Y124.136 E6.66889
G1 X112.967 Y124.136 E6.67536
G1 X119.454 Y130.623 E6.84509
G1 X119.105 Y130.623 E6.85156
G1 X112.618 Y124.136 E7.02128
G1 X112.268 Y124.136 E7.02775
G1 X118.755 Y130.623 E7.19748
G1 X118.405 Y130.623 E7.20394
G1 X111.918 Y124.136 E7.37367
G1 X111.569 Y124.136 E7.38014
G1 X118.056 Y130.623 E7.54986
G1 X117.706 Y130.623 E7.55633
G1 X111.219 Y124.136 E7.72606
G1 X110.869 Y124.136 E7.73252
G1 X117.357 Y130.623 E7.90225
G1 X117.007 Y130.623 E7.90872
G1 X110.520 Y124.136 E8.07844
G1 X110.170 Y124.136 E8.08491
G1 X116.657 Y130.623 E8.25464
G1 X116.308 Y130.623 E8.26111
G1 X109.820 Y124.136 E8.43083
G1 X109.471 Y124.136 E8.43730
G1 X115.958 Y130.623 E8.60702
G1 X115.608 Y130.623 E8.61349
G1 X109.121 Y124.136 E8.78322
G1 X108.772 Y124.136 E8.78969
G1 X115.259 Y130.623 E8.95941
G1 X114.909 Y130.623 E8.96588
G1 X108.422 Y124.136 E9.13561
G1 X108.072 Y124.136 E9.14207
G1 X114.559 Y130.623 E9.31180
G1 X114.210 Y130.623 E9.31827
G1 X107.723 Y124.136 E9.48799
G1 X107.373 Y124.136 E9.49446
G1 X113.860 Y130.623 E9.66419
G1 X113.510 Y130.623 E9.67065
G1 X107.023 Y124.136 E9.84038
G1 X106.674 Y124.136 E9.84685
G1 X113.161 Y130.623 E10.01657
G1 X112.811 Y130.623 E10.02304
G1 X106.324 Y124.136 E10.19277
G1 X105.974 Y124.136 E10.19924
G1 X112.462 Y130.623 E10.36896
G1 X112.112 Y130.623 E10.37543
G1 X105.625 Y124.136 E10.54515
G1 X105.275 Y124.136 E10.55162
G1 X111.762 Y130.623 E10.72135
G1 X111.413 Y130.623 E10.72782
G1 X104.925 Y124.136 E10.89754
G1 X104.576 Y124.136 E10.90401
G1 X111.063 Y130.623 E11.07373
G1 X110.713 Y130.623 E11.08020
G1 X104.226 Y124.136 E11.24993
G1 X103.877 Y124.136 E11.25640
G1 X110.364 Y130.623 E11.42612
G1 X110.014 Y130.623 E11.43259
G1 X103.527 Y124.136 E11.60232
G1 X103.177 Y124.136 E11.60878
G1 X109.664 Y130.623 E11.77851
G1 X109.315 Y130.623 E11.78498
G1 X102.828 Y124.136 E11.95470
G1 X102.478 Y124.136 E11.96117
G1 X108.965 Y130.623 E12.13090
G1 X108.615 Y130.623 E12.13736
G1 X102.128 Y124.136 E12.30709
G1 X101.779 Y124.136 E12.31356
G1 X108.266 Y130.623 E12.48328
G1 X107.916 Y130.623 E12.48975
G1 X101.429 Y124.136 E12.65948
G1 X101.079 Y124.136 E12.66595
G1 X107.567 Y130.623 E12.83567
G1 X107.217 Y130.623 E12.84214
G1 X100.730 Y124.136 E13.01186
G1 X100.380 Y124.136 E13.01833
G1 X106.867 Y130.623 E13.18806
G1 X106.518 Y130.623 E13.19453
G1 X100.030 Y124.136 E13.36425
G1 X99.681 Y124.136 E13.37072
G1 X106.168 Y130.623 E13.54045
G1 X105.818 Y130.623 E13.54691
G1 X99.331 Y124.136 E13.71664
G1 X98.982 Y124.136 E13.72311
G1 X105.469 Y130.623 E13.89283
G1 X105.119 Y130.623 E13.89930
G1 X98.632 Y124.136 E14.06903
G1 X98.282 Y124.136 E14.07549
G1 X104.769 Y130.623 E14.24522
G1 X104.420 Y130.623 E14.25169
G1 X97.933 Y124.136 E14.42141
G1 X97.583 Y124.136 E14.42788
G1 X104.070 Y130.623 E14.59761
G1 X103.720 Y130.623 E14.60408
G1 X97.233 Y124.136 E14.77380
G1 X96.884 Y124.136 E14.78027
G1 X103.371 Y130.623 E14.94999
G1 X103.021 Y130.623 E14.95646
G1 X96.534 Y124.136 E15.12619
G1 X96.184 Y124.136 E15.13266
G1 X102.672 Y130.623 E15.30238
G1 X102.322 Y130.623 E15.30885
G1 X95.835 Y124.136 E15.47858
G1 X95.485 Y124.136 E15.48504
G1 X101.972 Y130.623 E15.65477
G1 X101.623 Y130.623 E15.66124
G1 X95.135 Y124.136 E15.83096
G1 X94.786 Y124.136 E15.83743
G1 X101.273 Y130.623 E16.00716
G1 X100.923 Y130.623 E16.01362
G1 X94.436 Y124.136 E16.18335
G1 X94.087 Y124.136 E16.18982
G1 X100.574 Y130.623 E16.35954
G1 X100.224 Y130.623 E16.36601
G1 X93.737 Y124.136 E16.53574
G1 X93.387 Y124.136 E16.54221
G1 X99.874 Y130.623 E16.71193
G1 X99.525 Y130.623 E16.71840
G1 X93.038 Y124.136 E16.88812
G1 X92.688 Y124.136 E16.89459
G1 X99.175 Y130.623 E17.06432
G1 X98.826 Y130.623 E17.07079
G1 X92.338 Y124.136 E17.24051
G1 X91.989 Y124.136 E17.24698
G1 X98.476 Y130.623 E17.41670
G1 X98.126 Y130.623 E17.42317
G1 X91.639 Y124.136 E17.59290
G1 X91.289 Y124.136 E17.59937
G1 X97.777 Y130.623 E17.76909
G1 X97.427 Y130.623 E17.77556
G1 X90.940 Y124.136 E17.94529
G1 X90.590 Y124.136 E17.95175
G1 X97.077 Y130.623 E18.12148
G1 X96.728 Y130.623 E18.12795
G1 X90.241 Y124.136 E18.29767
G1 X89.891 Y124.136 E18.30414
G1 X96.378 Y130.623 E18.47387
G1 X96.028 Y130.623 E18.48034
G1 X89.541 Y124.136 E18.65006
G1 X89.192 Y124.136 E18.65653
G1 X95.679 Y130.623 E18.82625
G1 X95.329 Y130.623 E18.83272
G1 X88.842 Y124.136 E19.00245
G1 X88.492 Y124.136 E19.00892
G1 X94.979 Y130.623 E19.17864
G1 X94.630 Y130.623 E19.18511
G1 X88.143 Y124.136 E19.35483
G1 X87.793 Y124.136 E19.36130
G1 X94.280 Y130.623 E19.53103
G1 X93.931 Y130.623 E19.53750
G1 X87.443 Y124.136 E19.70722
G1 X87.094 Y124.136 E19.71369
G1 X93.581 Y130.623 E19.88342
G1 X93.231 Y130.623 E19.88988
G1 X86.744 Y124.136 E20.05961
G1 X86.394 Y124.136 E20.06608
G1 X92.882 Y130.623 E20.23580
G1 X92.532 Y130.623 E20.24227
G1 X86.045 Y124.136 E20.41200
G1 X85.695 Y124.136 E20.41846
G1 X92.182 Y130.623 E20.58819
G1 X91.833 Y130.623 E20.59466
G1 X85.346 Y124.136 E20.76438
G1 X84.996 Y124.136 E20.77085
G1 X91.483 Y130.623 E20.94058
G1 X91.133 Y130.623 E20.94705
G1 X84.646 Y124.136 E21.11677
G1 X84.297 Y124.136 E21.12324
G1 X90.784 Y130.623 E21.29296
G1 X90.434 Y130.623 E21.29943
G1 X83.947 Y124.136 E21.46916
G1 X83.597 Y124.136 E21.47563
G1 X90.084 Y130.623 E21.64535
G1 X89.735 Y130.623 E21.65182
G1 X83.248 Y124.136 E21.82154
G1 X82.898 Y124.136 E21.82801
G1 X89.385 Y130.623 E21.99774
G1 X89.036 Y130.623 E22.00421
G1 X82.548 Y124.136 E22.17393
G1 X82.199 Y124.136 E22.18040
G1 X88.686 Y130.623 E22.35013
G1 X88.336 Y130.623 E22.35659
G1 X81.849 Y124.136 E22.52632
G1 X81.499 Y124.136 E22.53279
G1 X87.987 Y130.623 E22.70251
G1 X87.637 Y130.623 E22.70898
G1 X81.150 Y124.136 E22.87871
G1 X80.800 Y124.136 E22.88517
G1 X87.287 Y130.623 E23.05490
G1 X86.938 Y130.623 E23.06137
G1 X80.451 Y124.136 E23.23109
G1 X80.101 Y124.136 E23.23756
G1 X86.588 Y130.623 E23.40729
G1 X86.238 Y130.623 E23.41376
G1 X79.751 Y124.136 E23.58348
G1 X79.402 Y124.136 E23.58995
G1 X85.889 Y130.623 E23.75967
G1 X85.539 Y130.623 E23.76614
G1 X79.052 Y124.136 E23.93587
G1 X78.702 Y124.136 E23.94234
G1 X85.189 Y130.623 E24.11206
G1 X84.840 Y130.623 E24.11853
G1 X78.353 Y124.136 E24.28826
G1 X78.003 Y124.136 E24.29472
G1 X84.490 Y130.623 E24.46445
G1 X84.141 Y130.623 E24.47092
G1 X77.653 Y124.136 E24.64064
G1 X77.304 Y124.136 E24.64711
G1 X83.791 Y130.623 E24.81684
G1 X83.441 Y130.623 E24.82330
G1 X77.203 Y124.385 E24.98652
G1 X77.203 Y124.734 E24.99299
G1 X83.092 Y130.623 E25.14706
G1 X82.742 Y130.623 E25.15353
G1 X77.203 Y125.084 E25.29845
G1 X77.203 Y125.434 E25.30492
G1 X82.392 Y130.623 E25.44070
G1 X82.043 Y130.623 E25.44717
G1 X77.184 Y125.765 E25.57428
G1 X77.106 Y126.037 E25.57951
G1 X81.693 Y130.623 E25.69951
G1 X81.343 Y130.623 E25.70598
G1 X77.029 Y126.308 E25.81886
G1 X76.951 Y126.580 E25.82410
G1 X80.994 Y130.623 E25.92987
G1 X80.644 Y130.623 E25.93634
G1 X76.873 Y126.852 E26.03500
G1 X76.795 Y127.124 E26.04024
G1 X80.295 Y130.623 E26.13179
G1 X79.945 Y130.623 E26.13826
G1 X76.717 Y127.396 E26.22270
G1 X76.640 Y127.668 E26.22793
G1 X79.595 Y130.623 E26.30526
G1 X79.246 Y130.623 E26.31172
G1 X76.557 Y127.935 E26.38206
G1 X76.475 Y128.202 E26.38723
G1 X78.896 Y130.623 E26.45058
G1 X78.546 Y130.623 E26.45705
G1 X76.392 Y128.469 E26.51340
G1 X76.310 Y128.736 E26.51858
G1 X78.197 Y130.623 E26.56794
G1 X77.847 Y130.623 E26.57441
G1 X76.227 Y129.004 E26.61679
G1 X76.145 Y129.271 E26.62196
G1 X77.497 Y130.623 E26.65735
G1 X77.148 Y130.623 E26.66382
G1 X76.061 Y129.537 E26.69224
G1 X75.974 Y129.800 E26.69736
G1 X76.798 Y130.623 E26.71891
G1 X76.448 Y130.623 E26.72538
G1 X75.887 Y130.062 E26.74006
G1 X75.800 Y130.325 E26.74518
G1 X76.099 Y130.623 E26.75299
G1 X75.749 Y130.623 E26.75945
G1 X75.713 Y130.587 E26.76039
G1 X73.810 Y130.310 F6000.000
G1 X75.938 Y126.065 E26.90963 F1200.000
G1 X74.984 Y126.094 E26.93963
G1 X76.086 Y123.894 E27.01698
G1 X76.011 Y122.169 F6000.000
G1 X83.697 Y106.833 E27.55615 F1200.000
G1 X83.819 Y104.717 F6000.000
G1 X76.732 Y118.857 E28.05327 F1200.000
G1 X77.267 Y115.913 F6000.000
G1 X83.872 Y102.735 E28.51659 F1200.000
G1 X78.468 Y102.270 F6000.000
G1 X83.470 Y92.290 E28.86747 F1200.000
G1 X83.613 Y93.880 E28.91765
G1 X78.422 Y104.236 E29.28174
G1 X78.329 Y106.297 F6000.000
G1 X83.703 Y95.574 E29.65874 F1200.000
G1 X83.784 Y97.288 E29.71267
G1 X78.180 Y108.468 E30.10572
G1 X77.968 Y110.767 F6000.000
G1 X83.841 Y99.049 E30.51769 F1200.000
G1 X83.865 Y100.875 E30.57508
G1 X77.665 Y113.245 E31.00999
G1 X83.037 Y113.775 F6000.000
G1 X78.404 Y123.020 E31.33501 F1200.000
G1 X79.343 Y123.020 E31.36454
G1 X82.662 Y116.398 E31.59735
G1 X82.125 Y119.345 F6000.000
G1 X80.283 Y123.020 E31.72654 F1200.000
G1 X81.222 Y123.020 E31.75608
G1 X81.487 Y122.492 E31.77462
G1 X83.318 Y111.339 F6000.000
G1 X77.464 Y123.020 E32.18529 F1200.000
G1 X76.525 Y123.020 E32.21482
G1 X83.540 Y109.023 E32.70691
G1 X78.472 Y100.387 F6000.000
G1 X83.320 Y90.714 E33.04700 F1200.000
G1 X83.124 Y89.231 E33.09401
G1 X78.439 Y98.578 E33.42261
G1 X78.374 Y96.833 E33.47747
G1 X82.931 Y87.742 E33.79711
G1 X82.726 Y86.276 E33.84364
G1 X78.279 Y95.148 E34.15556
G1 X78.158 Y93.514 E34.20705
G1 X82.502 Y84.848 E34.51171
G1 X82.236 Y83.504 E34.55477
G1 X78.013 Y91.930 E34.85098
G1 X77.841 Y90.397 E34.89944
G1 X81.989 Y82.121 E35.19041
G1 X81.714 Y80.796 E35.23296
G1 X77.650 Y88.904 E35.51805
G1 X77.441 Y87.447 E35.56432
G1 X81.409 Y79.530 E35.84266
G1 X81.122 Y78.228 E35.88457
G1 X77.215 Y86.023 E36.15863
G1 X76.970 Y84.637 E36.20289
G1 X80.810 Y76.976 E36.47223
G1 X73.401 Y71.136 F6000.000
G1 X73.973 Y69.995 E36.51237 F1200.000
G1 X76.178 Y67.471 F6000.000
G1 X73.775 Y72.265 E36.68091 F1200.000
G1 X74.149 Y73.394 E36.71828
G1 X77.282 Y67.142 E36.93809
G1 X77.943 Y67.699 E36.96525
G1 X74.507 Y74.554 E37.20624
G1 X74.858 Y75.728 E37.24477
G1 X78.603 Y68.257 E37.50746
G1 X79.272 Y68.797 E37.53448
G1 X75.199 Y76.922 E37.82015
G1 X75.525 Y78.148 E37.86000
G1 X79.950 Y69.319 E38.17040
G1 X80.637 Y69.823 E38.19719
G1 X75.841 Y79.392 E38.53360
G1 X76.146 Y80.657 E38.57451
G1 X81.336 Y70.302 E38.93854
G1 X82.044 Y70.764 E38.96511
G1 X76.433 Y81.959 E39.35873
G1 X76.708 Y83.285 E39.40129
G1 X82.761 Y71.207 E39.82591
G1 X83.487 Y71.634 E39.85237
G1 X81.060 Y76.476 E40.02258
G1 X81.789 Y76.896 E40.04903
G1 X84.224 Y72.038 E40.21983
G1 X84.971 Y72.423 E40.24623
