; generated by Slic3r 1.1.7 on 2015-01-07 at 16:17:32

; perimeters extrusion width = 0.40mm
; infill extrusion width = 0.44mm
; solid infill extrusion width = 0.44mm
; top infill extrusion width = 0.44mm

G21 ; set units to millimeters
M190 S60 ; wait for bed temperature to be reached
M104 S186 ; set temperature
G28 ; home all axes Start of G Code Slic3r
 
M109 S186 ; wait for temperature to be reached
G90 ; use absolute coordinates
G92 E0
M82 ; use absolute distances for extrusion
G1 F1860.000 E-3.00000
G92 E0
G1 Z0.294 F7800.000
G1 X85.115 Y71.726 F7800.000
G1 E3.10000 F1860.000
G1 X86.813 Y70.067 E3.24777 F1800.000
G1 X88.963 Y69.061 E3.39555
G1 X90.852 Y68.805 E3.51419
G1 X128.039 Y68.805 E5.82906
G1 X130.379 Y69.203 E5.97683
G1 X132.458 Y70.350 E6.12460 F1800.000
G1 X134.041 Y72.118 E6.27238
G1 X134.953 Y74.310 E6.42015
G1 X135.133 Y75.900 E6.51974
G1 X135.126 Y106.220 E8.40712
G1 X135.011 Y108.098 E8.52426
G1 X134.723 Y109.951 E8.64101
G1 X134.271 Y111.740 E8.75585
G1 X133.651 Y113.476 E8.87064
G1 X132.866 Y115.147 E8.98552
G1 X131.937 Y116.716 E9.09908
G1 X130.856 Y118.195 E9.21305
G1 X129.639 Y119.563 E9.32707
G1 X128.295 Y120.811 E9.44124
G1 X126.832 Y121.931 E9.55592
G1 X125.339 Y122.874 E9.66585
G1 X124.101 Y123.524 E9.75289
G1 X122.738 Y124.119 E9.84544
G1 X120.961 Y124.731 E9.96244
G1 X119.146 Y125.173 E10.07872
G1 X117.313 Y125.440 E10.19403
G1 X116.148 Y125.519 E10.26669
G1 X115.669 Y125.535 E10.29655
G1 X84.431 Y125.533 E12.24107
G1 X83.334 Y125.502 E12.30939
G1 X82.597 Y125.448 E12.35538
G1 X81.500 Y125.312 E12.42421
G1 X80.782 Y125.189 E12.46954
G1 X79.003 Y124.757 E12.58354
G1 X77.265 Y124.152 E12.69810
G1 X75.604 Y123.390 E12.81180
G1 X74.013 Y122.470 E12.92624
G1 X72.567 Y121.448 E13.03646
G1 X71.494 Y120.554 E13.12343
G1 X70.423 Y119.523 E13.21593
G1 X69.176 Y118.114 E13.33306
G1 X68.075 Y116.608 E13.44920
G1 X67.126 Y115.017 E13.56454
G1 X66.335 Y113.349 E13.67940
G1 X65.711 Y111.622 E13.79375
G1 X65.255 Y109.838 E13.90836
G1 X64.975 Y108.037 E14.02181
G1 X64.868 Y106.209 E14.13580
G1 X64.937 Y104.375 E14.25006
G1 X65.179 Y102.549 E14.36468
G1 X65.568 Y100.825 E14.47475
G1 X65.984 Y99.492 E14.56164
G1 X66.535 Y98.091 E14.65537
G1 X67.415 Y96.303 E14.77941
G1 X68.423 Y94.671 E14.89884
G1 X85.079 Y71.775 E16.66133
G1 X85.557 Y72.048 F7800.000
G1 X87.199 Y70.466 E16.80324 F1800.000
G1 X89.283 Y69.543 E16.94516
G1 X90.852 Y69.353 E17.04350
G1 X128.039 Y69.353 E19.35836
G1 X130.284 Y69.750 E19.50028
G1 X132.257 Y70.892 E19.64220 F1800.000
G1 X133.718 Y72.642 E19.78412
G1 X134.586 Y75.900 E19.99398
G1 X134.579 Y106.195 E21.87982
G1 X134.468 Y108.032 E21.99442
G1 X134.193 Y109.816 E22.10675
G1 X133.752 Y111.565 E22.21902
G1 X133.151 Y113.253 E22.33056
G1 X132.395 Y114.868 E22.44158
G1 X131.489 Y116.402 E22.55245
G1 X130.441 Y117.838 E22.66315
G1 X129.260 Y119.169 E22.77391
G1 X127.955 Y120.382 E22.88484
G1 X126.534 Y121.472 E22.99632
G1 X125.079 Y122.393 E23.10349
G1 X123.874 Y123.026 E23.18819
G1 X122.552 Y123.604 E23.27804
G1 X120.823 Y124.201 E23.39192
G1 X119.058 Y124.633 E23.50502
G1 X117.276 Y124.894 E23.61710
G1 X116.112 Y124.973 E23.68975
G1 X115.669 Y124.988 E23.71733
G1 X84.447 Y124.986 E25.66089
G1 X83.350 Y124.955 E25.72921
G1 X82.665 Y124.905 E25.77193
G1 X81.568 Y124.769 E25.84075
G1 X80.902 Y124.655 E25.88281
G1 X79.173 Y124.237 E25.99354
G1 X77.484 Y123.651 E26.10483
G1 X75.870 Y122.912 E26.21530
G1 X74.323 Y122.018 E26.32655
G1 X72.912 Y121.024 E26.43399
G1 X71.867 Y120.154 E26.51862
G1 X70.827 Y119.154 E26.60843
G1 X69.613 Y117.784 E26.72243
G1 X68.540 Y116.320 E26.83539
G1 X67.616 Y114.774 E26.94751
G1 X66.847 Y113.154 E27.05912
G1 X66.239 Y111.477 E27.17020
G1 X65.794 Y109.744 E27.28153
G1 X65.521 Y107.996 E27.39171
G1 X65.415 Y106.220 E27.50244
G1 X65.480 Y104.437 E27.61346
G1 X65.714 Y102.663 E27.72488
G1 X66.093 Y100.981 E27.83219
G1 X66.496 Y99.684 E27.91674
G1 X67.030 Y98.324 E28.00769
G1 X67.885 Y96.583 E28.12841
G1 X68.866 Y94.993 E28.24474
G1 X85.522 Y72.097 E30.00723
G1 F1860.000 E27.00723
G92 E0
G1 X127.745 Y76.193 F7800.000
G1 E3.10000 F1860.000
G1 X127.745 Y105.893 E4.94878 F441.000
G1 X127.690 Y107.102 E5.02408
G1 X127.529 Y108.267 E5.09733
G1 X127.265 Y109.392 E5.16925
G1 X126.901 Y110.472 E5.24016
G1 X126.441 Y111.501 E5.31039
G1 X125.886 Y112.477 E5.38023
G1 X125.241 Y113.393 E5.44999
G1 X124.509 Y114.246 E5.51999
G1 X123.692 Y115.032 E5.59052
G1 X122.794 Y115.744 E5.66190
G1 X121.815 Y116.380 E5.73455
G1 X121.034 Y116.802 E5.78982
G1 X120.211 Y117.176 E5.84606
G1 X119.079 Y117.586 E5.92105
G1 X117.940 Y117.884 E5.99430
G1 X116.800 Y118.070 E6.06622
G1 X115.663 Y118.147 E6.13714
G1 X114.536 Y118.115 E6.20736
G1 X113.422 Y117.976 E6.27720
G1 X112.329 Y117.731 E6.34697
G1 X111.260 Y117.381 E6.41696
G1 X110.222 Y116.927 E6.48749
G1 X109.220 Y116.370 E6.55888
G1 X108.258 Y115.709 E6.63153
G1 X107.569 Y115.149 E6.68679
G1 X106.909 Y114.532 E6.74303
G1 X106.096 Y113.642 E6.81802
G1 X105.386 Y112.704 E6.89127
G1 X104.777 Y111.722 E6.96319
G1 X104.272 Y110.702 E7.03411
G1 X103.869 Y109.648 E7.10433
G1 X103.571 Y108.566 E7.17418
G1 X103.379 Y107.462 E7.24394
G1 X103.294 Y106.341 E7.31394
G1 X103.316 Y105.208 E7.38446
G1 X103.448 Y104.069 E7.45585
G1 X103.690 Y102.927 E7.52850
G1 X103.944 Y102.076 E7.58377
G1 X104.261 Y101.231 E7.63998
G1 X104.805 Y100.076 E7.71943
G1 X105.444 Y99.007 E7.79693
G1 X106.171 Y98.025 E7.87298
G1 X106.981 Y97.134 E7.94796
G1 X107.869 Y96.337 E8.02226
G1 X108.830 Y95.637 E8.09622
G1 X109.857 Y95.039 E8.17023
G1 X110.946 Y94.546 E8.24463
G1 X112.090 Y94.161 E8.31981
G1 X113.293 Y93.887 E8.39661
G1 X117.148 Y93.197 E8.64040
G1 X118.416 Y92.797 E8.72313
G1 X119.395 Y92.384 E8.78925
G1 X120.084 Y92.009 E8.83813
G1 X120.709 Y91.575 E8.88548
G1 X121.086 Y91.245 E8.91669
G1 X121.418 Y90.883 E8.94727
G1 X121.701 Y90.486 E8.97759
G1 X121.926 Y90.053 E9.00797
G1 X122.083 Y89.589 E9.03844
G1 X122.138 Y89.330 E9.05493
G1 X122.184 Y88.825 E9.08651
G1 X122.184 Y76.193 E9.87281
G1 X127.685 Y76.193 E10.21525
G1 X127.545 Y76.540 F7800.000
G1 X127.198 Y76.741 F7800.000
G1 X127.198 Y105.881 E12.02919 F630.000
G1 X127.145 Y107.052 E12.10216
G1 X126.991 Y108.167 E12.17224
G1 X126.739 Y109.242 E12.24096
G1 X126.391 Y110.272 E12.30864
G1 X125.952 Y111.254 E12.37560
G1 X125.423 Y112.183 E12.44216
G1 X124.809 Y113.057 E12.50864
G1 X124.111 Y113.870 E12.57536
G1 X123.332 Y114.619 E12.64264
G1 X122.474 Y115.299 E12.71080
G1 X121.535 Y115.909 E12.78046
G1 X120.790 Y116.312 E12.83318
G1 X120.005 Y116.669 E12.88690
G1 X118.916 Y117.063 E12.95898
G1 X117.827 Y117.348 E13.02906
G1 X116.737 Y117.526 E13.09778
G1 X115.652 Y117.599 E13.16545
G1 X114.577 Y117.569 E13.23242
G1 X113.516 Y117.437 E13.29898
G1 X112.474 Y117.203 E13.36546
G1 X111.455 Y116.869 E13.43218
G1 X110.465 Y116.436 E13.49946
G1 X109.508 Y115.904 E13.56762
G1 X108.586 Y115.271 E13.63728
G1 X107.929 Y114.736 E13.68999
G1 X107.298 Y114.147 E13.74371
G1 X106.517 Y113.292 E13.81579
G1 X105.838 Y112.394 E13.88588
G1 X105.256 Y111.456 E13.95460
G1 X104.773 Y110.482 E14.02227
G1 X104.390 Y109.477 E14.08923
G1 X104.106 Y108.446 E14.15579
G1 X103.923 Y107.394 E14.22227
G1 X103.842 Y106.325 E14.28900
G1 X103.863 Y105.245 E14.35627
G1 X103.988 Y104.157 E14.42443
G1 X104.221 Y103.062 E14.49409
G1 X104.463 Y102.251 E14.54681
G1 X104.765 Y101.444 E14.60046
G1 X105.289 Y100.334 E14.67685
G1 X105.899 Y99.311 E14.75100
G1 X106.594 Y98.373 E14.82364
G1 X107.367 Y97.523 E14.89519
G1 X108.214 Y96.763 E14.96601
G1 X109.129 Y96.096 E15.03650
G1 X110.108 Y95.526 E15.10703
G1 X111.146 Y95.055 E15.17797
G1 X112.239 Y94.688 E15.24972
G1 X113.402 Y94.423 E15.32400
G1 X117.279 Y93.730 E15.56918
G1 X118.605 Y93.311 E15.65570
G1 X119.632 Y92.878 E15.72511
G1 X120.372 Y92.476 E15.77753
G1 X121.047 Y92.007 E15.82867
G1 X121.469 Y91.637 E15.86363
G1 X121.844 Y91.228 E15.89817
G1 X122.169 Y90.772 E15.93299
G1 X122.431 Y90.268 E15.96834
G1 X122.612 Y89.735 E16.00342
G1 X122.680 Y89.412 E16.02394
G1 X122.731 Y88.850 E16.05909
G1 X122.731 Y76.741 E16.81288
G1 X127.138 Y76.741 E17.08719
G1 X126.781 Y77.117 F7800.000
G1 X126.821 Y77.157 E17.09071 F1500.000
G1 X126.821 Y77.934 E17.13908
G1 X126.004 Y77.117 E17.21102
G1 X125.227 Y77.117 E17.25939
G1 X126.821 Y78.712 E17.39973
G1 X126.821 Y79.489 E17.44810
G1 X124.450 Y77.117 E17.65686
G1 X123.673 Y77.117 E17.70523
G1 X126.821 Y80.266 E17.98240
G1 X126.821 Y81.043 E18.03077
G1 X123.108 Y77.330 E18.35766
G1 X123.108 Y78.107 E18.40604
G1 X126.821 Y81.820 E18.73293
G1 X126.821 Y82.597 E18.78130
G1 X123.108 Y78.884 E19.10820
G1 X123.108 Y79.661 E19.15657
G1 X126.821 Y83.374 E19.48346
G1 X126.821 Y84.151 E19.53184
G1 X123.108 Y80.438 E19.85873
G1 X123.108 Y81.215 E19.90710
G1 X126.821 Y84.928 E20.23400
G1 X126.821 Y85.705 E20.28237
G1 X123.108 Y81.992 E20.60926
G1 X123.108 Y82.769 E20.65764
G1 X126.821 Y86.483 E20.98453
G1 X126.821 Y87.260 E21.03290
G1 X123.108 Y83.546 E21.35980
G1 X123.108 Y84.323 E21.40817
G1 X126.821 Y88.037 E21.73506
G1 X126.821 Y88.814 E21.78344
G1 X123.108 Y85.101 E22.11033
G1 X123.108 Y85.878 E22.15870
G1 X126.821 Y89.591 E22.48560
G1 X126.821 Y90.368 E22.53397
G1 X123.108 Y86.655 E22.86086
G1 X123.108 Y87.432 E22.90924
G1 X126.821 Y91.145 E23.23613
G1 X126.821 Y91.922 E23.28450
G1 X123.108 Y88.209 E23.61140
G1 X123.098 Y88.976 E23.65916
G1 X126.821 Y92.699 E23.98692
G1 X126.821 Y93.476 E24.03530
G1 X123.011 Y89.667 E24.37069
G1 X122.830 Y90.263 E24.40947
G1 X126.821 Y94.254 E24.76081
G1 X126.821 Y95.031 E24.80918
G1 X122.583 Y90.792 E25.18230
G1 X122.280 Y91.266 E25.21732
G1 X126.821 Y95.808 E25.61713
G1 X126.821 Y96.585 E25.66551
G1 X121.929 Y91.693 E26.09618
G1 X121.537 Y92.078 E26.13039
G1 X126.821 Y97.362 E26.59556
G1 X126.821 Y98.139 E26.64393
G1 X121.106 Y92.424 E27.14702
G1 X120.648 Y92.743 E27.18178
G1 X126.821 Y98.916 E27.72523
G1 X126.821 Y99.693 E27.77361
G1 X120.152 Y93.024 E28.36071
G1 X119.636 Y93.285 E28.39671
G1 X126.821 Y100.470 E29.02925
G1 X126.821 Y101.247 E29.07762
G1 X119.090 Y93.516 E29.75826
G1 X118.528 Y93.731 E29.79572
G1 X126.821 Y102.024 E30.52583
G1 X126.821 Y102.802 E30.57420
G1 X117.937 Y93.917 E31.35632
G1 X117.343 Y94.101 E31.39499
G1 X126.821 Y103.579 E32.22935
G1 X126.821 Y104.356 E32.27772
G1 X116.684 Y94.219 E33.17011
G1 X116.025 Y94.337 E33.21180
G1 X126.821 Y105.133 E34.16222
G1 X126.820 Y105.908 E34.21049
G1 X115.366 Y94.455 E35.21881
G1 X114.707 Y94.572 E35.26049
G1 X126.786 Y106.652 E36.32388
G1 X126.721 Y107.364 E36.36842
G1 X114.047 Y94.690 E37.48416
G1 X113.392 Y94.812 E37.52567
G1 X126.627 Y108.047 E38.69083
G1 X126.483 Y108.681 E38.73126
G1 X112.759 Y94.956 E39.93948
G1 X112.143 Y95.118 E39.97909
G1 X126.322 Y109.297 E41.22732
G1 X126.127 Y109.878 E41.26550
G1 X111.562 Y95.313 E42.54768
G1 X111.005 Y95.533 E42.58496
G1 X125.906 Y110.434 E43.89676
G1 X125.666 Y110.971 E43.93337
G1 X110.470 Y95.776 E45.27109
G1 X109.964 Y96.046 E45.30683
G1 X125.393 Y111.475 E46.66511
G1 X125.111 Y111.971 E46.70058
G1 X109.472 Y96.332 E48.07730
G1 X109.011 Y96.648 E48.11210
G1 X124.791 Y112.428 E49.50123
G1 X124.465 Y112.879 E49.53588
G1 X108.562 Y96.976 E50.93591
G1 X108.142 Y97.333 E50.97022
G1 X124.106 Y113.297 E52.37557
G1 X123.726 Y113.694 E52.40979
G1 X107.733 Y97.701 E53.81769
G1 X107.353 Y98.098 E53.85191
G1 X123.337 Y114.082 E55.25904
G1 X122.933 Y114.455 E55.29327
G1 X106.983 Y98.505 E56.69736
G1 X106.642 Y98.941 E56.73182
G1 X122.499 Y114.799 E58.12778
G1 X122.049 Y115.126 E58.16240
G1 X106.311 Y99.388 E59.54788
G1 X106.009 Y99.863 E59.58292
G1 X121.579 Y115.432 E60.95356
G1 X121.091 Y115.721 E60.98887
G1 X105.718 Y100.349 E62.34214
G1 X105.456 Y100.863 E62.37809
G1 X120.584 Y115.992 E63.70990
G1 X120.050 Y116.235 E63.74643
G1 X105.207 Y101.392 E65.05313
G1 X104.981 Y101.943 E65.09021
G1 X119.492 Y116.454 E66.36769
G1 X118.922 Y116.661 E66.40546
G1 X104.777 Y102.516 E67.65067
G1 X104.598 Y103.114 E67.68955
G1 X118.315 Y116.831 E68.89708
G1 X117.694 Y116.988 E68.93690
G1 X104.459 Y103.753 E70.10205
G1 X104.339 Y104.409 E70.14359
G1 X117.027 Y117.097 E71.26056
G1 X116.329 Y117.176 E71.30429
G1 X104.258 Y105.106 E72.36689
G1 X104.228 Y105.852 E72.41341
G1 X115.596 Y117.221 E73.41423
G1 X114.797 Y117.198 E73.46402
G1 X104.244 Y106.645 E74.39303
G1 X104.324 Y107.503 E74.44666
G1 X113.930 Y117.109 E75.29228
G1 X112.973 Y116.929 E75.35288
G1 X104.499 Y108.455 E76.09887
G1 X104.823 Y109.556 E76.17031
G1 X111.879 Y116.612 E76.79144
G1 X110.532 Y116.042 F7800.000
G1 X105.412 Y110.922 E77.24222 F1500.000
G1 X107.268 Y113.555 F7800.000
G1 X107.998 Y114.285 E77.30649 F1500.000
G1 F1860.000 E74.30649
G92 E0
G1 X96.706 Y76.193 F7800.000
G1 E3.10000 F1860.000
G1 X96.706 Y105.893 E4.94878 F441.000
G1 X96.652 Y107.102 E5.02408
G1 X96.491 Y108.267 E5.09733
G1 X96.227 Y109.392 E5.16925
G1 X95.863 Y110.472 E5.24016
G1 X95.402 Y111.501 E5.31039
G1 X94.847 Y112.477 E5.38023
G1 X94.202 Y113.393 E5.44999
G1 X93.470 Y114.246 E5.51999
G1 X92.653 Y115.032 E5.59052
G1 X91.755 Y115.744 E5.66190
G1 X90.776 Y116.380 E5.73455
G1 X89.995 Y116.802 E5.78982
G1 X89.173 Y117.176 E5.84606
G1 X88.040 Y117.586 E5.92105
G1 X86.901 Y117.884 E5.99430
G1 X85.761 Y118.070 E6.06622
G1 X84.625 Y118.147 E6.13714
G1 X83.497 Y118.115 E6.20736
G1 X82.383 Y117.976 E6.27720
G1 X81.290 Y117.731 E6.34697
G1 X80.221 Y117.381 E6.41696
G1 X79.183 Y116.927 E6.48749
G1 X78.181 Y116.370 E6.55888
G1 X77.219 Y115.709 E6.63153
G1 X76.530 Y115.149 E6.68679
G1 X75.870 Y114.532 E6.74303
G1 X75.058 Y113.642 E6.81802
G1 X74.347 Y112.704 E6.89127
G1 X73.739 Y111.722 E6.96319
G1 X73.233 Y110.702 E7.03411
G1 X72.830 Y109.648 E7.10433
G1 X72.533 Y108.566 E7.17418
G1 X72.341 Y107.462 E7.24394
G1 X72.255 Y106.341 E7.31394
G1 X72.278 Y105.208 E7.38446
G1 X72.409 Y104.069 E7.45585
G1 X72.651 Y102.927 E7.52850
G1 X72.905 Y102.076 E7.58377
G1 X73.222 Y101.231 E7.63998
G1 X73.767 Y100.076 E7.71943
G1 X74.405 Y99.007 E7.79693
G1 X75.132 Y98.025 E7.87298
G1 X75.942 Y97.134 E7.94796
G1 X76.831 Y96.337 E8.02226
G1 X77.791 Y95.637 E8.09622
G1 X78.818 Y95.039 E8.17023
G1 X79.907 Y94.546 E8.24463
G1 X81.052 Y94.161 E8.31981
G1 X82.255 Y93.887 E8.39661
G1 X86.110 Y93.197 E8.64040
G1 X87.377 Y92.797 E8.72313
G1 X88.356 Y92.384 E8.78925
G1 X89.046 Y92.009 E8.83813
G1 X89.670 Y91.575 E8.88548
G1 X90.047 Y91.245 E8.91669
G1 X90.380 Y90.883 E8.94727
G1 X90.662 Y90.486 E8.97759
G1 X90.887 Y90.053 E9.00797
G1 X91.044 Y89.589 E9.03844
G1 X91.099 Y89.330 E9.05493
G1 X91.145 Y88.825 E9.08651
G1 X91.145 Y76.193 E9.87281
G1 X96.646 Y76.193 E10.21525
G1 X96.506 Y76.540 F7800.000
G1 X96.159 Y76.741 F7800.000
G1 X96.159 Y105.881 E12.02919 F630.000
G1 X96.106 Y107.052 E12.10216
G1 X95.952 Y108.167 E12.17224
G1 X95.700 Y109.242 E12.24096
G1 X95.352 Y110.272 E12.30864
G1 X94.913 Y111.254 E12.37560
G1 X94.385 Y112.183 E12.44216
G1 X93.770 Y113.057 E12.50864
G1 X93.072 Y113.870 E12.57536
G1 X92.293 Y114.619 E12.64264
G1 X91.435 Y115.299 E12.71080
G1 X90.497 Y115.909 E12.78046
G1 X89.752 Y116.312 E12.83318
G1 X88.966 Y116.669 E12.88690
G1 X87.877 Y117.063 E12.95898
G1 X86.788 Y117.348 E13.02906
G1 X85.698 Y117.526 E13.09778
G1 X84.614 Y117.599 E13.16545
G1 X83.538 Y117.569 E13.23242
G1 X82.477 Y117.437 E13.29898
G1 X81.435 Y117.203 E13.36546
G1 X80.417 Y116.869 E13.43218
G1 X79.427 Y116.436 E13.49946
G1 X78.470 Y115.904 E13.56762
G1 X77.547 Y115.271 E13.63728
G1 X76.890 Y114.736 E13.68999
G1 X76.260 Y114.147 E13.74371
G1 X75.479 Y113.292 E13.81579
G1 X74.799 Y112.394 E13.88588
G1 X74.217 Y111.456 E13.95460
G1 X73.735 Y110.482 E14.02227
G1 X73.351 Y109.477 E14.08923
G1 X73.067 Y108.446 E14.15579
G1 X72.884 Y107.394 E14.22227
G1 X72.803 Y106.325 E14.28900
G1 X72.824 Y105.245 E14.35627
G1 X72.950 Y104.157 E14.42443
G1 X73.182 Y103.062 E14.49409
G1 X73.424 Y102.251 E14.54681
G1 X73.727 Y101.444 E14.60046
G1 X74.250 Y100.334 E14.67685
G1 X74.861 Y99.311 E14.75100
G1 X75.555 Y98.373 E14.82364
G1 X76.328 Y97.523 E14.89519
G1 X77.175 Y96.763 E14.96601
G1 X78.091 Y96.096 E15.03650
G1 X79.070 Y95.526 E15.10703
G1 X80.108 Y95.055 E15.17797
G1 X81.200 Y94.688 E15.24972
G1 X82.364 Y94.423 E15.32400
G1 X86.241 Y93.730 E15.56918
