; generated by Slic3r 1.1.7 on 2015-01-07 at 16:17:54

; perimeters extrusion width = 0.40mm
; infill extrusion width = 0.44mm
; solid infill extrusion width = 0.44mm
; top infill extrusion width = 0.44mm

G21 ; set units to millimeters
M190 S60 ; wait for bed temperature to be reached
M104 S186 ; set temperature
G28 ; home all axes Start of G Code Slic3r
 
M109 S186 ; wait for temperature to be reached
G90 ; use absolute coordinates
G92 E0
M82 ; use absolute distances for extrusion
G1 F1860.000 E-3.00000
G92 E0
G1 Z0.294 F7800.000
G1 X99.929 Y72.696 F7800.000
G1 E3.10000 F1860.000
G1 X100.634 Y71.726 E3.17461 F1800.000
G1 X102.332 Y70.067 E3.32239
G1 X104.482 Y69.061 E3.47016
G1 X106.371 Y68.805 E3.58880
G1 X112.519 Y68.805 E3.97154
G1 X114.860 Y69.203 E4.11931
G1 X116.938 Y70.350 E4.26708 F1800.000
G1 X118.522 Y72.118 E4.41486
G1 X119.433 Y74.310 E4.56263
G1 X119.614 Y75.900 E4.66222
G1 X119.607 Y106.220 E6.54960
G1 X119.492 Y108.098 E6.66674
G1 X119.206 Y109.941 E6.78284
G1 X118.751 Y111.740 E6.89833
G1 X118.131 Y113.476 E7.01312
G1 X117.352 Y115.139 E7.12741
G1 X116.417 Y116.716 E7.24156
G1 X115.337 Y118.195 E7.35554
G1 X114.119 Y119.563 E7.46956
G1 X112.768 Y120.817 E7.58433
G1 X111.312 Y121.931 E7.69840
G1 X109.811 Y122.878 E7.80890
G1 X108.581 Y123.524 E7.89537
G1 X107.219 Y124.119 E7.98792
G1 X105.442 Y124.731 E8.10492
G1 X103.627 Y125.173 E8.22120
G1 X101.794 Y125.440 E8.33651
G1 X100.629 Y125.519 E8.40917
G1 X99.951 Y125.533 E8.45141
G1 X98.854 Y125.502 E8.51973
G1 X98.117 Y125.448 E8.56572
G1 X97.020 Y125.312 E8.63455
G1 X96.293 Y125.187 E8.68043
G1 X94.522 Y124.757 E8.79388
G1 X92.784 Y124.152 E8.90844
G1 X91.124 Y123.390 E9.02214
G1 X89.533 Y122.470 E9.13658
G1 X88.086 Y121.448 E9.24680
G1 X87.013 Y120.554 E9.33376
G1 X85.942 Y119.523 E9.42627
G1 X84.696 Y118.114 E9.54339
G1 X83.594 Y116.608 E9.65953
G1 X82.645 Y115.017 E9.77488
G1 X81.855 Y113.349 E9.88973
G1 X81.230 Y111.622 E10.00409
G1 X80.776 Y109.847 E10.11812
G1 X80.494 Y108.037 E10.23215
G1 X80.388 Y106.200 E10.34670
G1 X80.456 Y104.375 E10.46040
G1 X80.698 Y102.549 E10.57502
G1 X81.088 Y100.825 E10.68509
G1 X81.503 Y99.492 E10.77198
G1 X82.054 Y98.091 E10.86571
G1 X82.934 Y96.303 E10.98975
G1 X83.943 Y94.671 E11.10918
G1 X99.894 Y72.744 E12.79705
G1 X100.371 Y73.018 F7800.000
G1 X101.077 Y72.048 E12.87166 F1800.000
G1 X102.718 Y70.466 E13.01358
G1 X104.803 Y69.543 E13.15550
G1 X106.371 Y69.353 E13.25383
G1 X112.519 Y69.353 E13.63657
G1 X114.764 Y69.750 E13.77849
G1 X116.737 Y70.892 E13.92040 F1800.000
G1 X118.199 Y72.642 E14.06232
G1 X119.067 Y75.900 E14.27218
G1 X119.060 Y106.195 E16.15803
G1 X118.950 Y108.023 E16.27203
G1 X118.673 Y109.816 E16.38496
G1 X118.233 Y111.565 E16.49723
G1 X117.632 Y113.253 E16.60876
G1 X116.876 Y114.868 E16.71978
G1 X115.970 Y116.402 E16.83065
G1 X114.922 Y117.838 E16.94135
G1 X113.740 Y119.169 E17.05211
G1 X112.428 Y120.388 E17.16365
G1 X111.014 Y121.472 E17.27452
G1 X109.551 Y122.397 E17.38225
G1 X108.355 Y123.026 E17.46639
G1 X107.032 Y123.604 E17.55624
G1 X105.303 Y124.201 E17.67012
G1 X103.538 Y124.633 E17.78322
G1 X101.757 Y124.894 E17.89531
G1 X100.592 Y124.973 E17.96796
G1 X99.966 Y124.986 E18.00695
G1 X98.869 Y124.955 E18.07527
G1 X98.184 Y124.905 E18.11800
G1 X97.087 Y124.769 E18.18682
G1 X96.413 Y124.653 E18.22943
G1 X94.693 Y124.237 E18.33960
G1 X93.003 Y123.651 E18.45089
G1 X91.390 Y122.912 E18.56136
G1 X89.842 Y122.018 E18.67261
G1 X88.431 Y121.024 E18.78005
G1 X87.387 Y120.154 E18.86468
G1 X86.346 Y119.154 E18.95449
G1 X85.132 Y117.784 E19.06849
G1 X84.059 Y116.320 E19.18145
G1 X83.135 Y114.774 E19.29357
G1 X82.366 Y113.154 E19.40518
G1 X81.758 Y111.477 E19.51626
G1 X81.315 Y109.753 E19.62702
G1 X81.040 Y107.996 E19.73777
G1 X80.935 Y106.211 E19.84906
G1 X81.000 Y104.437 E19.95952
G1 X81.233 Y102.663 E20.07094
G1 X81.612 Y100.981 E20.17825
G1 X82.015 Y99.684 E20.26280
G1 X82.549 Y98.324 E20.35375
G1 X83.404 Y96.583 E20.47447
G1 X84.385 Y94.993 E20.59081
G1 X100.336 Y73.066 E22.27868
G1 F1860.000 E19.27868
G92 E0
G1 X112.226 Y76.193 F7800.000
G1 E3.10000 F1860.000
G1 X112.226 Y105.893 E4.94878 F441.000
G1 X112.171 Y107.102 E5.02408
G1 X112.010 Y108.267 E5.09733
G1 X111.746 Y109.392 E5.16925
G1 X111.382 Y110.472 E5.24016
G1 X110.921 Y111.501 E5.31039
G1 X110.367 Y112.477 E5.38023
G1 X109.722 Y113.393 E5.44999
G1 X108.989 Y114.246 E5.51999
G1 X108.173 Y115.032 E5.59052
G1 X107.274 Y115.744 E5.66190
G1 X106.296 Y116.380 E5.73455
G1 X105.514 Y116.802 E5.78982
G1 X104.692 Y117.176 E5.84606
G1 X103.559 Y117.586 E5.92105
G1 X102.421 Y117.884 E5.99430
G1 X101.281 Y118.070 E6.06622
G1 X100.144 Y118.147 E6.13714
G1 X99.016 Y118.115 E6.20736
G1 X97.903 Y117.976 E6.27720
G1 X96.809 Y117.731 E6.34697
G1 X95.741 Y117.381 E6.41696
G1 X94.703 Y116.927 E6.48749
G1 X93.701 Y116.370 E6.55888
G1 X92.738 Y115.709 E6.63153
G1 X92.050 Y115.149 E6.68679
G1 X91.390 Y114.532 E6.74303
G1 X90.577 Y113.642 E6.81802
G1 X89.867 Y112.704 E6.89127
G1 X89.258 Y111.722 E6.96319
G1 X88.752 Y110.702 E7.03411
G1 X88.350 Y109.648 E7.10433
G1 X88.052 Y108.566 E7.17418
G1 X87.860 Y107.462 E7.24394
G1 X87.775 Y106.341 E7.31394
G1 X87.797 Y105.208 E7.38446
G1 X87.928 Y104.069 E7.45585
G1 X88.171 Y102.927 E7.52850
G1 X88.425 Y102.076 E7.58377
G1 X88.742 Y101.231 E7.63998
G1 X89.286 Y100.076 E7.71943
G1 X89.924 Y99.007 E7.79693
G1 X90.651 Y98.025 E7.87298
G1 X91.462 Y97.134 E7.94796
G1 X92.350 Y96.337 E8.02226
G1 X93.310 Y95.637 E8.09622
G1 X94.338 Y95.039 E8.17023
G1 X95.426 Y94.546 E8.24463
G1 X96.571 Y94.161 E8.31981
G1 X97.774 Y93.887 E8.39661
G1 X101.629 Y93.197 E8.64040
G1 X102.897 Y92.797 E8.72313
G1 X103.875 Y92.384 E8.78925
G1 X104.565 Y92.009 E8.83813
G1 X105.190 Y91.575 E8.88548
G1 X105.567 Y91.245 E8.91669
G1 X105.899 Y90.883 E8.94727
G1 X106.181 Y90.486 E8.97759
G1 X106.406 Y90.053 E9.00797
G1 X106.564 Y89.589 E9.03844
G1 X106.619 Y89.330 E9.05493
G1 X106.665 Y88.825 E9.08651
G1 X106.665 Y76.193 E9.87281
G1 X112.166 Y76.193 E10.21525
G1 X112.026 Y76.540 F7800.000
G1 X111.678 Y76.741 F7800.000
G1 X111.678 Y105.881 E12.02919 F630.000
G1 X111.625 Y107.052 E12.10216
G1 X111.472 Y108.167 E12.17224
G1 X111.219 Y109.242 E12.24096
G1 X110.872 Y110.272 E12.30864
G1 X110.432 Y111.254 E12.37560
G1 X109.904 Y112.183 E12.44216
G1 X109.289 Y113.057 E12.50864
G1 X108.591 Y113.870 E12.57536
G1 X107.812 Y114.619 E12.64264
G1 X106.954 Y115.299 E12.71080
G1 X106.016 Y115.909 E12.78046
G1 X105.271 Y116.312 E12.83318
G1 X104.485 Y116.669 E12.88690
G1 X103.397 Y117.063 E12.95898
G1 X102.307 Y117.348 E13.02906
G1 X101.218 Y117.526 E13.09778
G1 X100.133 Y117.599 E13.16545
G1 X99.058 Y117.569 E13.23242
G1 X97.997 Y117.437 E13.29898
G1 X96.955 Y117.203 E13.36546
G1 X95.936 Y116.869 E13.43218
G1 X94.946 Y116.436 E13.49946
G1 X93.989 Y115.904 E13.56762
G1 X93.066 Y115.271 E13.63728
G1 X92.410 Y114.736 E13.68999
G1 X91.779 Y114.147 E13.74371
G1 X90.998 Y113.292 E13.81579
G1 X90.318 Y112.394 E13.88588
G1 X89.737 Y111.456 E13.95460
G1 X89.254 Y110.482 E14.02227
G1 X88.870 Y109.477 E14.08923
G1 X88.587 Y108.446 E14.15579
G1 X88.404 Y107.394 E14.22227
G1 X88.322 Y106.325 E14.28900
G1 X88.344 Y105.245 E14.35627
G1 X88.469 Y104.157 E14.42443
G1 X88.701 Y103.062 E14.49409
G1 X88.943 Y102.251 E14.54681
G1 X89.246 Y101.444 E14.60046
G1 X89.770 Y100.334 E14.67685
G1 X90.380 Y99.311 E14.75100
G1 X91.075 Y98.373 E14.82364
G1 X91.848 Y97.523 E14.89519
G1 X92.695 Y96.763 E14.96601
G1 X93.610 Y96.096 E15.03650
G1 X94.589 Y95.526 E15.10703
G1 X95.627 Y95.055 E15.17797
G1 X96.719 Y94.688 E15.24972
G1 X97.883 Y94.423 E15.32400
G1 X101.760 Y93.730 E15.56918
G1 X103.086 Y93.311 E15.65570
G1 X104.113 Y92.878 E15.72511
G1 X104.853 Y92.476 E15.77753
G1 X105.527 Y92.007 E15.82867
G1 X105.950 Y91.637 E15.86363
G1 X106.325 Y91.228 E15.89817
G1 X106.649 Y90.772 E15.93299
G1 X106.911 Y90.268 E15.96834
G1 X107.092 Y89.735 E16.00342
G1 X107.161 Y89.412 E16.02394
G1 X107.212 Y88.850 E16.05909
G1 X107.212 Y76.741 E16.81288
G1 X111.618 Y76.741 E17.08719
G1 X111.262 Y77.117 F7800.000
G1 X111.302 Y77.157 E17.09071 F1500.000
G1 X111.302 Y77.934 E17.13908
G1 X110.485 Y77.117 E17.21102
G1 X109.708 Y77.117 E17.25939
G1 X111.302 Y78.712 E17.39973
G1 X111.302 Y79.489 E17.44810
G1 X108.931 Y77.117 E17.65686
G1 X108.153 Y77.117 E17.70523
G1 X111.302 Y80.266 E17.98240
G1 X111.302 Y81.043 E18.03077
G1 X107.589 Y77.330 E18.35766
G1 X107.589 Y78.107 E18.40604
G1 X111.302 Y81.820 E18.73293
G1 X111.302 Y82.597 E18.78130
G1 X107.589 Y78.884 E19.10820
G1 X107.589 Y79.661 E19.15657
G1 X111.302 Y83.374 E19.48346
G1 X111.302 Y84.151 E19.53184
G1 X107.589 Y80.438 E19.85873
G1 X107.589 Y81.215 E19.90710
G1 X111.302 Y84.928 E20.23400
G1 X111.302 Y85.705 E20.28237
G1 X107.589 Y81.992 E20.60926
G1 X107.589 Y82.769 E20.65764
G1 X111.302 Y86.483 E20.98453
G1 X111.302 Y87.260 E21.03290
G1 X107.589 Y83.546 E21.35980
G1 X107.589 Y84.323 E21.40817
G1 X111.302 Y88.037 E21.73506
G1 X111.302 Y88.814 E21.78344
G1 X107.589 Y85.101 E22.11033
G1 X107.589 Y85.878 E22.15870
G1 X111.302 Y89.591 E22.48560
G1 X111.302 Y90.368 E22.53397
G1 X107.589 Y86.655 E22.86086
G1 X107.589 Y87.432 E22.90924
G1 X111.302 Y91.145 E23.23613
G1 X111.302 Y91.922 E23.28450
G1 X107.589 Y88.209 E23.61140
G1 X107.579 Y88.976 E23.65916
G1 X111.302 Y92.699 E23.98692
G1 X111.302 Y93.476 E24.03530
G1 X107.492 Y89.667 E24.37069
G1 X107.311 Y90.263 E24.40947
G1 X111.302 Y94.254 E24.76081
G1 X111.302 Y95.031 E24.80918
G1 X107.063 Y90.792 E25.18230
G1 X106.760 Y91.266 E25.21732
G1 X111.302 Y95.808 E25.61713
G1 X111.302 Y96.585 E25.66551
G1 X106.410 Y91.693 E26.09618
G1 X106.018 Y92.078 E26.13039
G1 X111.302 Y97.362 E26.59556
G1 X111.302 Y98.139 E26.64393
G1 X105.587 Y92.424 E27.14702
G1 X105.129 Y92.743 E27.18178
G1 X111.302 Y98.916 E27.72523
G1 X111.302 Y99.693 E27.77361
G1 X104.633 Y93.024 E28.36071
G1 X104.117 Y93.285 E28.39671
G1 X111.302 Y100.470 E29.02925
G1 X111.302 Y101.247 E29.07762
G1 X103.570 Y93.516 E29.75826
G1 X103.008 Y93.731 E29.79572
G1 X111.302 Y102.024 E30.52583
G1 X111.302 Y102.802 E30.57420
G1 X102.418 Y93.917 E31.35632
G1 X101.824 Y94.101 E31.39499
G1 X111.302 Y103.579 E32.22935
G1 X111.302 Y104.356 E32.27772
G1 X101.165 Y94.219 E33.17011
G1 X100.506 Y94.337 E33.21180
G1 X111.302 Y105.133 E34.16222
G1 X111.300 Y105.908 E34.21049
G1 X99.846 Y94.455 E35.21881
G1 X99.187 Y94.572 E35.26049
G1 X111.267 Y106.652 E36.32388
G1 X111.202 Y107.364 E36.36842
G1 X98.528 Y94.690 E37.48416
G1 X97.872 Y94.812 E37.52567
G1 X111.108 Y108.047 E38.69083
G1 X110.964 Y108.681 E38.73126
G1 X97.239 Y94.956 E39.93948
G1 X96.624 Y95.118 E39.97909
G1 X110.803 Y109.297 E41.22732
G1 X110.607 Y109.878 E41.26550
G1 X96.042 Y95.313 E42.54768
G1 X95.485 Y95.533 E42.58496
G1 X110.386 Y110.434 E43.89676
G1 X110.146 Y110.971 E43.93337
G1 X94.951 Y95.776 E45.27109
G1 X94.444 Y96.046 E45.30683
G1 X109.873 Y111.475 E46.66511
G1 X109.592 Y111.971 E46.70058
G1 X93.953 Y96.332 E48.07730
G1 X93.492 Y96.648 E48.11210
G1 X109.272 Y112.428 E49.50123
G1 X108.946 Y112.879 E49.53588
G1 X93.042 Y96.976 E50.93591
G1 X92.623 Y97.333 E50.97022
G1 X108.587 Y113.297 E52.37557
G1 X108.206 Y113.694 E52.40979
G1 X92.213 Y97.701 E53.81769
G1 X91.834 Y98.098 E53.85191
G1 X107.818 Y114.082 E55.25904
G1 X107.413 Y114.455 E55.29327
G1 X91.464 Y98.505 E56.69736
G1 X91.123 Y98.941 E56.73182
G1 X106.980 Y114.799 E58.12778
G1 X106.530 Y115.126 E58.16240
G1 X90.792 Y99.388 E59.54788
G1 X90.490 Y99.863 E59.58292
G1 X106.059 Y115.432 E60.95356
G1 X105.571 Y115.721 E60.98887
G1 X90.199 Y100.349 E62.34214
G1 X89.936 Y100.863 E62.37809
G1 X105.065 Y115.992 E63.70990
G1 X104.530 Y116.235 E63.74643
G1 X89.687 Y101.392 E65.05313
G1 X89.461 Y101.943 E65.09021
G1 X103.973 Y116.454 E66.36769
G1 X103.402 Y116.661 E66.40546
G1 X89.257 Y102.516 E67.65067
G1 X89.079 Y103.114 E67.68955
G1 X102.795 Y116.831 E68.89708
G1 X102.175 Y116.988 E68.93690
G1 X88.940 Y103.753 E70.10205
G1 X88.819 Y104.409 E70.14359
G1 X101.507 Y117.097 E71.26056
G1 X100.809 Y117.176 E71.30429
G1 X88.739 Y105.106 E72.36689
G1 X88.708 Y105.852 E72.41341
G1 X100.077 Y117.221 E73.41423
G1 X99.277 Y117.198 E73.46402
G1 X88.724 Y106.645 E74.39303
G1 X88.805 Y107.503 E74.44666
G1 X98.411 Y117.109 E75.29228
G1 X97.454 Y116.929 E75.35288
G1 X88.980 Y108.455 E76.09887
G1 X89.304 Y109.556 E76.17031
G1 X96.359 Y116.612 E76.79144
G1 X95.013 Y116.042 F7800.000
G1 X89.892 Y110.922 E77.24222 F1500.000
G1 X91.748 Y113.555 F7800.000
G1 X92.479 Y114.285 E77.30649 F1500.000
M106 S186
M104 S180 ; set temperature
M140 S50 ; set bed temperature
G1 F1860.000 E74.30649
G92 E0
G1 Z0.587 F7800.000
G1 X112.319 Y76.100 F7800.000
G1 E3.10000 F1860.000
G1 X112.319 Y105.895 E4.45585 F882.000
G1 X112.264 Y107.110 E4.51119
G1 X112.102 Y108.284 E4.56512
G1 X111.836 Y109.418 E4.61810
G1 X111.469 Y110.506 E4.67035
G1 X111.005 Y111.544 E4.72209
G1 X110.446 Y112.527 E4.77356
G1 X109.796 Y113.451 E4.82497
G1 X109.058 Y114.311 E4.87655
G1 X108.234 Y115.102 E4.92851
G1 X107.329 Y115.820 E4.98110
G1 X106.343 Y116.461 E5.03458
G1 X105.556 Y116.886 E5.07530
G1 X104.727 Y117.263 E5.11673
G1 X103.587 Y117.676 E5.17191
G1 X102.440 Y117.976 E5.22585
G1 X101.291 Y118.163 E5.27883
G1 X100.146 Y118.241 E5.33108
G1 X99.009 Y118.209 E5.38282
G1 X97.887 Y118.069 E5.43429
G1 X96.784 Y117.822 E5.48570
G1 X95.707 Y117.469 E5.53727
G1 X94.661 Y117.011 E5.58924
G1 X93.651 Y116.449 E5.64183
G1 X92.682 Y115.784 E5.69531
G1 X91.988 Y115.219 E5.73603
G1 X91.323 Y114.598 E5.77746
G1 X90.505 Y113.702 E5.83264
G1 X89.789 Y112.758 E5.88658
G1 X89.176 Y111.768 E5.93956
G1 X88.666 Y110.739 E5.99181
G1 X88.261 Y109.677 E6.04355
G1 X87.961 Y108.586 E6.09502
G1 X87.767 Y107.473 E6.14643
G1 X87.681 Y106.343 E6.19800
G1 X87.703 Y105.201 E6.24997
G1 X87.836 Y104.053 E6.30255
G1 X88.080 Y102.904 E6.35604
G1 X88.336 Y102.046 E6.39676
G1 X88.655 Y101.194 E6.43817
G1 X89.203 Y100.032 E6.49663
G1 X89.846 Y98.955 E6.55370
G1 X90.579 Y97.966 E6.60973
G1 X91.396 Y97.068 E6.66497
G1 X92.291 Y96.264 E6.71972
G1 X93.259 Y95.559 E6.77422
G1 X94.295 Y94.956 E6.82875
G1 X95.392 Y94.458 E6.88358
G1 X96.546 Y94.070 E6.93897
G1 X97.755 Y93.795 E6.99542
G1 X101.607 Y93.106 E7.17346
G1 X102.864 Y92.709 E7.23346
G1 X103.834 Y92.300 E7.28139
G1 X104.516 Y91.929 E7.31668
G1 X105.132 Y91.501 E7.35081
G1 X105.501 Y91.178 E7.37316
G1 X105.826 Y90.824 E7.39502
G1 X106.101 Y90.437 E7.41662
G1 X106.320 Y90.016 E7.43821
G1 X106.473 Y89.565 E7.45991
G1 X106.526 Y89.316 E7.47145
G1 X106.571 Y88.821 E7.49409
G1 X106.571 Y76.100 E8.07297
G1 X112.259 Y76.100 E8.33182
G1 X112.119 Y76.446 F7800.000
G1 X111.919 Y76.500 F7800.000
G1 X111.919 Y105.886 E9.66905 F1260.000
G1 X111.866 Y107.074 E9.72314
G1 X111.709 Y108.211 E9.77539
G1 X111.451 Y109.308 E9.82666
G1 X111.096 Y110.360 E9.87717
G1 X110.648 Y111.363 E9.92717
G1 X110.108 Y112.313 E9.97688
G1 X109.480 Y113.205 E10.02654
G1 X108.767 Y114.036 E10.07637
G1 X107.971 Y114.801 E10.12660
G1 X107.095 Y115.495 E10.17746
G1 X106.139 Y116.117 E10.22934
G1 X105.378 Y116.528 E10.26870
G1 X104.576 Y116.892 E10.30878
G1 X103.468 Y117.294 E10.36241
G1 X102.357 Y117.584 E10.41466
G1 X101.245 Y117.766 E10.46593
G1 X100.138 Y117.840 E10.51644
G1 X99.039 Y117.810 E10.56644
G1 X97.955 Y117.674 E10.61615
G1 X96.891 Y117.436 E10.66581
G1 X95.850 Y117.095 E10.71564
G1 X94.839 Y116.652 E10.76587
G1 X93.862 Y116.109 E10.81673
G1 X92.922 Y115.464 E10.86861
G1 X92.251 Y114.918 E10.90797
G1 X91.608 Y114.316 E10.94805
G1 X90.813 Y113.446 E11.00168
G1 X90.119 Y112.531 E11.05393
G1 X89.526 Y111.573 E11.10519
G1 X89.033 Y110.579 E11.15571
G1 X88.641 Y109.552 E11.20571
G1 X88.351 Y108.499 E11.25542
G1 X88.164 Y107.424 E11.30508
G1 X88.081 Y106.332 E11.35491
G1 X88.103 Y105.228 E11.40513
G1 X88.231 Y104.118 E11.45600
G1 X88.468 Y103.003 E11.50788
G1 X88.715 Y102.174 E11.54724
G1 X89.024 Y101.350 E11.58728
G1 X89.557 Y100.220 E11.64411
G1 X90.179 Y99.177 E11.69939
G1 X90.888 Y98.220 E11.75359
G1 X91.678 Y97.352 E11.80700
G1 X92.543 Y96.575 E11.85989
G1 X93.478 Y95.894 E11.91254
G1 X94.478 Y95.312 E11.96521
G1 X95.539 Y94.831 E12.01819
G1 X96.654 Y94.456 E12.07174
G1 X97.835 Y94.187 E12.12685
