; generated by Slic3r 1.1.7 on 2014-12-11 at 16:32:40

; perimeters extrusion width = 0.40mm
; infill extrusion width = 0.67mm
; solid infill extrusion width = 0.67mm
; top infill extrusion width = 0.67mm
; support material extrusion width = 0.40mm

G21 ; set units to millimeters
M190 S62 ; wait for bed temperature to be reached
M104 S186 ; set temperature
G28 ; home all axes Start of G Code Slic3r
 
M109 S186 ; wait for temperature to be reached
G90 ; use absolute coordinates
G92 E0
M82 ; use absolute distances for extrusion
G1 F1860.000 E-3.00000
G92 E0
G1 Z0.200 F6000.000
G1 X60.076 Y74.662 F6000.000
G1 E3.10000 F1860.000
G1 X61.805 Y73.559 E3.13728 F1200.000
G1 X64.088 Y72.568 E3.18253
G1 X65.423 Y72.153 E3.20795
G1 X103.273 Y64.739 E3.90909
G1 X104.519 Y64.618 E3.93186
G1 X128.039 Y64.618 E4.35943
G1 X130.274 Y65.015 E4.40068
G1 X131.995 Y65.964 E4.43641 F1200.000
G1 X142.040 Y73.794 E4.66794
G1 X142.939 Y74.744 E4.69171
G1 X143.788 Y75.860 E4.71721
G1 X144.462 Y76.981 E4.74098
G1 X145.051 Y78.254 E4.76648
G1 X145.468 Y79.493 E4.79026
G1 X145.770 Y80.862 E4.81575
G1 X145.949 Y82.864 E4.85228
G1 X145.911 Y117.837 E5.48806
G1 X145.770 Y119.138 E5.51184
G1 X145.468 Y120.507 E5.53732
G1 X145.051 Y121.746 E5.56110
G1 X144.462 Y123.019 E5.58660
G1 X143.788 Y124.140 E5.61038
G1 X142.939 Y125.256 E5.63587
G1 X141.286 Y126.886 E5.67805
G1 X131.995 Y134.036 E5.89119
G1 X129.982 Y135.084 E5.93244
G1 X128.039 Y135.382 E5.96817
G1 X104.519 Y135.382 E6.39575
G1 X102.937 Y135.186 E6.42473
G1 X64.262 Y125.393 E7.14999
G1 X61.908 Y124.441 E7.19615
G1 X60.131 Y123.364 E7.23393
G1 X58.198 Y121.717 E7.28010
G1 X56.853 Y120.132 E7.31788
G1 X55.541 Y117.958 E7.36404
G1 X54.766 Y116.030 E7.40182
G1 X54.209 Y113.552 E7.44798
G1 X54.051 Y112.074 E7.47501
G1 X54.276 Y85.695 E7.95458
G1 X54.416 Y84.406 E7.97814
G1 X54.932 Y81.971 E8.02339
G1 X55.669 Y80.057 E8.06067
G1 X56.919 Y77.905 E8.10592
G1 X58.217 Y76.317 E8.14321
G1 X60.032 Y74.702 E8.18736
G1 X60.238 Y74.844 F6000.000
G1 X61.902 Y73.782 E8.22325 F1200.000
G1 X64.185 Y72.791 E8.26850
G1 X65.470 Y72.391 E8.29296
G1 X103.319 Y64.978 E8.99410
G1 X104.519 Y64.861 E9.01602
G1 X128.039 Y64.861 E9.44359
G1 X130.230 Y65.258 E9.48405
G1 X131.847 Y66.157 E9.51769 F1200.000
G1 X141.863 Y73.961 E9.74853
G1 X142.763 Y74.911 E9.77230
G1 X143.579 Y75.985 E9.79684
G1 X144.254 Y77.106 E9.82061
G1 X144.821 Y78.331 E9.84516
G1 X145.238 Y79.571 E9.86893
G1 X145.528 Y80.889 E9.89347
G1 X145.706 Y82.864 E9.92952
G1 X145.670 Y117.811 E10.56483
G1 X145.528 Y119.111 E10.58860
G1 X145.238 Y120.429 E10.61314
G1 X144.821 Y121.669 E10.63691
G1 X144.254 Y122.894 E10.66146
G1 X143.579 Y124.015 E10.68523
G1 X142.763 Y125.089 E10.70977
G1 X141.138 Y126.693 E10.75126
G1 X131.847 Y133.843 E10.96440
G1 X129.869 Y134.865 E11.00486
G1 X128.039 Y135.139 E11.03850
G1 X104.519 Y135.139 E11.46607
G1 X102.996 Y134.950 E11.49397
G1 X64.353 Y125.168 E12.21862
G1 X61.999 Y124.216 E12.26479
G1 X60.288 Y123.179 E12.30115
G1 X58.356 Y121.532 E12.34731
G1 X57.061 Y120.007 E12.38368
G1 X55.749 Y117.833 E12.42984
G1 X55.003 Y115.977 E12.46621
G1 X54.446 Y113.499 E12.51237
G1 X54.294 Y112.076 E12.53839
G1 X54.519 Y85.697 E13.01796
G1 X54.654 Y84.457 E13.04063
G1 X55.170 Y82.022 E13.08588
G1 X55.879 Y80.179 E13.12177
G1 X57.129 Y78.027 E13.16701
G1 X58.378 Y76.498 E13.20291
G1 X60.193 Y74.884 E13.24706
G1 F1860.000 E10.24706
G92 E0
G1 X73.514 Y115.020 F6000.000
G1 E3.10000 F1860.000
G1 X72.600 Y116.179 E3.12685 F1200.000
G1 X70.955 Y117.261 E3.16264
G1 X69.052 Y117.766 E3.19843
G1 X67.087 Y117.644 E3.23423
G1 X65.261 Y116.906 E3.27002
G1 X63.763 Y115.629 E3.30581
G1 X62.745 Y113.943 E3.34160
G1 X62.313 Y112.022 E3.37740
G1 X62.511 Y110.063 E3.41319
G1 X63.318 Y108.267 E3.44898
G1 X64.652 Y106.819 E3.48478
G1 X66.308 Y105.904 E3.51916
G1 X66.308 Y91.738 E3.77668
G1 X64.849 Y90.924 E3.80704
G1 X63.545 Y89.507 E3.84206
G1 X62.748 Y87.753 E3.87707
G1 X62.539 Y85.839 E3.91209
G1 X62.938 Y83.954 E3.94711
G1 X63.905 Y82.289 E3.98212
G1 X65.344 Y81.008 E4.01714
G1 X67.112 Y80.242 E4.05216
G1 X69.030 Y80.065 E4.08717
G1 X70.907 Y80.496 E4.12219
G1 X72.556 Y81.492 E4.15720
G1 X73.506 Y82.598 E4.18372
G1 X74.473 Y81.394 E4.21179
G1 X76.162 Y80.299 E4.24838
G1 X78.109 Y79.790 E4.28496
G1 X80.117 Y79.917 E4.32154
G1 X81.984 Y80.667 E4.35812
G1 X83.521 Y81.966 E4.39470
G1 X84.574 Y83.681 E4.43129
G1 X85.018 Y85.567 E4.46651
G1 X85.035 Y85.640 E4.46787
G1 X84.858 Y87.644 E4.50445
G1 X84.062 Y89.492 E4.54103
G1 X82.726 Y90.997 E4.57761
G1 X81.204 Y91.880 E4.60960
G1 X81.204 Y105.819 E4.86300
G1 X82.882 Y106.892 E4.89922
G1 X84.135 Y108.424 E4.93519
G1 X84.849 Y110.269 E4.97116
G1 X84.953 Y112.245 E5.00713
G1 X84.379 Y114.375 E5.04722
G1 X84.295 Y114.375 E5.04876
G1 X83.355 Y115.811 E5.07996
G1 X81.810 Y117.047 E5.11593
G1 X79.958 Y117.742 E5.15190
G1 X77.981 Y117.826 E5.18787
G1 X76.076 Y117.291 E5.22384
G1 X74.432 Y116.191 E5.25980
G1 X73.551 Y115.067 E5.28576
G1 X73.515 Y114.626 F6000.000
G1 X72.434 Y115.998 E5.31751 F1200.000
G1 X70.854 Y117.036 E5.35187
G1 X69.028 Y117.521 E5.38623
G1 X67.141 Y117.404 E5.42058
G1 X65.362 Y116.673 E5.45555
G1 X63.950 Y115.469 E5.48927
G1 X62.974 Y113.851 E5.52363
G1 X62.559 Y112.007 E5.55799
G1 X62.749 Y110.127 E5.59235
G1 X63.524 Y108.403 E5.62671
G1 X64.804 Y107.012 E5.66107
G1 X66.467 Y106.094 E5.69560
G1 X66.551 Y106.094 E5.69712
G1 X66.551 Y91.596 E5.96068
G1 X65.002 Y90.731 E5.99293
G1 X63.750 Y89.371 E6.02653
G1 X62.985 Y87.688 E6.06013
G1 X62.784 Y85.851 E6.09373
G1 X63.167 Y84.043 E6.12733
G1 X64.096 Y82.444 E6.16094
G1 X65.477 Y81.216 E6.19454
G1 X67.172 Y80.480 E6.22814
G1 X69.013 Y80.311 E6.26174
G1 X70.815 Y80.724 E6.29534
G1 X72.397 Y81.680 E6.32895
G1 X73.513 Y82.978 E6.36007
G1 X74.638 Y81.577 E6.39275
G1 X76.261 Y80.524 E6.42791
G1 X78.132 Y80.035 E6.46307
G1 X80.063 Y80.157 E6.49823
G1 X81.857 Y80.878 E6.53339
G1 X83.335 Y82.126 E6.56855
G1 X84.346 Y83.774 E6.60371
G1 X84.781 Y85.623 E6.63823
G1 X84.620 Y87.584 E6.67400
G1 X83.854 Y89.360 E6.70916
G1 X82.570 Y90.806 E6.74432
G1 X80.961 Y91.740 E6.77814
G1 X80.961 Y106.068 E7.03863
G1 X81.095 Y106.038 E7.04113
G1 X82.718 Y107.076 E7.07617
G1 X83.922 Y108.548 E7.11073
G1 X84.608 Y110.321 E7.14529
G1 X84.709 Y112.219 E7.17985
G1 X84.193 Y114.132 E7.21586
G1 X84.163 Y114.132 E7.21640
G1 X83.173 Y115.645 E7.24928
G1 X81.689 Y116.834 E7.28384
G1 X79.909 Y117.501 E7.31840
G1 X78.009 Y117.582 E7.35296
G1 X76.179 Y117.068 E7.38752
G1 X74.599 Y116.010 E7.42208
G1 X73.552 Y114.674 E7.45295
G1 X73.426 Y115.017 F6000.000
G1 F1860.000 E4.45295
G92 E0
G1 X73.509 Y117.274 F6000.000
G1 E3.10000 F1860.000
G1 X71.540 Y118.569 E3.14284 F1200.000
G1 X69.193 Y119.192 E3.18698
G1 X66.770 Y119.041 E3.23112
G1 X64.518 Y118.131 E3.27525
G1 X62.671 Y116.556 E3.31939
G1 X61.416 Y114.477 E3.36353
G1 X60.883 Y112.108 E3.40767
G1 X61.127 Y109.693 E3.45181
G1 X62.123 Y107.478 E3.49595
G1 X63.767 Y105.692 E3.54009
G1 X64.894 Y105.070 E3.56348
G1 X64.893 Y92.568 E3.79074
G1 X63.962 Y92.049 E3.81012
G1 X62.351 Y90.298 E3.85337
G1 X61.367 Y88.132 E3.89662
G1 X61.108 Y85.767 E3.93987
G1 X61.601 Y83.440 E3.98312
G1 X62.796 Y81.383 E4.02637
G1 X64.574 Y79.801 E4.06962
G1 X66.756 Y78.854 E4.11287
G1 X69.125 Y78.636 E4.15612
G1 X71.444 Y79.169 E4.19937
G1 X73.444 Y80.376 E4.24184
G1 X75.584 Y78.989 E4.28820
G1 X77.971 Y78.364 E4.33305
G1 X80.433 Y78.520 E4.37791
G1 X82.723 Y79.440 E4.42277
G1 X84.608 Y81.032 E4.46762
G1 X85.898 Y83.135 E4.51248
G1 X86.464 Y85.537 E4.55733
G1 X86.247 Y87.995 E4.60219
G1 X85.270 Y90.261 E4.64705
G1 X83.632 Y92.106 E4.69190
G1 X82.618 Y92.694 E4.71322
G1 X82.618 Y105.045 E4.93774
G1 X83.834 Y105.823 E4.96398
G1 X85.372 Y107.703 E5.00815
G1 X86.249 Y109.969 E5.05232
G1 X86.377 Y112.395 E5.09648
G1 X85.745 Y114.741 E5.14065
G1 X84.415 Y116.774 E5.18482
G1 X82.518 Y118.292 E5.22898
G1 X80.243 Y119.145 E5.27315
G1 X77.816 Y119.249 E5.31732
G1 X75.477 Y118.592 E5.36149
G1 X73.559 Y117.308 E5.40344
G1 X73.508 Y117.566 F6000.000
G1 X71.640 Y118.793 E5.44407 F1200.000
G1 X69.217 Y119.437 E5.48964
G1 X66.715 Y119.281 E5.53521
G1 X64.391 Y118.341 E5.58079
G1 X62.483 Y116.715 E5.62636
G1 X61.188 Y114.569 E5.67193
G1 X60.638 Y112.123 E5.71750
G1 X60.889 Y109.629 E5.76307
G1 X61.917 Y107.342 E5.80865
G1 X63.615 Y105.498 E5.85422
G1 X64.651 Y104.926 E5.87572
G1 X64.651 Y92.711 E6.09779
G1 X63.810 Y92.242 E6.11529
G1 X62.146 Y90.434 E6.15995
G1 X61.130 Y88.197 E6.20462
G1 X60.863 Y85.755 E6.24928
G1 X61.372 Y83.351 E6.29394
G1 X62.606 Y81.227 E6.33861
G1 X64.441 Y79.594 E6.38327
G1 X66.695 Y78.616 E6.42794
G1 X69.142 Y78.391 E6.47260
G1 X71.536 Y78.941 E6.51726
G1 X73.439 Y80.090 E6.55767
G1 X75.484 Y78.764 E6.60198
G1 X77.947 Y78.119 E6.64826
G1 X80.487 Y78.280 E6.69453
G1 X82.849 Y79.229 E6.74081
G1 X84.794 Y80.872 E6.78709
G1 X84.836 Y80.939 E6.78852
G1 X86.126 Y83.041 E6.83336
G1 X86.709 Y85.519 E6.87964
G1 X86.486 Y88.055 E6.92592
G1 X85.478 Y90.393 E6.97220
G1 X83.788 Y92.296 E7.01847
G1 X82.861 Y92.834 E7.03796
G1 X82.861 Y104.912 E7.25751
G1 X83.998 Y105.639 E7.28205
G1 X85.585 Y107.580 E7.32762
G1 X86.489 Y109.918 E7.37320
G1 X86.622 Y112.421 E7.41877
G1 X85.970 Y114.842 E7.46435
G1 X84.597 Y116.939 E7.50992
G1 X82.639 Y118.506 E7.55550
G1 X80.292 Y119.386 E7.60108
G1 X77.787 Y119.493 E7.64665
G1 X75.374 Y118.815 E7.69223
G1 X73.557 Y117.599 E7.73196
G1 X73.245 Y117.264 F6000.000
G1 X74.417 Y117.695 F6000.000
G1 X72.844 Y116.122 E7.77239 F1200.000
G1 X72.687 Y116.309 E7.77684
G1 X73.482 Y117.105 E7.79730
G1 X73.274 Y117.242 E7.80183
G1 X72.478 Y116.446 E7.82229
G1 X72.270 Y116.583 E7.82682
G1 X73.066 Y117.379 E7.84728
G1 X72.857 Y117.516 E7.85181
G1 X72.062 Y116.720 E7.87227
G1 X71.853 Y116.857 E7.87680
G1 X72.649 Y117.653 E7.89725
G1 X72.441 Y117.790 E7.90179
G1 X71.645 Y116.994 E7.92224
G1 X71.437 Y117.131 E7.92677
G1 X72.232 Y117.926 E7.94723
G1 X72.024 Y118.063 E7.95176
G1 X71.228 Y117.268 E7.97222
G1 X71.020 Y117.405 E7.97675
G1 X71.816 Y118.200 E7.99721
G1 X71.608 Y118.337 E8.00174
G1 X70.748 Y117.477 E8.02385
G1 X70.475 Y117.550 E8.02898
G1 X71.376 Y118.451 E8.05214
G1 X71.103 Y118.523 E8.05727
G1 X70.202 Y117.622 E8.08043
G1 X69.929 Y117.695 E8.08556
G1 X70.830 Y118.595 E8.10872
G1 X70.557 Y118.668 E8.11385
G1 X69.657 Y117.767 E8.13701
G1 X69.384 Y117.839 E8.14214
G1 X70.285 Y118.740 E8.16531
G1 X70.012 Y118.813 E8.17044
G1 X69.111 Y117.912 E8.19360
G1 X68.758 Y117.904 E8.20001
G1 X69.739 Y118.885 E8.22523
G1 X69.466 Y118.958 E8.23037
G1 X68.390 Y117.881 E8.25804
G1 X68.022 Y117.858 E8.26474
G1 X69.194 Y119.030 E8.29487
G1 X68.831 Y119.013 E8.30147
G1 X67.654 Y117.835 E8.33174
G1 X67.286 Y117.812 E8.33844
G1 X68.463 Y118.990 E8.36872
G1 X68.095 Y118.967 E8.37542
G1 X66.840 Y117.712 E8.40767
G1 X66.261 Y117.478 F6000.000
G1 X67.727 Y118.944 E8.44536 F1200.000
G1 X67.359 Y118.921 E8.45206
G1 X65.682 Y117.244 E8.49517
G1 X64.869 Y116.776 F6000.000
G1 X66.990 Y118.898 E8.54972 F1200.000
G1 X66.518 Y118.771 E8.55862
G1 X61.388 Y113.641 E8.69050
G1 X61.288 Y113.195 E8.69880
G1 X63.367 Y115.274 E8.75225
G1 X62.841 Y114.404 F6000.000
G1 X61.188 Y112.750 E8.79476 F1200.000
G1 X61.087 Y112.305 E8.80306
G1 X62.545 Y113.762 E8.84052
G1 X62.445 Y113.317 E8.84882
G1 X61.058 Y111.930 E8.88446
G1 X61.090 Y111.617 E8.89019
G1 X62.344 Y112.871 E8.92244
G1 X62.244 Y112.426 E8.93074
G1 X61.121 Y111.303 E8.95961
G1 X61.153 Y110.990 E8.96534
G1 X62.159 Y111.996 E8.99120
G1 X62.191 Y111.682 E8.99693
G1 X61.185 Y110.676 E9.02279
G1 X61.216 Y110.362 E9.02852
G1 X62.222 Y111.368 E9.05438
G1 X62.254 Y111.055 E9.06011
G1 X61.248 Y110.049 E9.08598
G1 X61.280 Y109.735 E9.09171
G1 X62.286 Y110.741 E9.11757
G1 X62.317 Y110.428 E9.12330
G1 X61.386 Y109.497 E9.14724
G1 X61.493 Y109.259 E9.15198
G1 X62.349 Y110.114 E9.17398
G1 X62.434 Y109.854 E9.17896
G1 X61.600 Y109.020 E9.20039
G1 X61.707 Y108.782 E9.20513
G1 X62.541 Y109.616 E9.22656
G1 X62.648 Y109.378 E9.23131
G1 X61.815 Y108.544 E9.25274
G1 X61.922 Y108.306 E9.25748
G1 X62.755 Y109.140 E9.27891
G1 X62.862 Y108.901 E9.28366
G1 X62.029 Y108.068 E9.30509
G1 X62.136 Y107.830 E9.30984
G1 X62.969 Y108.663 E9.33126
G1 X63.076 Y108.425 E9.33601
G1 X62.243 Y107.592 E9.35744
G1 X62.402 Y107.405 E9.36189
G1 X63.183 Y108.187 E9.38198
G1 X63.347 Y108.006 E9.38643
G1 X62.567 Y107.226 E9.40648
G1 X62.733 Y107.046 E9.41092
G1 X63.513 Y107.826 E9.43097
G1 X63.678 Y107.646 E9.43541
G1 X62.898 Y106.866 E9.45546
G1 X63.064 Y106.687 E9.45990
G1 X63.844 Y107.466 E9.47995
G1 X64.009 Y107.287 E9.48439
G1 X63.229 Y106.507 E9.50444
G1 X63.395 Y106.327 E9.50888
G1 X64.175 Y107.107 E9.52893
G1 X64.340 Y106.927 E9.53337
G1 X63.560 Y106.147 E9.55342
G1 X63.726 Y105.968 E9.55786
G1 X64.506 Y106.748 E9.57791
G1 X64.711 Y106.608 E9.58243
G1 X63.900 Y105.797 E9.60328
G1 X64.123 Y105.674 E9.60790
G1 X64.933 Y106.485 E9.62875
G1 X65.156 Y106.362 E9.63336
G1 X64.345 Y105.551 E9.65421
G1 X64.567 Y105.429 E9.65883
G1 X65.378 Y106.239 E9.67968
G1 X65.601 Y106.117 E9.68430
G1 X64.790 Y105.306 E9.70515
G1 X65.012 Y105.183 E9.70976
G1 X65.823 Y105.994 E9.73061
G1 X66.045 Y105.871 E9.73523
G1 X65.050 Y104.876 E9.76082
G1 X65.050 Y104.530 E9.76710
G1 X66.152 Y105.632 E9.79542
G1 X66.152 Y105.287 E9.80170
G1 X65.050 Y104.185 E9.83002
G1 X65.050 Y103.840 E9.83629
G1 X66.152 Y104.942 E9.86462
G1 X66.152 Y104.596 E9.87089
G1 X65.050 Y103.495 E9.89922
G1 X65.050 Y103.150 E9.90549
G1 X66.152 Y104.251 E9.93382
G1 X66.152 Y103.906 E9.94009
G1 X65.050 Y102.804 E9.96842
G1 X65.050 Y102.459 E9.97469
G1 X66.152 Y103.561 E10.00302
G1 X66.152 Y103.216 E10.00929
G1 X65.050 Y102.114 E10.03762
G1 X65.050 Y101.769 E10.04389
G1 X66.152 Y102.870 E10.07222
G1 X66.152 Y102.525 E10.07849
G1 X65.050 Y101.423 E10.10682
G1 X65.050 Y101.078 E10.11309
G1 X66.152 Y102.180 E10.14142
G1 X66.152 Y101.835 E10.14769
G1 X65.050 Y100.733 E10.17602
G1 X65.050 Y100.388 E10.18229
G1 X66.152 Y101.490 E10.21062
G1 X66.152 Y101.144 E10.21690
G1 X65.050 Y100.043 E10.24522
G1 X65.050 Y99.697 E10.25150
G1 X66.152 Y100.799 E10.27982
G1 X66.152 Y100.454 E10.28610
G1 X65.050 Y99.352 E10.31442
G1 X65.050 Y99.007 E10.32070
G1 X66.152 Y100.109 E10.34903
G1 X66.152 Y99.764 E10.35530
G1 X65.050 Y98.662 E10.38363
G1 X65.050 Y98.317 E10.38990
G1 X66.152 Y99.418 E10.41823
G1 X66.152 Y99.073 E10.42451
G1 X65.050 Y97.971 E10.45283
G1 X65.050 Y97.626 E10.45911
G1 X66.152 Y98.728 E10.48744
G1 X66.152 Y98.383 E10.49371
G1 X65.050 Y97.281 E10.52204
G1 X65.050 Y96.936 E10.52832
G1 X66.152 Y98.038 E10.55664
G1 X66.152 Y97.692 E10.56292
G1 X65.050 Y96.591 E10.59125
G1 X65.050 Y96.245 E10.59752
G1 X66.152 Y97.347 E10.62585
G1 X66.152 Y97.002 E10.63213
G1 X65.050 Y95.900 E10.66045
G1 X65.050 Y95.555 E10.66673
G1 X66.152 Y96.657 E10.69506
G1 X66.152 Y96.312 E10.70133
G1 X65.050 Y95.210 E10.72966
G1 X65.050 Y94.865 E10.73594
G1 X66.152 Y95.966 E10.76427
G1 X66.152 Y95.621 E10.77054
G1 X65.050 Y94.519 E10.79887
G1 X65.050 Y94.174 E10.80515
G1 X66.152 Y95.276 E10.83348
G1 X66.152 Y94.931 E10.83975
G1 X65.050 Y93.829 E10.86808
G1 X65.050 Y93.484 E10.87436
G1 X66.152 Y94.586 E10.90269
G1 X66.152 Y94.240 E10.90896
G1 X65.050 Y93.139 E10.93729
G1 X65.050 Y92.793 E10.94357
G1 X66.152 Y93.895 E10.97190
G1 X66.152 Y93.550 E10.97817
G1 X62.208 Y89.607 E11.07955
G1 X61.921 Y88.974 F6000.000
G1 X66.152 Y93.205 E11.18831 F1200.000
G1 X66.152 Y92.860 E11.19458
G1 X61.634 Y88.342 E11.31074
G1 X61.494 Y87.857 E11.31991
G1 X66.152 Y92.514 E11.43965
G1 X66.152 Y92.169 E11.44593
G1 X65.383 Y91.401 E11.46568
G1 X64.333 Y92.077 F6000.000
G1 X62.665 Y90.408 E11.50858 F1200.000
G1 X63.277 Y89.295 F6000.000
G1 X61.451 Y87.469 E11.55551 F1200.000
G1 X61.409 Y87.082 E11.56259
G1 X62.989 Y88.662 E11.60322
G1 X62.702 Y88.029 F6000.000
G1 X61.367 Y86.694 E11.63755 F1200.000
G1 X61.324 Y86.306 E11.64464
G1 X62.569 Y87.551 E11.67664
G1 X62.527 Y87.164 E11.68373
G1 X61.282 Y85.919 E11.71572
G1 X61.304 Y85.596 E11.72161
G1 X62.484 Y86.776 E11.75195
G1 X62.442 Y86.388 E11.75903
G1 X61.365 Y85.311 E11.78673
G1 X61.425 Y85.026 E11.79202
G1 X62.399 Y86.001 E11.81708
G1 X62.415 Y85.671 E11.82308
G1 X61.485 Y84.741 E11.84698
G1 X61.545 Y84.456 E11.85228
