; generated by Slic3r 1.1.7 on 2014-12-11 at 17:59:48

; perimeters extrusion width = 0.40mm
; infill extrusion width = 0.67mm
; solid infill extrusion width = 0.67mm
; top infill extrusion width = 0.67mm
; support material extrusion width = 0.40mm

G21 ; set units to millimeters
M190 S57 ; wait for bed temperature to be reached
M104 S186 ; set temperature
G28 ; home all axes Start of G Code Slic3r
 
M109 S186 ; wait for temperature to be reached
G90 ; use absolute coordinates
G92 E0
M82 ; use absolute distances for extrusion
G1 F1860.000 E-3.00000
G92 E0
G1 Z0.200 F6000.000
G1 X85.858 Y63.528 F6000.000
G1 E3.10000 F1860.000
G1 X86.501 Y62.732 E3.11859 F1200.000
G1 X87.211 Y61.995 E3.13719
G1 X87.982 Y61.323 E3.15578
G1 X88.809 Y60.721 E3.17438
G1 X89.685 Y60.193 E3.19298
G1 X90.604 Y59.744 E3.21157
G1 X91.559 Y59.376 E3.23018
G1 X92.542 Y59.093 E3.24877
G1 X93.546 Y58.897 E3.26737
G1 X94.563 Y58.788 E3.28596
G1 X95.292 Y58.763 E3.29923
G1 X105.586 Y58.769 E3.48635
G1 X106.679 Y58.849 E3.50627 F1200.000
G1 X107.617 Y58.998 E3.52355
G1 X108.610 Y59.245 E3.54214
G1 X109.578 Y59.577 E3.56074
G1 X110.512 Y59.992 E3.57933
G1 X111.408 Y60.486 E3.59793
G1 X112.256 Y61.058 E3.61652
G1 X113.052 Y61.701 E3.63513
G1 X113.789 Y62.410 E3.65372
G1 X114.461 Y63.182 E3.67232
G1 X115.063 Y64.008 E3.69091
G1 X115.591 Y64.885 E3.70951
G1 X116.040 Y65.804 E3.72810
G1 X116.430 Y66.828 E3.74803
G1 X116.707 Y67.812 E3.76662
G1 X116.888 Y68.745 E3.78389
G1 X116.954 Y69.254 E3.79322
G1 X122.630 Y116.553 E4.65923
G1 X122.674 Y117.166 E4.67041
G1 X122.664 Y118.119 E4.68773
G1 X122.607 Y118.705 E4.69845
G1 X122.526 Y119.216 E4.70785
G1 X122.289 Y120.221 E4.72662
G1 X121.422 Y123.140 E4.78198
G1 X121.053 Y124.135 E4.80128
G1 X120.601 Y125.137 E4.82125
G1 X120.088 Y126.089 E4.84090
G1 X119.704 Y126.696 E4.85397
G1 X119.270 Y127.304 E4.86754
G1 X118.781 Y127.907 E4.88165
G1 X118.043 Y128.686 E4.90116
G1 X117.399 Y129.265 E4.91691
G1 X105.733 Y139.078 E5.19405
G1 X105.214 Y139.453 E5.20567
G1 X104.613 Y139.826 E5.21854
G1 X104.017 Y140.152 E5.23088
G1 X103.463 Y140.425 E5.24212
G1 X102.809 Y140.693 E5.25496
G1 X102.057 Y140.928 E5.26929
G1 X101.653 Y141.024 E5.27683
G1 X101.086 Y141.125 E5.28730
G1 X100.501 Y141.194 E5.29800
G1 X99.776 Y141.234 E5.31122
G1 X99.231 Y141.228 E5.32112
G1 X98.581 Y141.180 E5.33297
G1 X97.948 Y141.087 E5.34460
G1 X97.423 Y140.974 E5.35436
G1 X96.846 Y140.814 E5.36525
G1 X96.251 Y140.609 E5.37668
G1 X95.646 Y140.364 E5.38855
G1 X94.976 Y140.051 E5.40200
G1 X94.570 Y139.833 E5.41037
G1 X94.024 Y139.501 E5.42199
G1 X93.268 Y138.943 E5.43907
G1 X92.927 Y138.648 E5.44726
G1 X81.816 Y128.428 E5.72170
G1 X81.380 Y127.982 E5.73303
G1 X81.037 Y127.579 E5.74266
G1 X80.756 Y127.207 E5.75114
G1 X80.462 Y126.768 E5.76075
G1 X80.157 Y126.253 E5.77163
G1 X79.897 Y125.754 E5.78186
G1 X79.573 Y125.067 E5.79566
G1 X78.073 Y121.622 E5.86397
G1 X77.853 Y121.045 E5.87519
G1 X77.672 Y120.459 E5.88634
G1 X77.527 Y119.864 E5.89748
G1 X77.411 Y119.187 E5.90995
G1 X77.333 Y118.375 E5.92480
G1 X77.324 Y117.566 E5.93951
G1 X77.380 Y116.764 E5.95410
G1 X83.650 Y69.106 E6.82796
G1 X83.799 Y68.167 E6.84524
G1 X84.045 Y67.174 E6.86383
G1 X84.377 Y66.207 E6.88242
G1 X84.826 Y65.207 E6.90234
G1 X85.287 Y64.376 E6.91962
G1 X85.825 Y63.577 E6.93713
G1 X86.051 Y63.675 F6000.000
G1 X86.680 Y62.896 E6.95533 F1200.000
G1 X87.375 Y62.174 E6.97355
G1 X88.130 Y61.516 E6.99176
G1 X88.939 Y60.926 E7.00997
G1 X89.797 Y60.409 E7.02818
G1 X90.697 Y59.968 E7.04639
G1 X91.632 Y59.608 E7.06461
G1 X92.594 Y59.330 E7.08282
G1 X93.578 Y59.137 E7.10103
G1 X94.574 Y59.031 E7.11924
G1 X95.292 Y59.006 E7.13231
G1 X105.575 Y59.012 E7.31924
G1 X106.575 Y59.080 E7.33746 F1200.000
G1 X107.565 Y59.236 E7.35567
G1 X108.537 Y59.476 E7.37388
G1 X109.485 Y59.801 E7.39209
G1 X110.400 Y60.207 E7.41030
G1 X111.277 Y60.691 E7.42851
G1 X112.166 Y61.295 E7.44805
G1 X112.888 Y61.880 E7.46494
G1 X113.610 Y62.574 E7.48314
G1 X114.268 Y63.330 E7.50136
G1 X114.858 Y64.139 E7.51956
G1 X115.376 Y64.997 E7.53778
G1 X115.816 Y65.896 E7.55599
G1 X116.176 Y66.831 E7.57420
G1 X116.454 Y67.794 E7.59241
G1 X116.647 Y68.777 E7.61063
G1 X116.713 Y69.283 E7.61990
G1 X122.388 Y116.576 E8.48582
G1 X122.432 Y117.177 E8.49677
G1 X122.422 Y118.101 E8.51357
G1 X122.367 Y118.672 E8.52399
G1 X122.288 Y119.170 E8.53315
G1 X122.055 Y120.154 E8.55154
G1 X121.191 Y123.065 E8.60675
G1 X120.830 Y124.039 E8.62563
G1 X120.385 Y125.025 E8.64529
G1 X119.881 Y125.962 E8.66463
G1 X119.504 Y126.558 E8.67746
G1 X119.079 Y127.154 E8.69076
G1 X118.600 Y127.745 E8.70460
G1 X117.873 Y128.513 E8.72382
G1 X117.242 Y129.079 E8.73922
G1 X105.584 Y138.887 E9.01618
G1 X105.081 Y139.250 E9.02746
G1 X104.495 Y139.614 E9.04000
G1 X103.907 Y139.935 E9.05218
G1 X103.363 Y140.203 E9.06320
G1 X102.728 Y140.464 E9.07568
G1 X101.993 Y140.694 E9.08967
G1 X101.604 Y140.786 E9.09694
G1 X101.053 Y140.884 E9.10712
G1 X100.482 Y140.952 E9.11758
G1 X99.770 Y140.991 E9.13053
G1 X99.239 Y140.986 E9.14019
G1 X98.607 Y140.938 E9.15172
G1 X97.992 Y140.848 E9.16301
G1 X97.482 Y140.739 E9.17250
G1 X96.917 Y140.582 E9.18316
G1 X96.336 Y140.382 E9.19433
G1 X95.744 Y140.142 E9.20594
G1 X95.084 Y139.833 E9.21918
G1 X94.692 Y139.623 E9.22727
G1 X94.159 Y139.299 E9.23861
G1 X93.424 Y138.756 E9.25521
G1 X93.092 Y138.469 E9.26320
G1 X81.985 Y128.253 E9.53754
G1 X81.561 Y127.820 E9.54854
G1 X81.228 Y127.429 E9.55789
G1 X80.955 Y127.067 E9.56614
G1 X80.669 Y126.640 E9.57547
G1 X80.371 Y126.137 E9.58610
G1 X80.116 Y125.649 E9.59612
G1 X79.795 Y124.970 E9.60976
G1 X78.298 Y121.531 E9.67795
G1 X78.084 Y120.968 E9.68890
G1 X77.907 Y120.397 E9.69977
G1 X77.766 Y119.816 E9.71063
G1 X77.652 Y119.158 E9.72278
G1 X77.576 Y118.365 E9.73726
G1 X77.566 Y117.576 E9.75160
G1 X77.621 Y116.794 E9.76584
G1 X83.891 Y69.137 E10.63967
G1 X84.036 Y68.220 E10.65656
G1 X84.277 Y67.247 E10.67477
G1 X84.602 Y66.300 E10.69297
G1 X85.041 Y65.319 E10.71251
G1 X85.492 Y64.507 E10.72940
G1 X86.018 Y63.725 E10.74652
G1 X86.244 Y63.823 F6000.000
G1 X86.859 Y63.060 E10.76434 F1200.000
G1 X87.539 Y62.353 E10.78217
G1 X88.278 Y61.709 E10.80000
G1 X89.070 Y61.131 E10.81782
G1 X89.910 Y60.624 E10.83565
G1 X90.790 Y60.193 E10.85348
G1 X91.705 Y59.839 E10.87131
G1 X92.647 Y59.567 E10.88913
G1 X93.609 Y59.378 E10.90696
G1 X94.584 Y59.274 E10.92478
G1 X95.292 Y59.249 E10.93766
G1 X105.564 Y59.255 E11.12440
G1 X106.543 Y59.321 E11.14223 F1200.000
G1 X107.512 Y59.473 E11.16006
G1 X108.464 Y59.708 E11.17788
G1 X109.392 Y60.026 E11.19571
G1 X110.288 Y60.423 E11.21353
G1 X111.147 Y60.896 E11.23136
G1 X112.019 Y61.487 E11.25051
G1 X112.724 Y62.059 E11.26701
G1 X113.431 Y62.738 E11.28483
G1 X114.076 Y63.477 E11.30267
G1 X114.653 Y64.269 E11.32048
G1 X115.160 Y65.109 E11.33831
G1 X115.592 Y65.989 E11.35614
G1 X115.945 Y66.904 E11.37396
G1 X116.217 Y67.846 E11.39179
G1 X116.406 Y68.809 E11.40962
G1 X116.472 Y69.312 E11.41885
G1 X122.146 Y116.600 E12.28466
G1 X122.189 Y117.189 E12.29540
G1 X122.179 Y118.084 E12.31167
G1 X122.126 Y118.639 E12.32180
G1 X122.049 Y119.123 E12.33072
G1 X121.822 Y120.087 E12.34872
G1 X120.960 Y122.990 E12.40378
G1 X120.607 Y123.943 E12.42224
G1 X120.170 Y124.913 E12.44159
G1 X119.673 Y125.835 E12.46063
G1 X119.304 Y126.420 E12.47321
G1 X118.887 Y127.004 E12.48625
G1 X118.418 Y127.584 E12.49980
G1 X117.702 Y128.340 E12.51874
G1 X117.086 Y128.893 E12.53379
G1 X105.435 Y138.695 E12.81058
G1 X104.947 Y139.047 E12.82152
G1 X104.377 Y139.401 E12.83372
G1 X103.797 Y139.719 E12.84574
G1 X103.263 Y139.982 E12.85655
G1 X102.646 Y140.235 E12.86867
G1 X101.930 Y140.459 E12.88231
G1 X101.556 Y140.548 E12.88932
G1 X101.021 Y140.643 E12.89919
G1 X100.462 Y140.710 E12.90942
G1 X99.765 Y140.748 E12.92212
G1 X99.247 Y140.743 E12.93152
G1 X98.632 Y140.697 E12.94273
G1 X98.036 Y140.609 E12.95369
G1 X97.540 Y140.503 E12.96291
G1 X96.988 Y140.349 E12.97332
G1 X96.420 Y140.154 E12.98424
G1 X95.842 Y139.920 E12.99559
G1 X95.192 Y139.615 E13.00863
G1 X94.814 Y139.413 E13.01643
G1 X94.294 Y139.097 E13.02749
G1 X93.580 Y138.570 E13.04362
G1 X93.256 Y138.290 E13.05140
G1 X82.153 Y128.078 E13.32565
G1 X81.742 Y127.658 E13.33631
G1 X81.419 Y127.278 E13.34538
G1 X81.153 Y126.927 E13.35340
G1 X80.876 Y126.513 E13.36245
G1 X80.584 Y126.021 E13.37284
G1 X80.335 Y125.544 E13.38263
G1 X80.018 Y124.873 E13.39612
G1 X78.523 Y121.439 E13.46420
G1 X78.314 Y120.891 E13.47487
G1 X78.141 Y120.334 E13.48547
G1 X78.004 Y119.769 E13.49605
G1 X77.893 Y119.128 E13.50787
G1 X77.819 Y118.355 E13.52198
G1 X77.809 Y117.586 E13.53597
G1 X77.862 Y116.824 E13.54984
G1 X84.131 Y69.169 E14.42364
G1 X84.273 Y68.272 E14.44014
G1 X84.509 Y67.320 E14.45797
G1 X84.826 Y66.393 E14.47578
G1 X85.257 Y65.432 E14.49494
G1 X85.697 Y64.637 E14.51144
G1 X86.210 Y63.873 E14.52818
G1 F1860.000 E11.52818
G92 E0
G1 X106.135 Y95.835 F6000.000
G1 E3.10000 F1860.000
G1 X104.950 Y95.835 E3.12156 F1200.000
G1 X104.943 Y72.347 E3.54853
G1 X104.893 Y72.063 E3.55378
G1 X104.794 Y71.792 E3.55903
G1 X104.570 Y71.438 E3.56664
G1 X104.357 Y71.223 E3.57214
G1 X104.121 Y71.057 E3.57739
G1 X103.859 Y70.935 E3.58265
G1 X103.580 Y70.860 E3.58789
G1 X103.285 Y70.835 E3.59328
G1 X97.300 Y70.835 E3.70208
G1 X97.005 Y70.860 E3.70747
G1 X96.864 Y70.891 E3.71010
G1 X96.592 Y70.990 E3.71535
G1 X96.342 Y71.135 E3.72060
G1 X96.227 Y71.223 E3.72322
G1 X96.121 Y71.320 E3.72585
G1 X95.935 Y71.541 E3.73110
G1 X95.858 Y71.663 E3.73373
G1 X95.736 Y71.925 E3.73898
G1 X95.661 Y72.204 E3.74423
G1 X95.635 Y72.499 E3.74961
G1 X95.635 Y95.835 E4.17383
G1 X94.450 Y95.835 E4.19539
G1 X94.458 Y71.788 E4.63254
G1 X94.529 Y71.385 E4.63997
G1 X94.669 Y71.001 E4.64739
G1 X94.873 Y70.648 E4.65482
G1 X95.136 Y70.335 E4.66224
G1 X95.448 Y70.072 E4.66967
G1 X95.802 Y69.868 E4.67709
G1 X96.186 Y69.728 E4.68452
G1 X96.386 Y69.684 E4.68823
G1 X96.785 Y69.649 E4.69552
G1 X103.800 Y69.649 E4.82305
G1 X104.199 Y69.684 E4.83034
G1 X104.399 Y69.728 E4.83405
G1 X104.783 Y69.868 E4.84148
G1 X104.964 Y69.962 E4.84520
G1 X105.299 Y70.197 E4.85262
G1 X105.449 Y70.335 E4.85634
G1 X105.712 Y70.648 E4.86376
G1 X105.896 Y70.962 E4.87039
G1 X105.994 Y71.190 E4.87490
G1 X106.100 Y71.585 E4.88233
G1 X106.135 Y71.984 E4.88962
G1 X106.135 Y95.775 E5.32210
G1 X105.892 Y95.592 F6000.000
G1 X105.192 Y95.592 E5.33483 F1200.000
G1 X105.185 Y72.326 E5.75777
G1 X105.128 Y72.000 E5.76379
G1 X105.078 Y71.842 E5.76681
G1 X104.949 Y71.564 E5.77238
G1 X104.748 Y71.271 E5.77885
G1 X104.514 Y71.036 E5.78487
G1 X104.242 Y70.846 E5.79089
G1 X103.942 Y70.706 E5.79691
G1 X103.681 Y70.624 E5.80188
G1 X103.290 Y70.592 E5.80901
G1 X97.295 Y70.592 E5.91801
G1 X96.963 Y70.621 E5.92407
G1 X96.801 Y70.657 E5.92708
G1 X96.489 Y70.770 E5.93310
G1 X96.203 Y70.935 E5.93912
G1 X96.071 Y71.036 E5.94214
G1 X95.949 Y71.148 E5.94515
G1 X95.736 Y71.402 E5.95117
G1 X95.647 Y71.542 E5.95418
G1 X95.507 Y71.842 E5.96020
G1 X95.421 Y72.162 E5.96622
G1 X95.392 Y72.494 E5.97228
G1 X95.392 Y95.592 E6.39218
G1 X94.692 Y95.592 E6.40490
G1 X94.700 Y71.809 E6.83726
G1 X94.764 Y71.448 E6.84391
G1 X94.889 Y71.104 E6.85057
G1 X95.072 Y70.787 E6.85722
G1 X95.307 Y70.507 E6.86388
G1 X95.588 Y70.271 E6.87053
G1 X95.905 Y70.088 E6.87719
G1 X96.249 Y69.963 E6.88384
G1 X96.428 Y69.924 E6.88717
G1 X96.790 Y69.892 E6.89379
G1 X103.795 Y69.892 E7.02112
G1 X104.157 Y69.924 E7.02773
G1 X104.336 Y69.963 E7.03106
G1 X104.680 Y70.088 E7.03772
G1 X104.842 Y70.173 E7.04105
G1 X105.142 Y70.383 E7.04770
G1 X105.277 Y70.507 E7.05104
G1 X105.513 Y70.787 E7.05769
G1 X105.680 Y71.075 E7.06374
G1 X105.766 Y71.273 E7.06767
G1 X105.861 Y71.627 E7.07433
G1 X105.892 Y71.990 E7.08094
G1 X105.892 Y95.532 E7.50892
G1 X105.892 Y95.992 F6000.000
G1 F1860.000 E4.50892
G92 E0
G1 X106.722 Y101.482 F6000.000
G1 E3.10000 F1860.000
G1 X109.733 Y112.802 E3.31295 F1200.000
G1 X108.877 Y113.030 E3.32905
G1 X105.866 Y101.709 E3.54201
G1 X106.664 Y101.497 E3.55702
G1 X106.550 Y101.779 F6000.000
G1 X109.436 Y112.630 E3.76114 F1200.000
G1 X109.049 Y112.733 E3.76841
G1 X106.163 Y101.882 E3.97253
G1 X106.492 Y101.794 E3.97871
G1 X106.936 Y101.676 F6000.000
G1 F1860.000 E0.97871
G92 E0
G1 X103.361 Y101.729 F6000.000
G1 E3.10000 F1860.000
G1 X105.315 Y112.853 E3.30532 F1200.000
G1 X104.442 Y113.006 E3.32142
G1 X102.489 Y101.882 E3.52674
G1 X103.302 Y101.739 E3.54175
G1 X103.164 Y102.010 F6000.000
G1 X105.033 Y112.656 E3.73824 F1200.000
G1 X104.639 Y112.725 E3.74551
G1 X102.770 Y102.079 E3.94199
G1 X103.105 Y102.021 E3.94817
G1 X103.558 Y101.941 F6000.000
G1 F1860.000 E0.94817
G92 E0
G1 X97.105 Y101.801 F6000.000
G1 E3.10000 F1860.000
G1 X95.118 Y113.036 E3.30742 F1200.000
G1 X94.246 Y112.882 E3.32352
G1 X96.233 Y101.647 E3.53094
G1 X97.046 Y101.791 E3.54595
G1 X96.823 Y101.998 F6000.000
G1 X94.921 Y112.755 E3.74454 F1200.000
G1 X94.527 Y112.685 E3.75181
G1 X96.430 Y101.928 E3.95039
G1 X96.764 Y101.988 E3.95657
G1 X97.217 Y102.068 F6000.000
G1 F1860.000 E0.95657
G92 E0
G1 X94.450 Y101.957 F6000.000
G1 E3.10000 F1860.000
G1 X90.975 Y113.382 E3.31708 F1200.000
G1 X90.127 Y113.124 E3.33318
G1 X93.603 Y101.700 E3.55027
G1 X94.393 Y101.940 E3.56528
G1 X94.147 Y102.119 F6000.000
G1 X90.813 Y113.079 E3.77353 F1200.000
G1 X90.430 Y112.962 E3.78080
G1 X93.764 Y102.003 E3.98905
G1 X94.090 Y102.102 E3.99523
G1 X94.530 Y102.236 F6000.000
G1 F1860.000 E0.99523
G92 E0
G1 X93.150 Y100.149 F6000.000
G1 E3.10000 F1860.000
G1 X92.300 Y100.149 E3.11545 F1200.000
G1 X92.005 Y100.123 E3.12084
G1 X91.726 Y100.049 E3.12609
G1 X91.464 Y99.927 E3.13134
G1 X91.342 Y99.849 E3.13396
G1 X91.121 Y99.663 E3.13921
G1 X90.928 Y99.430 E3.14472
G1 X90.736 Y99.058 E3.15233
G1 X90.661 Y98.779 E3.15757
G1 X90.642 Y98.636 E3.16020
G1 X90.635 Y70.499 E3.67170
G1 X90.653 Y70.086 E3.67923
G1 X90.706 Y69.683 E3.68661
G1 X90.794 Y69.286 E3.69400
G1 X90.917 Y68.899 E3.70138
G1 X91.072 Y68.524 E3.70877
G1 X91.260 Y68.163 E3.71615
G1 X91.478 Y67.821 E3.72354
G1 X91.725 Y67.498 E3.73092
G1 X92.000 Y67.199 E3.73831
G1 X92.299 Y66.924 E3.74569
G1 X92.621 Y66.677 E3.75308
G1 X93.015 Y66.432 E3.76151
G1 X93.324 Y66.271 E3.76784
G1 X93.700 Y66.116 E3.77523
G1 X94.087 Y65.994 E3.78262
G1 X94.484 Y65.906 E3.79000
G1 X94.887 Y65.853 E3.79739
G1 X95.300 Y65.835 E3.80491
G1 X105.285 Y65.835 E3.98643
G1 X105.698 Y65.853 E3.99395
G1 X106.101 Y65.906 E4.00133
G1 X106.498 Y65.994 E4.00872
G1 X106.885 Y66.116 E4.01610
G1 X107.260 Y66.271 E4.02349
G1 X107.621 Y66.459 E4.03087
G1 X107.963 Y66.677 E4.03826
G1 X108.286 Y66.924 E4.04564
G1 X108.585 Y67.199 E4.05303
G1 X108.860 Y67.498 E4.06041
G1 X109.138 Y67.869 E4.06884
G1 X109.325 Y68.163 E4.07518
G1 X109.513 Y68.524 E4.08257
G1 X109.668 Y68.899 E4.08995
G1 X109.791 Y69.286 E4.09734
G1 X109.878 Y69.683 E4.10472
G1 X109.931 Y70.086 E4.11211
G1 X109.950 Y70.499 E4.11963
G1 X109.950 Y98.484 E4.62837
G1 X109.924 Y98.779 E4.63375
G1 X109.888 Y98.934 E4.63664
G1 X109.794 Y99.192 E4.64163
G1 X109.650 Y99.442 E4.64688
G1 X109.562 Y99.557 E4.64951
G1 X109.357 Y99.761 E4.65476
G1 X109.243 Y99.849 E4.65739
G1 X109.108 Y99.933 E4.66027
G1 X108.859 Y100.049 E4.66526
G1 X108.580 Y100.123 E4.67051
G1 X108.285 Y100.149 E4.67590
G1 X107.448 Y100.149 E4.69112
G1 X112.693 Y114.413 E4.96741
G1 X113.352 Y114.540 E4.97961
G1 X113.780 Y114.658 E4.98769
G1 X114.047 Y114.771 E4.99295
G1 X114.288 Y114.916 E4.99805
G1 X114.558 Y115.156 E5.00463
G1 X115.048 Y115.732 E5.01838
G1 X115.223 Y115.993 E5.02410
G1 X115.374 Y116.331 E5.03083
G1 X115.489 Y116.717 E5.03814
G1 X115.596 Y117.273 E5.04844
G1 X115.610 Y117.625 E5.05484
G1 X115.584 Y117.871 E5.05934
G1 X115.490 Y118.274 E5.06686
G1 X115.333 Y118.746 E5.07590
G1 X114.836 Y119.531 E5.09279
G1 X114.722 Y119.799 E5.09809
G1 X114.692 Y120.050 E5.10268
G1 X114.758 Y120.472 E5.11045
G1 X114.754 Y120.682 E5.11427
G1 X114.693 Y120.965 E5.11954
G1 X114.559 Y121.335 E5.12667
G1 X114.320 Y121.887 E5.13761
G1 X114.049 Y122.409 E5.14831
G1 X113.880 Y122.686 E5.15420
G1 X113.493 Y123.212 E5.16608
G1 X113.068 Y123.660 E5.17731
G1 X112.619 Y124.026 E5.18784
G1 X112.379 Y124.185 E5.19306
G1 X111.902 Y124.442 E5.20293
G1 X111.382 Y124.686 E5.21335
G1 X111.091 Y124.813 E5.21913
G1 X110.922 Y124.860 E5.22232
