; generated by Slic3r 1.1.7 on 2015-04-17 at 21:08:23

; perimeters extrusion width = 0.40mm
; infill extrusion width = 0.42mm
; solid infill extrusion width = 0.42mm
; top infill extrusion width = 0.42mm
; support material extrusion width = 0.40mm

G21 ; set units to millimeters
M190 S110 ; wait for bed temperature to be reached
M104 S240 ; set temperature
M106 S255; Turn on Fan fully
G28 ; home all axes Start of G Code Slic3r
G1 Z20
M280 P0 S10 
G1 Z22
G29 ; AutoBed leveing
G1 X208 Y20 F4000
G1 Z4
 
  
M109 S240 ; wait for temperature to be reached
G90 ; use absolute coordinates
G92 E0
M82 ; use absolute distances for extrusion
M106 S127
G1 F1980.000 E-4.00000
G92 E0
G1 Z0.300 F6000.000
G1 X15.420 Y19.596 F6000.000
G1 E4.00000 F1980.000
G1 X16.626 Y18.745 E4.06345 F1650.000
G1 X17.929 Y18.172 E4.12465
G1 X19.037 Y17.893 E4.17376
G1 X20.210 Y17.790 E4.22439
G1 X113.084 Y17.832 E8.21722
G1 X114.177 Y18.042 E8.26507 F1650.000
G1 X115.747 Y18.654 E8.33749
G1 X116.242 Y18.938 E8.36204
G1 X116.556 Y19.144 E8.37821
G1 X184.019 Y66.254 E11.91571
G1 X185.184 Y67.290 E11.98273
G1 X185.342 Y67.469 E11.99299
G1 X186.192 Y68.672 E12.05631
G1 X186.766 Y69.976 E12.11758
G1 X187.044 Y71.084 E12.16669
G1 X187.148 Y72.247 E12.21686
G1 X187.151 Y74.328 E12.30633
G1 X187.052 Y75.484 E12.35621
G1 X187.014 Y75.696 E12.36547
G1 X186.544 Y77.240 E12.43490
G1 X186.368 Y77.609 E12.45245
G1 X185.676 Y78.740 E12.50944
G1 X111.622 Y176.604 E17.78559
G1 X109.072 Y179.896 E17.96461
G1 X108.293 Y180.604 E18.00987
G1 X107.067 Y181.392 E18.07255
G1 X106.918 Y181.466 E18.07970
G1 X105.545 Y181.969 E18.14257
G1 X104.584 Y182.154 E18.18460
G1 X103.727 Y182.209 E18.22154
G1 X99.812 Y182.208 E18.38985
G1 X97.550 Y181.810 E18.48858
G1 X96.011 Y181.011 E18.56316
G1 X28.548 Y133.902 E22.10066
G1 X26.921 Y132.281 E22.19939
G1 X25.775 Y129.397 E22.33279
G1 X12.854 Y38.726 E26.27029
G1 X12.894 Y24.392 E26.88656
G1 X13.104 Y23.296 E26.93450
G1 X13.717 Y21.728 E27.00690
G1 X14.021 Y21.200 E27.03309
G1 X15.242 Y19.755 E27.11442
G1 X15.376 Y19.636 E27.12210
G1 F1980.000 E23.12210
G92 E0
G1 X15.634 Y19.837 F6000.000
G1 E4.00000 F1980.000
G1 X16.781 Y19.027 E4.06038 F1650.000
G1 X18.026 Y18.478 E4.11888
G1 X19.089 Y18.211 E4.16598
G1 X20.210 Y18.111 E4.21437
G1 X113.048 Y18.151 E8.20564
G1 X114.100 Y18.354 E8.25167 F1650.000
G1 X115.593 Y18.936 E8.32058
G1 X116.072 Y19.210 E8.34432
G1 X116.372 Y19.408 E8.35978
G1 X183.835 Y66.518 E11.89728
G1 X184.943 Y67.504 E11.96106
G1 X185.102 Y67.682 E11.97132
G1 X185.910 Y68.827 E12.03157
G1 X186.459 Y70.074 E12.09014
G1 X186.727 Y71.136 E12.13724
G1 X186.826 Y72.247 E12.18519
G1 X186.735 Y75.428 E12.32201
G1 X186.698 Y75.640 E12.33126
G1 X186.250 Y77.110 E12.39732
G1 X186.082 Y77.462 E12.41409
G1 X185.419 Y78.546 E12.46869
G1 X111.366 Y176.410 E17.74484
G1 X108.841 Y179.673 E17.92222
G1 X108.090 Y180.354 E17.96579
G1 X106.924 Y181.104 E18.02543
G1 X106.774 Y181.178 E18.03258
G1 X105.468 Y181.657 E18.09241
G1 X104.546 Y181.835 E18.13275
G1 X103.727 Y181.887 E18.16805
G1 X99.812 Y181.886 E18.33636
G1 X97.608 Y181.489 E18.43266
G1 X96.195 Y180.748 E18.50126
G1 X28.732 Y133.638 E22.03876
G1 X27.152 Y132.051 E22.13506
G1 X26.094 Y129.352 E22.25969
G1 X13.176 Y38.726 E26.19523
G1 X13.213 Y24.428 E26.80994
G1 X13.416 Y23.375 E26.85605
G1 X13.999 Y21.882 E26.92496
G1 X14.293 Y21.370 E26.95032
G1 X15.456 Y19.995 E27.02772
G1 X15.589 Y19.877 E27.03540
G1 F1980.000 E23.03540
G92 E0
G1 X178.207 Y74.193 F6000.000
G1 E4.00000 F1980.000
G1 X140.687 Y123.774 E6.67312 F900.000
G1 X139.538 Y123.388 E6.72523
G1 X139.538 Y74.193 E8.84025
G1 X178.147 Y74.193 E10.50009
G1 F1980.000 E6.50009
G92 E0
G1 X177.560 Y74.514 F6000.000
G1 E4.00000 F1980.000
G1 X140.571 Y123.396 E6.63539 F900.000
G1 X139.860 Y123.157 E6.66763
G1 X139.860 Y74.514 E8.75889
G1 X177.500 Y74.514 E10.37712
G1 F1980.000 E6.37712
G92 E0
G1 X176.914 Y74.835 F6000.000
G1 E4.00000 F1980.000
G1 X140.454 Y123.018 E6.59766 F720.000
G1 X140.181 Y122.926 E6.61002
G1 X140.181 Y74.835 E8.67752
G1 X176.854 Y74.835 E10.25414
G1 F1980.000 E6.25414
G92 E0
G1 X177.277 Y75.003 F6000.000
G1 X138.024 Y74.193 F6000.000
G1 E4.00000 F1980.000
G1 X138.024 Y126.691 E6.25701 F900.000
G1 X103.903 Y126.691 E7.72393
G1 X103.903 Y74.193 E9.98095
G1 X137.964 Y74.193 E11.44529
G1 F1980.000 E7.44529
G92 E0
G1 X137.703 Y74.514 F6000.000
G1 E4.00000 F1980.000
G1 X137.703 Y126.370 E6.22937 F900.000
G1 X104.224 Y126.370 E7.66865
G1 X104.224 Y74.514 E9.89803
G1 X137.643 Y74.514 E11.33473
G1 F1980.000 E7.33473
G92 E0
G1 X137.381 Y74.835 F6000.000
G1 E4.00000 F1980.000
G1 X137.381 Y126.048 E6.20173 F720.000
G1 X104.546 Y126.048 E7.61337
G1 X104.546 Y74.835 E9.81510
G1 X137.321 Y74.835 E11.22417
G1 F1980.000 E7.22417
G92 E0
G1 X137.781 Y74.835 F6000.000
G1 X137.334 Y128.205 F6000.000
G1 E4.00000 F1980.000
G1 X105.052 Y170.866 E6.29999 F900.000
G1 X103.903 Y170.480 E6.35211
G1 X103.903 Y128.205 E8.16959
G1 X137.274 Y128.205 E9.60428
G1 F1980.000 E5.60428
G92 E0
G1 X136.688 Y128.527 F6000.000
G1 E4.00000 F1980.000
G1 X104.935 Y170.488 E6.26227 F900.000
G1 X104.224 Y170.249 E6.29450
G1 X104.224 Y128.527 E8.08823
G1 X136.628 Y128.527 E9.48131
G1 F1980.000 E5.48131
G92 E0
G1 X136.042 Y128.848 F6000.000
G1 E4.00000 F1980.000
G1 X104.818 Y170.110 E6.22454 F720.000
G1 X104.546 Y170.018 E6.23690
G1 X104.546 Y128.848 E8.00686
G1 X135.982 Y128.848 E9.35833
G1 F1980.000 E5.35833
G92 E0
G1 X136.405 Y129.016 F6000.000
G1 X102.389 Y172.646 F6000.000
G1 E4.00000 F1980.000
G1 X102.389 Y74.193 E8.23268 F900.000
G1 X89.554 Y74.193 E8.78449
G1 X89.554 Y85.040 E9.25085
G1 X87.753 Y85.040 E9.32828
G1 X87.753 Y72.338 E9.87438
G1 X91.140 Y72.336 E10.01998
G1 X179.710 Y72.338 E13.82777
G1 X179.710 Y74.301 E13.91217
G1 X103.682 Y174.772 E19.32891
G1 X100.607 Y174.772 E19.46111
G1 X100.607 Y172.646 E19.55253
G1 X102.329 Y172.646 E19.62656
G1 F1980.000 E15.62656
G92 E0
G1 X102.067 Y172.324 F6000.000
G1 E4.00000 F1980.000
G1 X102.067 Y74.514 E8.20504 F900.000
G1 X89.875 Y74.514 E8.72921
G1 X89.875 Y85.362 E9.19557
G1 X87.431 Y85.362 E9.30063
G1 X87.431 Y72.281 E9.86298
G1 X87.454 Y72.191 E9.86697
G1 X87.485 Y72.134 E9.86978
G1 X87.568 Y72.061 E9.87453
G1 X87.690 Y72.016 E9.88011
G1 X91.140 Y72.015 E10.02841
G1 X179.766 Y72.016 E13.83862
G1 X179.913 Y72.070 E13.84537
G1 X179.987 Y72.153 E13.85012
G1 X180.031 Y72.275 E13.85570
G1 X180.031 Y74.329 E13.94404
G1 X179.977 Y74.481 E13.95096
G1 X103.920 Y174.990 E19.36977
G1 X103.797 Y175.073 E19.37611
G1 X103.712 Y175.094 E19.37989
G1 X100.285 Y175.094 E19.52720
G1 X100.285 Y172.324 E19.64625
G1 X102.007 Y172.324 E19.72029
G1 F1980.000 E15.72029
G92 E0
G1 X101.746 Y172.003 F6000.000
G1 E4.00000 F1980.000
G1 X101.746 Y74.835 E8.17739 F720.000
G1 X90.196 Y74.835 E8.67393
G1 X90.196 Y85.683 E9.14029
G1 X87.110 Y85.683 E9.27298
G1 X87.108 Y72.251 E9.85044
G1 X87.152 Y72.074 E9.85832
G1 X87.230 Y71.931 E9.86531
G1 X87.381 Y71.796 E9.87402
G1 X87.464 Y71.751 E9.87810
G1 X87.681 Y71.693 E9.88772
G1 X179.796 Y71.692 E13.84791
G1 X179.974 Y71.737 E13.85580
G1 X180.117 Y71.815 E13.86278
G1 X180.251 Y71.966 E13.87149
G1 X180.297 Y72.049 E13.87557
G1 X180.354 Y72.265 E13.88519
G1 X180.355 Y74.343 E13.97449
G1 X180.327 Y74.502 E13.98145
G1 X180.250 Y74.653 E13.98874
G1 X104.170 Y175.193 E19.40919
G1 X104.027 Y175.317 E19.41733
G1 X103.908 Y175.376 E19.42303
G1 X103.723 Y175.416 E19.43119
G1 X99.964 Y175.415 E19.59279
G1 X99.964 Y172.003 E19.73949
G1 X101.686 Y172.003 E19.81352
G1 F1980.000 E15.81352
G92 E0
G1 X102.146 Y172.003 F6000.000
G1 X102.602 Y169.932 F6000.000
G1 E4.00000 F1980.000
G1 X105.149 Y172.480 E4.15489 F900.000
G1 X104.953 Y172.739 E4.16885
G1 X102.602 Y170.387 E4.31182
G1 X102.602 Y170.842 E4.33138
G1 X104.757 Y172.998 E4.46243
G1 X104.561 Y173.257 E4.47639
G1 X102.602 Y171.297 E4.59554
G1 X102.602 Y171.752 E4.61510
G1 X104.366 Y173.515 E4.72232
G1 X104.170 Y173.774 E4.73628
G1 X102.602 Y172.207 E4.83160
G1 X102.602 Y172.662 E4.85116
G1 X103.974 Y174.033 E4.93456
G1 X103.778 Y174.292 E4.94852
G1 X102.344 Y172.859 E5.03568
G1 X101.889 Y172.859 E5.05524
G1 X103.568 Y174.537 E5.15729
G1 X103.134 Y174.559 E5.17594
G1 X101.434 Y172.859 E5.27932
G1 X100.979 Y172.859 E5.29887
G1 X102.679 Y174.559 E5.40225
G1 X102.225 Y174.559 E5.42181
G1 X100.820 Y173.154 E5.50722
G1 X100.820 Y173.609 E5.52678
G1 X101.770 Y174.559 E5.58453
G1 X101.315 Y174.559 E5.60408
G1 X100.820 Y174.064 E5.63418
G1 X100.820 Y174.519 E5.65373
G1 X100.860 Y174.559 E5.65617
G1 F1980.000 E1.65617
G92 E0
G1 X104.335 Y127.992 F6000.000
G1 E4.00000 F1980.000
G1 X102.602 Y126.259 E4.10537 F900.000
G1 X102.602 Y126.714 E4.12493
G1 X103.880 Y127.992 E4.20263
G1 X103.690 Y128.257 E4.21665
G1 X102.602 Y127.169 E4.28280
G1 X102.602 Y127.624 E4.30236
G1 X103.690 Y128.712 E4.36852
G1 X103.690 Y129.167 E4.38808
G1 X102.602 Y128.079 E4.45423
G1 X102.602 Y128.534 E4.47379
G1 X103.690 Y129.622 E4.53994
G1 X103.690 Y130.077 E4.55950
G1 X102.602 Y128.989 E4.62566
G1 X102.602 Y129.444 E4.64522
G1 X103.690 Y130.532 E4.71137
G1 X103.690 Y130.987 E4.73093
G1 X102.602 Y129.899 E4.79708
G1 X102.602 Y130.354 E4.81664
G1 X103.690 Y131.442 E4.88280
G1 X103.690 Y131.897 E4.90236
G1 X102.602 Y130.809 E4.96851
G1 X102.602 Y131.263 E4.98807
G1 X103.690 Y132.352 E5.05423
G1 X103.690 Y132.807 E5.07378
G1 X102.602 Y131.718 E5.13994
G1 X102.602 Y132.173 E5.15950
G1 X103.690 Y133.261 E5.22565
G1 X103.690 Y133.716 E5.24521
G1 X102.602 Y132.628 E5.31137
G1 X102.602 Y133.083 E5.33092
G1 X103.690 Y134.171 E5.39708
G1 X103.690 Y134.626 E5.41664
G1 X102.602 Y133.538 E5.48279
G1 X102.602 Y133.993 E5.50235
G1 X103.690 Y135.081 E5.56851
G1 X103.690 Y135.536 E5.58806
G1 X102.602 Y134.448 E5.65422
G1 X102.602 Y134.903 E5.67378
G1 X103.690 Y135.991 E5.73993
G1 X103.690 Y136.446 E5.75949
G1 X102.602 Y135.358 E5.82565
G1 X102.602 Y135.813 E5.84520
G1 X103.690 Y136.901 E5.91136
G1 X103.690 Y137.356 E5.93092
G1 X102.602 Y136.268 E5.99707
G1 X102.602 Y136.723 E6.01663
G1 X103.690 Y137.811 E6.08279
G1 X103.690 Y138.266 E6.10234
G1 X102.602 Y137.178 E6.16850
G1 X102.602 Y137.632 E6.18806
G1 X103.690 Y138.721 E6.25421
G1 X103.690 Y139.175 E6.27377
G1 X102.602 Y138.087 E6.33993
G1 X102.602 Y138.542 E6.35948
G1 X103.690 Y139.630 E6.42564
G1 X103.690 Y140.085 E6.44520
G1 X102.602 Y138.997 E6.51135
G1 X102.602 Y139.452 E6.53091
G1 X103.690 Y140.540 E6.59707
G1 X103.690 Y140.995 E6.61663
G1 X102.602 Y139.907 E6.68278
G1 X102.602 Y140.362 E6.70234
G1 X103.690 Y141.450 E6.76849
G1 X103.690 Y141.905 E6.78805
G1 X102.602 Y140.817 E6.85421
G1 X102.602 Y141.272 E6.87377
G1 X103.690 Y142.360 E6.93992
G1 X103.690 Y142.815 E6.95948
G1 X102.602 Y141.727 E7.02563
G1 X102.602 Y142.182 E7.04519
G1 X103.690 Y143.270 E7.11135
G1 X103.690 Y143.725 E7.13091
G1 X102.602 Y142.637 E7.19706
G1 X102.602 Y143.092 E7.21662
G1 X103.690 Y144.180 E7.28277
G1 X103.690 Y144.635 E7.30233
G1 X102.602 Y143.546 E7.36849
G1 X102.602 Y144.001 E7.38805
G1 X103.690 Y145.089 E7.45420
G1 X103.690 Y145.544 E7.47376
G1 X102.602 Y144.456 E7.53992
G1 X102.602 Y144.911 E7.55947
G1 X103.690 Y145.999 E7.62563
G1 X103.690 Y146.454 E7.64519
G1 X102.602 Y145.366 E7.71134
G1 X102.602 Y145.821 E7.73090
G1 X103.690 Y146.909 E7.79706
G1 X103.690 Y147.364 E7.81661
G1 X102.602 Y146.276 E7.88277
G1 X102.602 Y146.731 E7.90233
G1 X103.690 Y147.819 E7.96848
G1 X103.690 Y148.274 E7.98804
G1 X102.602 Y147.186 E8.05420
G1 X102.602 Y147.641 E8.07375
G1 X103.690 Y148.729 E8.13991
G1 X103.690 Y149.184 E8.15947
G1 X102.602 Y148.096 E8.22562
G1 X102.602 Y148.551 E8.24518
G1 X103.690 Y149.639 E8.31134
G1 X103.690 Y150.094 E8.33089
G1 X102.602 Y149.006 E8.39705
G1 X102.602 Y149.461 E8.41661
G1 X103.690 Y150.549 E8.48276
G1 X103.690 Y151.004 E8.50232
G1 X102.602 Y149.915 E8.56848
G1 X102.602 Y150.370 E8.58803
G1 X103.690 Y151.458 E8.65419
G1 X103.690 Y151.913 E8.67375
G1 X102.602 Y150.825 E8.73990
G1 X102.602 Y151.280 E8.75946
G1 X103.690 Y152.368 E8.82562
G1 X103.690 Y152.823 E8.84518
G1 X102.602 Y151.735 E8.91133
G1 X102.602 Y152.190 E8.93089
G1 X103.690 Y153.278 E8.99704
G1 X103.690 Y153.733 E9.01660
G1 X102.602 Y152.645 E9.08276
G1 X102.602 Y153.100 E9.10232
G1 X103.690 Y154.188 E9.16847
G1 X103.690 Y154.643 E9.18803
G1 X102.602 Y153.555 E9.25418
G1 X102.602 Y154.010 E9.27374
G1 X103.690 Y155.098 E9.33990
G1 X103.690 Y155.553 E9.35946
G1 X102.602 Y154.465 E9.42561
G1 X102.602 Y154.920 E9.44517
G1 X103.690 Y156.008 E9.51132
G1 X103.690 Y156.463 E9.53088
G1 X102.602 Y155.375 E9.59704
G1 X102.602 Y155.829 E9.61660
G1 X103.690 Y156.918 E9.68275
G1 X103.690 Y157.372 E9.70231
G1 X102.602 Y156.284 E9.76847
G1 X102.602 Y156.739 E9.78802
G1 X103.690 Y157.827 E9.85418
G1 X103.690 Y158.282 E9.87374
G1 X102.602 Y157.194 E9.93989
G1 X102.602 Y157.649 E9.95945
G1 X103.690 Y158.737 E10.02561
G1 X103.690 Y159.192 E10.04516
G1 X102.602 Y158.104 E10.11132
G1 X102.602 Y158.559 E10.13088
G1 X103.690 Y159.647 E10.19703
G1 X103.690 Y160.102 E10.21659
G1 X102.602 Y159.014 E10.28275
G1 X102.602 Y159.469 E10.30230
G1 X103.690 Y160.557 E10.36846
G1 X103.690 Y161.012 E10.38802
G1 X102.602 Y159.924 E10.45417
G1 X102.602 Y160.379 E10.47373
G1 X103.690 Y161.467 E10.53989
G1 X103.690 Y161.922 E10.55944
G1 X102.602 Y160.834 E10.62560
G1 X102.602 Y161.289 E10.64516
G1 X103.690 Y162.377 E10.71131
G1 X103.690 Y162.832 E10.73087
G1 X102.602 Y161.743 E10.79703
G1 X102.602 Y162.198 E10.81659
G1 X103.690 Y163.287 E10.88274
G1 X103.690 Y163.741 E10.90230
G1 X102.602 Y162.653 E10.96845
G1 X102.602 Y163.108 E10.98801
G1 X103.690 Y164.196 E11.05417
G1 X103.690 Y164.651 E11.07373
G1 X102.602 Y163.563 E11.13988
G1 X102.602 Y164.018 E11.15944
G1 X103.690 Y165.106 E11.22559
G1 X103.690 Y165.561 E11.24515
G1 X102.602 Y164.473 E11.31131
G1 X102.602 Y164.928 E11.33087
G1 X103.690 Y166.016 E11.39702
G1 X103.690 Y166.471 E11.41658
G1 X102.602 Y165.383 E11.48274
G1 X102.602 Y165.838 E11.50229
G1 X103.690 Y166.926 E11.56845
G1 X103.690 Y167.381 E11.58801
G1 X102.602 Y166.293 E11.65416
G1 X102.602 Y166.748 E11.67372
G1 X103.690 Y167.836 E11.73988
G1 X103.690 Y168.291 E11.75943
G1 X102.602 Y167.203 E11.82559
G1 X102.602 Y167.658 E11.84515
G1 X103.690 Y168.746 E11.91130
G1 X103.690 Y169.201 E11.93086
G1 X102.602 Y168.112 E11.99702
G1 X102.602 Y168.567 E12.01657
G1 X103.690 Y169.655 E12.08273
G1 X103.690 Y170.110 E12.10229
G1 X102.602 Y169.022 E12.16844
G1 X102.602 Y169.477 E12.18800
G1 X105.345 Y172.221 E12.35480
G1 X105.541 Y171.962 E12.36876
G1 X104.478 Y170.898 E12.43343
G1 X105.139 Y171.105 E12.46321
G1 X105.737 Y171.703 E12.49958
G1 X105.933 Y171.444 E12.51354
G1 X105.335 Y170.846 E12.54991
G1 X105.531 Y170.587 E12.56387
G1 X106.129 Y171.185 E12.60024
G1 X106.325 Y170.926 E12.61420
G1 X105.727 Y170.328 E12.65058
G1 X105.923 Y170.069 E12.66454
G1 X106.521 Y170.667 E12.70091
G1 X106.717 Y170.408 E12.71487
G1 X106.119 Y169.810 E12.75124
G1 X106.315 Y169.551 E12.76520
G1 X106.913 Y170.149 E12.80157
G1 X107.109 Y169.890 E12.81553
G1 X106.511 Y169.292 E12.85190
G1 X106.707 Y169.033 E12.86586
G1 X107.305 Y169.631 E12.90223
G1 X107.501 Y169.372 E12.91619
G1 X106.903 Y168.774 E12.95257
G1 X107.099 Y168.515 E12.96653
G1 X107.697 Y169.113 E13.00290
G1 X107.893 Y168.854 E13.01686
G1 X107.295 Y168.256 E13.05323
G1 X107.491 Y167.997 E13.06719
G1 X108.089 Y168.595 E13.10356
G1 X108.285 Y168.336 E13.11752
G1 X107.687 Y167.738 E13.15389
G1 X107.883 Y167.479 E13.16785
G1 X108.481 Y168.077 E13.20422
G1 X108.677 Y167.818 E13.21818
G1 X108.078 Y167.220 E13.25455
G1 X108.274 Y166.961 E13.26852
G1 X108.873 Y167.559 E13.30489
G1 X109.069 Y167.300 E13.31885
G1 X108.470 Y166.702 E13.35522
G1 X108.666 Y166.443 E13.36918
G1 X109.265 Y167.041 E13.40555
G1 X109.461 Y166.782 E13.41951
G1 X108.862 Y166.184 E13.45588
G1 X109.058 Y165.925 E13.46984
G1 X109.656 Y166.523 E13.50621
G1 X109.852 Y166.264 E13.52017
G1 X109.254 Y165.666 E13.55654
G1 X109.450 Y165.407 E13.57051
G1 X110.048 Y166.006 E13.60688
G1 X110.244 Y165.747 E13.62084
G1 X109.646 Y165.148 E13.65721
G1 X109.842 Y164.889 E13.67117
G1 X110.440 Y165.488 E13.70754
G1 X110.636 Y165.229 E13.72150
G1 X110.038 Y164.630 E13.75787
G1 X110.234 Y164.371 E13.77183
