; generated by Slic3r 1.1.7 on 2015-04-13 at 15:20:41

; perimeters extrusion width = 0.50mm
; infill extrusion width = 0.52mm
; solid infill extrusion width = 0.52mm
; top infill extrusion width = 0.52mm

G21 ; set units to millimeters
M107
M104 S200 ; set temperature
G28 ; home all axes
G1 Z5 F5000 ; lift nozzle

M109 S200 ; wait for temperature to be reached
G90 ; use absolute coordinates
G92 E0
M82 ; use absolute distances for extrusion
G1 F1800.000 E-1.00000
G92 E0
G1 Z0.350 F7800.000
G1 X77.814 Y57.821 F7800.000
G1 E1.00000 F1800.000
G1 X79.568 Y56.335 E1.07480 F1080.000
G1 X81.722 Y55.533 E1.14960
G1 X82.930 Y55.423 E1.18906
G1 X117.070 Y55.423 E2.29980
G1 X119.334 Y55.820 E2.37460
G1 X121.329 Y56.964 E2.44940 F1080.000
G1 X122.815 Y58.718 E2.52420
G1 X123.617 Y60.872 E2.59900
G1 X123.727 Y62.080 E2.63846
G1 X123.727 Y137.920 E5.10592
G1 X123.330 Y140.184 E5.18072
G1 X122.186 Y142.179 E5.25552
G1 X120.432 Y143.665 E5.33032
G1 X118.278 Y144.467 E5.40512
G1 X117.070 Y144.577 E5.44458
G1 X82.930 Y144.577 E6.55532
G1 X80.666 Y144.180 E6.63012
G1 X78.671 Y143.036 E6.70492
G1 X77.185 Y141.282 E6.77972
G1 X76.383 Y139.128 E6.85452
G1 X76.273 Y137.920 E6.89398
G1 X76.273 Y62.080 E9.36144
G1 X76.670 Y59.816 E9.43624
G1 X77.776 Y57.886 E9.50860
G1 F1800.000 E8.50860
G92 E0
G1 X115.406 Y63.744 F7800.000
G1 E1.00000 F1800.000
G1 X115.406 Y136.256 E3.35918 F540.000
G1 X84.594 Y136.256 E4.36163
G1 X84.594 Y63.744 E6.72081
G1 X115.331 Y63.744 E7.72083
G1 X116.063 Y63.087 F7800.000
G1 X116.063 Y136.913 E10.12276 F540.000
G1 X83.937 Y136.913 E11.16798
G1 X83.937 Y63.087 E13.56991
G1 X115.988 Y63.087 E14.61269
G1 X116.720 Y62.430 F7800.000
G1 X116.720 Y137.570 E17.05737 F378.000
G1 X83.280 Y137.570 E18.14535
G1 X83.280 Y62.430 E20.59004
G1 X116.645 Y62.430 E21.67557
G1 X116.470 Y62.863 F7800.000
G1 X114.909 Y64.201 F7800.000
G1 X114.949 Y64.241 E21.67741 F1080.000
G1 X114.949 Y65.171 E21.70768
G1 X113.979 Y64.201 E21.75233
G1 X113.049 Y64.201 E21.78260
G1 X114.949 Y66.101 E21.87006
G1 X114.949 Y67.032 E21.90034
G1 X112.118 Y64.201 E22.03061
G1 X111.188 Y64.201 E22.06088
G1 X114.949 Y67.962 E22.23397
G1 X114.949 Y68.893 E22.26424
G1 X110.257 Y64.201 E22.48013
G1 X109.327 Y64.201 E22.51041
G1 X114.949 Y69.823 E22.76911
G1 X114.949 Y70.754 E22.79938
G1 X108.396 Y64.201 E23.10090
G1 X107.466 Y64.201 E23.13117
G1 X114.949 Y71.684 E23.47550
G1 X114.949 Y72.615 E23.50577
G1 X106.535 Y64.201 E23.89291
G1 X105.605 Y64.201 E23.92318
G1 X114.949 Y73.545 E24.35313
G1 X114.949 Y74.475 E24.38341
G1 X104.675 Y64.201 E24.85617
G1 X103.744 Y64.201 E24.88644
G1 X114.949 Y75.406 E25.40201
G1 X114.949 Y76.336 E25.43228
G1 X102.814 Y64.201 E25.99067
G1 X101.883 Y64.201 E26.02094
G1 X114.949 Y77.267 E26.62213
G1 X114.949 Y78.197 E26.65241
G1 X100.953 Y64.201 E27.29641
G1 X100.022 Y64.201 E27.32668
G1 X114.949 Y79.128 E28.01350
G1 X114.949 Y80.058 E28.04377
G1 X99.092 Y64.201 E28.77340
G1 X98.162 Y64.201 E28.80367
G1 X114.949 Y80.988 E29.57611
G1 X114.949 Y81.919 E29.60638
G1 X97.231 Y64.201 E30.42163
G1 X96.301 Y64.201 E30.45190
G1 X114.949 Y82.849 E31.30996
G1 X114.949 Y83.780 E31.34023
G1 X95.370 Y64.201 E32.24110
G1 X94.440 Y64.201 E32.27138
G1 X114.949 Y84.710 E33.21506
G1 X114.949 Y85.641 E33.24533
G1 X93.509 Y64.201 E34.23182
G1 X92.579 Y64.201 E34.26209
G1 X114.949 Y86.571 E35.29140
G1 X114.949 Y87.502 E35.32167
G1 X91.648 Y64.201 E36.39379
G1 X90.718 Y64.201 E36.42406
G1 X114.949 Y88.432 E37.53898
G1 X114.949 Y89.362 E37.56925
G1 X89.788 Y64.201 E38.72699
G1 X88.857 Y64.201 E38.75726
G1 X114.949 Y90.293 E39.95781
G1 X114.949 Y91.223 E39.98808
G1 X87.927 Y64.201 E41.23144
G1 X86.996 Y64.201 E41.26171
G1 X114.949 Y92.154 E42.54788
G1 X114.949 Y93.084 E42.57816
G1 X86.066 Y64.201 E43.90714
G1 X85.135 Y64.201 E43.93741
G1 X114.949 Y94.015 E45.30920
G1 X114.949 Y94.945 E45.33947
G1 X85.051 Y65.046 E46.71517
G1 X85.051 Y65.977 E46.74544
G1 X114.949 Y95.875 E48.12113
G1 X114.949 Y96.806 E48.15140
G1 X85.051 Y66.907 E49.52710
G1 X85.051 Y67.838 E49.55737
G1 X114.949 Y97.736 E50.93307
G1 X114.949 Y98.667 E50.96334
G1 X85.051 Y68.768 E52.33903
G1 X85.051 Y69.698 E52.36930
G1 X114.949 Y99.597 E53.74500
G1 X114.949 Y100.528 E53.77527
G1 X85.051 Y70.629 E55.15096
G1 X85.051 Y71.559 E55.18124
G1 X114.949 Y101.458 E56.55693
G1 X114.949 Y102.388 E56.58720
G1 X85.051 Y72.490 E57.96290
G1 X85.051 Y73.420 E57.99317
G1 X114.949 Y103.319 E59.36886
G1 X114.949 Y104.249 E59.39913
G1 X85.051 Y74.351 E60.77483
G1 X85.051 Y75.281 E60.80510
G1 X114.949 Y105.180 E62.18079
G1 X114.949 Y106.110 E62.21107
G1 X85.051 Y76.211 E63.58676
G1 X85.051 Y77.142 E63.61703
G1 X114.949 Y107.041 E64.99273
G1 X114.949 Y107.971 E65.02300
G1 X85.051 Y78.072 E66.39869
G1 X85.051 Y79.003 E66.42897
G1 X114.949 Y108.902 E67.80466
G1 X114.949 Y109.832 E67.83493
G1 X85.051 Y79.933 E69.21063
G1 X85.051 Y80.864 E69.24090
G1 X114.949 Y110.762 E70.61659
G1 X114.949 Y111.693 E70.64686
G1 X85.051 Y81.794 E72.02256
G1 X85.051 Y82.725 E72.05283
G1 X114.949 Y112.623 E73.42852
G1 X114.949 Y113.554 E73.45880
G1 X85.051 Y83.655 E74.83449
G1 X85.051 Y84.585 E74.86476
G1 X114.949 Y114.484 E76.24046
G1 X114.949 Y115.415 E76.27073
G1 X85.051 Y85.516 E77.64642
G1 X85.051 Y86.446 E77.67669
G1 X114.949 Y116.345 E79.05239
G1 X114.949 Y117.275 E79.08266
G1 X85.051 Y87.377 E80.45835
G1 X85.051 Y88.307 E80.48863
G1 X114.949 Y118.206 E81.86432
G1 X114.949 Y119.136 E81.89459
G1 X85.051 Y89.238 E83.27029
G1 X85.051 Y90.168 E83.30056
G1 X114.949 Y120.067 E84.67625
G1 X114.949 Y120.997 E84.70653
G1 X85.051 Y91.098 E86.08222
G1 X85.051 Y92.029 E86.11249
G1 X114.949 Y121.928 E87.48819
G1 X114.949 Y122.858 E87.51846
G1 X85.051 Y92.959 E88.89415
G1 X85.051 Y93.890 E88.92442
G1 X114.949 Y123.789 E90.30012
G1 X114.949 Y124.719 E90.33039
G1 X85.051 Y94.820 E91.70608
G1 X85.051 Y95.751 E91.73636
G1 X114.949 Y125.649 E93.11205
G1 X114.949 Y126.580 E93.14232
G1 X85.051 Y96.681 E94.51802
G1 X85.051 Y97.612 E94.54829
G1 X114.949 Y127.510 E95.92398
G1 X114.949 Y128.441 E95.95425
G1 X85.051 Y98.542 E97.32995
G1 X85.051 Y99.472 E97.36022
G1 X114.949 Y129.371 E98.73592
G1 X114.949 Y130.302 E98.76619
G1 X85.051 Y100.403 E100.14188
G1 X85.051 Y101.333 E100.17215
G1 X114.949 Y131.232 E101.54785
G1 X114.949 Y132.162 E101.57812
G1 X85.051 Y102.264 E102.95381
G1 X85.051 Y103.194 E102.98409
G1 X114.949 Y133.093 E104.35978
G1 X114.949 Y134.023 E104.39005
G1 X85.051 Y104.125 E105.76575
G1 X85.051 Y105.055 E105.79602
G1 X114.949 Y134.954 E107.17171
G1 X114.865 Y135.799 E107.19936
G1 X85.051 Y105.985 E108.57115
G1 X85.051 Y106.916 E108.60143
G1 X113.934 Y135.799 E109.93041
G1 X113.004 Y135.799 E109.96068
G1 X85.051 Y107.846 E111.24685
G1 X85.051 Y108.777 E111.27712
G1 X112.073 Y135.799 E112.52048
G1 X111.143 Y135.799 E112.55075
G1 X85.051 Y109.707 E113.75130
G1 X85.051 Y110.638 E113.78157
G1 X110.212 Y135.799 E114.93931
G1 X109.282 Y135.799 E114.96958
G1 X85.051 Y111.568 E116.08451
G1 X85.051 Y112.498 E116.11478
G1 X108.352 Y135.799 E117.18689
G1 X107.421 Y135.799 E117.21717
G1 X85.051 Y113.429 E118.24647
G1 X85.051 Y114.359 E118.27674
G1 X106.491 Y135.799 E119.26323
G1 X105.560 Y135.799 E119.29351
G1 X85.051 Y115.290 E120.23719
G1 X85.051 Y116.220 E120.26746
G1 X104.630 Y135.799 E121.16833
G1 X103.699 Y135.799 E121.19860
G1 X85.051 Y117.151 E122.05666
G1 X85.051 Y118.081 E122.08694
G1 X102.769 Y135.799 E122.90218
G1 X101.838 Y135.799 E122.93246
G1 X85.051 Y119.012 E123.70489
G1 X85.051 Y119.942 E123.73517
G1 X100.908 Y135.799 E124.46479
G1 X99.978 Y135.799 E124.49507
G1 X85.051 Y120.872 E125.18188
G1 X85.051 Y121.803 E125.21215
G1 X99.047 Y135.799 E125.85616
G1 X98.117 Y135.799 E125.88643
G1 X85.051 Y122.733 E126.48762
G1 X85.051 Y123.664 E126.51790
G1 X97.186 Y135.799 E127.07628
G1 X96.256 Y135.799 E127.10655
G1 X85.051 Y124.594 E127.62212
G1 X85.051 Y125.525 E127.65240
G1 X95.325 Y135.799 E128.12516
G1 X94.395 Y135.799 E128.15543
G1 X85.051 Y126.455 E128.58538
G1 X85.051 Y127.385 E128.61565
G1 X93.465 Y135.799 E129.00279
G1 X92.534 Y135.799 E129.03306
G1 X85.051 Y128.316 E129.37739
G1 X85.051 Y129.246 E129.40766
G1 X91.604 Y135.799 E129.70918
G1 X90.673 Y135.799 E129.73945
G1 X85.051 Y130.177 E129.99816
G1 X85.051 Y131.107 E130.02843
G1 X89.743 Y135.799 E130.24433
G1 X88.812 Y135.799 E130.27460
G1 X85.051 Y132.038 E130.44768
G1 X85.051 Y132.968 E130.47795
G1 X87.882 Y135.799 E130.60823
G1 X86.951 Y135.799 E130.63850
G1 X85.051 Y133.899 E130.72596
G1 X85.051 Y134.829 E130.75623
G1 X86.021 Y135.799 E130.80089
G1 X85.091 Y135.799 E130.83116
G1 X85.051 Y135.759 E130.83300
G1 F1800.000 E129.83300
G92 E0
G1 Z0.750 F7800.000
G1 X115.820 Y63.330 F7800.000
G1 E1.00000 F1800.000
G1 X115.820 Y136.670 E3.07509 F1800.000
G1 X84.180 Y136.670 E3.97032
G1 X84.180 Y63.330 E6.04541
G1 X115.745 Y63.330 E6.93851
G1 X116.320 Y62.830 F7800.000
G1 X116.320 Y137.170 E9.04189 F1800.000
G1 X83.680 Y137.170 E9.96541
G1 X83.680 Y62.830 E12.06880
G1 X116.245 Y62.830 E12.99019
G1 X116.820 Y62.330 F7800.000
G1 X116.820 Y137.670 E15.12187 F1260.000
G1 X83.180 Y137.670 E16.07369
G1 X83.180 Y62.330 E18.20537
G1 X116.745 Y62.330 E19.15506
G1 X116.570 Y62.763 F7800.000
G1 X84.527 Y63.717 F7800.000
G1 X84.567 Y63.677 E19.15672 F3600.000
G1 X85.306 Y63.677 E19.17846
G1 X84.527 Y64.456 E19.21087
G1 X84.527 Y65.196 E19.23261
G1 X86.046 Y63.677 E19.29577
G1 X86.785 Y63.677 E19.31751
G1 X84.527 Y65.935 E19.41142
G1 X84.527 Y66.674 E19.43316
G1 X87.524 Y63.677 E19.55781
G1 X88.264 Y63.677 E19.57955
G1 X84.527 Y67.414 E19.73495
G1 X84.527 Y68.153 E19.75669
G1 X89.003 Y63.677 E19.94284
G1 X89.743 Y63.677 E19.96458
G1 X84.527 Y68.893 E20.18147
G1 X84.527 Y69.632 E20.20321
G1 X90.482 Y63.677 E20.45085
G1 X91.221 Y63.677 E20.47259
G1 X84.527 Y70.371 E20.75098
G1 X84.527 Y71.111 E20.77272
G1 X91.961 Y63.677 E21.08186
G1 X92.700 Y63.677 E21.10360
G1 X84.527 Y71.850 E21.44348
G1 X84.527 Y72.589 E21.46522
G1 X93.439 Y63.677 E21.83585
G1 X94.179 Y63.677 E21.85759
G1 X84.527 Y73.329 E22.25897
G1 X84.527 Y74.068 E22.28071
G1 X94.918 Y63.677 E22.71283
G1 X95.658 Y63.677 E22.73457
G1 X84.527 Y74.808 E23.19744
G1 X84.527 Y75.547 E23.21918
G1 X96.397 Y63.677 E23.71280
G1 X97.136 Y63.677 E23.73454
G1 X84.527 Y76.286 E24.25890
G1 X84.527 Y77.026 E24.28065
G1 X97.876 Y63.677 E24.83576
G1 X98.615 Y63.677 E24.85750
G1 X84.527 Y77.765 E25.44336
G1 X84.527 Y78.504 E25.46510
G1 X99.354 Y63.677 E26.08170
G1 X100.094 Y63.677 E26.10344
G1 X84.527 Y79.244 E26.75079
G1 X84.527 Y79.983 E26.77254
G1 X100.833 Y63.677 E27.45063
G1 X101.573 Y63.677 E27.47238
G1 X84.527 Y80.723 E28.18122
G1 X84.527 Y81.462 E28.20296
G1 X102.312 Y63.677 E28.94256
G1 X103.051 Y63.677 E28.96430
G1 X84.527 Y82.201 E29.73464
G1 X84.527 Y82.941 E29.75638
G1 X103.791 Y63.677 E30.55747
G1 X104.530 Y63.677 E30.57921
G1 X84.527 Y83.680 E31.41104
G1 X84.527 Y84.419 E31.43278
G1 X105.269 Y63.677 E32.29537
G1 X106.009 Y63.677 E32.31711
G1 X84.527 Y85.159 E33.21044
G1 X84.527 Y85.898 E33.23218
G1 X106.748 Y63.677 E34.15625
G1 X107.488 Y63.677 E34.17799
G1 X84.527 Y86.638 E35.13282
G1 X84.527 Y87.377 E35.15456
G1 X108.227 Y63.677 E36.14013
G1 X108.966 Y63.677 E36.16187
G1 X84.527 Y88.116 E37.17819
G1 X84.527 Y88.856 E37.19993
G1 X109.706 Y63.677 E38.24699
G1 X110.445 Y63.677 E38.26873
G1 X84.527 Y89.595 E39.34654
G1 X84.527 Y90.334 E39.36828
G1 X111.184 Y63.677 E40.47684
G1 X111.924 Y63.677 E40.49858
G1 X84.527 Y91.074 E41.63789
G1 X84.527 Y91.813 E41.65963
G1 X112.663 Y63.677 E42.82968
G1 X113.402 Y63.677 E42.85142
G1 X84.527 Y92.552 E44.05222
G1 X84.527 Y93.292 E44.07396
G1 X114.142 Y63.677 E45.30551
G1 X114.881 Y63.677 E45.32725
G1 X84.527 Y94.031 E46.58954
G1 X84.527 Y94.771 E46.61129
G1 X115.473 Y63.825 E47.89819
G1 X115.473 Y64.564 E47.91993
G1 X84.527 Y95.510 E49.20683
G1 X84.527 Y96.249 E49.22857
G1 X115.473 Y65.303 E50.51548
G1 X115.473 Y66.043 E50.53722
G1 X84.527 Y96.989 E51.82412
G1 X84.527 Y97.728 E51.84586
G1 X115.473 Y66.782 E53.13276
G1 X115.473 Y67.521 E53.15451
G1 X84.527 Y98.467 E54.44141
G1 X84.527 Y99.207 E54.46315
G1 X115.473 Y68.261 E55.75005
G1 X115.473 Y69.000 E55.77179
G1 X84.527 Y99.946 E57.05870
G1 X84.527 Y100.686 E57.08044
G1 X115.473 Y69.740 E58.36734
G1 X115.473 Y70.479 E58.38908
G1 X84.527 Y101.425 E59.67598
G1 X84.527 Y102.164 E59.69773
G1 X115.473 Y71.218 E60.98463
G1 X115.473 Y71.958 E61.00637
G1 X84.527 Y102.904 E62.29327
G1 X84.527 Y103.643 E62.31501
G1 X115.473 Y72.697 E63.60192
G1 X115.473 Y73.436 E63.62366
G1 X84.527 Y104.382 E64.91056
G1 X84.527 Y105.122 E64.93230
G1 X115.473 Y74.176 E66.21920
G1 X115.473 Y74.915 E66.24094
G1 X84.527 Y105.861 E67.52785
G1 X84.527 Y106.601 E67.54959
G1 X115.473 Y75.655 E68.83649
G1 X115.473 Y76.394 E68.85823
G1 X84.527 Y107.340 E70.14514
G1 X84.527 Y108.079 E70.16688
G1 X115.473 Y77.133 E71.45378
G1 X115.473 Y77.873 E71.47552
G1 X84.527 Y108.819 E72.76242
G1 X84.527 Y109.558 E72.78416
G1 X115.473 Y78.612 E74.07107
G1 X115.473 Y79.351 E74.09281
G1 X84.527 Y110.297 E75.37971
G1 X84.527 Y111.037 E75.40145
G1 X115.473 Y80.091 E76.68835
G1 X115.473 Y80.830 E76.71010
G1 X84.527 Y111.776 E77.99700
G1 X84.527 Y112.516 E78.01874
G1 X115.473 Y81.570 E79.30564
G1 X115.473 Y82.309 E79.32738
G1 X84.527 Y113.255 E80.61429
G1 X84.527 Y113.994 E80.63603
G1 X115.473 Y83.048 E81.92293
G1 X115.473 Y83.788 E81.94467
G1 X84.527 Y114.734 E83.23157
G1 X84.527 Y115.473 E83.25332
G1 X115.473 Y84.527 E84.54022
G1 X115.473 Y85.266 E84.56196
G1 X84.527 Y116.212 E85.84886
G1 X84.527 Y116.952 E85.87060
G1 X115.473 Y86.006 E87.15751
G1 X115.473 Y86.745 E87.17925
G1 X84.527 Y117.691 E88.46615
G1 X84.527 Y118.430 E88.48789
G1 X115.473 Y87.484 E89.77479
G1 X115.473 Y88.224 E89.79654
G1 X84.527 Y119.170 E91.08344
G1 X84.527 Y119.909 E91.10518
G1 X115.473 Y88.963 E92.39208
G1 X115.473 Y89.703 E92.41382
G1 X84.527 Y120.649 E93.70073
G1 X84.527 Y121.388 E93.72247
G1 X115.473 Y90.442 E95.00937
G1 X115.473 Y91.181 E95.03111
G1 X84.527 Y122.127 E96.31801
G1 X84.527 Y122.867 E96.33976
G1 X115.473 Y91.921 E97.62666
G1 X115.473 Y92.660 E97.64840
G1 X84.527 Y123.606 E98.93530
G1 X84.527 Y124.345 E98.95704
G1 X115.473 Y93.399 E100.24395
G1 X115.473 Y94.139 E100.26569
G1 X84.527 Y125.085 E101.55259
G1 X84.527 Y125.824 E101.57433
G1 X115.473 Y94.878 E102.86123
G1 X115.473 Y95.618 E102.88298
G1 X84.527 Y126.564 E104.16988
G1 X84.527 Y127.303 E104.19162
G1 X115.473 Y96.357 E105.47852
G1 X115.473 Y97.096 E105.50026
G1 X84.527 Y128.042 E106.78717
G1 X84.527 Y128.782 E106.80891
G1 X115.473 Y97.836 E108.09581
G1 X115.473 Y98.575 E108.11755
G1 X84.527 Y129.521 E109.40445
G1 X84.527 Y130.260 E109.42620
G1 X115.473 Y99.314 E110.71310
G1 X115.473 Y100.054 E110.73484
G1 X84.527 Y131.000 E112.02174
G1 X84.527 Y131.739 E112.04348
G1 X115.473 Y100.793 E113.33039
G1 X115.473 Y101.533 E113.35213
G1 X84.527 Y132.479 E114.63903
G1 X84.527 Y133.218 E114.66077
G1 X115.473 Y102.272 E115.94767
G1 X115.473 Y103.011 E115.96942
G1 X84.527 Y133.957 E117.25632
G1 X84.527 Y134.697 E117.27806
G1 X115.473 Y103.751 E118.56496
G1 X115.473 Y104.490 E118.58670
G1 X84.527 Y135.436 E119.87361
G1 X84.527 Y136.175 E119.89535
G1 X115.473 Y105.229 E121.18225
G1 X115.473 Y105.969 E121.20399
G1 X85.119 Y136.323 E122.46628
G1 X85.858 Y136.323 E122.48803
G1 X115.473 Y106.708 E123.71957
G1 X115.473 Y107.448 E123.74131
G1 X86.598 Y136.323 E124.94211
G1 X87.337 Y136.323 E124.96385
G1 X115.473 Y108.187 E126.13391
G1 X115.473 Y108.926 E126.15565
G1 X88.076 Y136.323 E127.29495
G1 X88.816 Y136.323 E127.31669
G1 X115.473 Y109.666 E128.42525
G1 X115.473 Y110.405 E128.44699
G1 X89.555 Y136.323 E129.52480
G1 X90.294 Y136.323 E129.54655
G1 X115.473 Y111.144 E130.59361
G1 X115.473 Y111.884 E130.61535
G1 X91.034 Y136.323 E131.63167
G1 X91.773 Y136.323 E131.65341
G1 X115.473 Y112.623 E132.63898
G1 X115.473 Y113.362 E132.66072
G1 X92.512 Y136.323 E133.61554
G1 X93.252 Y136.323 E133.63728
G1 X115.473 Y114.102 E134.56136
G1 X115.473 Y114.841 E134.58310
G1 X93.991 Y136.323 E135.47643
G1 X94.731 Y136.323 E135.49817
G1 X115.473 Y115.581 E136.36075
G1 X115.473 Y116.320 E136.38249
G1 X95.470 Y136.323 E137.21433
G1 X96.209 Y136.323 E137.23607
