; generated by Slic3r 1.1.7 on 2015-04-13 at 15:20:16

; perimeters extrusion width = 0.40mm
; infill extrusion width = 0.42mm
; solid infill extrusion width = 0.42mm
; top infill extrusion width = 0.42mm
; support material extrusion width = 0.40mm

G21 ; set units to millimeters
M190 S60 ; wait for bed temperature to be reached
M104 S215 ; set temperature
M106 S255; Turn on Fan fully
G28 ; home all axes Start of G Code Slic3r
G1 Z20
M280 P0 S10 
G1 Z22
G29 ; AutoBed leveing
G1 X208 Y20 F4000
G1 Z4
 
  
M109 S215 ; wait for temperature to be reached
G90 ; use absolute coordinates
G92 E0
M82 ; use absolute distances for extrusion
G1 F1980.000 E-4.00000
G92 E0
G1 Z0.300 F6000.000
G1 X77.828 Y57.826 F6000.000
G1 E4.00000 F1980.000
G1 X79.581 Y56.343 E4.09644 F1650.000
G1 X81.735 Y55.546 E4.19288
G1 X82.930 Y55.437 E4.24328
G1 X117.070 Y55.437 E5.67688
G1 X119.332 Y55.834 E5.77332
G1 X121.324 Y56.978 E5.86975 F1650.000
G1 X122.807 Y58.731 E5.96619
G1 X123.604 Y60.885 E6.06263
G1 X123.713 Y62.080 E6.11303
G1 X123.713 Y137.920 E9.29770
G1 X123.316 Y140.182 E9.39414
G1 X122.172 Y142.174 E9.49057
G1 X120.419 Y143.657 E9.58701
G1 X118.265 Y144.454 E9.68345
G1 X117.070 Y144.563 E9.73385
G1 X82.930 Y144.563 E11.16745
G1 X80.668 Y144.166 E11.26389
G1 X78.676 Y143.022 E11.36033
G1 X77.193 Y141.269 E11.45677
G1 X76.396 Y139.115 E11.55321
G1 X76.287 Y137.920 E11.60361
G1 X76.287 Y62.080 E14.78827
G1 X76.684 Y59.818 E14.88471
G1 X77.798 Y57.878 E14.97863
G1 F1980.000 E10.97863
G92 E0
G1 X78.117 Y57.998 F6000.000
G1 E4.00000 F1980.000
G1 X78.146 Y57.948 E4.00242 F1650.000
G1 X79.887 Y56.539 E4.09648
G1 X82.930 Y55.759 E4.22838
G1 X117.070 Y55.759 E5.66198
G1 X119.274 Y56.155 E5.75603
G1 X121.202 Y57.296 E5.85009 F1650.000
G1 X122.611 Y59.037 E5.94415
G1 X123.391 Y62.080 E6.07605
G1 X123.391 Y137.920 E9.26071
G1 X122.995 Y140.124 E9.35477
G1 X121.854 Y142.052 E9.44883
G1 X120.113 Y143.461 E9.54289
G1 X117.070 Y144.241 E9.67479
G1 X82.930 Y144.241 E11.10839
G1 X80.726 Y143.845 E11.20245
G1 X78.798 Y142.704 E11.29650
G1 X77.389 Y140.963 E11.39056
G1 X76.609 Y137.920 E11.52246
G1 X76.609 Y62.080 E14.70713
G1 X77.005 Y59.876 E14.80118
G1 X78.086 Y58.049 E14.89030
G1 F1980.000 E10.89030
G92 E0
G1 X116.277 Y137.127 F6000.000
G1 E4.00000 F1980.000
G1 X83.723 Y137.127 E5.36701 F900.000
G1 X83.723 Y62.873 E8.48508
G1 X116.277 Y62.873 E9.85208
G1 X116.277 Y137.067 E12.96763
G1 F1980.000 E8.96763
G92 E0
G1 X116.598 Y137.448 F6000.000
G1 E4.00000 F1980.000
G1 X83.402 Y137.448 E5.39400 F900.000
G1 X83.402 Y62.552 E8.53907
G1 X116.598 Y62.552 E9.93307
G1 X116.598 Y137.388 E13.07562
G1 F1980.000 E9.07562
G92 E0
G1 X116.920 Y137.770 F6000.000
G1 E4.00000 F1980.000
G1 X83.080 Y137.770 E5.42100 F720.000
G1 X83.080 Y62.230 E8.59307
G1 X116.920 Y62.230 E10.01407
G1 X116.920 Y137.710 E13.18361
G1 F1980.000 E9.18361
G92 E0
G1 X116.573 Y137.570 F6000.000
G1 X83.976 Y136.914 F6000.000
G1 E4.00000 F1980.000
G1 X83.936 Y136.874 E4.00238 F900.000
G1 X83.936 Y136.418 E4.02154
G1 X84.432 Y136.914 E4.05102
G1 X84.889 Y136.914 E4.07018
G1 X83.936 Y135.961 E4.12676
G1 X83.936 Y135.505 E4.14592
G1 X85.345 Y136.914 E4.22960
G1 X85.802 Y136.914 E4.24876
G1 X83.936 Y135.049 E4.35954
G1 X83.936 Y134.592 E4.37871
G1 X86.258 Y136.914 E4.51659
G1 X86.714 Y136.914 E4.53575
G1 X83.936 Y134.136 E4.70074
G1 X83.936 Y133.679 E4.71990
G1 X87.171 Y136.914 E4.91198
G1 X87.627 Y136.914 E4.93115
G1 X83.936 Y133.223 E5.15033
G1 X83.936 Y132.767 E5.16950
G1 X88.083 Y136.914 E5.41578
G1 X88.540 Y136.914 E5.43495
G1 X83.936 Y132.310 E5.70834
G1 X83.936 Y131.854 E5.72750
G1 X88.996 Y136.914 E6.02799
G1 X89.452 Y136.914 E6.04715
G1 X83.936 Y131.398 E6.37474
G1 X83.936 Y130.941 E6.39391
G1 X89.909 Y136.914 E6.74860
G1 X90.365 Y136.914 E6.76776
G1 X83.936 Y130.485 E7.14956
G1 X83.936 Y130.029 E7.16872
G1 X90.821 Y136.914 E7.57761
G1 X91.278 Y136.914 E7.59678
G1 X83.936 Y129.572 E8.03277
G1 X83.936 Y129.116 E8.05194
G1 X91.734 Y136.914 E8.51503
G1 X92.191 Y136.914 E8.53420
G1 X83.936 Y128.659 E9.02440
G1 X83.936 Y128.203 E9.04356
G1 X92.647 Y136.914 E9.56086
G1 X93.103 Y136.914 E9.58002
G1 X83.936 Y127.747 E10.12442
G1 X83.936 Y127.290 E10.14359
G1 X93.560 Y136.914 E10.71509
G1 X94.016 Y136.914 E10.73425
G1 X83.936 Y126.834 E11.33286
G1 X83.936 Y126.378 E11.35202
G1 X94.472 Y136.914 E11.97773
G1 X94.929 Y136.914 E11.99689
G1 X83.936 Y125.921 E12.64970
G1 X83.936 Y125.465 E12.66886
G1 X95.385 Y136.914 E13.34877
G1 X95.841 Y136.914 E13.36793
G1 X83.936 Y125.009 E14.07494
G1 X83.936 Y124.552 E14.09410
G1 X96.298 Y136.914 E14.82821
G1 X96.754 Y136.914 E14.84738
G1 X83.936 Y124.096 E15.60859
G1 X83.936 Y123.639 E15.62775
G1 X97.211 Y136.914 E16.41606
G1 X97.667 Y136.914 E16.43523
G1 X83.936 Y123.183 E17.25064
G1 X83.936 Y122.727 E17.26981
G1 X98.123 Y136.914 E18.11232
G1 X98.580 Y136.914 E18.13148
G1 X83.936 Y122.270 E19.00110
G1 X83.936 Y121.814 E19.02027
G1 X99.036 Y136.914 E19.91698
G1 X99.492 Y136.914 E19.93615
G1 X83.936 Y121.358 E20.85997
G1 X83.936 Y120.901 E20.87913
G1 X99.949 Y136.914 E21.83005
G1 X100.405 Y136.914 E21.84921
G1 X83.936 Y120.445 E22.82724
G1 X83.936 Y119.989 E22.84640
G1 X100.861 Y136.914 E23.85152
G1 X101.318 Y136.914 E23.87069
G1 X83.936 Y119.532 E24.90291
G1 X83.936 Y119.076 E24.92207
G1 X101.774 Y136.914 E25.98140
G1 X102.231 Y136.914 E26.00056
G1 X83.936 Y118.620 E27.08699
G1 X83.936 Y118.163 E27.10615
G1 X102.687 Y136.914 E28.21968
G1 X103.143 Y136.914 E28.23884
G1 X83.936 Y117.707 E29.37947
G1 X83.936 Y117.250 E29.39864
G1 X103.600 Y136.914 E30.56637
G1 X104.056 Y136.914 E30.58553
G1 X83.936 Y116.794 E31.78036
G1 X83.936 Y116.338 E31.79953
G1 X104.512 Y136.914 E33.02146
G1 X104.969 Y136.914 E33.04062
G1 X83.936 Y115.881 E34.28966
G1 X83.936 Y115.425 E34.30882
G1 X105.425 Y136.914 E35.58496
G1 X105.881 Y136.914 E35.60412
G1 X83.936 Y114.969 E36.90736
G1 X83.936 Y114.512 E36.92652
G1 X106.338 Y136.914 E38.25686
G1 X106.794 Y136.914 E38.27603
G1 X83.936 Y114.056 E39.63347
G1 X83.936 Y113.600 E39.65263
G1 X107.250 Y136.914 E41.03717
G1 X107.707 Y136.914 E41.05633
G1 X83.936 Y113.143 E42.46798
G1 X83.936 Y112.687 E42.48714
G1 X108.163 Y136.914 E43.92588
G1 X108.620 Y136.914 E43.94505
G1 X83.936 Y112.230 E45.41089
G1 X83.936 Y111.774 E45.43005
G1 X109.076 Y136.914 E46.92300
G1 X109.532 Y136.914 E46.94216
G1 X83.936 Y111.318 E48.46221
G1 X83.936 Y110.861 E48.48138
G1 X109.989 Y136.914 E50.02852
G1 X110.445 Y136.914 E50.04769
G1 X83.936 Y110.405 E51.62194
G1 X83.936 Y109.949 E51.64110
G1 X110.901 Y136.914 E53.24245
G1 X111.358 Y136.914 E53.26162
G1 X83.936 Y109.492 E54.89007
G1 X83.936 Y109.036 E54.90923
G1 X111.814 Y136.914 E56.56479
G1 X112.270 Y136.914 E56.58395
G1 X83.936 Y108.580 E58.26661
G1 X83.936 Y108.123 E58.28577
G1 X112.727 Y136.914 E59.99553
G1 X113.183 Y136.914 E60.01469
G1 X83.936 Y107.667 E61.75155
G1 X83.936 Y107.210 E61.77071
G1 X113.640 Y136.914 E63.53467
G1 X114.096 Y136.914 E63.55383
G1 X83.936 Y106.754 E65.34489
G1 X83.936 Y106.298 E65.36406
G1 X114.552 Y136.914 E67.18222
G1 X115.009 Y136.914 E67.20138
G1 X83.936 Y105.841 E69.04665
G1 X83.936 Y105.385 E69.06581
G1 X115.465 Y136.914 E70.93817
G1 X115.921 Y136.914 E70.95734
G1 X83.936 Y104.929 E72.85680
G1 X83.936 Y104.472 E72.87597
G1 X116.064 Y136.600 E74.78390
G1 X116.064 Y136.144 E74.80307
G1 X83.936 Y104.016 E76.71100
G1 X83.936 Y103.560 E76.73016
G1 X116.064 Y135.687 E78.63810
G1 X116.064 Y135.231 E78.65726
G1 X83.936 Y103.103 E80.56520
G1 X83.936 Y102.647 E80.58436
G1 X116.064 Y134.775 E82.49229
G1 X116.064 Y134.318 E82.51146
G1 X83.936 Y102.191 E84.41939
G1 X83.936 Y101.734 E84.43856
G1 X116.064 Y133.862 E86.34649
G1 X116.064 Y133.406 E86.36565
G1 X83.936 Y101.278 E88.27359
G1 X83.936 Y100.821 E88.29275
G1 X116.064 Y132.949 E90.20069
G1 X116.064 Y132.493 E90.21985
G1 X83.936 Y100.365 E92.12778
G1 X83.936 Y99.909 E92.14695
G1 X116.064 Y132.037 E94.05488
G1 X116.064 Y131.580 E94.07405
G1 X83.936 Y99.452 E95.98198
G1 X83.936 Y98.996 E96.00114
G1 X116.064 Y131.124 E97.90908
G1 X116.064 Y130.668 E97.92824
G1 X83.936 Y98.540 E99.83618
G1 X83.936 Y98.083 E99.85534
G1 X116.064 Y130.211 E101.76327
G1 X116.064 Y129.755 E101.78244
G1 X83.936 Y97.627 E103.69037
G1 X83.936 Y97.171 E103.70954
G1 X116.064 Y129.298 E105.61747
G1 X116.064 Y128.842 E105.63663
G1 X83.936 Y96.714 E107.54457
G1 X83.936 Y96.258 E107.56373
G1 X116.064 Y128.386 E109.47167
G1 X116.064 Y127.929 E109.49083
G1 X83.936 Y95.801 E111.39876
G1 X83.936 Y95.345 E111.41793
G1 X116.064 Y127.473 E113.32586
G1 X116.064 Y127.017 E113.34503
G1 X83.936 Y94.889 E115.25296
G1 X83.936 Y94.432 E115.27212
G1 X116.064 Y126.560 E117.18006
G1 X116.064 Y126.104 E117.19922
G1 X83.936 Y93.976 E119.10716
G1 X83.936 Y93.520 E119.12632
G1 X116.064 Y125.648 E121.03425
G1 X116.064 Y125.191 E121.05342
G1 X83.936 Y93.063 E122.96135
G1 X83.936 Y92.607 E122.98052
G1 X116.064 Y124.735 E124.88845
G1 X116.064 Y124.278 E124.90761
G1 X83.936 Y92.151 E126.81555
G1 X83.936 Y91.694 E126.83471
G1 X116.064 Y123.822 E128.74265
G1 X116.064 Y123.366 E128.76181
G1 X83.936 Y91.238 E130.66974
G1 X83.936 Y90.781 E130.68891
G1 X116.064 Y122.909 E132.59684
G1 X116.064 Y122.453 E132.61601
G1 X83.936 Y90.325 E134.52394
G1 X83.936 Y89.869 E134.54310
G1 X116.064 Y121.997 E136.45104
G1 X116.064 Y121.540 E136.47020
G1 X83.936 Y89.412 E138.37814
G1 X83.936 Y88.956 E138.39730
G1 X116.064 Y121.084 E140.30523
G1 X116.064 Y120.628 E140.32440
G1 X83.936 Y88.500 E142.23233
G1 X83.936 Y88.043 E142.25150
G1 X116.064 Y120.171 E144.15943
G1 X116.064 Y119.715 E144.17859
G1 X83.936 Y87.587 E146.08653
G1 X83.936 Y87.131 E146.10569
G1 X116.064 Y119.258 E148.01363
G1 X116.064 Y118.802 E148.03279
G1 X83.936 Y86.674 E149.94072
G1 X83.936 Y86.218 E149.95989
G1 X116.064 Y118.346 E151.86782
G1 X116.064 Y117.889 E151.88699
G1 X83.936 Y85.762 E153.79492
G1 X83.936 Y85.305 E153.81408
G1 X116.064 Y117.433 E155.72202
G1 X116.064 Y116.977 E155.74118
G1 X83.936 Y84.849 E157.64912
G1 X83.936 Y84.392 E157.66828
G1 X116.064 Y116.520 E159.57622
G1 X116.064 Y116.064 E159.59538
G1 X83.936 Y83.936 E161.50331
G1 X83.936 Y83.480 E161.52248
G1 X116.064 Y115.608 E163.43041
G1 X116.064 Y115.151 E163.44957
G1 X83.936 Y83.023 E165.35751
G1 X83.936 Y82.567 E165.37667
G1 X116.064 Y114.695 E167.28461
G1 X116.064 Y114.239 E167.30377
G1 X83.936 Y82.111 E169.21171
G1 X83.936 Y81.654 E169.23087
G1 X116.064 Y113.782 E171.13880
G1 X116.064 Y113.326 E171.15797
G1 X83.936 Y81.198 E173.06590
G1 X83.936 Y80.742 E173.08506
G1 X116.064 Y112.869 E174.99300
G1 X116.064 Y112.413 E175.01216
G1 X83.936 Y80.285 E176.92010
G1 X83.936 Y79.829 E176.93926
G1 X116.064 Y111.957 E178.84720
G1 X116.064 Y111.500 E178.86636
G1 X83.936 Y79.372 E180.77429
G1 X83.936 Y78.916 E180.79346
G1 X116.064 Y111.044 E182.70139
G1 X116.064 Y110.588 E182.72055
G1 X83.936 Y78.460 E184.62849
G1 X83.936 Y78.003 E184.64765
G1 X116.064 Y110.131 E186.55559
G1 X116.064 Y109.675 E186.57475
G1 X83.936 Y77.547 E188.48269
G1 X83.936 Y77.091 E188.50185
G1 X116.064 Y109.219 E190.40978
G1 X116.064 Y108.762 E190.42895
G1 X83.936 Y76.634 E192.33688
G1 X83.936 Y76.178 E192.35604
G1 X116.064 Y108.306 E194.26398
G1 X116.064 Y107.849 E194.28314
G1 X83.936 Y75.722 E196.19108
G1 X83.936 Y75.265 E196.21024
G1 X116.064 Y107.393 E198.11818
G1 X116.064 Y106.937 E198.13734
G1 X83.936 Y74.809 E200.04527
G1 X83.936 Y74.352 E200.06444
G1 X116.064 Y106.480 E201.97237
G1 X116.064 Y106.024 E201.99154
G1 X83.936 Y73.896 E203.89947
G1 X83.936 Y73.440 E203.91863
G1 X116.064 Y105.568 E205.82657
G1 X116.064 Y105.111 E205.84573
G1 X83.936 Y72.983 E207.75367
G1 X83.936 Y72.527 E207.77283
G1 X116.064 Y104.655 E209.68076
G1 X116.064 Y104.199 E209.69993
G1 X83.936 Y72.071 E211.60786
G1 X83.936 Y71.614 E211.62703
G1 X116.064 Y103.742 E213.53496
G1 X116.064 Y103.286 E213.55412
G1 X83.936 Y71.158 E215.46206
G1 X83.936 Y70.702 E215.48122
G1 X116.064 Y102.829 E217.38916
G1 X116.064 Y102.373 E217.40832
G1 X83.936 Y70.245 E219.31625
G1 X83.936 Y69.789 E219.33542
G1 X116.064 Y101.917 E221.24335
G1 X116.064 Y101.460 E221.26252
G1 X83.936 Y69.333 E223.17045
G1 X83.936 Y68.876 E223.18961
G1 X116.064 Y101.004 E225.09755
G1 X116.064 Y100.548 E225.11671
G1 X83.936 Y68.420 E227.02465
G1 X83.936 Y67.963 E227.04381
G1 X116.064 Y100.091 E228.95174
G1 X116.064 Y99.635 E228.97091
G1 X83.936 Y67.507 E230.87884
G1 X83.936 Y67.051 E230.89801
G1 X116.064 Y99.179 E232.80594
G1 X116.064 Y98.722 E232.82510
G1 X83.936 Y66.594 E234.73304
G1 X83.936 Y66.138 E234.75220
G1 X116.064 Y98.266 E236.66014
G1 X116.064 Y97.810 E236.67930
G1 X83.936 Y65.682 E238.58723
G1 X83.936 Y65.225 E238.60640
G1 X116.064 Y97.353 E240.51433
G1 X116.064 Y96.897 E240.53350
G1 X83.936 Y64.769 E242.44143
G1 X83.936 Y64.313 E242.46059
G1 X116.064 Y96.440 E244.36853
G1 X116.064 Y95.984 E244.38769
G1 X83.936 Y63.856 E246.29563
G1 X83.936 Y63.400 E246.31479
G1 X116.064 Y95.528 E248.22272
G1 X116.064 Y95.071 E248.24189
G1 X84.079 Y63.086 E250.14135
G1 X84.535 Y63.086 E250.16052
G1 X116.064 Y94.615 E252.03288
G1 X116.064 Y94.159 E252.05205
G1 X84.991 Y63.086 E253.89731
G1 X85.448 Y63.086 E253.91647
G1 X116.064 Y93.702 E255.73463
G1 X116.064 Y93.246 E255.75380
G1 X85.904 Y63.086 E257.54486
G1 X86.360 Y63.086 E257.56402
G1 X116.064 Y92.790 E259.32798
G1 X116.064 Y92.333 E259.34714
G1 X86.817 Y63.086 E261.08400
G1 X87.273 Y63.086 E261.10317
G1 X116.064 Y91.877 E262.81292
G1 X116.064 Y91.420 E262.83209
G1 X87.730 Y63.086 E264.51474
G1 X88.186 Y63.086 E264.53390
G1 X116.064 Y90.964 E266.18946
G1 X116.064 Y90.508 E266.20862
G1 X88.642 Y63.086 E267.83707
G1 X89.099 Y63.086 E267.85624
G1 X116.064 Y90.051 E269.45759
G1 X116.064 Y89.595 E269.47675
G1 X89.555 Y63.086 E271.05100
G1 X90.011 Y63.086 E271.07017
G1 X116.064 Y89.139 E272.61732
G1 X116.064 Y88.682 E272.63648
G1 X90.468 Y63.086 E274.15653
G1 X90.924 Y63.086 E274.17569
G1 X116.064 Y88.226 E275.66864
G1 X116.064 Y87.770 E275.68780
G1 X91.380 Y63.086 E277.15364
G1 X91.837 Y63.086 E277.17281
G1 X116.064 Y87.313 E278.61155
G1 X116.064 Y86.857 E278.63072
G1 X92.293 Y63.086 E280.04236
G1 X92.750 Y63.086 E280.06152
G1 X116.064 Y86.400 E281.44606
G1 X116.064 Y85.944 E281.46523
G1 X93.206 Y63.086 E282.82267
G1 X93.662 Y63.086 E282.84183
G1 X116.064 Y85.488 E284.17217
G1 X116.064 Y85.031 E284.19133
G1 X94.119 Y63.086 E285.49457
G1 X94.575 Y63.086 E285.51373
G1 X116.064 Y84.575 E286.78987
G1 X116.064 Y84.119 E286.80903
G1 X95.031 Y63.086 E288.05807
G1 X95.488 Y63.086 E288.07723
G1 X116.064 Y83.662 E289.29916
G1 X116.064 Y83.206 E289.31833
G1 X95.944 Y63.086 E290.51316
G1 X96.400 Y63.086 E290.53232
G1 X116.064 Y82.750 E291.70005
G1 X116.064 Y82.293 E291.71922
G1 X96.857 Y63.086 E292.85985
G1 X97.313 Y63.086 E292.87901
G1 X116.064 Y81.837 E293.99254
G1 X116.064 Y81.381 E294.01170
G1 X97.769 Y63.086 E295.09813
G1 X98.226 Y63.086 E295.11729
G1 X116.064 Y80.924 E296.17662
G1 X116.064 Y80.468 E296.19578
G1 X98.682 Y63.086 E297.22801
G1 X99.139 Y63.086 E297.24717
G1 X116.064 Y80.011 E298.25229
G1 X116.064 Y79.555 E298.27146
G1 X99.595 Y63.086 E299.24948
G1 X100.051 Y63.086 E299.26864
G1 X116.064 Y79.099 E300.21956
G1 X116.064 Y78.642 E300.23873
G1 X100.508 Y63.086 E301.16254
G1 X100.964 Y63.086 E301.18171
G1 X116.064 Y78.186 E302.07843
G1 X116.064 Y77.730 E302.09759
G1 X101.420 Y63.086 E302.96721
G1 X101.877 Y63.086 E302.98637
G1 X116.064 Y77.273 E303.82888
G1 X116.064 Y76.817 E303.84805
G1 X102.333 Y63.086 E304.66346
G1 X102.789 Y63.086 E304.68263
G1 X116.064 Y76.361 E305.47094
G1 X116.064 Y75.904 E305.49010
G1 X103.246 Y63.086 E306.25131
G1 X103.702 Y63.086 E306.27048
G1 X116.064 Y75.448 E307.00459
G1 X116.064 Y74.991 E307.02375
G1 X104.159 Y63.086 E307.73076
G1 X104.615 Y63.086 E307.74992
G1 X116.064 Y74.535 E308.42983
G1 X116.064 Y74.079 E308.44899
G1 X105.071 Y63.086 E309.10180
G1 X105.528 Y63.086 E309.12096
G1 X116.064 Y73.622 E309.74667
G1 X116.064 Y73.166 E309.76583
G1 X105.984 Y63.086 E310.36444
G1 X106.440 Y63.086 E310.38360
G1 X116.064 Y72.710 E310.95510
G1 X116.064 Y72.253 E310.97427
G1 X106.897 Y63.086 E311.51867
G1 X107.353 Y63.086 E311.53783
G1 X116.064 Y71.797 E312.05513
G1 X116.064 Y71.341 E312.07429
