; generated by Slic3r 1.1.7 on 2015-04-13 at 20:00:43

; perimeters extrusion width = 0.40mm
; infill extrusion width = 0.42mm
; solid infill extrusion width = 0.42mm
; top infill extrusion width = 0.42mm
; support material extrusion width = 0.40mm

G21 ; set units to millimeters
M190 S60 ; wait for bed temperature to be reached
M104 S215 ; set temperature
M106 S255; Turn on Fan fully
G28 ; home all axes Start of G Code Slic3r
G1 Z20
M280 P0 S10 
G1 Z22
G29 ; AutoBed leveing
G1 X208 Y20 F4000
G1 Z4
 
  
M109 S215 ; wait for temperature to be reached
G90 ; use absolute coordinates
G92 E0
M82 ; use absolute distances for extrusion
G1 F1980.000 E-4.00000
G92 E0
G1 Z0.300 F6000.000
G1 X73.122 Y65.551 F6000.000
G1 E4.00000 F1980.000
G1 X74.875 Y64.067 E4.09644 F1650.000
G1 X77.029 Y63.270 E4.19288
G1 X78.224 Y63.161 E4.24328
G1 X121.776 Y63.161 E6.07208
G1 X124.038 Y63.558 E6.16852
G1 X126.029 Y64.702 E6.26496 F1650.000
G1 X127.513 Y66.455 E6.36140
G1 X128.310 Y68.609 E6.45783
G1 X128.419 Y69.804 E6.50824
G1 X128.419 Y130.196 E9.04418
G1 X128.022 Y132.458 E9.14062
G1 X126.878 Y134.449 E9.23706
G1 X125.125 Y135.932 E9.33350
G1 X122.971 Y136.730 E9.42994
G1 X121.776 Y136.838 E9.48034
G1 X78.224 Y136.838 E11.30914
G1 X75.962 Y136.442 E11.40558
G1 X73.971 Y135.298 E11.50202
G1 X72.487 Y133.545 E11.59845
G1 X71.690 Y131.391 E11.69489
G1 X71.581 Y130.196 E11.74530
G1 X71.581 Y69.804 E14.28124
G1 X71.978 Y67.542 E14.37768
G1 X73.092 Y65.603 E14.47160
G1 F1980.000 E10.47160
G92 E0
G1 X73.411 Y65.722 F6000.000
G1 E4.00000 F1980.000
G1 X73.440 Y65.672 E4.00242 F1650.000
G1 X75.182 Y64.263 E4.09648
G1 X78.224 Y63.483 E4.22838
G1 X121.776 Y63.483 E6.05718
G1 X123.980 Y63.880 E6.15124
G1 X125.908 Y65.020 E6.24530 F1650.000
G1 X127.317 Y66.762 E6.33935
G1 X128.097 Y69.804 E6.47126
G1 X128.097 Y130.196 E9.00720
G1 X127.700 Y132.400 E9.10126
G1 X126.560 Y134.328 E9.19532
G1 X124.818 Y135.737 E9.28937
G1 X121.776 Y136.517 E9.42127
G1 X78.224 Y136.517 E11.25008
G1 X76.020 Y136.120 E11.34413
G1 X74.092 Y134.980 E11.43819
G1 X72.683 Y133.238 E11.53225
G1 X71.903 Y130.196 E11.66415
G1 X71.903 Y69.804 E14.20010
G1 X72.300 Y67.600 E14.29415
G1 X73.381 Y65.773 E14.38327
G1 F1980.000 E10.38327
G92 E0
G1 X120.983 Y129.403 F6000.000
G1 E4.00000 F1980.000
G1 X79.017 Y129.403 E5.76221 F900.000
G1 X79.017 Y70.597 E8.23156
G1 X120.983 Y70.597 E9.99377
G1 X120.983 Y129.343 E12.46060
G1 F1980.000 E8.46060
G92 E0
G1 X121.304 Y129.724 F6000.000
G1 E4.00000 F1980.000
G1 X78.696 Y129.724 E5.78921 F900.000
G1 X78.696 Y70.276 E8.28556
G1 X121.304 Y70.276 E10.07476
G1 X121.304 Y129.664 E12.56859
G1 F1980.000 E8.56859
G92 E0
G1 X121.626 Y130.046 F6000.000
G1 E4.00000 F1980.000
G1 X78.374 Y130.046 E5.81620 F720.000
G1 X78.374 Y69.954 E8.33955
G1 X121.626 Y69.954 E10.15575
G1 X121.626 Y129.986 E12.67658
G1 F1980.000 E8.67658
G92 E0
G1 X121.279 Y129.846 F6000.000
G1 X79.230 Y129.150 F6000.000
G1 E4.00000 F1980.000
G1 X79.270 Y129.190 E4.00238 F900.000
G1 X79.726 Y129.190 E4.02152
G1 X79.230 Y128.694 E4.05097
G1 X79.230 Y128.238 E4.07011
G1 X80.182 Y129.190 E4.12663
G1 X80.638 Y129.190 E4.14578
G1 X79.230 Y127.782 E4.22937
G1 X79.230 Y127.326 E4.24851
G1 X81.094 Y129.190 E4.35918
G1 X81.550 Y129.190 E4.37832
G1 X79.230 Y126.870 E4.51606
G1 X79.230 Y126.414 E4.53521
G1 X82.006 Y129.190 E4.70002
G1 X82.462 Y129.190 E4.71916
G1 X79.230 Y125.958 E4.91105
G1 X79.230 Y125.503 E4.93019
G1 X82.917 Y129.190 E5.14915
G1 X83.373 Y129.190 E5.16830
G1 X79.230 Y125.047 E5.41433
G1 X79.230 Y124.591 E5.43347
G1 X83.829 Y129.190 E5.70658
G1 X84.285 Y129.190 E5.72572
G1 X79.230 Y124.135 E6.02590
G1 X79.230 Y123.679 E6.04504
G1 X84.741 Y129.190 E6.37229
G1 X85.197 Y129.190 E6.39143
G1 X79.230 Y123.223 E6.74576
G1 X79.230 Y122.767 E6.76490
G1 X85.653 Y129.190 E7.14630
G1 X86.109 Y129.190 E7.16544
G1 X79.230 Y122.311 E7.57391
G1 X79.230 Y121.855 E7.59305
G1 X86.564 Y129.190 E8.02860
G1 X87.020 Y129.190 E8.04774
G1 X79.230 Y121.400 E8.51036
G1 X79.230 Y120.944 E8.52950
G1 X87.476 Y129.190 E9.01919
G1 X87.932 Y129.190 E9.03833
G1 X79.230 Y120.488 E9.55509
G1 X79.230 Y120.032 E9.57423
G1 X88.388 Y129.190 E10.11807
G1 X88.844 Y129.190 E10.13721
G1 X79.230 Y119.576 E10.70812
G1 X79.230 Y119.120 E10.72726
G1 X89.300 Y129.190 E11.32524
G1 X89.756 Y129.190 E11.34439
G1 X79.230 Y118.664 E11.96944
G1 X79.230 Y118.208 E11.98858
G1 X90.212 Y129.190 E12.64071
G1 X90.667 Y129.190 E12.65985
G1 X79.230 Y117.753 E13.33905
G1 X79.230 Y117.297 E13.35819
G1 X91.123 Y129.190 E14.06447
G1 X91.579 Y129.190 E14.08361
G1 X79.230 Y116.841 E14.81695
G1 X79.230 Y116.385 E14.83610
G1 X92.035 Y129.190 E15.59652
G1 X92.491 Y129.190 E15.61566
G1 X79.230 Y115.929 E16.40315
G1 X79.230 Y115.473 E16.42229
G1 X92.947 Y129.190 E17.23686
G1 X93.403 Y129.190 E17.25600
G1 X79.230 Y115.017 E18.09764
G1 X79.230 Y114.561 E18.11678
G1 X93.859 Y129.190 E18.98549
G1 X94.315 Y129.190 E19.00463
G1 X79.230 Y114.105 E19.90042
G1 X79.230 Y113.650 E19.91956
G1 X94.770 Y129.190 E20.84241
G1 X95.226 Y129.190 E20.86156
G1 X79.230 Y113.194 E21.81149
G1 X79.230 Y112.738 E21.83063
G1 X95.682 Y129.190 E22.80763
G1 X96.138 Y129.190 E22.82677
G1 X79.230 Y112.282 E23.83085
G1 X79.230 Y111.826 E23.84999
G1 X96.594 Y129.190 E24.88114
G1 X97.050 Y129.190 E24.90028
G1 X79.230 Y111.370 E25.95850
G1 X79.230 Y110.914 E25.97765
G1 X97.506 Y129.190 E27.06294
G1 X97.962 Y129.190 E27.08208
G1 X79.230 Y110.458 E28.19445
G1 X79.230 Y110.003 E28.21359
G1 X98.417 Y129.190 E29.35303
G1 X98.873 Y129.190 E29.37217
G1 X79.230 Y109.547 E30.53869
G1 X79.230 Y109.091 E30.55783
G1 X99.329 Y129.190 E31.75141
G1 X99.785 Y129.190 E31.77056
G1 X79.230 Y108.635 E32.99121
G1 X79.230 Y108.179 E33.01036
G1 X100.241 Y129.190 E34.25809
G1 X100.697 Y129.190 E34.27723
G1 X79.230 Y107.723 E35.55204
G1 X79.230 Y107.267 E35.57118
G1 X101.153 Y129.190 E36.87305
G1 X101.609 Y129.190 E36.89220
G1 X79.230 Y106.811 E38.22115
G1 X79.230 Y106.355 E38.24029
G1 X102.065 Y129.190 E39.59631
G1 X102.520 Y129.190 E39.61546
G1 X79.230 Y105.900 E40.99855
G1 X79.230 Y105.444 E41.01770
G1 X102.976 Y129.190 E42.42786
G1 X103.432 Y129.190 E42.44701
G1 X79.230 Y104.988 E43.88425
G1 X79.230 Y104.532 E43.90339
G1 X103.888 Y129.190 E45.36771
G1 X104.344 Y129.190 E45.38685
G1 X79.230 Y104.076 E46.87824
G1 X79.230 Y103.620 E46.89738
G1 X104.800 Y129.190 E48.41584
G1 X105.256 Y129.190 E48.43498
G1 X79.230 Y103.164 E49.98052
G1 X79.230 Y102.708 E49.99966
G1 X105.712 Y129.190 E51.57227
G1 X106.167 Y129.190 E51.59141
G1 X79.230 Y102.252 E53.19109
G1 X79.230 Y101.797 E53.21023
G1 X106.623 Y129.190 E54.83698
G1 X107.079 Y129.190 E54.85613
G1 X79.230 Y101.341 E56.50995
G1 X79.230 Y100.885 E56.52909
G1 X107.535 Y129.190 E58.20999
G1 X107.991 Y129.190 E58.22913
G1 X79.230 Y100.429 E59.93711
G1 X79.230 Y99.973 E59.95625
G1 X108.447 Y129.190 E61.69129
G1 X108.903 Y129.190 E61.71044
G1 X79.230 Y99.517 E63.47255
G1 X79.230 Y99.061 E63.49170
G1 X109.359 Y129.190 E65.28088
G1 X109.815 Y129.190 E65.30003
G1 X79.230 Y98.605 E67.11629
G1 X79.230 Y98.150 E67.13543
G1 X110.270 Y129.190 E68.97877
G1 X110.726 Y129.190 E68.99791
G1 X79.230 Y97.694 E70.86832
G1 X79.230 Y97.238 E70.88746
G1 X111.182 Y129.190 E72.78494
G1 X111.638 Y129.190 E72.80409
G1 X79.230 Y96.782 E74.72864
G1 X79.230 Y96.326 E74.74779
G1 X112.094 Y129.190 E76.69941
G1 X112.550 Y129.190 E76.71856
G1 X79.230 Y95.870 E78.69726
G1 X79.230 Y95.414 E78.71640
G1 X113.006 Y129.190 E80.72217
G1 X113.462 Y129.190 E80.74132
G1 X79.230 Y94.958 E82.77416
G1 X79.230 Y94.502 E82.79331
G1 X113.918 Y129.190 E84.85322
G1 X114.373 Y129.190 E84.87237
G1 X79.230 Y94.047 E86.95936
G1 X79.230 Y93.591 E86.97850
G1 X114.829 Y129.190 E89.09257
G1 X115.285 Y129.190 E89.11171
G1 X79.230 Y93.135 E91.25285
G1 X79.230 Y92.679 E91.27199
G1 X115.741 Y129.190 E93.44020
G1 X116.197 Y129.190 E93.45935
G1 X79.230 Y92.223 E95.65463
G1 X79.230 Y91.767 E95.67377
G1 X116.653 Y129.190 E97.89613
G1 X117.109 Y129.190 E97.91527
G1 X79.230 Y91.311 E100.16470
G1 X79.230 Y90.855 E100.18384
G1 X117.565 Y129.190 E102.46035
G1 X118.020 Y129.190 E102.47949
G1 X79.230 Y90.400 E104.78307
G1 X79.230 Y89.944 E104.80221
G1 X118.476 Y129.190 E107.13286
G1 X118.932 Y129.190 E107.15200
G1 X79.230 Y89.488 E109.50972
G1 X79.230 Y89.032 E109.52886
G1 X119.388 Y129.190 E111.91366
G1 X119.844 Y129.190 E111.93280
G1 X79.230 Y88.576 E114.34467
G1 X79.230 Y88.120 E114.36381
G1 X120.300 Y129.190 E116.80275
G1 X120.743 Y129.177 E116.82135
G1 X79.230 Y87.664 E119.28659
G1 X79.230 Y87.208 E119.30574
G1 X120.770 Y128.748 E121.77257
G1 X120.770 Y128.292 E121.79172
G1 X79.230 Y86.752 E124.25855
G1 X79.230 Y86.297 E124.27770
G1 X120.770 Y127.836 E126.74453
G1 X120.770 Y127.380 E126.76368
G1 X79.230 Y85.841 E129.23051
G1 X79.230 Y85.385 E129.24965
G1 X120.770 Y126.924 E131.71649
G1 X120.770 Y126.468 E131.73563
G1 X79.230 Y84.929 E134.20247
G1 X79.230 Y84.473 E134.22161
G1 X120.770 Y126.012 E136.68845
G1 X120.770 Y125.556 E136.70759
G1 X79.230 Y84.017 E139.17443
G1 X79.230 Y83.561 E139.19357
G1 X120.770 Y125.101 E141.66041
G1 X120.770 Y124.645 E141.67955
G1 X79.230 Y83.105 E144.14639
G1 X79.230 Y82.649 E144.16553
G1 X120.770 Y124.189 E146.63237
G1 X120.770 Y123.733 E146.65151
G1 X79.230 Y82.194 E149.11835
G1 X79.230 Y81.738 E149.13749
G1 X120.770 Y123.277 E151.60433
G1 X120.770 Y122.821 E151.62347
G1 X79.230 Y81.282 E154.09031
G1 X79.230 Y80.826 E154.10945
G1 X120.770 Y122.365 E156.57629
G1 X120.770 Y121.909 E156.59543
G1 X79.230 Y80.370 E159.06227
G1 X79.230 Y79.914 E159.08141
G1 X120.770 Y121.453 E161.54825
G1 X120.770 Y120.998 E161.56739
G1 X79.230 Y79.458 E164.03423
G1 X79.230 Y79.002 E164.05337
G1 X120.770 Y120.542 E166.52021
G1 X120.770 Y120.086 E166.53935
G1 X79.230 Y78.547 E169.00619
G1 X79.230 Y78.091 E169.02533
G1 X120.770 Y119.630 E171.49217
G1 X120.770 Y119.174 E171.51131
G1 X79.230 Y77.635 E173.97815
G1 X79.230 Y77.179 E173.99729
G1 X120.770 Y118.718 E176.46413
G1 X120.770 Y118.262 E176.48327
G1 X79.230 Y76.723 E178.95011
G1 X79.230 Y76.267 E178.96925
G1 X120.770 Y117.806 E181.43609
G1 X120.770 Y117.351 E181.45523
G1 X79.230 Y75.811 E183.92207
G1 X79.230 Y75.355 E183.94121
G1 X120.770 Y116.895 E186.40805
G1 X120.770 Y116.439 E186.42719
G1 X79.230 Y74.899 E188.89403
G1 X79.230 Y74.444 E188.91317
G1 X120.770 Y115.983 E191.38001
G1 X120.770 Y115.527 E191.39915
G1 X79.230 Y73.988 E193.86599
G1 X79.230 Y73.532 E193.88513
G1 X120.770 Y115.071 E196.35197
G1 X120.770 Y114.615 E196.37111
G1 X79.230 Y73.076 E198.83795
G1 X79.230 Y72.620 E198.85709
G1 X120.770 Y114.159 E201.32393
G1 X120.770 Y113.703 E201.34307
G1 X79.230 Y72.164 E203.80991
G1 X79.230 Y71.708 E203.82905
G1 X120.770 Y113.248 E206.29589
G1 X120.770 Y112.792 E206.31503
G1 X79.230 Y71.252 E208.78187
G1 X79.257 Y70.823 E208.79992
G1 X120.770 Y112.336 E211.26515
G1 X120.770 Y111.880 E211.28430
G1 X79.700 Y70.810 E213.72324
G1 X80.156 Y70.810 E213.74238
G1 X120.770 Y111.424 E216.15425
G1 X120.770 Y110.968 E216.17339
G1 X80.612 Y70.810 E218.55818
G1 X81.068 Y70.810 E218.57733
G1 X120.770 Y110.512 E220.93505
G1 X120.770 Y110.056 E220.95419
G1 X81.524 Y70.810 E223.28484
G1 X81.980 Y70.810 E223.30398
G1 X120.770 Y109.600 E225.60756
G1 X120.770 Y109.145 E225.62670
G1 X82.435 Y70.810 E227.90320
G1 X82.891 Y70.810 E227.92235
G1 X120.770 Y108.689 E230.17178
G1 X120.770 Y108.233 E230.19092
G1 X83.347 Y70.810 E232.41328
G1 X83.803 Y70.810 E232.43242
G1 X120.770 Y107.777 E234.62770
G1 X120.770 Y107.321 E234.64685
G1 X84.259 Y70.810 E236.81506
G1 X84.715 Y70.810 E236.83420
G1 X120.770 Y106.865 E238.97534
G1 X120.770 Y106.409 E238.99448
G1 X85.171 Y70.810 E241.10855
G1 X85.627 Y70.810 E241.12769
G1 X120.770 Y105.953 E243.21468
G1 X120.770 Y105.498 E243.23382
G1 X86.082 Y70.810 E245.29374
G1 X86.538 Y70.810 E245.31289
G1 X120.770 Y105.042 E247.34573
G1 X120.770 Y104.586 E247.36488
G1 X86.994 Y70.810 E249.37065
G1 X87.450 Y70.810 E249.38979
G1 X120.770 Y104.130 E251.36849
G1 X120.770 Y103.674 E251.38763
G1 X87.906 Y70.810 E253.33926
G1 X88.362 Y70.810 E253.35841
G1 X120.770 Y103.218 E255.28296
G1 X120.770 Y102.762 E255.30210
G1 X88.818 Y70.810 E257.19958
G1 X89.274 Y70.810 E257.21873
G1 X120.770 Y102.306 E259.08913
G1 X120.770 Y101.850 E259.10828
G1 X89.730 Y70.810 E260.95161
G1 X90.185 Y70.810 E260.97076
G1 X120.770 Y101.395 E262.78702
G1 X120.770 Y100.939 E262.80616
G1 X90.641 Y70.810 E264.59535
G1 X91.097 Y70.810 E264.61450
G1 X120.770 Y100.483 E266.37661
G1 X120.770 Y100.027 E266.39576
G1 X91.553 Y70.810 E268.13080
G1 X92.009 Y70.810 E268.14994
G1 X120.770 Y99.571 E269.85791
G1 X120.770 Y99.115 E269.87706
G1 X92.465 Y70.810 E271.55795
G1 X92.921 Y70.810 E271.57710
G1 X120.770 Y98.659 E273.23092
G1 X120.770 Y98.203 E273.25007
G1 X93.377 Y70.810 E274.87682
G1 X93.833 Y70.810 E274.89596
G1 X120.770 Y97.748 E276.49564
G1 X120.770 Y97.292 E276.51478
G1 X94.288 Y70.810 E278.08739
G1 X94.744 Y70.810 E278.10653
G1 X120.770 Y96.836 E279.65206
G1 X120.770 Y96.380 E279.67121
G1 X95.200 Y70.810 E281.18967
G1 X95.656 Y70.810 E281.20881
G1 X120.770 Y95.924 E282.70020
G1 X120.770 Y95.468 E282.71934
G1 X96.112 Y70.810 E284.18366
G1 X96.568 Y70.810 E284.20280
G1 X120.770 Y95.012 E285.64004
G1 X120.770 Y94.556 E285.65918
G1 X97.024 Y70.810 E287.06935
G1 X97.480 Y70.810 E287.08850
G1 X120.770 Y94.100 E288.47159
G1 X120.770 Y93.645 E288.49073
G1 X97.935 Y70.810 E289.84676
G1 X98.391 Y70.810 E289.86590
G1 X120.770 Y93.189 E291.19485
G1 X120.770 Y92.733 E291.21399
G1 X98.847 Y70.810 E292.51587
G1 X99.303 Y70.810 E292.53501
G1 X120.770 Y92.277 E293.80982
G1 X120.770 Y91.821 E293.82896
G1 X99.759 Y70.810 E295.07669
G1 X100.215 Y70.810 E295.09583
G1 X120.770 Y91.365 E296.31649
G1 X120.770 Y90.909 E296.33563
G1 X100.671 Y70.810 E297.52922
G1 X101.127 Y70.810 E297.54836
G1 X120.770 Y90.453 E298.71487
G1 X120.770 Y89.997 E298.73402
G1 X101.583 Y70.810 E299.87346
G1 X102.038 Y70.810 E299.89260
G1 X120.770 Y89.542 E301.00497
G1 X120.770 Y89.086 E301.02411
G1 X102.494 Y70.810 E302.10940
G1 X102.950 Y70.810 E302.12855
G1 X120.770 Y88.630 E303.18677
G1 X120.770 Y88.174 E303.20591
G1 X103.406 Y70.810 E304.23706
G1 X103.862 Y70.810 E304.25620
G1 X120.770 Y87.718 E305.26027
G1 X120.770 Y87.262 E305.27942
G1 X104.318 Y70.810 E306.25642
G1 X104.774 Y70.810 E306.27556
G1 X120.770 Y86.806 E307.22549
G1 X120.770 Y86.350 E307.24463
G1 X105.230 Y70.810 E308.16749
G1 X105.685 Y70.810 E308.18663
G1 X120.770 Y85.895 E309.08241
G1 X120.770 Y85.439 E309.10156
G1 X106.141 Y70.810 E309.97027
G1 X106.597 Y70.810 E309.98941
G1 X120.770 Y84.983 E310.83105
G1 X120.770 Y84.527 E310.85019
G1 X107.053 Y70.810 E311.66475
G1 X107.509 Y70.810 E311.68390
G1 X120.770 Y84.071 E312.47139
G1 X120.770 Y83.615 E312.49053
G1 X107.965 Y70.810 E313.25095
G1 X108.421 Y70.810 E313.27009
G1 X120.770 Y83.159 E314.00344
G1 X120.770 Y82.703 E314.02258
G1 X108.877 Y70.810 E314.72885
G1 X109.333 Y70.810 E314.74800
G1 X120.770 Y82.247 E315.42720
G1 X120.770 Y81.792 E315.44634
G1 X109.788 Y70.810 E316.09846
G1 X110.244 Y70.810 E316.11761
G1 X120.770 Y81.336 E316.74266
G1 X120.770 Y80.880 E316.76180
G1 X110.700 Y70.810 E317.35978
G1 X111.156 Y70.810 E317.37893
G1 X120.770 Y80.424 E317.94984
G1 X120.770 Y79.968 E317.96898
G1 X111.612 Y70.810 E318.51281
G1 X112.068 Y70.810 E318.53196
G1 X120.770 Y79.512 E319.04872
G1 X120.770 Y79.056 E319.06786
G1 X112.524 Y70.810 E319.55755
G1 X112.980 Y70.810 E319.57669
G1 X120.770 Y78.600 E320.03931
G1 X120.770 Y78.145 E320.05845
G1 X113.436 Y70.810 E320.49399
G1 X113.891 Y70.810 E320.51314
G1 X120.770 Y77.689 E320.92161
G1 X120.770 Y77.233 E320.94075
G1 X114.347 Y70.810 E321.32215
G1 X114.803 Y70.810 E321.34129
G1 X120.770 Y76.777 E321.69561
G1 X120.770 Y76.321 E321.71476
G1 X115.259 Y70.810 E322.04201
G1 X115.715 Y70.810 E322.06115
G1 X120.770 Y75.865 E322.36133
G1 X120.770 Y75.409 E322.38047
G1 X116.171 Y70.810 E322.65358
G1 X116.627 Y70.810 E322.67272
G1 X120.770 Y74.953 E322.91875
G1 X120.770 Y74.497 E322.93790
G1 X117.083 Y70.810 E323.15686
G1 X117.538 Y70.810 E323.17600
G1 X120.770 Y74.042 E323.36789
G1 X120.770 Y73.586 E323.38703
G1 X117.994 Y70.810 E323.55184
G1 X118.450 Y70.810 E323.57099
