; generated by Slic3r 1.1.7 on 2014-12-05 at 12:12:32

; perimeters extrusion width = 0.42mm
; infill extrusion width = 0.74mm
; solid infill extrusion width = 0.71mm
; top infill extrusion width = 0.71mm

G21 ; set units to millimeters
M190 S60 ; wait for bed temperature to be reached
M104 S186 ; set temperature
G28 ; home all axes
M109 S186 ; wait for temperature to be reached
G90 ; use absolute coordinates
G92 E0
M82 ; use absolute distances for extrusion
M106 S127
G1 F1860.000 E-3.00000
G92 E0
G1 Z0.200 F6000.000
G1 X69.324 Y79.813 F6000.000
G1 E3.10000 F1860.000
G1 X70.889 Y78.468 E3.13818 F1200.000
G1 X74.028 Y76.542 E3.20631
G1 X75.936 Y75.756 E3.24449
G1 X79.520 Y74.912 E3.31261
G1 X81.030 Y74.739 E3.34072
G1 X119.487 Y74.864 E4.05219
G1 X121.156 Y75.087 E4.08334 F1200.000
G1 X124.658 Y76.031 E4.15044
G1 X126.524 Y76.868 E4.18828
G1 X129.559 Y78.854 E4.25538
G1 X131.072 Y80.230 E4.29322
G1 X133.339 Y83.061 E4.36032
G1 X134.350 Y84.839 E4.39816
G1 X135.623 Y88.236 E4.46526
G1 X136.031 Y90.240 E4.50310
G1 X136.191 Y94.182 E4.57609
G1 X136.098 Y106.756 E4.80871
G1 X135.873 Y110.376 E4.87583
G1 X135.412 Y112.406 E4.91433
G1 X134.053 Y115.769 E4.98144
G1 X132.974 Y117.549 E5.01994
G1 X130.621 Y120.309 E5.08705
G1 X129.034 Y121.656 E5.12555
G1 X125.928 Y123.531 E5.19266
G1 X123.998 Y124.307 E5.23116
G1 X120.458 Y125.103 E5.29827
G1 X118.978 Y125.261 E5.32582
G1 X81.293 Y124.940 E6.02302
G1 X80.003 Y124.799 E6.04702
G1 X76.525 Y124.062 E6.11280
G1 X74.608 Y123.325 E6.15080
G1 X71.533 Y121.539 E6.21658
G1 X69.943 Y120.239 E6.25457
G1 X67.580 Y117.583 E6.32035
G1 X66.475 Y115.852 E6.35835
G1 X65.059 Y112.590 E6.42413
G1 X64.550 Y110.600 E6.46212
G1 X64.200 Y106.664 E6.53523
G1 X63.822 Y93.499 E6.77888
G1 X64.054 Y89.824 E6.84701
G1 X64.510 Y87.811 E6.88519
G1 X65.883 Y84.394 E6.95332
G1 X66.947 Y82.626 E6.99150
G1 X69.283 Y79.861 E7.05846
G1 X69.512 Y79.972 F6000.000
G1 X71.018 Y78.678 E7.09519 F1200.000
G1 X74.157 Y76.752 E7.16331
G1 X75.992 Y75.996 E7.20004
G1 X79.577 Y75.152 E7.26817
G1 X81.029 Y74.986 E7.29521
G1 X119.486 Y75.111 E8.00667
G1 X121.091 Y75.326 E8.03664 F1200.000
G1 X124.593 Y76.270 E8.10374
G1 X126.389 Y77.075 E8.14014
G1 X129.423 Y79.061 E8.20724
G1 X130.879 Y80.384 E8.24364
G1 X133.146 Y83.216 E8.31074
G1 X134.118 Y84.926 E8.34714
G1 X135.392 Y88.322 E8.41424
G1 X135.784 Y90.250 E8.45064
G1 X135.944 Y94.181 E8.52341
G1 X135.852 Y106.740 E8.75577
G1 X135.626 Y110.361 E8.82289
G1 X135.183 Y112.313 E8.85992
G1 X133.824 Y115.677 E8.92703
G1 X132.786 Y117.388 E8.96407
G1 X130.432 Y120.149 E9.03118
G1 X128.906 Y121.445 E9.06821
G1 X125.801 Y123.319 E9.13532
G1 X123.943 Y124.066 E9.17236
G1 X120.404 Y124.862 E9.23947
G1 X118.980 Y125.014 E9.26597
G1 X81.295 Y124.692 E9.96317
G1 X80.054 Y124.557 E9.98626
G1 X76.576 Y123.821 E10.05204
G1 X74.732 Y123.111 E10.08859
G1 X71.658 Y121.325 E10.15437
G1 X70.128 Y120.075 E10.19092
G1 X67.765 Y117.418 E10.25670
G1 X66.701 Y115.753 E10.29324
G1 X65.286 Y112.491 E10.35902
G1 X64.796 Y110.577 E10.39557
G1 X64.447 Y106.657 E10.46840
G1 X64.069 Y93.515 E10.71162
G1 X64.301 Y89.840 E10.77975
G1 X64.739 Y87.904 E10.81648
G1 X66.113 Y84.487 E10.88461
G1 X67.136 Y82.786 E10.92133
G1 X69.472 Y80.020 E10.98830
G1 F1860.000 E7.98830
G92 E0
G1 X110.225 Y110.380 F6000.000
G1 E3.10000 F1860.000
G1 X89.820 Y110.380 E3.47750 F1200.000
G1 X88.627 Y112.516 E3.52276
G1 X86.636 Y114.349 E3.57282
G1 X84.172 Y115.468 E3.62288
G1 X81.483 Y115.762 E3.67295
G1 X78.835 Y115.202 E3.72301
G1 X76.495 Y113.842 E3.77307
G1 X74.697 Y111.821 E3.82313
G1 X73.620 Y109.338 E3.87319
G1 X73.371 Y106.644 E3.92326
G1 X73.977 Y104.006 E3.97332
G1 X75.376 Y101.690 E4.02338
G1 X77.069 Y100.235 E4.06468
G1 X75.233 Y98.760 E4.10825
G1 X73.694 Y96.387 E4.16058
G1 X72.978 Y93.650 E4.21292
G1 X73.156 Y90.827 E4.26525
G1 X74.211 Y88.202 E4.31758
G1 X76.037 Y86.041 E4.36992
G1 X78.448 Y84.562 E4.42225
G1 X81.201 Y83.913 E4.47458
G1 X84.019 Y84.161 E4.52692
G1 X86.617 Y85.281 E4.57925
G1 X88.732 Y87.159 E4.63159
G1 X90.023 Y89.385 E4.67919
G1 X110.096 Y89.385 E5.05055
G1 X111.660 Y86.941 E5.10423
G1 X113.813 Y85.180 E5.15568
G1 X116.406 Y84.177 E5.20713
G1 X119.183 Y84.029 E5.25858
G1 X121.869 Y84.753 E5.31002
G1 X124.196 Y86.276 E5.36148
G1 X125.934 Y88.447 E5.41293
G1 X126.910 Y91.051 E5.46437
G1 X127.028 Y93.830 E5.51582
G1 X126.276 Y96.507 E5.56727
G1 X124.729 Y98.818 E5.61872
G1 X122.931 Y100.227 E5.66098
G1 X124.713 Y101.631 E5.70294
G1 X126.232 Y103.943 E5.75412
G1 X126.942 Y106.616 E5.80530
G1 X126.770 Y109.378 E5.85648
G1 X125.733 Y111.942 E5.90765
G1 X123.939 Y114.048 E5.95883
G1 X121.570 Y115.477 E6.01001
G1 X118.871 Y116.084 E6.06119
G1 X115.837 Y115.778 E6.11762
G1 X115.837 Y115.679 E6.11944
G1 X113.596 Y114.672 E6.16489
G1 X111.561 Y112.798 E6.21607
G1 X110.255 Y110.435 E6.26602
G1 X110.454 Y110.133 F6000.000
G1 X89.674 Y110.133 E6.65045 F1200.000
G1 X88.430 Y112.361 E6.69767
G1 X86.498 Y114.140 E6.74626
G1 X84.106 Y115.227 E6.79486
G1 X81.495 Y115.512 E6.84346
G1 X78.925 Y114.968 E6.89205
G1 X76.654 Y113.649 E6.94065
G1 X74.908 Y111.686 E6.98925
G1 X73.862 Y109.276 E7.03784
G1 X73.621 Y106.660 E7.08644
G1 X74.209 Y104.100 E7.13504
G1 X75.567 Y101.852 E7.18364
G1 X77.456 Y100.228 E7.22971
G1 X75.419 Y98.593 E7.27805
G1 X73.923 Y96.286 E7.32891
G1 X73.227 Y93.626 E7.37977
G1 X73.400 Y90.882 E7.43063
G1 X74.426 Y88.331 E7.48149
G1 X76.200 Y86.231 E7.53236
G1 X78.543 Y84.793 E7.58322
G1 X81.219 Y84.163 E7.63408
G1 X83.958 Y84.404 E7.68494
G1 X86.482 Y85.492 E7.73580
G1 X88.538 Y87.318 E7.78666
G1 X89.881 Y89.632 E7.83616
G1 X110.429 Y89.632 E8.21631
G1 X110.377 Y89.405 E8.22061
G1 X111.847 Y87.107 E8.27109
G1 X113.939 Y85.397 E8.32108
G1 X116.459 Y84.421 E8.37107
G1 X119.157 Y84.278 E8.42106
G1 X121.766 Y84.982 E8.47105
G1 X124.049 Y86.489 E8.52166
G1 X125.716 Y88.571 E8.57100
G1 X126.665 Y91.101 E8.62099
G1 X126.780 Y93.801 E8.67098
G1 X126.049 Y96.402 E8.72097
G1 X124.546 Y98.648 E8.77097
G1 X122.531 Y100.226 E8.81831
G1 X124.528 Y101.800 E8.86535
G1 X126.003 Y104.045 E8.91504
G1 X126.693 Y106.641 E8.96474
G1 X126.526 Y109.322 E9.01443
G1 X125.519 Y111.813 E9.06413
G1 X123.777 Y113.857 E9.11382
G1 X121.477 Y115.245 E9.16351
G1 X118.856 Y115.834 E9.21321
G1 X116.084 Y115.554 E9.26476
G1 X116.084 Y115.520 E9.26540
G1 X113.734 Y114.463 E9.31307
G1 X111.758 Y112.644 E9.36277
G1 X110.454 Y110.284 E9.41264
G1 X110.454 Y110.196 E9.41427
G1 X110.090 Y110.343 F6000.000
G1 F1860.000 E6.41427
G92 E0
G1 X108.864 Y112.685 F6000.000
G1 E3.10000 F1860.000
G1 X91.173 Y112.685 E3.42729 F1200.000
G1 X90.460 Y113.962 E3.45434
G1 X87.926 Y116.295 E3.51807
G1 X84.790 Y117.720 E3.58179
G1 X81.366 Y118.094 E3.64551
G1 X77.996 Y117.381 E3.70923
G1 X75.018 Y115.651 E3.77296
G1 X72.729 Y113.077 E3.83668
G1 X71.358 Y109.917 E3.90040
G1 X71.042 Y106.487 E3.96412
G1 X71.813 Y103.130 E4.02785
G1 X73.503 Y100.331 E4.08835
G1 X71.558 Y97.329 E4.15452
G1 X70.653 Y93.875 E4.22058
G1 X70.879 Y90.311 E4.28665
G1 X72.210 Y86.998 E4.35271
G1 X74.514 Y84.270 E4.41877
G1 X77.558 Y82.402 E4.48483
G1 X81.034 Y81.584 E4.55089
G1 X84.591 Y81.897 E4.61696
G1 X87.870 Y83.311 E4.68302
G1 X90.540 Y85.682 E4.74908
G1 X91.351 Y87.080 E4.77897
G1 X108.834 Y87.080 E5.10242
G1 X109.916 Y85.389 E5.13955
G1 X112.638 Y83.163 E5.20460
G1 X115.917 Y81.894 E5.26965
G1 X119.429 Y81.708 E5.33471
G1 X122.824 Y82.623 E5.39976
G1 X125.766 Y84.548 E5.46481
G1 X127.963 Y87.293 E5.52986
G1 X129.198 Y90.586 E5.59492
G1 X129.347 Y94.099 E5.65997
G1 X128.397 Y97.484 E5.72502
G1 X126.555 Y100.236 E5.78627
G1 X128.364 Y102.989 E5.84723
G1 X129.266 Y106.386 E5.91226
G1 X129.048 Y109.894 E5.97728
G1 X127.731 Y113.153 E6.04231
G1 X125.450 Y115.828 E6.10733
G1 X122.441 Y117.644 E6.17236
G1 X119.012 Y118.416 E6.23739
G1 X115.515 Y118.063 E6.30241
G1 X112.309 Y116.622 E6.36744
G1 X109.724 Y114.241 E6.43246
G1 X108.895 Y112.740 E6.46418
G1 X108.718 Y112.932 F6000.000
G1 X91.318 Y112.933 E6.78609 F1200.000
G1 X90.657 Y114.117 E6.81119
G1 X88.064 Y116.504 E6.87638
G1 X84.856 Y117.961 E6.94156
G1 X81.354 Y118.344 E7.00675
G1 X77.906 Y117.614 E7.07194
G1 X74.860 Y115.845 E7.13712
G1 X72.518 Y113.212 E7.20231
G1 X71.115 Y109.979 E7.26750
G1 X70.792 Y106.471 E7.33269
G1 X71.581 Y103.036 E7.39787
G1 X73.212 Y100.336 E7.45625
G1 X71.329 Y97.431 E7.52029
G1 X70.404 Y93.899 E7.58783
G1 X70.634 Y90.256 E7.65536
G1 X71.996 Y86.869 E7.72290
G1 X74.351 Y84.080 E7.79043
G1 X77.463 Y82.171 E7.85796
G1 X81.016 Y81.334 E7.92550
G1 X84.652 Y81.655 E7.99303
G1 X88.005 Y83.100 E8.06056
G1 X90.734 Y85.523 E8.12810
G1 X91.493 Y86.832 E8.15609
G1 X108.699 Y86.832 E8.47440
G1 X109.729 Y85.222 E8.50976
G1 X112.512 Y82.946 E8.57627
G1 X115.865 Y81.649 E8.64278
G1 X119.455 Y81.459 E8.70929
G1 X122.926 Y82.394 E8.77580
G1 X125.934 Y84.363 E8.84231
G1 X128.181 Y87.170 E8.90882
G1 X129.443 Y90.536 E8.97533
G1 X129.596 Y94.128 E9.04184
G1 X128.624 Y97.589 E9.10835
G1 X126.851 Y100.237 E9.16730
G1 X128.593 Y102.887 E9.22597
G1 X129.516 Y106.362 E9.29248
G1 X129.292 Y109.950 E9.35899
G1 X127.945 Y113.283 E9.42550
G1 X125.613 Y116.019 E9.49201
G1 X122.535 Y117.877 E9.55852
G1 X119.027 Y118.666 E9.62503
G1 X115.450 Y118.305 E9.69154
G1 X112.171 Y116.831 E9.75805
G1 X109.527 Y114.395 E9.82457
G1 X108.749 Y112.987 E9.85432
G1 X108.648 Y112.518 F6000.000
G1 X108.610 Y112.526 F6000.000
G1 X106.624 Y110.539 E9.90630 F1200.000
G1 X106.273 Y110.539 E9.91279
G1 X108.260 Y112.526 E9.96477
G1 X107.909 Y112.526 E9.97126
G1 X105.923 Y110.539 E10.02324
G1 X105.572 Y110.539 E10.02972
G1 X107.559 Y112.526 E10.08170
G1 X107.208 Y112.526 E10.08819
G1 X105.221 Y110.539 E10.14017
G1 X104.871 Y110.539 E10.14665
G1 X106.858 Y112.526 E10.19864
G1 X106.507 Y112.526 E10.20512
G1 X104.520 Y110.539 E10.25710
G1 X104.170 Y110.539 E10.26359
G1 X106.156 Y112.526 E10.31557
G1 X105.806 Y112.526 E10.32206
G1 X103.819 Y110.539 E10.37404
G1 X103.468 Y110.539 E10.38052
G1 X105.455 Y112.526 E10.43250
G1 X105.105 Y112.526 E10.43899
G1 X103.118 Y110.539 E10.49097
G1 X102.767 Y110.539 E10.49746
G1 X104.754 Y112.526 E10.54944
G1 X104.403 Y112.526 E10.55593
G1 X102.417 Y110.539 E10.60791
G1 X102.066 Y110.539 E10.61439
G1 X104.053 Y112.526 E10.66638
G1 X103.702 Y112.526 E10.67286
G1 X101.715 Y110.539 E10.72485
G1 X101.365 Y110.539 E10.73133
G1 X103.352 Y112.526 E10.78331
G1 X103.001 Y112.526 E10.78980
G1 X101.014 Y110.539 E10.84178
G1 X100.664 Y110.539 E10.84827
G1 X102.650 Y112.526 E10.90025
G1 X102.300 Y112.526 E10.90674
G1 X100.313 Y110.539 E10.95872
G1 X99.962 Y110.539 E10.96521
G1 X101.949 Y112.526 E11.01719
G1 X101.599 Y112.526 E11.02368
G1 X99.612 Y110.539 E11.07566
G1 X99.261 Y110.539 E11.08215
G1 X101.248 Y112.526 E11.13413
G1 X100.898 Y112.526 E11.14062
G1 X98.911 Y110.539 E11.19260
G1 X98.560 Y110.539 E11.19909
G1 X100.547 Y112.526 E11.25107
G1 X100.196 Y112.526 E11.25756
G1 X98.209 Y110.539 E11.30954
G1 X97.859 Y110.539 E11.31603
G1 X99.846 Y112.526 E11.36802
G1 X99.495 Y112.526 E11.37450
G1 X97.508 Y110.539 E11.42649
G1 X97.158 Y110.539 E11.43297
G1 X99.145 Y112.526 E11.48496
G1 X98.794 Y112.526 E11.49144
G1 X96.807 Y110.539 E11.54343
G1 X96.456 Y110.539 E11.54992
G1 X98.443 Y112.526 E11.60190
G1 X98.093 Y112.526 E11.60839
G1 X96.106 Y110.539 E11.66037
G1 X95.755 Y110.539 E11.66686
G1 X97.742 Y112.526 E11.71885
G1 X97.392 Y112.526 E11.72533
G1 X95.405 Y110.539 E11.77732
G1 X95.054 Y110.539 E11.78381
G1 X97.041 Y112.526 E11.83579
G1 X96.690 Y112.526 E11.84228
G1 X94.703 Y110.539 E11.89427
G1 X94.353 Y110.539 E11.90075
G1 X96.340 Y112.526 E11.95274
G1 X95.989 Y112.526 E11.95922
G1 X94.002 Y110.539 E12.01121
G1 X93.652 Y110.539 E12.01770
G1 X95.639 Y112.526 E12.06969
G1 X95.288 Y112.526 E12.07617
G1 X93.301 Y110.539 E12.12816
G1 X92.950 Y110.539 E12.13465
G1 X94.938 Y112.526 E12.18663
G1 X94.587 Y112.526 E12.19312
G1 X92.600 Y110.539 E12.24511
G1 X92.249 Y110.539 E12.25160
G1 X94.236 Y112.526 E12.30358
G1 X93.886 Y112.526 E12.31007
G1 X91.899 Y110.539 E12.36206
G1 X91.548 Y110.539 E12.36855
G1 X93.535 Y112.526 E12.42053
G1 X93.185 Y112.526 E12.42702
G1 X91.197 Y110.539 E12.47901
G1 X90.847 Y110.539 E12.48550
G1 X92.834 Y112.526 E12.53749
G1 X92.483 Y112.526 E12.54397
G1 X90.496 Y110.539 E12.59596
G1 X90.146 Y110.539 E12.60245
G1 X92.133 Y112.526 E12.65444
G1 X91.782 Y112.526 E12.66092
G1 X89.871 Y110.615 E12.71093
G1 X89.745 Y110.840 E12.71570
G1 X91.432 Y112.526 E12.75982
G1 X91.081 Y112.526 E12.76631
G1 X89.620 Y111.065 E12.80455
G1 X89.494 Y111.290 E12.80931
G1 X90.954 Y112.750 E12.84752
G1 X90.829 Y112.975 E12.85229
G1 X89.368 Y111.515 E12.89050
G1 X89.243 Y111.740 E12.89527
G1 X90.703 Y113.200 E12.93348
G1 X90.578 Y113.425 E12.93825
G1 X89.117 Y111.965 E12.97646
G1 X88.992 Y112.190 E12.98123
G1 X90.452 Y113.650 E13.01944
G1 X90.323 Y113.872 E13.02418
G1 X88.866 Y112.415 E13.06231
G1 X88.734 Y112.634 E13.06704
G1 X90.141 Y114.040 E13.10383
G1 X89.958 Y114.208 E13.10842
G1 X88.552 Y112.802 E13.14522
G1 X88.369 Y112.970 E13.14981
G1 X89.776 Y114.376 E13.18660
G1 X89.593 Y114.544 E13.19119
G1 X88.187 Y113.138 E13.22798
G1 X88.004 Y113.306 E13.23257
G1 X89.410 Y114.712 E13.26937
G1 X89.228 Y114.880 E13.27396
G1 X87.822 Y113.474 E13.31075
G1 X87.639 Y113.642 E13.31534
G1 X89.045 Y115.048 E13.35214
G1 X88.863 Y115.216 E13.35673
G1 X87.456 Y113.810 E13.39352
G1 X87.274 Y113.978 E13.39811
G1 X88.680 Y115.384 E13.43491
G1 X88.498 Y115.552 E13.43950
G1 X87.091 Y114.146 E13.47629
G1 X86.909 Y114.314 E13.48088
G1 X88.315 Y115.720 E13.51768
G1 X88.133 Y115.888 E13.52227
G1 X86.726 Y114.482 E13.55906
G1 X86.486 Y114.592 E13.56396
G1 X87.950 Y116.056 E13.60227
G1 X87.745 Y116.202 E13.60692
G1 X86.244 Y114.701 E13.64619
G1 X86.003 Y114.811 E13.65109
G1 X87.504 Y116.312 E13.69035
G1 X87.263 Y116.421 E13.69525
G1 X85.762 Y114.921 E13.73451
G1 X85.521 Y115.030 E13.73941
G1 X87.022 Y116.531 E13.77868
G1 X86.781 Y116.640 E13.78358
G1 X85.280 Y115.140 E13.82284
G1 X85.039 Y115.249 E13.82774
G1 X86.540 Y116.750 E13.86700
G1 X86.299 Y116.859 E13.87190
G1 X84.798 Y115.359 E13.91117
G1 X84.557 Y115.468 E13.91607
G1 X86.058 Y116.969 E13.95533
G1 X85.817 Y117.079 E13.96023
G1 X84.316 Y115.578 E13.99949
G1 X84.031 Y115.644 E14.00490
G1 X85.576 Y117.188 E14.04531
G1 X85.335 Y117.298 E14.05020
G1 X83.715 Y115.678 E14.09257
G1 X83.399 Y115.713 E14.09845
G1 X85.094 Y117.407 E14.14278
G1 X84.852 Y117.517 E14.14768
G1 X83.083 Y115.747 E14.19397
G1 X82.767 Y115.782 E14.19985
G1 X84.569 Y117.584 E14.24700
G1 X84.253 Y117.618 E14.25288
G1 X82.451 Y115.816 E14.30002
G1 X82.135 Y115.851 E14.30591
G1 X83.937 Y117.653 E14.35305
G1 X83.621 Y117.688 E14.35893
G1 X81.819 Y115.886 E14.40608
G1 X81.503 Y115.920 E14.41196
G1 X83.305 Y117.722 E14.45911
G1 X82.989 Y117.757 E14.46499
G1 X81.070 Y115.838 E14.51520
G1 X80.625 Y115.743 E14.52361
G1 X82.673 Y117.791 E14.57719
G1 X82.357 Y117.826 E14.58307
G1 X80.180 Y115.649 E14.64001
G1 X79.735 Y115.555 E14.64842
G1 X82.041 Y117.860 E14.70874
G1 X81.725 Y117.895 E14.71462
G1 X79.291 Y115.461 E14.77830
G1 X78.846 Y115.367 E14.78671
G1 X81.409 Y117.929 E14.85376
G1 X80.978 Y117.849 E14.86187
G1 X78.070 Y114.941 E14.93795
G1 X77.233 Y114.455 F6000.000
G1 X80.533 Y117.755 E15.02429 F1200.000
G1 X80.088 Y117.661 E15.03270
G1 X71.434 Y109.006 E15.25914
G1 X71.469 Y109.392 E15.26631
G1 X79.644 Y117.567 E15.48018
G1 X79.199 Y117.473 E15.48859
G1 X71.505 Y109.778 E15.68990
G1 X71.714 Y110.338 F6000.000
G1 X78.754 Y117.378 E15.87410 F1200.000
G1 X78.309 Y117.284 E15.88251
G1 X71.983 Y110.957 E16.04804
G1 X72.251 Y111.577 F6000.000
G1 X77.697 Y117.023 E16.19053 F1200.000
G1 X76.861 Y116.537 F6000.000
G1 X72.520 Y112.196 E16.30410 F1200.000
G1 X72.789 Y112.816 F6000.000
G1 X76.025 Y116.051 E16.38875 F1200.000
G1 X75.188 Y115.565 F6000.000
G1 X74.891 Y115.268 E16.39654 F1200.000
G1 F1860.000 E13.39654
G92 E0
G1 X74.465 Y111.687 F6000.000
G1 E3.10000 F1860.000
G1 X71.398 Y108.620 E3.18025 F1200.000
G1 X71.362 Y108.234 E3.18743
G1 X74.197 Y111.068 E3.26158
G1 X73.928 Y110.449 F6000.000
G1 X71.327 Y107.848 E3.32963 F1200.000
G1 X71.291 Y107.461 E3.33681
G1 X73.659 Y109.829 E3.39876
G1 X73.454 Y109.273 F6000.000
