; generated by Slic3r 1.1.7 on 2014-12-12 at 15:26:03

; perimeters extrusion width = 0.42mm
; infill extrusion width = 0.74mm
; solid infill extrusion width = 0.71mm
; top infill extrusion width = 0.71mm
; support material extrusion width = 0.42mm

G21 ; set units to millimeters
M190 S57 ; wait for bed temperature to be reached
M104 S186 ; set temperature
G28 ; home all axes Start of G Code Slic3r
 
M109 S186 ; wait for temperature to be reached
G90 ; use absolute coordinates
G92 E0
M82 ; use absolute distances for extrusion
G1 F1860.000 E-3.00000
G92 E0
G1 Z0.200 F6000.000
G1 X82.271 Y71.965 F6000.000
G1 E3.10000 F1860.000
G1 X82.360 Y71.864 E3.10249 F1200.000
G1 X83.634 Y70.743 E3.13388
G1 X85.096 Y69.764 E3.16643
G1 X86.617 Y69.011 E3.19783
G1 X88.283 Y68.444 E3.23039
G1 X89.947 Y68.110 E3.26178
G1 X91.779 Y67.998 E3.29575
G1 X93.965 Y68.163 E3.33630 F1200.000
G1 X117.731 Y71.785 E3.78106
G1 X119.365 Y72.243 E3.81245
G1 X120.983 Y72.936 E3.84501
G1 X122.442 Y73.802 E3.87640
G1 X123.826 Y74.889 E3.90896
G1 X125.011 Y76.103 E3.94035
G1 X126.066 Y77.512 E3.97291
G1 X126.897 Y78.992 E4.00430
G1 X127.551 Y80.625 E4.03686
G1 X128.089 Y82.829 E4.07883
G1 X131.989 Y106.551 E4.52358
G1 X132.057 Y108.247 E4.55497
G1 X131.899 Y110.000 E4.58753
G1 X131.526 Y111.655 E4.61893
G1 X130.919 Y113.307 E4.65148
G1 X130.131 Y114.810 E4.68288
G1 X129.117 Y116.248 E4.71544
G1 X127.967 Y117.496 E4.74683
G1 X126.615 Y118.623 E4.77939
G1 X124.685 Y119.815 E4.82136
G1 X103.329 Y130.854 E5.26611
G1 X101.738 Y131.444 E5.29750
G1 X100.022 Y131.834 E5.33006
G1 X98.332 Y131.992 E5.36145
G1 X96.574 Y131.925 E5.39401
G1 X94.901 Y131.640 E5.42540
G1 X93.220 Y131.120 E5.45796
G1 X91.678 Y130.411 E5.48935
G1 X90.188 Y129.474 E5.52191
G1 X88.458 Y128.007 E5.56388
G1 X71.359 Y111.108 E6.00864
G1 X70.307 Y109.776 E6.04003
G1 X69.405 Y108.265 E6.07259
G1 X68.734 Y106.707 E6.10398
G1 X68.254 Y105.014 E6.13654
G1 X68.008 Y103.335 E6.16793
G1 X67.983 Y101.575 E6.20049
G1 X68.180 Y99.890 E6.23188
G1 X68.611 Y98.183 E6.26444
G1 X69.472 Y96.084 E6.30641
G1 X80.260 Y74.601 E6.75117
G1 X81.201 Y73.189 E6.78256
G1 X82.230 Y72.013 E6.81146
G1 X82.456 Y72.127 F6000.000
G1 X82.523 Y72.050 E6.81335 F1200.000
G1 X83.798 Y70.929 E6.84475
G1 X85.206 Y69.986 E6.87610
G1 X86.727 Y69.233 E6.90750
G1 X88.332 Y68.686 E6.93886
G1 X89.996 Y68.353 E6.97026
G1 X91.763 Y68.245 E7.00303
G1 X93.929 Y68.407 E7.04319 F1200.000
G1 X117.665 Y72.023 E7.48738
G1 X119.298 Y72.481 E7.51877
G1 X120.857 Y73.148 E7.55014
G1 X122.316 Y74.014 E7.58153
G1 X123.649 Y75.062 E7.61289
G1 X124.835 Y76.276 E7.64429
G1 X125.851 Y77.633 E7.67565
G1 X126.682 Y79.113 E7.70704
G1 X127.312 Y80.687 E7.73841
G1 X127.845 Y82.870 E7.77999
G1 X131.742 Y106.561 E8.22418
G1 X131.810 Y108.257 E8.25557
G1 X131.657 Y109.945 E8.28693
G1 X131.285 Y111.601 E8.31833
G1 X130.700 Y113.192 E8.34969
G1 X129.912 Y114.695 E8.38108
G1 X128.935 Y116.081 E8.41245
G1 X127.785 Y117.328 E8.44384
G1 X126.483 Y118.414 E8.47520
G1 X124.571 Y119.596 E8.51678
G1 X103.243 Y130.623 E8.96097
G1 X101.652 Y131.212 E8.99236
G1 X99.999 Y131.588 E9.02372
G1 X98.309 Y131.746 E9.05512
G1 X96.615 Y131.681 E9.08649
G1 X94.943 Y131.396 E9.11788
G1 X93.323 Y130.895 E9.14924
G1 X91.781 Y130.187 E9.18063
G1 X90.346 Y129.284 E9.21200
G1 X88.631 Y127.831 E9.25358
G1 X71.553 Y110.954 E9.69777
G1 X70.501 Y109.623 E9.72916
G1 X69.632 Y108.167 E9.76052
G1 X68.961 Y106.609 E9.79192
G1 X68.498 Y104.978 E9.82328
G1 X68.253 Y103.299 E9.85467
G1 X68.228 Y101.604 E9.88604
G1 X68.426 Y99.918 E9.91743
G1 X68.841 Y98.275 E9.94879
G1 X69.693 Y96.195 E9.99038
G1 X80.466 Y74.738 E10.43456
G1 X81.407 Y73.326 E10.46595
G1 X82.414 Y72.174 E10.49426
G1 X82.640 Y72.288 F6000.000
G1 X83.961 Y71.115 E10.52694 F1200.000
G1 X85.315 Y70.207 E10.55710
G1 X86.837 Y69.455 E10.58850
G1 X88.380 Y68.928 E10.61867
G1 X90.044 Y68.595 E10.65006
G1 X91.748 Y68.491 E10.68164
G1 X93.892 Y68.652 E10.72142 F1200.000
G1 X117.598 Y72.261 E11.16504
G1 X119.231 Y72.719 E11.19643
G1 X120.731 Y73.361 E11.22660
G1 X122.190 Y74.227 E11.25799
G1 X123.472 Y75.235 E11.28816
G1 X124.658 Y76.449 E11.31955
G1 X125.635 Y77.754 E11.34972
G1 X126.466 Y79.234 E11.38112
G1 X127.072 Y80.748 E11.41129
G1 X127.601 Y82.911 E11.45248
G1 X131.495 Y106.572 E11.89610
G1 X131.563 Y108.267 E11.92749
G1 X131.416 Y109.891 E11.95766
G1 X131.044 Y111.547 E11.98905
G1 X130.481 Y113.077 E12.01922
G1 X129.693 Y114.580 E12.05062
G1 X128.754 Y115.913 E12.08079
G1 X127.603 Y117.161 E12.11218
G1 X126.351 Y118.205 E12.14235
G1 X124.457 Y119.377 E12.18354
G1 X103.157 Y130.391 E12.62716
G1 X101.566 Y130.980 E12.65856
G1 X99.976 Y131.342 E12.68872
G1 X98.286 Y131.499 E12.72012
G1 X96.657 Y131.438 E12.75029
G1 X94.984 Y131.152 E12.78168
G1 X93.426 Y130.671 E12.81185
G1 X91.884 Y129.962 E12.84324
G1 X90.504 Y129.094 E12.87341
G1 X88.804 Y127.655 E12.91461
G1 X71.747 Y110.801 E13.35823
G1 X70.695 Y109.470 E13.38962
G1 X69.859 Y108.069 E13.41979
G1 X69.188 Y106.511 E13.45118
G1 X68.743 Y104.942 E13.48135
G1 X68.497 Y103.263 E13.51274
G1 X68.474 Y101.632 E13.54292
G1 X68.671 Y99.947 E13.57431
G1 X69.071 Y98.366 E13.60448
G1 X69.914 Y96.305 E13.64567
G1 X80.672 Y74.875 E14.08929
G1 X81.613 Y73.463 E14.12068
G1 X82.599 Y72.335 E14.14839
G1 F1860.000 E11.14839
G92 E0
G1 X114.613 Y112.322 F6000.000
G1 E3.10000 F1860.000
G1 X111.932 Y116.012 E3.18438 F1200.000
G1 X111.683 Y116.036 E3.18900
G1 X110.771 Y116.018 E3.20588
G1 X109.874 Y115.967 E3.22250
G1 X108.979 Y115.881 E3.23913
G1 X108.088 Y115.760 E3.25576
G1 X107.203 Y115.605 E3.27239
G1 X106.324 Y115.417 E3.28902
G1 X105.453 Y115.195 E3.30565
G1 X104.591 Y114.940 E3.32228
G1 X103.740 Y114.651 E3.33891
G1 X102.900 Y114.330 E3.35554
G1 X102.073 Y113.978 E3.37217
G1 X99.770 Y112.908 E3.41915
G1 X98.187 Y112.639 E3.44885
G1 X96.589 Y112.787 E3.47855
G1 X95.083 Y113.345 E3.50825
G1 X93.774 Y114.273 E3.53795
G1 X92.749 Y115.509 E3.56765
G1 X92.471 Y116.112 E3.57994
G1 X88.134 Y114.703 E3.66432
G1 X88.034 Y114.474 E3.66894
G1 X87.769 Y113.601 E3.68582
G1 X87.541 Y112.732 E3.70245
G1 X87.346 Y111.854 E3.71907
G1 X87.186 Y110.970 E3.73570
G1 X87.059 Y110.080 E3.75233
G1 X86.967 Y109.186 E3.76896
G1 X86.909 Y108.289 E3.78559
G1 X86.885 Y107.390 E3.80222
G1 X86.896 Y106.491 E3.81885
G1 X86.942 Y105.593 E3.83548
G1 X87.022 Y104.698 E3.85211
G1 X87.327 Y102.177 E3.89909
G1 X87.095 Y100.589 E3.92879
G1 X86.459 Y99.114 E3.95849
G1 X85.464 Y97.855 E3.98819
G1 X84.176 Y96.896 E4.01789
G1 X82.684 Y96.303 E4.04759
G1 X82.025 Y96.226 E4.05988
G1 X82.025 Y91.665 E4.14426
G1 X82.212 Y91.499 E4.14888
G1 X82.960 Y90.978 E4.16576
G1 X83.716 Y90.492 E4.18239
G1 X84.491 Y90.036 E4.19901
G1 X85.282 Y89.610 E4.21564
G1 X86.090 Y89.214 E4.23227
G1 X86.911 Y88.850 E4.24890
G1 X87.747 Y88.518 E4.26553
G1 X88.594 Y88.218 E4.28216
G1 X89.452 Y87.951 E4.29879
G1 X90.320 Y87.717 E4.31542
G1 X91.196 Y87.516 E4.33205
G1 X93.688 Y87.027 E4.37903
G1 X95.127 Y86.315 E4.40873
G1 X96.333 Y85.255 E4.43843
G1 X97.223 Y83.919 E4.46813
G1 X97.737 Y82.398 E4.49783
G1 X97.840 Y80.796 E4.52753
G1 X97.710 Y80.145 E4.53982
G1 X102.047 Y78.736 E4.62420
G1 X102.263 Y78.863 E4.62882
G1 X102.990 Y79.413 E4.64570
G1 X103.686 Y79.982 E4.66233
G1 X104.359 Y80.578 E4.67895
G1 X105.041 Y81.232 E4.69644
G1 X105.634 Y81.844 E4.71221
G1 X106.235 Y82.513 E4.72884
G1 X106.809 Y83.205 E4.74547
G1 X107.356 Y83.918 E4.76210
G1 X107.875 Y84.652 E4.77873
G1 X108.366 Y85.405 E4.79536
G1 X108.827 Y86.176 E4.81199
G1 X110.062 Y88.395 E4.85897
G1 X111.184 Y89.544 E4.88867
G1 X112.565 Y90.363 E4.91837
G1 X114.110 Y90.797 E4.94807
G1 X115.716 Y90.816 E4.97777
G1 X117.271 Y90.419 E5.00747
G1 X117.850 Y90.093 E5.01976
G1 X120.531 Y93.783 E5.10414
G1 X120.477 Y94.027 E5.10876
G1 X120.178 Y94.889 E5.12564
G1 X119.852 Y95.726 E5.14226
G1 X119.493 Y96.551 E5.15889
G1 X119.104 Y97.361 E5.17552
G1 X118.683 Y98.155 E5.19215
G1 X118.232 Y98.933 E5.20878
G1 X117.752 Y99.692 E5.22541
G1 X117.243 Y100.433 E5.24204
G1 X116.705 Y101.154 E5.25867
G1 X116.141 Y101.853 E5.27530
G1 X115.550 Y102.531 E5.29193
G1 X113.821 Y104.391 E5.33891
G1 X113.075 Y105.812 E5.36861
G1 X112.723 Y107.379 E5.39831
G1 X112.788 Y108.983 E5.42801
G1 X113.266 Y110.515 E5.45771
G1 X114.125 Y111.872 E5.48741
G1 X114.567 Y112.280 E5.49853
G1 X114.284 Y112.355 F6000.000
G1 X111.798 Y115.777 E5.57678 F1200.000
G1 X111.674 Y115.788 E5.57908
G1 X110.781 Y115.771 E5.59560
G1 X109.893 Y115.720 E5.61206
G1 X109.008 Y115.635 E5.62851
G1 X108.126 Y115.516 E5.64496
G1 X107.250 Y115.363 E5.66142
G1 X106.380 Y115.176 E5.67787
G1 X105.519 Y114.957 E5.69433
G1 X104.666 Y114.704 E5.71078
G1 X103.824 Y114.419 E5.72723
G1 X102.993 Y114.101 E5.74369
G1 X102.175 Y113.752 E5.76014
G1 X99.844 Y112.670 E5.80768
G1 X98.197 Y112.389 E5.83859
G1 X96.534 Y112.544 E5.86949
G1 X94.967 Y113.125 E5.90040
G1 X93.604 Y114.090 E5.93130
G1 X92.538 Y115.376 E5.96221
G1 X92.338 Y115.809 E5.97103
G1 X88.316 Y114.502 E6.04927
G1 X88.007 Y113.534 E6.06809
G1 X87.781 Y112.673 E6.08454
G1 X87.589 Y111.805 E6.10099
G1 X87.430 Y110.930 E6.11745
G1 X87.304 Y110.050 E6.13390
G1 X87.213 Y109.165 E6.15035
G1 X87.156 Y108.277 E6.16681
G1 X87.133 Y107.388 E6.18326
G1 X87.144 Y106.499 E6.19972
G1 X87.189 Y105.611 E6.21617
G1 X87.268 Y104.725 E6.23262
G1 X87.577 Y102.174 E6.28017
G1 X87.335 Y100.521 E6.31107
G1 X86.673 Y98.987 E6.34198
G1 X85.638 Y97.676 E6.37288
G1 X84.298 Y96.678 E6.40379
G1 X82.745 Y96.061 E6.43469
G1 X82.272 Y96.006 E6.44351
G1 X82.272 Y91.776 E6.52176
G1 X83.098 Y91.183 E6.54057
G1 X83.846 Y90.703 E6.55702
G1 X84.612 Y90.251 E6.57348
G1 X85.395 Y89.830 E6.58993
G1 X86.194 Y89.438 E6.60638
G1 X87.007 Y89.078 E6.62284
G1 X87.834 Y88.749 E6.63929
G1 X88.672 Y88.452 E6.65574
G1 X89.521 Y88.188 E6.67220
G1 X90.380 Y87.957 E6.68865
G1 X91.247 Y87.758 E6.70510
G1 X93.769 Y87.263 E6.75265
G1 X95.266 Y86.523 E6.78355
G1 X96.521 Y85.419 E6.81446
G1 X97.447 Y84.029 E6.84536
G1 X97.982 Y82.447 E6.87627
G1 X98.089 Y80.780 E6.90717
G1 X97.995 Y80.312 E6.91599
G1 X102.018 Y79.005 E6.99424
G1 X102.837 Y79.607 E7.01305
G1 X103.525 Y80.171 E7.02950
G1 X104.192 Y80.760 E7.04596
G1 X104.835 Y81.374 E7.06241
G1 X105.453 Y82.013 E7.07887
G1 X106.047 Y82.675 E7.09532
G1 X106.615 Y83.359 E7.11177
G1 X107.157 Y84.065 E7.12823
G1 X107.671 Y84.791 E7.14468
G1 X108.156 Y85.536 E7.16113
G1 X108.613 Y86.299 E7.17759
G1 X109.863 Y88.545 E7.22513
G1 X111.030 Y89.740 E7.25604
G1 X112.467 Y90.592 E7.28694
G1 X114.075 Y91.044 E7.31785
G1 X115.745 Y91.063 E7.34875
G1 X117.364 Y90.650 E7.37966
G1 X117.780 Y90.417 E7.38848
G1 X120.266 Y93.838 E7.46672
G1 X119.946 Y94.804 E7.48553
G1 X119.623 Y95.632 E7.50199
G1 X119.269 Y96.448 E7.51844
G1 X118.883 Y97.249 E7.53489
G1 X118.467 Y98.035 E7.55135
G1 X118.021 Y98.805 E7.56780
G1 X117.545 Y99.556 E7.58426
G1 X117.042 Y100.289 E7.60071
G1 X116.510 Y101.002 E7.61716
G1 X115.951 Y101.694 E7.63362
G1 X115.367 Y102.364 E7.65007
G1 X113.617 Y104.247 E7.69761
G1 X112.841 Y105.726 E7.72852
G1 X112.475 Y107.356 E7.75942
G1 X112.542 Y109.025 E7.79033
G1 X113.040 Y110.620 E7.82123
G1 X113.933 Y112.032 E7.85214
G1 X114.237 Y112.312 E7.85979
G1 X114.614 Y112.615 F6000.000
G1 X114.839 Y112.531 F6000.000
G1 X112.156 Y116.224 E7.94424 F1200.000
G1 X112.121 Y116.431 E7.94812
G1 X112.087 Y116.506 E7.94965
G1 X112.034 Y116.569 E7.95117
G1 X111.899 Y116.642 E7.95402
G1 X110.073 Y116.689 E7.98781
G1 X108.196 Y116.644 E8.02255
G1 X106.323 Y116.505 E8.05730
G1 X104.459 Y116.273 E8.09204
G1 X102.610 Y115.949 E8.12678
G1 X100.840 Y115.547 E8.16034
G1 X100.011 Y114.951 E8.17925
G1 X98.949 Y114.549 E8.20026
G1 X97.819 Y114.436 E8.22127
G1 X96.698 Y114.619 E8.24228
G1 X95.663 Y115.086 E8.26329
G1 X94.784 Y115.805 E8.28429
G1 X94.121 Y116.727 E8.30530
G1 X93.719 Y117.789 E8.32631
G1 X93.606 Y118.919 E8.34732
G1 X93.789 Y120.040 E8.36833
G1 X94.256 Y121.075 E8.38934
G1 X94.975 Y121.954 E8.41035
G1 X95.897 Y122.617 E8.43136
G1 X96.959 Y123.019 E8.45237
G1 X98.089 Y123.132 E8.47338
G1 X99.210 Y122.949 E8.49439
G1 X100.245 Y122.482 E8.51540
G1 X101.124 Y121.763 E8.53641
G1 X101.787 Y120.841 E8.55742
G1 X102.189 Y119.779 E8.57843
G1 X102.302 Y118.649 E8.59944
G1 X102.119 Y117.528 E8.62045
G1 X101.934 Y117.118 E8.62876
G1 X103.951 Y117.431 E8.66652
G1 X104.099 Y119.017 E8.69600
G1 X103.829 Y120.600 E8.72570
G1 X103.159 Y122.059 E8.75540
G1 X102.134 Y123.294 E8.78510
G1 X100.849 Y124.205 E8.81423
G1 X99.319 Y124.780 E8.84448
G1 X97.720 Y124.929 E8.87418
G1 X96.138 Y124.659 E8.90388
G1 X94.679 Y123.989 E8.93358
G1 X93.443 Y122.964 E8.96328
G1 X92.515 Y121.654 E8.99298
G1 X91.957 Y120.149 E9.02268
G1 X91.808 Y118.550 E9.05238
G1 X92.078 Y116.968 E9.08208
G1 X92.343 Y116.392 E9.09381
G1 X88.002 Y114.981 E9.17825
G1 X87.794 Y115.012 E9.18213
G1 X87.712 Y115.003 E9.18366
G1 X87.635 Y114.972 E9.18519
G1 X87.524 Y114.866 E9.18803
G1 X86.915 Y113.144 E9.22182
G1 X86.378 Y111.345 E9.25657
G1 X85.931 Y109.521 E9.29131
G1 X85.742 Y108.601 E9.30868
G1 X85.433 Y106.749 E9.34342
G1 X85.313 Y105.817 E9.36079
G1 X85.148 Y104.011 E9.39436
G1 X85.459 Y103.037 E9.41326
G1 X85.513 Y101.903 E9.43427
G1 X85.272 Y100.793 E9.45528
G1 X84.751 Y99.784 E9.47629
G1 X83.987 Y98.944 E9.49730
G1 X83.032 Y98.330 E9.51831
G1 X81.950 Y97.984 E9.53932
G1 X80.815 Y97.930 E9.56033
G1 X79.706 Y98.172 E9.58134
G1 X78.696 Y98.693 E9.60235
G1 X77.856 Y99.457 E9.62336
G1 X77.242 Y100.412 E9.64437
G1 X76.897 Y101.494 E9.66537
G1 X76.843 Y102.628 E9.68638
G1 X77.065 Y103.647 E9.70568
G1 X77.085 Y103.738 E9.70739
G1 X77.605 Y104.747 E9.72840
G1 X78.369 Y105.587 E9.74941
G1 X79.325 Y106.201 E9.77042
G1 X80.318 Y106.518 E9.78972
G1 X80.406 Y106.547 E9.79143
G1 X81.541 Y106.601 E9.81244
G1 X82.650 Y106.359 E9.83345
G1 X83.660 Y105.838 E9.85446
G1 X83.992 Y105.536 E9.86277
G1 X84.318 Y107.551 E9.90054
G1 X82.855 Y108.182 E9.93001
G1 X81.266 Y108.415 E9.95971
G1 X79.672 Y108.228 E9.98941
G1 X78.180 Y107.635 E10.01911
G1 X76.892 Y106.676 E10.04881
G1 X75.897 Y105.417 E10.07851
G1 X75.261 Y103.942 E10.10821
G1 X75.033 Y102.384 E10.13735
G1 X75.216 Y100.759 E10.16760
G1 X75.809 Y99.267 E10.19730
G1 X76.749 Y98.004 E10.22643
G1 X78.027 Y96.984 E10.25668
G1 X79.501 Y96.349 E10.28638
G1 X81.090 Y96.116 E10.31608
G1 X81.719 Y96.190 E10.32780
G1 X81.719 Y91.625 E10.41225
G1 X81.626 Y91.437 E10.41613
G1 X81.609 Y91.357 E10.41766
G1 X81.615 Y91.274 E10.41918
G1 X81.681 Y91.136 E10.42203
G1 X83.131 Y90.025 E10.45582
G1 X84.676 Y88.958 E10.49056
G1 X86.273 Y87.969 E10.52530
G1 X87.089 Y87.505 E10.54268
G1 X88.755 Y86.638 E10.57742
G1 X89.604 Y86.237 E10.59479
G1 X91.271 Y85.522 E10.62835
G1 X92.293 Y85.516 E10.64726
G1 X93.389 Y85.217 E10.66827
G1 X94.369 Y84.645 E10.68928
G1 X95.168 Y83.838 E10.71029
G1 X95.731 Y82.851 E10.73129
G1 X96.020 Y81.753 E10.75230
G1 X96.014 Y80.617 E10.77331
G1 X95.715 Y79.522 E10.79432
G1 X95.189 Y78.621 E10.81362
G1 X95.142 Y78.541 E10.81533
G1 X94.335 Y77.742 E10.83634
G1 X93.349 Y77.179 E10.85735
G1 X92.251 Y76.891 E10.87836
G1 X91.115 Y76.896 E10.89937
G1 X90.020 Y77.196 E10.92038
G1 X89.039 Y77.768 E10.94139
G1 X88.240 Y78.575 E10.96240
G1 X87.677 Y79.561 E10.98341
G1 X87.388 Y80.660 E11.00442
G1 X87.394 Y81.795 E11.02543
G1 X87.693 Y82.891 E11.04644
G1 X88.266 Y83.872 E11.06745
G1 X89.354 Y84.949 E11.09578
G1 X87.647 Y85.826 E11.13128
G1 X86.595 Y84.630 E11.16076
G1 X85.883 Y83.191 E11.19046
G1 X85.568 Y81.616 E11.22016
G1 X85.671 Y80.014 E11.24986
G1 X86.185 Y78.493 E11.27956
G1 X87.075 Y77.157 E11.30926
G1 X88.281 Y76.097 E11.33896
G1 X89.720 Y75.385 E11.36866
G1 X91.325 Y75.072 E11.39891
G1 X92.896 Y75.173 E11.42804
G1 X94.417 Y75.687 E11.45774
G1 X95.753 Y76.578 E11.48744
G1 X96.813 Y77.783 E11.51715
G1 X97.525 Y79.222 E11.54685
G1 X97.649 Y79.843 E11.55857
G1 X101.991 Y78.433 E11.64301
G1 X102.140 Y78.286 E11.64689
G1 X102.212 Y78.245 E11.64842
G1 X102.292 Y78.225 E11.64995
G1 X102.445 Y78.245 E11.65279
G1 X103.949 Y79.281 E11.68658
G1 X105.442 Y80.421 E11.72133
G1 X106.875 Y81.634 E11.75607
G1 X108.247 Y82.917 E11.79081
G1 X109.552 Y84.267 E11.82555
G1 X110.747 Y85.631 E11.85912
G1 X111.068 Y86.602 E11.87802
G1 X111.691 Y87.551 E11.89903
